(G-CODE GENERATED BY FLATCAM v8.994 - www.flatcam.org - Version Date: 2020/11/7)

(Name: ADCandDAC-F_Cu.gbr_0.1268_iso_cnc)
(Type: G-code from Geometry)
(Units: MM)

(Created on Аўторак, 24 лістапада 2020 at 11:57)

(This preprocessor is the default preprocessor used by FlatCAM.)
(It is made to work with MACH3 compatible motion controllers.)

(TOOL DIAMETER: 0.1268 mm)
(Feedrate_XY: 35.0 mm/min)
(Feedrate_Z: 40.0 mm/min)
(Feedrate rapids 1500.0 mm/min)

(Z_Cut: -0.05 mm)
(Z_Move: 2.0 mm)
(Z Start: None mm)
(Z End: 10.0 mm)
(X,Y End: None mm)
(Steps per circle: 64)
(Preprocessor Geometry: default)

(X range:    3.0542 ...   58.4286  mm)
(Y range:    2.3125 ...   30.5978  mm)

(Spindle Speed: 10000.0 RPM)
G21
G90
G94

G01 F35.00

M5
G00 Z15.0000
G00 X0.0000 Y0.0000
T3
M6    
(MSG, Change to Tool Dia = 0.1268)
M0
G00 Z15.0000

M03 S10000.0
G01 F35.00
G00 X4.0285 Y4.9408
G01 F40.00
G01 Z-0.0500
G01 F35.00
G01 X5.6825 Y3.2869
G01 X13.9909 Y3.2868
G01 X13.9797 Y3.3060
G01 X13.9657 Y3.3354
G01 X13.9536 Y3.3690
G01 X13.9444 Y3.4051
G01 X13.9391 Y3.4419
G01 X13.9375 Y3.4760
G01 X13.9375 Y3.9512
G01 X13.9187 Y3.9523
G01 X13.8883 Y3.9569
G01 X13.8600 Y3.9641
G01 X13.8325 Y3.9739
G01 X13.8033 Y3.9876
G01 X13.7795 Y4.0018
G01 X13.7743 Y4.0052
G01 X13.7510 Y4.0227
G01 X13.7294 Y4.0424
G01 X13.7087 Y4.0652
G01 X13.6904 Y4.0899
G01 X13.6761 Y4.1136
G01 X13.6732 Y4.1190
G01 X13.6603 Y4.1470
G01 X13.6511 Y4.1730
G01 X13.6436 Y4.2029
G01 X13.6391 Y4.2333
G01 X13.6376 Y4.2640
G01 X13.6376 Y5.1640
G01 X13.6391 Y5.1947
G01 X13.6436 Y5.2251
G01 X13.6511 Y5.2550
G01 X13.6603 Y5.2810
G01 X13.6627 Y5.2868
G01 X13.6746 Y5.3117
G01 X13.6888 Y5.3355
G01 X13.7068 Y5.3604
G01 X13.7108 Y5.3652
G01 X13.7294 Y5.3856
G01 X13.7498 Y5.4042
G01 X13.7546 Y5.4082
G01 X13.7769 Y5.4246
G01 X13.8033 Y5.4404
G01 X13.8311 Y5.4535
G01 X13.8600 Y5.4639
G01 X13.8899 Y5.4714
G01 X13.9203 Y5.4759
G01 X13.9494 Y5.4774
G01 X13.9909 Y5.4774
G01 X13.9910 Y6.3398
G01 X13.9832 Y6.3405
G01 X13.9528 Y6.3453
G01 X13.9260 Y6.3521
G01 X13.9000 Y6.3613
G01 X13.8942 Y6.3637
G01 X13.8693 Y6.3756
G01 X13.8429 Y6.3914
G01 X13.8182 Y6.4097
G01 X13.7954 Y6.4304
G01 X13.7747 Y6.4532
G01 X13.7582 Y6.4753
G01 X13.7421 Y6.5016
G01 X13.7392 Y6.5070
G01 X13.7275 Y6.5321
G01 X13.7171 Y6.5610
G01 X13.7096 Y6.5909
G01 X13.7053 Y6.6197
G01 X13.7036 Y6.6520
G01 X13.7036 Y7.6020
G01 X13.7051 Y7.6327
G01 X13.7096 Y7.6631
G01 X13.7171 Y7.6930
G01 X13.7275 Y7.7219
G01 X13.7406 Y7.7497
G01 X13.7564 Y7.7761
G01 X13.7747 Y7.8008
G01 X13.7932 Y7.8214
G01 X13.7976 Y7.8258
G01 X13.8182 Y7.8443
G01 X13.8429 Y7.8626
G01 X13.8693 Y7.8784
G01 X13.8942 Y7.8903
G01 X13.9000 Y7.8927
G01 X13.9260 Y7.9019
G01 X13.9528 Y7.9087
G01 X13.9832 Y7.9135
G01 X13.9909 Y7.9142
G01 X13.9910 Y8.2249
G01 X13.2969 Y8.9189
G01 X13.2730 Y8.9454
G01 X13.2509 Y8.9753
G01 X13.2349 Y9.0019
G01 X13.2320 Y9.0074
G01 X13.2181 Y9.0369
G01 X13.2071 Y9.0675
G01 X13.2053 Y9.0735
G01 X13.1974 Y9.1051
G01 X13.1924 Y9.1388
G01 X13.1905 Y9.1760
G01 X13.1905 Y9.5186
G01 X12.7290 Y9.5186
G01 X12.7065 Y9.5198
G01 X12.6874 Y9.5227
G01 X12.6671 Y9.5278
G01 X12.6473 Y9.5348
G01 X12.6284 Y9.5438
G01 X12.6104 Y9.5546
G01 X12.5936 Y9.5670
G01 X12.5781 Y9.5811
G01 X12.5640 Y9.5966
G01 X12.5499 Y9.6161
G01 X12.5408 Y9.6314
G01 X12.5318 Y9.6503
G01 X12.5248 Y9.6701
G01 X12.5204 Y9.6873
G01 X12.5166 Y9.7111
G01 X12.5156 Y9.7320
G01 X12.5156 Y10.0320
G01 X12.5164 Y10.0498
G01 X12.5194 Y10.0721
G01 X12.5240 Y10.0909
G01 X12.5307 Y10.1108
G01 X12.5331 Y10.1165
G01 X12.5408 Y10.1326
G01 X12.5516 Y10.1506
G01 X12.5640 Y10.1674
G01 X12.5781 Y10.1829
G01 X12.5936 Y10.1970
G01 X12.6104 Y10.2094
G01 X12.6284 Y10.2202
G01 X12.6445 Y10.2279
G01 X12.6502 Y10.2303
G01 X12.6701 Y10.2370
G01 X12.6874 Y10.2413
G01 X12.7081 Y10.2444
G01 X12.7290 Y10.2454
G01 X14.3806 Y10.2454
G01 X14.3999 Y10.2444
G01 X14.4176 Y10.2418
G01 X14.4379 Y10.2370
G01 X14.4439 Y10.2352
G01 X14.4607 Y10.2292
G01 X14.4796 Y10.2202
G01 X14.4976 Y10.2094
G01 X14.5119 Y10.1989
G01 X14.5276 Y10.1850
G01 X14.5320 Y10.1806
G01 X14.5440 Y10.1674
G01 X14.5564 Y10.1506
G01 X14.5672 Y10.1326
G01 X14.5749 Y10.1165
G01 X14.5832 Y10.0939
G01 X14.5888 Y10.0706
G01 X14.5914 Y10.0529
G01 X14.5924 Y10.0336
G01 X14.5924 Y9.7304
G01 X14.5914 Y9.7111
G01 X14.5876 Y9.6873
G01 X14.5832 Y9.6701
G01 X14.5773 Y9.6532
G01 X14.5679 Y9.6328
G01 X14.5564 Y9.6134
G01 X14.5419 Y9.5943
G01 X14.5276 Y9.5790
G01 X14.5144 Y9.5670
G01 X14.5001 Y9.5564
G01 X14.4796 Y9.5438
G01 X14.4607 Y9.5348
G01 X14.4409 Y9.5278
G01 X14.4191 Y9.5224
G01 X14.3999 Y9.5196
G01 X14.3790 Y9.5186
G01 X13.9176 Y9.5186
G01 X13.9175 Y9.3266
G01 X14.6116 Y8.6326
G01 X14.6355 Y8.6061
G01 X14.6576 Y8.5762
G01 X14.6736 Y8.5496
G01 X14.6765 Y8.5441
G01 X14.6904 Y8.5146
G01 X14.7014 Y8.4840
G01 X14.7032 Y8.4780
G01 X14.7111 Y8.4464
G01 X14.7163 Y8.4111
G01 X14.7180 Y8.3755
G01 X14.7180 Y7.9142
G01 X14.7258 Y7.9135
G01 X14.7562 Y7.9087
G01 X14.7830 Y7.9019
G01 X14.8119 Y7.8915
G01 X14.8397 Y7.8784
G01 X14.8635 Y7.8642
G01 X14.8687 Y7.8608
G01 X14.8932 Y7.8422
G01 X14.9136 Y7.8236
G01 X14.9343 Y7.8008
G01 X14.9526 Y7.7761
G01 X14.9669 Y7.7524
G01 X14.9698 Y7.7470
G01 X14.9827 Y7.7190
G01 X14.9919 Y7.6930
G01 X14.9987 Y7.6662
G01 X14.9999 Y7.6601
G01 X15.0039 Y7.6327
G01 X15.0054 Y7.6020
G01 X15.0054 Y6.6520
G01 X15.0039 Y6.6213
G01 X14.9991 Y6.5893
G01 X14.9919 Y6.5610
G01 X14.9827 Y6.5350
G01 X14.9803 Y6.5292
G01 X14.9669 Y6.5016
G01 X14.9526 Y6.4779
G01 X14.9343 Y6.4532
G01 X14.9136 Y6.4304
G01 X14.8932 Y6.4118
G01 X14.8687 Y6.3932
G01 X14.8635 Y6.3898
G01 X14.8397 Y6.3756
G01 X14.8119 Y6.3625
G01 X14.7830 Y6.3521
G01 X14.7562 Y6.3453
G01 X14.7258 Y6.3405
G01 X14.7181 Y6.3398
G01 X14.7180 Y5.4700
G01 X14.7420 Y5.4639
G01 X14.7709 Y5.4535
G01 X14.7987 Y5.4404
G01 X14.8225 Y5.4262
G01 X14.8474 Y5.4082
G01 X14.8522 Y5.4042
G01 X14.8726 Y5.3856
G01 X14.8933 Y5.3628
G01 X14.9116 Y5.3381
G01 X14.9259 Y5.3144
G01 X14.9288 Y5.3090
G01 X14.9417 Y5.2810
G01 X14.9509 Y5.2550
G01 X14.9584 Y5.2251
G01 X14.9629 Y5.1947
G01 X14.9643 Y5.1671
G01 X14.9644 Y4.2640
G01 X14.9629 Y4.2333
G01 X14.9589 Y4.2059
G01 X14.9577 Y4.1998
G01 X14.9509 Y4.1730
G01 X14.9405 Y4.1441
G01 X14.9274 Y4.1163
G01 X14.9132 Y4.0925
G01 X14.9098 Y4.0873
G01 X14.8912 Y4.0628
G01 X14.8726 Y4.0424
G01 X14.8510 Y4.0227
G01 X14.8277 Y4.0052
G01 X14.8225 Y4.0018
G01 X14.7987 Y3.9876
G01 X14.7695 Y3.9739
G01 X14.7420 Y3.9641
G01 X14.7137 Y3.9569
G01 X14.6833 Y3.9523
G01 X14.6646 Y3.9512
G01 X14.6645 Y3.4851
G01 X14.7733 Y3.3763
G01 X14.7897 Y3.3584
G01 X14.8061 Y3.3364
G01 X14.8179 Y3.3169
G01 X14.8292 Y3.2937
G01 X14.8319 Y3.2869
G01 X54.1620 Y3.2868
G01 X57.4542 Y6.5791
G01 X57.4543 Y9.0875
G01 X56.5629 Y9.0876
G01 X56.5629 Y9.0245
G01 X56.5612 Y8.9938
G01 X56.5569 Y8.9650
G01 X56.5502 Y8.9381
G01 X56.5484 Y8.9322
G01 X56.5384 Y8.9047
G01 X56.5259 Y8.8784
G01 X56.5117 Y8.8546
G01 X56.5083 Y8.8494
G01 X56.4918 Y8.8273
G01 X56.4711 Y8.8045
G01 X56.4507 Y8.7859
G01 X56.4459 Y8.7819
G01 X56.4223 Y8.7647
G01 X56.3999 Y8.7512
G01 X56.3945 Y8.7483
G01 X56.3694 Y8.7366
G01 X56.3434 Y8.7272
G01 X56.3375 Y8.7254
G01 X56.3106 Y8.7187
G01 X56.2818 Y8.7144
G01 X56.2495 Y8.7127
G01 X55.9755 Y8.7127
G01 X55.9755 Y8.2216
G01 X55.9745 Y8.1989
G01 X55.9739 Y8.1927
G01 X55.9704 Y8.1702
G01 X55.9642 Y8.1451
G01 X55.9554 Y8.1208
G01 X55.9436 Y8.0960
G01 X55.9311 Y8.0752
G01 X55.9176 Y8.0569
G01 X55.9137 Y8.0521
G01 X55.8983 Y8.0353
G01 X55.1607 Y7.2976
G01 X55.1817 Y7.2923
G01 X55.2106 Y7.2819
G01 X55.2384 Y7.2688
G01 X55.2622 Y7.2546
G01 X55.2871 Y7.2366
G01 X55.2919 Y7.2326
G01 X55.3123 Y7.2140
G01 X55.3309 Y7.1936
G01 X55.3495 Y7.1691
G01 X55.3529 Y7.1639
G01 X55.3671 Y7.1401
G01 X55.3802 Y7.1123
G01 X55.3896 Y7.0863
G01 X55.3914 Y7.0804
G01 X55.3981 Y7.0535
G01 X55.4024 Y7.0247
G01 X55.4041 Y6.9924
G01 X55.4041 Y6.0424
G01 X55.4028 Y6.0148
G01 X55.3986 Y5.9843
G01 X55.3974 Y5.9782
G01 X55.3906 Y5.9514
G01 X55.3802 Y5.9225
G01 X55.3685 Y5.8974
G01 X55.3656 Y5.8920
G01 X55.3513 Y5.8683
G01 X55.3339 Y5.8448
G01 X55.3123 Y5.8208
G01 X55.2895 Y5.8001
G01 X55.2648 Y5.7818
G01 X55.2384 Y5.7660
G01 X55.2106 Y5.7529
G01 X55.1817 Y5.7425
G01 X55.1518 Y5.7350
G01 X55.1230 Y5.7307
G01 X55.0907 Y5.7290
G01 X54.4157 Y5.7290
G01 X54.3834 Y5.7307
G01 X54.3546 Y5.7350
G01 X54.3277 Y5.7417
G01 X54.3218 Y5.7435
G01 X54.2929 Y5.7541
G01 X54.2680 Y5.7660
G01 X54.2416 Y5.7818
G01 X54.2169 Y5.8001
G01 X54.1963 Y5.8186
G01 X54.1919 Y5.8230
G01 X54.1715 Y5.8460
G01 X54.1551 Y5.8683
G01 X54.1393 Y5.8947
G01 X54.1262 Y5.9225
G01 X54.1168 Y5.9485
G01 X54.1150 Y5.9544
G01 X54.1080 Y5.9828
G01 X54.1038 Y6.0117
G01 X54.1023 Y6.0424
G01 X54.1023 Y6.9940
G01 X54.1036 Y7.0200
G01 X54.1042 Y7.0262
G01 X54.1083 Y7.0535
G01 X54.1150 Y7.0804
G01 X54.1168 Y7.0863
G01 X54.1262 Y7.1123
G01 X54.1401 Y7.1415
G01 X54.1551 Y7.1665
G01 X54.1715 Y7.1888
G01 X54.1755 Y7.1936
G01 X54.1963 Y7.2162
G01 X54.2169 Y7.2347
G01 X54.2416 Y7.2530
G01 X54.2680 Y7.2688
G01 X54.2929 Y7.2807
G01 X54.3218 Y7.2913
G01 X54.3277 Y7.2931
G01 X54.3546 Y7.2998
G01 X54.3834 Y7.3041
G01 X54.4141 Y7.3058
G01 X54.4934 Y7.3058
G01 X54.4951 Y7.3157
G01 X54.5015 Y7.3408
G01 X54.5098 Y7.3636
G01 X54.5201 Y7.3856
G01 X54.5324 Y7.4066
G01 X54.5359 Y7.4117
G01 X54.5495 Y7.4300
G01 X54.5658 Y7.4480
G01 X55.4485 Y8.3307
G01 X55.4485 Y8.7127
G01 X55.1745 Y8.7127
G01 X55.1469 Y8.7140
G01 X55.1164 Y8.7182
G01 X55.1103 Y8.7194
G01 X55.0835 Y8.7262
G01 X55.0560 Y8.7360
G01 X55.0268 Y8.7497
G01 X55.0004 Y8.7655
G01 X54.9757 Y8.7838
G01 X54.9551 Y8.8023
G01 X54.9507 Y8.8067
G01 X54.9322 Y8.8273
G01 X54.9157 Y8.8494
G01 X54.8996 Y8.8757
G01 X54.8967 Y8.8811
G01 X54.8850 Y8.9062
G01 X54.8746 Y8.9351
G01 X54.8678 Y8.9619
G01 X54.8666 Y8.9680
G01 X54.8626 Y8.9954
G01 X54.8611 Y9.0245
G01 X54.8611 Y9.8761
G01 X54.8624 Y9.9037
G01 X54.8666 Y9.9342
G01 X54.8678 Y9.9403
G01 X54.8746 Y9.9671
G01 X54.8850 Y9.9960
G01 X54.8981 Y10.0238
G01 X54.9123 Y10.0476
G01 X54.9157 Y10.0528
G01 X54.9332 Y10.0761
G01 X54.9529 Y10.0977
G01 X54.9757 Y10.1184
G01 X55.0004 Y10.1367
G01 X55.0268 Y10.1525
G01 X55.0546 Y10.1656
G01 X55.0835 Y10.1760
G01 X55.1134 Y10.1835
G01 X55.1453 Y10.1881
G01 X55.1745 Y10.1895
G01 X56.2495 Y10.1895
G01 X56.2802 Y10.1880
G01 X56.3106 Y10.1835
G01 X56.3405 Y10.1760
G01 X56.3694 Y10.1656
G01 X56.3972 Y10.1525
G01 X56.4236 Y10.1367
G01 X56.4483 Y10.1184
G01 X56.4711 Y10.0977
G01 X56.4897 Y10.0773
G01 X56.4937 Y10.0725
G01 X56.5101 Y10.0502
G01 X56.5259 Y10.0238
G01 X56.5390 Y9.9960
G01 X56.5498 Y9.9656
G01 X56.5569 Y9.9372
G01 X56.5614 Y9.9068
G01 X56.5629 Y9.8777
G01 X56.5629 Y9.8147
G01 X57.4542 Y9.8146
G01 X57.4543 Y16.0217
G01 X51.7454 Y16.0218
G01 X51.0313 Y15.3076
G01 X51.0312 Y14.4422
G01 X51.0297 Y14.4097
G01 X51.0291 Y14.4035
G01 X51.0243 Y14.3713
G01 X51.0164 Y14.3397
G01 X51.0146 Y14.3337
G01 X51.0036 Y14.3031
G01 X50.9897 Y14.2736
G01 X50.9868 Y14.2681
G01 X50.9700 Y14.2402
G01 X50.9487 Y14.2116
G01 X50.9248 Y14.1851
G01 X49.7056 Y12.9659
G01 X49.6815 Y12.9440
G01 X49.6767 Y12.9401
G01 X49.6505 Y12.9207
G01 X49.6199 Y12.9024
G01 X49.5905 Y12.8884
G01 X49.5847 Y12.8860
G01 X49.5540 Y12.8751
G01 X49.5225 Y12.8671
G01 X49.5164 Y12.8659
G01 X49.4841 Y12.8612
G01 X49.4485 Y12.8595
G01 X46.0804 Y12.8596
G01 X46.0580 Y12.8610
G01 X46.0404 Y12.8637
G01 X46.0231 Y12.8680
G01 X46.0003 Y12.8758
G01 X45.9814 Y12.8848
G01 X45.9609 Y12.8974
G01 X45.9466 Y12.9080
G01 X45.9334 Y12.9200
G01 X45.9170 Y12.9376
G01 X45.9029 Y12.9571
G01 X45.8924 Y12.9752
G01 X45.8848 Y12.9913
G01 X45.8788 Y13.0081
G01 X45.8727 Y13.0314
G01 X45.8695 Y13.0536
G01 X45.8686 Y13.0730
G01 X45.8686 Y13.3730
G01 X45.8695 Y13.3927
G01 X45.8728 Y13.4151
G01 X45.8767 Y13.4314
G01 X45.8825 Y13.4487
G01 X45.8923 Y13.4707
G01 X45.9006 Y13.4853
G01 X45.9117 Y13.5016
G01 X45.9243 Y13.5168
G01 X45.9361 Y13.5287
G01 X45.9511 Y13.5415
G01 X45.9558 Y13.5450
G01 X45.9697 Y13.5544
G01 X45.9869 Y13.5640
G01 X46.0077 Y13.5730
G01 X46.0236 Y13.5783
G01 X46.0428 Y13.5828
G01 X46.0623 Y13.5855
G01 X46.0820 Y13.5864
G01 X49.2979 Y13.5865
G01 X50.3041 Y14.5928
G01 X50.3042 Y15.4613
G01 X50.3057 Y15.4907
G01 X50.3063 Y15.4969
G01 X50.3111 Y15.5291
G01 X50.3190 Y15.5607
G01 X50.3208 Y15.5667
G01 X50.3318 Y15.5973
G01 X50.3464 Y15.6282
G01 X50.3638 Y15.6575
G01 X50.3672 Y15.6627
G01 X50.3867 Y15.6888
G01 X50.4106 Y15.7153
G01 X51.3400 Y16.6445
G01 X51.3642 Y16.6663
G01 X51.3928 Y16.6876
G01 X51.4234 Y16.7059
G01 X51.4528 Y16.7199
G01 X51.4586 Y16.7223
G01 X51.4863 Y16.7322
G01 X51.4923 Y16.7340
G01 X51.5239 Y16.7419
G01 X51.5607 Y16.7472
G01 X51.5948 Y16.7488
G01 X52.7491 Y16.7488
G01 X52.2267 Y17.2712
G01 X52.2038 Y17.2965
G01 X52.1833 Y17.3238
G01 X52.1799 Y17.3290
G01 X52.1632 Y17.3569
G01 X52.1479 Y17.3892
G01 X52.1369 Y17.4198
G01 X52.1351 Y17.4258
G01 X52.1272 Y17.4574
G01 X52.1220 Y17.4927
G01 X52.1203 Y17.5283
G01 X52.1203 Y22.6997
G01 X52.0847 Y22.7088
G01 X51.9865 Y22.7441
G01 X51.8936 Y22.7881
G01 X51.8054 Y22.8409
G01 X51.7227 Y22.9020
G01 X51.7179 Y22.9059
G01 X51.6430 Y22.9740
G01 X51.5739 Y23.0501
G01 X51.5125 Y23.1326
G01 X51.5091 Y23.1377
G01 X51.4571 Y23.2246
G01 X51.4124 Y23.3190
G01 X51.3773 Y23.4172
G01 X51.3526 Y23.5154
G01 X51.3514 Y23.5215
G01 X51.3365 Y23.6232
G01 X51.3315 Y23.7259
G01 X51.3364 Y23.8270
G01 X51.3370 Y23.8332
G01 X51.3514 Y23.9303
G01 X51.3526 Y23.9364
G01 X51.3773 Y24.0346
G01 X51.4124 Y24.1328
G01 X51.4571 Y24.2272
G01 X51.5099 Y24.3154
G01 X51.5729 Y24.4005
G01 X51.6408 Y24.4756
G01 X51.6452 Y24.4800
G01 X51.7215 Y24.5489
G01 X51.8041 Y24.6101
G01 X51.8923 Y24.6630
G01 X51.9865 Y24.7077
G01 X52.0313 Y24.7240
G01 X52.0314 Y25.3279
G01 X51.3195 Y26.0397
G01 X48.9548 Y26.0398
G01 X48.9541 Y26.0320
G01 X48.9493 Y26.0016
G01 X48.9425 Y25.9748
G01 X48.9321 Y25.9459
G01 X48.9190 Y25.9181
G01 X48.9048 Y25.8943
G01 X48.9014 Y25.8891
G01 X48.8828 Y25.8646
G01 X48.8642 Y25.8442
G01 X48.8414 Y25.8235
G01 X48.8167 Y25.8052
G01 X48.7930 Y25.7909
G01 X48.7654 Y25.7775
G01 X48.7596 Y25.7751
G01 X48.7336 Y25.7659
G01 X48.7053 Y25.7587
G01 X48.6733 Y25.7539
G01 X48.6426 Y25.7524
G01 X47.6926 Y25.7524
G01 X47.6619 Y25.7539
G01 X47.6315 Y25.7584
G01 X47.6016 Y25.7659
G01 X47.5727 Y25.7763
G01 X47.5449 Y25.7894
G01 X47.5185 Y25.8052
G01 X47.4938 Y25.8235
G01 X47.4732 Y25.8420
G01 X47.4688 Y25.8464
G01 X47.4503 Y25.8670
G01 X47.4320 Y25.8917
G01 X47.4162 Y25.9181
G01 X47.4043 Y25.9430
G01 X47.4019 Y25.9488
G01 X47.3927 Y25.9748
G01 X47.3859 Y26.0016
G01 X47.3811 Y26.0320
G01 X47.3804 Y26.0397
G01 X46.6688 Y26.0398
G01 X46.6681 Y26.0320
G01 X46.6633 Y26.0016
G01 X46.6565 Y25.9748
G01 X46.6461 Y25.9459
G01 X46.6330 Y25.9181
G01 X46.6188 Y25.8943
G01 X46.6154 Y25.8891
G01 X46.5968 Y25.8646
G01 X46.5782 Y25.8442
G01 X46.5554 Y25.8235
G01 X46.5307 Y25.8052
G01 X46.5070 Y25.7909
G01 X46.4794 Y25.7775
G01 X46.4736 Y25.7751
G01 X46.4476 Y25.7659
G01 X46.4193 Y25.7587
G01 X46.3873 Y25.7539
G01 X46.3566 Y25.7524
G01 X45.4066 Y25.7524
G01 X45.3759 Y25.7539
G01 X45.3455 Y25.7584
G01 X45.3156 Y25.7659
G01 X45.2867 Y25.7763
G01 X45.2589 Y25.7894
G01 X45.2325 Y25.8052
G01 X45.2078 Y25.8235
G01 X45.1872 Y25.8420
G01 X45.1828 Y25.8464
G01 X45.1643 Y25.8670
G01 X45.1460 Y25.8917
G01 X45.1302 Y25.9181
G01 X45.1183 Y25.9430
G01 X45.1159 Y25.9488
G01 X45.1067 Y25.9748
G01 X45.0999 Y26.0016
G01 X45.0951 Y26.0320
G01 X45.0944 Y26.0397
G01 X41.3672 Y26.0398
G01 X40.6681 Y25.3406
G01 X40.6680 Y20.2751
G01 X41.4504 Y19.4928
G01 X45.8076 Y19.4928
G01 X45.8076 Y19.5737
G01 X45.6445 Y19.5737
G01 X45.6154 Y19.5752
G01 X45.5880 Y19.5792
G01 X45.5819 Y19.5804
G01 X45.5551 Y19.5872
G01 X45.5262 Y19.5976
G01 X45.4984 Y19.6107
G01 X45.4720 Y19.6265
G01 X45.4473 Y19.6448
G01 X45.4267 Y19.6633
G01 X45.4059 Y19.6859
G01 X45.4019 Y19.6907
G01 X45.3855 Y19.7130
G01 X45.3697 Y19.7394
G01 X45.3566 Y19.7672
G01 X45.3472 Y19.7932
G01 X45.3394 Y19.8229
G01 X45.3382 Y19.8290
G01 X45.3342 Y19.8564
G01 X45.3327 Y19.8855
G01 X45.3327 Y20.5637
G01 X45.3340 Y20.5897
G01 X45.3346 Y20.5959
G01 X45.3387 Y20.6232
G01 X45.3454 Y20.6501
G01 X45.3472 Y20.6560
G01 X45.3566 Y20.6820
G01 X45.3683 Y20.7071
G01 X45.3712 Y20.7125
G01 X45.3873 Y20.7388
G01 X45.4038 Y20.7609
G01 X45.4223 Y20.7815
G01 X45.4267 Y20.7859
G01 X45.4473 Y20.8044
G01 X45.4720 Y20.8227
G01 X45.4984 Y20.8385
G01 X45.5233 Y20.8504
G01 X45.5291 Y20.8528
G01 X45.5551 Y20.8620
G01 X45.5819 Y20.8688
G01 X45.5880 Y20.8700
G01 X45.6138 Y20.8738
G01 X45.6461 Y20.8755
G01 X46.5961 Y20.8755
G01 X46.6268 Y20.8740
G01 X46.6572 Y20.8695
G01 X46.6841 Y20.8628
G01 X46.6900 Y20.8610
G01 X46.7160 Y20.8516
G01 X46.7438 Y20.8385
G01 X46.7676 Y20.8243
G01 X46.7728 Y20.8209
G01 X46.7949 Y20.8044
G01 X46.8177 Y20.7837
G01 X46.8363 Y20.7633
G01 X46.8403 Y20.7585
G01 X46.8567 Y20.7362
G01 X46.8725 Y20.7098
G01 X46.8844 Y20.6849
G01 X46.8868 Y20.6791
G01 X46.8964 Y20.6516
G01 X46.9035 Y20.6232
G01 X46.9076 Y20.5959
G01 X46.9082 Y20.5897
G01 X46.9095 Y20.5637
G01 X46.9095 Y19.8871
G01 X46.9082 Y19.8595
G01 X46.9076 Y19.8533
G01 X46.9035 Y19.8260
G01 X46.8960 Y19.7961
G01 X46.8856 Y19.7672
G01 X46.8725 Y19.7394
G01 X46.8567 Y19.7130
G01 X46.8384 Y19.6883
G01 X46.8177 Y19.6655
G01 X46.7937 Y19.6439
G01 X46.7728 Y19.6283
G01 X46.7676 Y19.6249
G01 X46.7438 Y19.6107
G01 X46.7189 Y19.5988
G01 X46.7131 Y19.5964
G01 X46.6871 Y19.5872
G01 X46.6572 Y19.5797
G01 X46.6268 Y19.5752
G01 X46.5977 Y19.5737
G01 X46.4346 Y19.5737
G01 X46.4346 Y19.4928
G01 X47.9735 Y19.4928
G01 X47.9736 Y19.7683
G01 X47.9750 Y19.7959
G01 X47.9790 Y19.8233
G01 X47.9802 Y19.8294
G01 X47.9875 Y19.8577
G01 X47.9974 Y19.8851
G01 X48.0105 Y19.9129
G01 X48.0263 Y19.9393
G01 X48.0427 Y19.9616
G01 X48.0467 Y19.9664
G01 X48.0675 Y19.9890
G01 X48.0881 Y20.0075
G01 X48.1102 Y20.0240
G01 X48.1154 Y20.0274
G01 X48.1392 Y20.0416
G01 X48.1641 Y20.0535
G01 X48.1699 Y20.0559
G01 X48.1959 Y20.0651
G01 X48.2258 Y20.0726
G01 X48.2562 Y20.0771
G01 X48.2853 Y20.0786
G01 X49.1384 Y20.0786
G01 X49.1687 Y20.0769
G01 X49.1945 Y20.0733
G01 X49.2213 Y20.0670
G01 X49.2528 Y20.0563
G01 X49.2766 Y20.0457
G01 X49.3019 Y20.0317
G01 X49.3281 Y20.0135
G01 X49.3480 Y19.9968
G01 X49.3685 Y19.9763
G01 X49.3887 Y19.9517
G01 X49.4034 Y19.9302
G01 X49.4174 Y19.9049
G01 X49.4291 Y19.8784
G01 X49.4375 Y19.8538
G01 X49.4452 Y19.8213
G01 X49.4490 Y19.7941
G01 X49.4503 Y19.7652
G01 X49.4503 Y18.6886
G01 X49.4488 Y18.6595
G01 X49.4448 Y18.6321
G01 X49.4436 Y18.6260
G01 X49.4358 Y18.5963
G01 X49.4264 Y18.5703
G01 X49.4133 Y18.5425
G01 X49.3975 Y18.5161
G01 X49.3811 Y18.4938
G01 X49.3771 Y18.4890
G01 X49.3563 Y18.4664
G01 X49.3357 Y18.4479
G01 X49.3110 Y18.4296
G01 X49.2846 Y18.4138
G01 X49.2597 Y18.4019
G01 X49.2539 Y18.3995
G01 X49.2264 Y18.3899
G01 X49.1980 Y18.3828
G01 X49.1707 Y18.3787
G01 X49.1645 Y18.3781
G01 X49.1385 Y18.3768
G01 X48.2853 Y18.3768
G01 X48.2593 Y18.3781
G01 X48.2531 Y18.3787
G01 X48.2258 Y18.3828
G01 X48.1989 Y18.3895
G01 X48.1930 Y18.3913
G01 X48.1670 Y18.4007
G01 X48.1392 Y18.4138
G01 X48.1154 Y18.4280
G01 X48.1102 Y18.4314
G01 X48.0881 Y18.4479
G01 X48.0675 Y18.4664
G01 X48.0631 Y18.4708
G01 X48.0446 Y18.4914
G01 X48.0255 Y18.5174
G01 X48.0105 Y18.5425
G01 X47.9974 Y18.5703
G01 X47.9870 Y18.5992
G01 X47.9802 Y18.6260
G01 X47.9790 Y18.6321
G01 X47.9750 Y18.6595
G01 X47.9735 Y18.6886
G01 X47.9735 Y18.8658
G01 X41.3205 Y18.8658
G01 X41.2882 Y18.8675
G01 X41.2593 Y18.8718
G01 X41.2325 Y18.8784
G01 X41.2265 Y18.8803
G01 X41.2005 Y18.8896
G01 X41.1727 Y18.9028
G01 X41.1489 Y18.9169
G01 X41.1438 Y18.9204
G01 X41.1204 Y18.9379
G01 X41.0988 Y18.9576
G01 X40.2125 Y19.8439
G01 X40.1975 Y19.8479
G01 X40.1639 Y19.8600
G01 X40.1331 Y19.8747
G01 X40.1012 Y19.8939
G01 X40.0739 Y19.9143
G01 X40.0474 Y19.9382
G01 X40.0235 Y19.9647
G01 X40.0031 Y19.9920
G01 X39.9839 Y20.0239
G01 X39.9699 Y20.0533
G01 X39.9675 Y20.0591
G01 X39.9566 Y20.0898
G01 X39.9486 Y20.1213
G01 X39.9474 Y20.1274
G01 X39.9426 Y20.1612
G01 X39.9410 Y20.1953
G01 X39.9410 Y20.7461
G01 X32.1622 Y20.7462
G01 X32.1282 Y20.7479
G01 X32.0929 Y20.7531
G01 X32.0583 Y20.7618
G01 X32.0247 Y20.7738
G01 X31.9924 Y20.7891
G01 X31.9618 Y20.8074
G01 X31.9332 Y20.8287
G01 X31.9078 Y20.8515
G01 X31.1666 Y21.5927
G01 X31.1438 Y21.6181
G01 X31.1225 Y21.6467
G01 X31.1042 Y21.6773
G01 X31.0889 Y21.7096
G01 X31.0769 Y21.7432
G01 X31.0682 Y21.7778
G01 X31.0630 Y21.8131
G01 X31.0613 Y21.8471
G01 X31.0613 Y22.8986
G01 X30.8873 Y22.8986
G01 X30.8550 Y22.9003
G01 X30.8262 Y22.9046
G01 X30.7963 Y22.9121
G01 X30.7674 Y22.9225
G01 X30.7396 Y22.9356
G01 X30.7132 Y22.9514
G01 X30.6909 Y22.9678
G01 X30.6861 Y22.9718
G01 X30.6657 Y22.9904
G01 X30.6471 Y23.0108
G01 X30.6285 Y23.0353
G01 X30.6251 Y23.0405
G01 X30.6109 Y23.0643
G01 X30.5978 Y23.0921
G01 X30.5874 Y23.1210
G01 X30.5799 Y23.1509
G01 X30.5754 Y23.1813
G01 X30.5739 Y23.2120
G01 X30.5739 Y24.0636
G01 X30.5754 Y24.0927
G01 X30.5799 Y24.1231
G01 X30.5874 Y24.1530
G01 X30.5978 Y24.1819
G01 X30.6109 Y24.2097
G01 X30.6267 Y24.2361
G01 X30.6450 Y24.2608
G01 X30.6657 Y24.2836
G01 X30.6885 Y24.3043
G01 X30.7132 Y24.3226
G01 X30.7396 Y24.3384
G01 X30.7674 Y24.3515
G01 X30.7963 Y24.3619
G01 X30.8231 Y24.3687
G01 X30.8292 Y24.3699
G01 X30.8581 Y24.3740
G01 X30.8873 Y24.3754
G01 X31.0739 Y24.3754
G01 X31.0740 Y26.7594
G01 X30.9000 Y26.7594
G01 X30.8725 Y26.7606
G01 X30.8424 Y26.7647
G01 X30.8171 Y26.7706
G01 X30.7854 Y26.7811
G01 X30.7603 Y26.7923
G01 X30.7350 Y26.8063
G01 X30.7111 Y26.8227
G01 X30.6867 Y26.8432
G01 X30.6665 Y26.8639
G01 X30.6499 Y26.8839
G01 X30.6351 Y26.9054
G01 X30.6195 Y26.9331
G01 X30.6083 Y26.9582
G01 X30.5986 Y26.9870
G01 X30.5919 Y27.0152
G01 X30.5879 Y27.0439
G01 X30.5866 Y27.0713
G01 X30.5866 Y27.9228
G01 X30.5881 Y27.9535
G01 X30.5921 Y27.9809
G01 X30.5933 Y27.9870
G01 X30.6001 Y28.0138
G01 X30.6093 Y28.0398
G01 X30.6117 Y28.0456
G01 X30.6236 Y28.0705
G01 X30.6394 Y28.0969
G01 X30.6577 Y28.1216
G01 X30.6762 Y28.1422
G01 X30.6806 Y28.1466
G01 X30.7012 Y28.1651
G01 X30.7233 Y28.1816
G01 X30.7285 Y28.1850
G01 X30.7509 Y28.1984
G01 X30.7801 Y28.2123
G01 X30.8090 Y28.2227
G01 X30.8389 Y28.2302
G01 X30.8677 Y28.2345
G01 X30.9000 Y28.2362
G01 X31.0739 Y28.2362
G01 X31.0740 Y28.7593
G01 X30.2098 Y29.6234
G01 X22.4436 Y29.6235
G01 X22.4435 Y27.3359
G01 X22.5566 Y27.3359
G01 X22.5857 Y27.3344
G01 X22.6146 Y27.3302
G01 X22.6460 Y27.3224
G01 X22.6749 Y27.3120
G01 X22.7027 Y27.2989
G01 X22.7291 Y27.2831
G01 X22.7538 Y27.2648
G01 X22.7744 Y27.2463
G01 X22.7788 Y27.2419
G01 X22.7992 Y27.2189
G01 X22.8156 Y27.1966
G01 X22.8299 Y27.1729
G01 X22.8328 Y27.1675
G01 X22.8445 Y27.1424
G01 X22.8549 Y27.1135
G01 X22.8624 Y27.0836
G01 X22.8665 Y27.0563
G01 X22.8672 Y27.0486
G01 X23.5735 Y27.0485
G01 X23.6061 Y27.0470
G01 X23.6122 Y27.0464
G01 X23.6444 Y27.0416
G01 X23.6791 Y27.0329
G01 X23.7126 Y27.0209
G01 X23.7421 Y27.0070
G01 X23.7476 Y27.0041
G01 X23.7755 Y26.9873
G01 X23.8017 Y26.9679
G01 X23.8065 Y26.9640
G01 X23.8306 Y26.9421
G01 X24.7384 Y26.0343
G01 X24.7542 Y26.0169
G01 X25.3400 Y25.4311
G01 X25.3869 Y25.4477
G01 X25.4660 Y25.4675
G01 X25.5498 Y25.4801
G01 X25.6360 Y25.4844
G01 X25.7191 Y25.4804
G01 X25.8044 Y25.4678
G01 X25.8866 Y25.4472
G01 X25.9664 Y25.4187
G01 X26.0416 Y25.3832
G01 X26.1157 Y25.3389
G01 X26.1837 Y25.2884
G01 X26.2465 Y25.2315
G01 X26.3034 Y25.1687
G01 X26.3539 Y25.1007
G01 X26.3975 Y25.0280
G01 X26.4337 Y24.9514
G01 X26.4618 Y24.8731
G01 X26.4658 Y24.8576
G01 X26.9380 Y24.8575
G01 X26.9736 Y24.8558
G01 X26.9970 Y24.8524
G01 X27.0204 Y24.8558
G01 X27.0529 Y24.8575
G01 X27.0591 Y24.8575
G01 X27.0885 Y24.8560
G01 X27.0947 Y24.8554
G01 X27.1269 Y24.8506
G01 X27.1615 Y24.8419
G01 X27.1951 Y24.8299
G01 X27.2274 Y24.8146
G01 X27.2580 Y24.7963
G01 X27.2842 Y24.7769
G01 X27.2890 Y24.7730
G01 X27.3131 Y24.7511
G01 X27.9516 Y24.1126
G01 X27.9724 Y24.0896
G01 X27.9763 Y24.0848
G01 X27.9957 Y24.0586
G01 X28.0125 Y24.0307
G01 X28.0154 Y24.0252
G01 X28.0293 Y23.9957
G01 X28.0403 Y23.9651
G01 X28.0421 Y23.9591
G01 X28.0500 Y23.9275
G01 X28.0548 Y23.8953
G01 X28.0554 Y23.8891
G01 X28.0569 Y23.8582
G01 X28.0569 Y21.0072
G01 X29.5761 Y19.4881
G01 X29.6000 Y19.4616
G01 X29.6213 Y19.4330
G01 X29.6396 Y19.4024
G01 X29.6543 Y19.3716
G01 X29.6669 Y19.3365
G01 X29.6756 Y19.3019
G01 X29.6808 Y19.2666
G01 X29.6825 Y19.2326
G01 X29.6825 Y17.4385
G01 X33.4440 Y17.4387
G01 X33.4667 Y17.4377
G01 X33.4923 Y17.4342
G01 X33.4984 Y17.4330
G01 X33.5204 Y17.4274
G01 X33.5448 Y17.4187
G01 X33.5682 Y17.4076
G01 X33.5877 Y17.3960
G01 X33.5929 Y17.3925
G01 X33.6135 Y17.3769
G01 X33.6303 Y17.3616
G01 X33.6476 Y17.3424
G01 X33.6631 Y17.3216
G01 X33.6748 Y17.3022
G01 X33.6777 Y17.2967
G01 X33.6885 Y17.2732
G01 X33.6961 Y17.2517
G01 X33.7021 Y17.2282
G01 X33.7062 Y17.2011
G01 X33.7075 Y17.1752
G01 X33.7062 Y17.1494
G01 X33.7024 Y17.1238
G01 X33.6961 Y17.0988
G01 X33.6874 Y17.0744
G01 X33.6763 Y17.0510
G01 X33.6647 Y17.0315
G01 X33.6613 Y17.0263
G01 X33.6476 Y17.0081
G01 X33.6324 Y16.9912
G01 X33.6135 Y16.9736
G01 X33.6087 Y16.9696
G01 X33.5904 Y16.9561
G01 X33.5709 Y16.9444
G01 X33.5654 Y16.9415
G01 X33.5448 Y16.9318
G01 X33.5204 Y16.9231
G01 X33.4954 Y16.9168
G01 X33.4682 Y16.9129
G01 X33.4440 Y16.9117
G01 X29.6826 Y16.9115
G01 X29.6825 Y13.5024
G01 X29.6808 Y13.4668
G01 X29.6756 Y13.4315
G01 X29.6669 Y13.3969
G01 X29.6560 Y13.3662
G01 X29.6536 Y13.3604
G01 X29.6396 Y13.3310
G01 X29.6213 Y13.3004
G01 X29.6000 Y13.2718
G01 X29.5761 Y13.2453
G01 X26.6346 Y10.3038
G01 X26.6345 Y7.1506
G01 X27.9964 Y5.7888
G01 X33.9182 Y5.7887
G01 X34.0928 Y5.9634
G01 X34.0929 Y6.2179
G01 X34.0480 Y6.2393
G01 X33.9780 Y6.2813
G01 X33.9075 Y6.3336
G01 X33.8459 Y6.3895
G01 X33.7910 Y6.4499
G01 X33.7871 Y6.4547
G01 X33.7377 Y6.5216
G01 X33.6949 Y6.5930
G01 X33.6600 Y6.6667
G01 X33.6576 Y6.6725
G01 X33.6302 Y6.7494
G01 X33.6096 Y6.8316
G01 X33.5975 Y6.9123
G01 X33.5969 Y6.9185
G01 X33.5931 Y6.9969
G01 X33.5931 Y7.0031
G01 X33.5972 Y7.0846
G01 X33.6091 Y7.1654
G01 X33.6103 Y7.1715
G01 X33.6302 Y7.2506
G01 X33.6576 Y7.3275
G01 X33.6600 Y7.3333
G01 X33.6949 Y7.4070
G01 X33.7377 Y7.4784
G01 X33.7871 Y7.5453
G01 X33.7910 Y7.5501
G01 X33.8459 Y7.6105
G01 X33.9075 Y7.6664
G01 X33.9780 Y7.7187
G01 X34.0480 Y7.7607
G01 X34.0928 Y7.7821
G01 X34.0929 Y10.0038
G01 X34.0944 Y10.0363
G01 X34.0950 Y10.0425
G01 X34.0998 Y10.0747
G01 X34.1077 Y10.1063
G01 X34.1095 Y10.1123
G01 X34.1205 Y10.1429
G01 X34.1344 Y10.1724
G01 X34.1373 Y10.1779
G01 X34.1541 Y10.2058
G01 X34.1735 Y10.2320
G01 X34.1774 Y10.2368
G01 X34.1982 Y10.2598
G01 X35.3555 Y11.4171
G01 X35.3820 Y11.4410
G01 X35.4106 Y11.4623
G01 X35.4311 Y11.4746
G01 X35.4426 Y11.4813
G01 X35.4735 Y11.4959
G01 X35.5071 Y11.5079
G01 X35.5386 Y11.5159
G01 X35.5447 Y11.5171
G01 X35.5785 Y11.5219
G01 X35.6126 Y11.5235
G01 X36.5379 Y11.5235
G01 X36.5593 Y11.5684
G01 X36.6013 Y11.6384
G01 X36.6536 Y11.7089
G01 X36.7095 Y11.7705
G01 X36.7699 Y11.8254
G01 X36.7747 Y11.8293
G01 X36.8416 Y11.8787
G01 X36.9130 Y11.9215
G01 X36.9867 Y11.9564
G01 X36.9925 Y11.9588
G01 X37.0694 Y11.9862
G01 X37.1485 Y12.0061
G01 X37.1546 Y12.0073
G01 X37.2354 Y12.0192
G01 X37.3184 Y12.0234
G01 X37.4015 Y12.0195
G01 X37.4077 Y12.0189
G01 X37.4884 Y12.0068
G01 X37.5706 Y11.9862
G01 X37.6475 Y11.9588
G01 X37.6533 Y11.9564
G01 X37.7270 Y11.9215
G01 X37.7984 Y11.8787
G01 X37.8653 Y11.8293
G01 X37.8701 Y11.8254
G01 X37.9305 Y11.7705
G01 X37.9864 Y11.7089
G01 X38.0387 Y11.6384
G01 X38.0807 Y11.5684
G01 X38.1021 Y11.5236
G01 X38.4084 Y11.5235
G01 X40.3660 Y13.4812
G01 X40.3890 Y13.5020
G01 X40.3938 Y13.5059
G01 X40.4200 Y13.5253
G01 X40.4479 Y13.5421
G01 X40.4534 Y13.5450
G01 X40.4829 Y13.5589
G01 X40.5135 Y13.5699
G01 X40.5195 Y13.5717
G01 X40.5511 Y13.5796
G01 X40.5833 Y13.5844
G01 X40.5895 Y13.5850
G01 X40.6220 Y13.5865
G01 X42.7820 Y13.5864
G01 X42.8014 Y13.5855
G01 X42.8206 Y13.5828
G01 X42.8267 Y13.5816
G01 X42.8439 Y13.5772
G01 X42.8637 Y13.5702
G01 X42.8826 Y13.5612
G01 X42.8979 Y13.5521
G01 X42.9031 Y13.5486
G01 X42.9197 Y13.5359
G01 X42.9329 Y13.5239
G01 X42.9470 Y13.5084
G01 X42.9594 Y13.4916
G01 X42.9687 Y13.4763
G01 X42.9716 Y13.4708
G01 X42.9803 Y13.4518
G01 X42.9862 Y13.4349
G01 X42.9910 Y13.4162
G01 X42.9944 Y13.3939
G01 X42.9954 Y13.3746
G01 X42.9954 Y13.0730
G01 X42.9940 Y13.0490
G01 X42.9913 Y13.0314
G01 X42.9866 Y13.0125
G01 X42.9792 Y12.9913
G01 X42.9687 Y12.9697
G01 X42.9594 Y12.9544
G01 X42.9489 Y12.9401
G01 X42.9329 Y12.9221
G01 X42.9149 Y12.9061
G01 X42.9006 Y12.8956
G01 X42.8853 Y12.8863
G01 X42.8637 Y12.8758
G01 X42.8409 Y12.8680
G01 X42.8236 Y12.8637
G01 X42.8060 Y12.8610
G01 X42.7820 Y12.8596
G01 X40.7726 Y12.8595
G01 X38.8161 Y10.9029
G01 X38.7884 Y10.8780
G01 X38.7610 Y10.8577
G01 X38.7331 Y10.8409
G01 X38.7276 Y10.8380
G01 X38.6981 Y10.8241
G01 X38.6675 Y10.8131
G01 X38.6615 Y10.8113
G01 X38.6299 Y10.8034
G01 X38.5962 Y10.7984
G01 X38.5590 Y10.7965
G01 X38.1021 Y10.7965
G01 X38.0807 Y10.7516
G01 X38.0370 Y10.6790
G01 X37.9874 Y10.6123
G01 X37.9294 Y10.5484
G01 X37.8677 Y10.4926
G01 X37.7997 Y10.4421
G01 X37.7270 Y10.3985
G01 X37.6533 Y10.3636
G01 X37.6475 Y10.3612
G01 X37.5706 Y10.3338
G01 X37.4884 Y10.3132
G01 X37.4046 Y10.3008
G01 X37.3200 Y10.2966
G01 X37.2354 Y10.3008
G01 X37.1516 Y10.3132
G01 X37.0694 Y10.3338
G01 X36.9910 Y10.3617
G01 X36.9130 Y10.3985
G01 X36.8403 Y10.4421
G01 X36.7723 Y10.4926
G01 X36.7106 Y10.5484
G01 X36.6526 Y10.6123
G01 X36.6030 Y10.6790
G01 X36.5593 Y10.7516
G01 X36.5379 Y10.7964
G01 X35.7632 Y10.7965
G01 X34.8200 Y9.8532
G01 X34.8199 Y7.7821
G01 X34.8648 Y7.7607
G01 X34.9374 Y7.7170
G01 X35.0041 Y7.6674
G01 X35.0658 Y7.6116
G01 X35.1218 Y7.5501
G01 X35.1257 Y7.5453
G01 X35.1743 Y7.4797
G01 X35.2171 Y7.4084
G01 X35.2528 Y7.3333
G01 X35.2552 Y7.3275
G01 X35.2826 Y7.2506
G01 X35.3032 Y7.1684
G01 X35.3156 Y7.0846
G01 X35.3197 Y7.0031
G01 X35.3197 Y6.9969
G01 X35.3155 Y6.9138
G01 X35.3037 Y6.8346
G01 X35.3025 Y6.8285
G01 X35.2826 Y6.7494
G01 X35.2552 Y6.6725
G01 X35.2528 Y6.6667
G01 X35.2179 Y6.5930
G01 X35.1734 Y6.5190
G01 X35.1257 Y6.4547
G01 X35.1218 Y6.4499
G01 X35.0669 Y6.3895
G01 X35.0053 Y6.3336
G01 X34.9348 Y6.2813
G01 X34.8648 Y6.2393
G01 X34.8200 Y6.2179
G01 X34.8199 Y5.8128
G01 X34.8183 Y5.7787
G01 X34.8130 Y5.7419
G01 X34.8043 Y5.7073
G01 X34.7923 Y5.6737
G01 X34.7784 Y5.6442
G01 X34.7755 Y5.6387
G01 X34.7587 Y5.6108
G01 X34.7393 Y5.5846
G01 X34.7354 Y5.5798
G01 X34.7146 Y5.5568
G01 X34.3259 Y5.1681
G01 X34.3018 Y5.1462
G01 X34.2970 Y5.1423
G01 X34.2708 Y5.1229
G01 X34.2402 Y5.1046
G01 X34.2108 Y5.0906
G01 X34.2050 Y5.0882
G01 X34.1743 Y5.0773
G01 X34.1428 Y5.0693
G01 X34.1367 Y5.0681
G01 X34.1044 Y5.0634
G01 X34.0688 Y5.0617
G01 X27.8458 Y5.0617
G01 X27.8133 Y5.0632
G01 X27.8071 Y5.0638
G01 X27.7749 Y5.0686
G01 X27.7433 Y5.0765
G01 X27.7373 Y5.0783
G01 X27.7067 Y5.0893
G01 X27.6772 Y5.1032
G01 X27.6717 Y5.1061
G01 X27.6438 Y5.1229
G01 X27.6176 Y5.1423
G01 X27.6128 Y5.1462
G01 X27.5887 Y5.1681
G01 X26.0139 Y6.7429
G01 X25.9920 Y6.7670
G01 X25.9881 Y6.7718
G01 X25.9687 Y6.7980
G01 X25.9504 Y6.8286
G01 X25.9351 Y6.8609
G01 X25.9241 Y6.8915
G01 X25.9223 Y6.8975
G01 X25.9144 Y6.9291
G01 X25.9096 Y6.9613
G01 X25.9090 Y6.9675
G01 X25.9075 Y6.9984
G01 X25.9075 Y8.4144
G01 X24.8748 Y8.4145
G01 X24.8534 Y8.3696
G01 X24.8097 Y8.2970
G01 X24.7601 Y8.2303
G01 X24.7043 Y8.1686
G01 X24.6428 Y8.1126
G01 X24.6380 Y8.1087
G01 X24.5724 Y8.0601
G01 X24.5011 Y8.0173
G01 X24.4260 Y7.9816
G01 X24.4202 Y7.9792
G01 X24.3433 Y7.9518
G01 X24.2611 Y7.9312
G01 X24.1773 Y7.9188
G01 X24.0958 Y7.9147
G01 X24.0896 Y7.9147
G01 X24.0065 Y7.9189
G01 X23.9243 Y7.9312
G01 X23.8421 Y7.9518
G01 X23.7623 Y7.9803
G01 X23.6857 Y8.0165
G01 X23.6130 Y8.0601
G01 X23.5450 Y8.1106
G01 X23.4822 Y8.1675
G01 X23.4273 Y8.2279
G01 X23.4234 Y8.2327
G01 X23.3748 Y8.2983
G01 X23.3328 Y8.3683
G01 X23.3299 Y8.3738
G01 X23.2963 Y8.4447
G01 X23.2939 Y8.4505
G01 X23.2665 Y8.5274
G01 X23.2459 Y8.6096
G01 X23.2335 Y8.6934
G01 X23.2293 Y8.7764
G01 X23.2335 Y8.8626
G01 X23.2459 Y8.9464
G01 X23.2665 Y9.0286
G01 X23.2939 Y9.1055
G01 X23.2963 Y9.1113
G01 X23.3312 Y9.1850
G01 X23.3731 Y9.2551
G01 X23.3766 Y9.2602
G01 X23.4234 Y9.3233
G01 X23.4273 Y9.3281
G01 X23.4822 Y9.3885
G01 X23.5450 Y9.4454
G01 X23.6130 Y9.4959
G01 X23.6857 Y9.5395
G01 X23.7623 Y9.5757
G01 X23.8421 Y9.6042
G01 X23.9243 Y9.6248
G01 X24.0050 Y9.6369
G01 X24.0112 Y9.6375
G01 X24.0896 Y9.6413
G01 X24.0958 Y9.6413
G01 X24.1773 Y9.6372
G01 X24.2611 Y9.6248
G01 X24.3433 Y9.6042
G01 X24.4202 Y9.5768
G01 X24.4260 Y9.5744
G01 X24.5011 Y9.5387
G01 X24.5724 Y9.4959
G01 X24.6380 Y9.4473
G01 X24.6428 Y9.4434
G01 X24.7043 Y9.3874
G01 X24.7601 Y9.3257
G01 X24.8097 Y9.2590
G01 X24.8534 Y9.1864
G01 X24.8748 Y9.1416
G01 X25.9074 Y9.1415
G01 X25.9075 Y10.4575
G01 X25.9092 Y10.4900
G01 X25.9139 Y10.5223
G01 X25.9151 Y10.5284
G01 X25.9231 Y10.5599
G01 X25.9351 Y10.5935
G01 X25.9490 Y10.6230
G01 X25.9519 Y10.6285
G01 X25.9687 Y10.6564
G01 X25.9900 Y10.6850
G01 X26.0139 Y10.7115
G01 X28.9554 Y13.6530
G01 X28.9555 Y14.3115
G01 X25.5032 Y14.3115
G01 X25.4805 Y14.3125
G01 X25.4549 Y14.3160
G01 X25.4488 Y14.3172
G01 X25.4267 Y14.3228
G01 X25.4024 Y14.3316
G01 X25.3790 Y14.3426
G01 X25.3594 Y14.3542
G01 X25.3543 Y14.3577
G01 X25.3337 Y14.3733
G01 X25.3169 Y14.3887
G01 X25.2995 Y14.4078
G01 X25.2841 Y14.4286
G01 X25.2723 Y14.4481
G01 X25.2610 Y14.4713
G01 X25.2586 Y14.4771
G01 X25.2510 Y14.4985
G01 X25.2445 Y14.5251
G01 X25.2410 Y14.5492
G01 X25.2397 Y14.5750
G01 X25.2410 Y14.6008
G01 X25.2442 Y14.6233
G01 X25.2454 Y14.6294
G01 X25.2520 Y14.6544
G01 X25.2598 Y14.6758
G01 X25.2694 Y14.6964
G01 X25.2723 Y14.7019
G01 X25.2841 Y14.7214
G01 X25.2976 Y14.7397
G01 X25.3015 Y14.7445
G01 X25.3169 Y14.7613
G01 X25.3360 Y14.7787
G01 X25.3568 Y14.7941
G01 X25.3790 Y14.8074
G01 X25.4024 Y14.8184
G01 X25.4267 Y14.8272
G01 X25.4518 Y14.8334
G01 X25.4789 Y14.8374
G01 X25.5032 Y14.8385
G01 X28.9554 Y14.8385
G01 X28.9555 Y19.0804
G01 X27.4352 Y20.6006
G01 X27.4124 Y20.6260
G01 X27.3929 Y20.6521
G01 X27.3895 Y20.6573
G01 X27.3728 Y20.6852
G01 X27.3588 Y20.7146
G01 X27.3564 Y20.7204
G01 X27.3465 Y20.7481
G01 X27.3447 Y20.7541
G01 X27.3375 Y20.7826
G01 X27.3363 Y20.7887
G01 X27.3316 Y20.8210
G01 X27.3299 Y20.8566
G01 X27.3299 Y23.7060
G01 X26.9054 Y24.1304
G01 X26.3459 Y24.1305
G01 X26.3034 Y24.0733
G01 X26.2487 Y24.0127
G01 X26.2443 Y24.0083
G01 X26.1861 Y23.9556
G01 X26.1813 Y23.9517
G01 X26.1157 Y23.9031
G01 X26.0457 Y23.8611
G01 X26.0402 Y23.8582
G01 X25.9664 Y23.8233
G01 X25.8866 Y23.7948
G01 X25.8044 Y23.7742
G01 X25.7222 Y23.7619
G01 X25.6360 Y23.7576
G01 X25.5545 Y23.7615
G01 X25.5483 Y23.7621
G01 X25.4706 Y23.7737
G01 X25.4645 Y23.7749
G01 X25.3854 Y23.7948
G01 X25.3056 Y23.8233
G01 X25.2290 Y23.8595
G01 X25.1563 Y23.9031
G01 X25.0883 Y23.9536
G01 X25.0277 Y24.0083
G01 X25.0233 Y24.0127
G01 X24.9706 Y24.0709
G01 X24.9667 Y24.0757
G01 X24.9181 Y24.1413
G01 X24.8745 Y24.2140
G01 X24.8383 Y24.2906
G01 X24.8102 Y24.3689
G01 X24.7892 Y24.4526
G01 X24.7771 Y24.5333
G01 X24.7765 Y24.5395
G01 X24.7726 Y24.6226
G01 X24.7768 Y24.7056
G01 X24.7889 Y24.7879
G01 X24.8093 Y24.8701
G01 X24.8259 Y24.9170
G01 X24.2243 Y25.5186
G01 X24.2084 Y25.5359
G01 X23.4229 Y26.3214
G01 X22.8672 Y26.3215
G01 X22.8665 Y26.3137
G01 X22.8617 Y26.2833
G01 X22.8549 Y26.2565
G01 X22.8445 Y26.2276
G01 X22.8314 Y26.1998
G01 X22.8172 Y26.1760
G01 X22.7992 Y26.1511
G01 X22.7952 Y26.1463
G01 X22.7766 Y26.1259
G01 X22.7538 Y26.1052
G01 X22.7291 Y26.0869
G01 X22.7054 Y26.0726
G01 X22.6778 Y26.0592
G01 X22.6720 Y26.0568
G01 X22.6460 Y26.0476
G01 X22.6192 Y26.0408
G01 X22.6131 Y26.0396
G01 X22.5857 Y26.0356
G01 X22.5550 Y26.0341
G01 X21.6050 Y26.0341
G01 X21.5743 Y26.0356
G01 X21.5439 Y26.0401
G01 X21.5140 Y26.0476
G01 X21.4851 Y26.0580
G01 X21.4573 Y26.0711
G01 X21.4309 Y26.0869
G01 X21.4062 Y26.1052
G01 X21.3856 Y26.1237
G01 X21.3812 Y26.1281
G01 X21.3627 Y26.1487
G01 X21.3444 Y26.1734
G01 X21.3286 Y26.1998
G01 X21.3167 Y26.2247
G01 X21.3143 Y26.2305
G01 X21.3051 Y26.2565
G01 X21.2983 Y26.2833
G01 X21.2935 Y26.3137
G01 X21.2928 Y26.3214
G01 X19.5664 Y26.3215
G01 X19.5664 Y26.1990
G01 X19.5650 Y26.1698
G01 X19.5604 Y26.1379
G01 X19.5529 Y26.1080
G01 X19.5437 Y26.0820
G01 X19.5413 Y26.0762
G01 X19.5294 Y26.0513
G01 X19.5136 Y26.0249
G01 X19.4972 Y26.0026
G01 X19.4932 Y25.9978
G01 X19.4746 Y25.9774
G01 X19.4542 Y25.9588
G01 X19.4494 Y25.9548
G01 X19.4271 Y25.9384
G01 X19.4034 Y25.9241
G01 X19.3980 Y25.9212
G01 X19.3729 Y25.9095
G01 X19.3469 Y25.9001
G01 X19.3410 Y25.8983
G01 X19.3141 Y25.8916
G01 X19.2837 Y25.8871
G01 X19.2546 Y25.8856
G01 X19.0766 Y25.8856
G01 X19.0765 Y24.2544
G01 X19.5380 Y24.2544
G01 X19.5589 Y24.2534
G01 X19.5796 Y24.2503
G01 X19.5999 Y24.2452
G01 X19.6197 Y24.2382
G01 X19.6358 Y24.2306
G01 X19.6413 Y24.2277
G01 X19.6591 Y24.2166
G01 X19.6734 Y24.2060
G01 X19.6889 Y24.1919
G01 X19.7030 Y24.1764
G01 X19.7154 Y24.1596
G01 X19.7262 Y24.1416
G01 X19.7352 Y24.1227
G01 X19.7422 Y24.1029
G01 X19.7473 Y24.0826
G01 X19.7504 Y24.0619
G01 X19.7513 Y24.0441
G01 X19.7514 Y23.7410
G01 X19.7505 Y23.7216
G01 X19.7473 Y23.6994
G01 X19.7412 Y23.6761
G01 X19.7352 Y23.6593
G01 X19.7276 Y23.6432
G01 X19.7154 Y23.6224
G01 X19.7009 Y23.6033
G01 X19.6889 Y23.5901
G01 X19.6757 Y23.5781
G01 X19.6566 Y23.5636
G01 X19.6386 Y23.5528
G01 X19.6197 Y23.5438
G01 X19.5969 Y23.5360
G01 X19.5796 Y23.5317
G01 X19.5620 Y23.5290
G01 X19.5396 Y23.5276
G01 X17.8851 Y23.5277
G01 X17.8669 Y23.5287
G01 X17.8459 Y23.5318
G01 X17.8296 Y23.5357
G01 X17.8137 Y23.5410
G01 X17.7955 Y23.5487
G01 X17.7757 Y23.5596
G01 X17.7594 Y23.5707
G01 X17.7442 Y23.5833
G01 X17.7313 Y23.5962
G01 X17.7177 Y23.6124
G01 X17.7082 Y23.6262
G01 X17.6983 Y23.6433
G01 X17.6957 Y23.6485
G01 X17.6890 Y23.6639
G01 X17.6827 Y23.6826
G01 X17.6782 Y23.7018
G01 X17.6757 Y23.7199
G01 X17.6746 Y23.7410
G01 X17.6746 Y24.0410
G01 X17.6756 Y24.0619
G01 X17.6787 Y24.0826
G01 X17.6838 Y24.1029
G01 X17.6908 Y24.1227
G01 X17.6998 Y24.1416
G01 X17.7106 Y24.1596
G01 X17.7230 Y24.1764
G01 X17.7360 Y24.1908
G01 X17.7526 Y24.2060
G01 X17.7669 Y24.2166
G01 X17.7847 Y24.2277
G01 X17.7902 Y24.2306
G01 X17.8063 Y24.2382
G01 X17.8261 Y24.2452
G01 X17.8464 Y24.2503
G01 X17.8671 Y24.2534
G01 X17.8880 Y24.2544
G01 X18.3494 Y24.2544
G01 X18.3495 Y25.8856
G01 X18.3014 Y25.8856
G01 X18.2723 Y25.8871
G01 X18.2419 Y25.8916
G01 X18.2120 Y25.8991
G01 X18.1831 Y25.9095
G01 X18.1553 Y25.9226
G01 X18.1289 Y25.9384
G01 X18.1042 Y25.9567
G01 X18.0814 Y25.9774
G01 X18.0607 Y26.0002
G01 X18.0424 Y26.0249
G01 X18.0266 Y26.0513
G01 X18.0135 Y26.0791
G01 X18.0031 Y26.1080
G01 X17.9956 Y26.1379
G01 X17.9915 Y26.1652
G01 X17.9908 Y26.1729
G01 X17.2533 Y26.1730
G01 X17.2501 Y26.1504
G01 X17.2434 Y26.1222
G01 X17.2342 Y26.0948
G01 X17.2225 Y26.0683
G01 X17.2085 Y26.0430
G01 X17.1921 Y26.0191
G01 X17.1736 Y25.9969
G01 X17.1553 Y25.9784
G01 X17.1309 Y25.9579
G01 X17.1094 Y25.9431
G01 X17.0843 Y25.9288
G01 X17.0790 Y25.9262
G01 X17.0552 Y25.9158
G01 X17.0278 Y25.9066
G01 X16.9996 Y25.8999
G01 X16.9724 Y25.8961
G01 X16.9420 Y25.8946
G01 X16.0404 Y25.8946
G01 X16.0113 Y25.8961
G01 X15.9809 Y25.9006
G01 X15.9510 Y25.9081
G01 X15.9250 Y25.9173
G01 X15.9192 Y25.9197
G01 X15.8943 Y25.9316
G01 X15.8705 Y25.9458
G01 X15.8653 Y25.9492
G01 X15.8432 Y25.9657
G01 X15.8226 Y25.9842
G01 X15.8182 Y25.9886
G01 X15.7997 Y26.0092
G01 X15.7832 Y26.0313
G01 X15.7798 Y26.0365
G01 X15.7656 Y26.0603
G01 X15.7537 Y26.0852
G01 X15.7513 Y26.0910
G01 X15.7421 Y26.1170
G01 X15.7353 Y26.1438
G01 X15.7341 Y26.1499
G01 X15.7303 Y26.1757
G01 X15.7286 Y26.2080
G01 X15.7286 Y26.9080
G01 X15.7299 Y26.9356
G01 X15.7305 Y26.9418
G01 X15.7346 Y26.9691
G01 X15.7413 Y26.9960
G01 X15.7431 Y27.0019
G01 X15.7525 Y27.0279
G01 X15.7642 Y27.0530
G01 X15.7671 Y27.0584
G01 X15.7814 Y27.0821
G01 X15.7997 Y27.1068
G01 X15.8204 Y27.1296
G01 X15.8432 Y27.1503
G01 X15.8653 Y27.1668
G01 X15.8705 Y27.1702
G01 X15.8943 Y27.1844
G01 X15.9192 Y27.1963
G01 X15.9481 Y27.2069
G01 X15.9540 Y27.2087
G01 X15.9809 Y27.2154
G01 X16.0097 Y27.2197
G01 X16.0420 Y27.2214
G01 X16.9420 Y27.2214
G01 X16.9743 Y27.2197
G01 X17.0031 Y27.2154
G01 X17.0330 Y27.2079
G01 X17.0619 Y27.1975
G01 X17.0897 Y27.1844
G01 X17.1161 Y27.1686
G01 X17.1408 Y27.1503
G01 X17.1636 Y27.1296
G01 X17.1833 Y27.1080
G01 X17.2026 Y27.0821
G01 X17.2184 Y27.0557
G01 X17.2315 Y27.0279
G01 X17.2409 Y27.0019
G01 X17.2427 Y26.9960
G01 X17.2494 Y26.9691
G01 X17.2535 Y26.9418
G01 X17.2553 Y26.9111
G01 X17.2554 Y26.9001
G01 X17.9908 Y26.9000
G01 X17.9915 Y26.9078
G01 X17.9963 Y26.9382
G01 X18.0031 Y26.9650
G01 X18.0123 Y26.9910
G01 X18.0147 Y26.9968
G01 X18.0266 Y27.0217
G01 X18.0424 Y27.0481
G01 X18.0607 Y27.0728
G01 X18.0792 Y27.0934
G01 X18.0836 Y27.0978
G01 X18.1042 Y27.1163
G01 X18.1289 Y27.1346
G01 X18.1553 Y27.1504
G01 X18.1831 Y27.1635
G01 X18.2120 Y27.1739
G01 X18.2419 Y27.1814
G01 X18.2723 Y27.1859
G01 X18.3014 Y27.1874
G01 X19.2530 Y27.1874
G01 X19.2853 Y27.1857
G01 X19.3141 Y27.1814
G01 X19.3410 Y27.1747
G01 X19.3469 Y27.1729
G01 X19.3758 Y27.1623
G01 X19.4007 Y27.1504
G01 X19.4245 Y27.1362
G01 X19.4297 Y27.1328
G01 X19.4518 Y27.1163
G01 X19.4746 Y27.0956
G01 X19.4953 Y27.0728
G01 X19.5133 Y27.0486
G01 X21.2928 Y27.0485
G01 X21.2935 Y27.0563
G01 X21.2976 Y27.0836
G01 X21.3051 Y27.1135
G01 X21.3155 Y27.1424
G01 X21.3272 Y27.1675
G01 X21.3301 Y27.1729
G01 X21.3444 Y27.1966
G01 X21.3608 Y27.2189
G01 X21.3812 Y27.2419
G01 X21.3856 Y27.2463
G01 X21.4062 Y27.2648
G01 X21.4309 Y27.2831
G01 X21.4573 Y27.2989
G01 X21.4851 Y27.3120
G01 X21.5140 Y27.3224
G01 X21.5454 Y27.3302
G01 X21.5743 Y27.3344
G01 X21.6034 Y27.3359
G01 X21.7164 Y27.3359
G01 X21.7165 Y29.6234
G01 X5.4666 Y29.6235
G01 X4.0286 Y28.1854
G01 X4.0285 Y4.9408
G00 Z2.0000
G00 X6.5480 Y4.3586
G01 F40.00
G01 Z-0.0500
G01 F35.00
G01 X8.1496 Y4.3586
G01 X8.1604 Y4.3598
G01 X8.1694 Y4.3623
G01 X8.1779 Y4.3661
G01 X8.1870 Y4.3720
G01 X8.1950 Y4.3794
G01 X8.2007 Y4.3868
G01 X8.2060 Y4.3963
G01 X8.2091 Y4.4051
G01 X8.2109 Y4.4142
G01 X8.2114 Y4.4220
G01 X8.2114 Y6.0220
G01 X8.2109 Y6.0298
G01 X8.2099 Y6.0359
G01 X8.2082 Y6.0419
G01 X8.2060 Y6.0477
G01 X8.2024 Y6.0546
G01 X8.1970 Y6.0622
G01 X8.1906 Y6.0690
G01 X8.1832 Y6.0747
G01 X8.1751 Y6.0793
G01 X8.1679 Y6.0822
G01 X8.1588 Y6.0845
G01 X8.1511 Y6.0853
G01 X7.4575 Y6.0854
G01 X7.4576 Y7.1146
G01 X7.5471 Y7.1147
G01 X7.5747 Y7.1161
G01 X7.6051 Y7.1206
G01 X7.6350 Y7.1281
G01 X7.6639 Y7.1385
G01 X7.6917 Y7.1516
G01 X7.7194 Y7.1683
G01 X7.7428 Y7.1857
G01 X7.7634 Y7.2042
G01 X7.7678 Y7.2086
G01 X7.7863 Y7.2292
G01 X7.8028 Y7.2513
G01 X7.8189 Y7.2776
G01 X7.8218 Y7.2830
G01 X7.8335 Y7.3081
G01 X7.8439 Y7.3370
G01 X7.8514 Y7.3669
G01 X7.8560 Y7.3988
G01 X7.8574 Y7.4280
G01 X7.8574 Y8.1280
G01 X7.8559 Y8.1587
G01 X7.8511 Y8.1907
G01 X7.8439 Y8.2190
G01 X7.8347 Y8.2450
G01 X7.8323 Y8.2508
G01 X7.8204 Y8.2757
G01 X7.8062 Y8.2995
G01 X7.8028 Y8.3047
G01 X7.7863 Y8.3268
G01 X7.7678 Y8.3474
G01 X7.7634 Y8.3518
G01 X7.7428 Y8.3703
G01 X7.7207 Y8.3868
G01 X7.7155 Y8.3902
G01 X7.6917 Y8.4044
G01 X7.6668 Y8.4163
G01 X7.6610 Y8.4187
G01 X7.6335 Y8.4283
G01 X7.6051 Y8.4354
G01 X7.5778 Y8.4395
G01 X7.5716 Y8.4401
G01 X7.5440 Y8.4414
G01 X6.6440 Y8.4414
G01 X6.6133 Y8.4399
G01 X6.5844 Y8.4357
G01 X6.5560 Y8.4287
G01 X6.5501 Y8.4269
G01 X6.5241 Y8.4175
G01 X6.4963 Y8.4044
G01 X6.4725 Y8.3902
G01 X6.4673 Y8.3868
G01 X6.4452 Y8.3703
G01 X6.4246 Y8.3518
G01 X6.4202 Y8.3474
G01 X6.4017 Y8.3268
G01 X6.3852 Y8.3047
G01 X6.3818 Y8.2995
G01 X6.3676 Y8.2757
G01 X6.3557 Y8.2508
G01 X6.3533 Y8.2450
G01 X6.3437 Y8.2175
G01 X6.3366 Y8.1891
G01 X6.3325 Y8.1618
G01 X6.3319 Y8.1556
G01 X6.3306 Y8.1296
G01 X6.3306 Y7.4280
G01 X6.3321 Y7.3973
G01 X6.3361 Y7.3699
G01 X6.3433 Y7.3400
G01 X6.3451 Y7.3341
G01 X6.3545 Y7.3081
G01 X6.3676 Y7.2803
G01 X6.3834 Y7.2539
G01 X6.4017 Y7.2292
G01 X6.4224 Y7.2064
G01 X6.4452 Y7.1857
G01 X6.4699 Y7.1674
G01 X6.4949 Y7.1524
G01 X6.5241 Y7.1385
G01 X6.5501 Y7.1291
G01 X6.5798 Y7.1213
G01 X6.5859 Y7.1201
G01 X6.6133 Y7.1161
G01 X6.6409 Y7.1147
G01 X6.7305 Y7.1146
G01 X6.7304 Y6.0854
G01 X6.5480 Y6.0854
G01 X6.5402 Y6.0849
G01 X6.5326 Y6.0835
G01 X6.5223 Y6.0800
G01 X6.5141 Y6.0756
G01 X6.5054 Y6.0690
G01 X6.4990 Y6.0622
G01 X6.4936 Y6.0546
G01 X6.4894 Y6.0463
G01 X6.4861 Y6.0359
G01 X6.4848 Y6.0267
G01 X6.4847 Y4.4189
G01 X6.4853 Y4.4127
G01 X6.4865 Y4.4066
G01 X6.4883 Y4.4006
G01 X6.4907 Y4.3949
G01 X6.4936 Y4.3894
G01 X6.4971 Y4.3842
G01 X6.5043 Y4.3761
G01 X6.5128 Y4.3693
G01 X6.5181 Y4.3661
G01 X6.5237 Y4.3634
G01 X6.5296 Y4.3613
G01 X6.5356 Y4.3598
G01 X6.5418 Y4.3589
G01 X6.5480 Y4.3586
G00 Z2.0000
G00 X6.5480 Y4.2762
G01 F40.00
G01 Z-0.0500
G01 F35.00
G01 X8.1480 Y4.2762
G01 X8.1587 Y4.2766
G01 X8.1694 Y4.2778
G01 X8.1799 Y4.2797
G01 X8.1937 Y4.2835
G01 X8.2038 Y4.2873
G01 X8.2136 Y4.2918
G01 X8.2230 Y4.2969
G01 X8.2349 Y4.3049
G01 X8.2432 Y4.3116
G01 X8.2511 Y4.3189
G01 X8.2584 Y4.3268
G01 X8.2651 Y4.3351
G01 X8.2712 Y4.3440
G01 X8.2782 Y4.3564
G01 X8.2827 Y4.3662
G01 X8.2865 Y4.3763
G01 X8.2894 Y4.3866
G01 X8.2910 Y4.3936
G01 X8.2927 Y4.4042
G01 X8.2936 Y4.4148
G01 X8.2938 Y4.4220
G01 X8.2938 Y6.0220
G01 X8.2931 Y6.0363
G01 X8.2910 Y6.0504
G01 X8.2875 Y6.0643
G01 X8.2827 Y6.0778
G01 X8.2782 Y6.0876
G01 X8.2731 Y6.0970
G01 X8.2692 Y6.1030
G01 X8.2630 Y6.1117
G01 X8.2560 Y6.1199
G01 X8.2485 Y6.1276
G01 X8.2432 Y6.1324
G01 X8.2349 Y6.1391
G01 X8.2290 Y6.1432
G01 X8.2199 Y6.1489
G01 X8.2103 Y6.1538
G01 X8.2038 Y6.1567
G01 X8.1937 Y6.1605
G01 X8.1869 Y6.1625
G01 X8.1764 Y6.1650
G01 X8.1658 Y6.1667
G01 X8.1587 Y6.1674
G01 X8.1480 Y6.1678
G01 X7.5400 Y6.1678
G01 X7.5400 Y7.0322
G01 X7.5512 Y7.0324
G01 X7.5828 Y7.0341
G01 X7.6212 Y7.0398
G01 X7.6589 Y7.0492
G01 X7.6955 Y7.0623
G01 X7.7306 Y7.0789
G01 X7.7639 Y7.0989
G01 X7.7951 Y7.1220
G01 X7.8213 Y7.1456
G01 X7.8288 Y7.1533
G01 X7.8500 Y7.1769
G01 X7.8731 Y7.2081
G01 X7.8931 Y7.2414
G01 X7.9083 Y7.2732
G01 X7.9123 Y7.2832
G01 X7.9228 Y7.3131
G01 X7.9315 Y7.3473
G01 X7.9334 Y7.3578
G01 X7.9375 Y7.3856
G01 X7.9384 Y7.3963
G01 X7.9396 Y7.4208
G01 X7.9398 Y8.1316
G01 X7.9382 Y8.1632
G01 X7.9370 Y8.1739
G01 X7.9322 Y8.2052
G01 X7.9238 Y8.2395
G01 X7.9205 Y8.2497
G01 X7.9097 Y8.2795
G01 X7.8963 Y8.3082
G01 X7.8896 Y8.3208
G01 X7.8731 Y8.3479
G01 X7.8544 Y8.3735
G01 X7.8453 Y8.3845
G01 X7.8239 Y8.4079
G01 X7.8005 Y8.4293
G01 X7.7895 Y8.4384
G01 X7.7639 Y8.4571
G01 X7.7368 Y8.4736
G01 X7.7242 Y8.4803
G01 X7.6955 Y8.4937
G01 X7.6657 Y8.5045
G01 X7.6520 Y8.5087
G01 X7.6212 Y8.5162
G01 X7.5899 Y8.5210
G01 X7.5757 Y8.5224
G01 X7.5440 Y8.5238
G01 X6.6440 Y8.5238
G01 X6.6052 Y8.5219
G01 X6.5668 Y8.5162
G01 X6.5360 Y8.5087
G01 X6.5223 Y8.5045
G01 X6.4925 Y8.4937
G01 X6.4574 Y8.4771
G01 X6.4301 Y8.4609
G01 X6.4182 Y8.4530
G01 X6.3929 Y8.4340
G01 X6.3693 Y8.4128
G01 X6.3592 Y8.4027
G01 X6.3380 Y8.3791
G01 X6.3190 Y8.3538
G01 X6.3111 Y8.3419
G01 X6.2949 Y8.3146
G01 X6.2797 Y8.2828
G01 X6.2757 Y8.2728
G01 X6.2675 Y8.2497
G01 X6.2633 Y8.2360
G01 X6.2558 Y8.2052
G01 X6.2510 Y8.1739
G01 X6.2498 Y8.1632
G01 X6.2482 Y8.1316
G01 X6.2482 Y7.4280
G01 X6.2501 Y7.3892
G01 X6.2546 Y7.3578
G01 X6.2574 Y7.3438
G01 X6.2633 Y7.3200
G01 X6.2663 Y7.3097
G01 X6.2783 Y7.2765
G01 X6.2933 Y7.2446
G01 X6.2984 Y7.2352
G01 X6.3111 Y7.2141
G01 X6.3190 Y7.2022
G01 X6.3380 Y7.1769
G01 X6.3641 Y7.1481
G01 X6.3929 Y7.1220
G01 X6.4182 Y7.1030
G01 X6.4301 Y7.0951
G01 X6.4543 Y7.0806
G01 X6.4638 Y7.0757
G01 X6.4925 Y7.0623
G01 X6.5291 Y7.0492
G01 X6.5668 Y7.0398
G01 X6.5981 Y7.0350
G01 X6.6123 Y7.0336
G01 X6.6368 Y7.0324
G01 X6.6480 Y7.0322
G01 X6.6480 Y6.1678
G01 X6.5480 Y6.1678
G01 X6.5337 Y6.1671
G01 X6.5196 Y6.1650
G01 X6.5057 Y6.1615
G01 X6.4955 Y6.1580
G01 X6.4889 Y6.1553
G01 X6.4761 Y6.1489
G01 X6.4700 Y6.1452
G01 X6.4611 Y6.1391
G01 X6.4555 Y6.1347
G01 X6.4475 Y6.1276
G01 X6.4400 Y6.1199
G01 X6.4330 Y6.1117
G01 X6.4288 Y6.1060
G01 X6.4229 Y6.0970
G01 X6.4178 Y6.0876
G01 X6.4147 Y6.0811
G01 X6.4120 Y6.0745
G01 X6.4085 Y6.0643
G01 X6.4057 Y6.0539
G01 X6.4038 Y6.0434
G01 X6.4029 Y6.0363
G01 X6.4022 Y6.0256
G01 X6.4022 Y4.4220
G01 X6.4026 Y4.4113
G01 X6.4038 Y4.4006
G01 X6.4066 Y4.3866
G01 X6.4107 Y4.3729
G01 X6.4162 Y4.3597
G01 X6.4229 Y4.3470
G01 X6.4309 Y4.3351
G01 X6.4376 Y4.3268
G01 X6.4475 Y4.3164
G01 X6.4583 Y4.3070
G01 X6.4700 Y4.2988
G01 X6.4824 Y4.2918
G01 X6.4955 Y4.2860
G01 X6.5091 Y4.2815
G01 X6.5231 Y4.2783
G01 X6.5373 Y4.2766
G01 X6.5480 Y4.2762
G00 Z2.0000
G00 X6.5480 Y4.1938
G01 F40.00
G01 Z-0.0500
G01 F35.00
G01 X8.1480 Y4.1938
G01 X8.1648 Y4.1944
G01 X8.1759 Y4.1955
G01 X8.1870 Y4.1971
G01 X8.1980 Y4.1993
G01 X8.2089 Y4.2020
G01 X8.2196 Y4.2053
G01 X8.2301 Y4.2091
G01 X8.2405 Y4.2133
G01 X8.2556 Y4.2207
G01 X8.2653 Y4.2262
G01 X8.2794 Y4.2354
G01 X8.2928 Y4.2456
G01 X8.3013 Y4.2529
G01 X8.3133 Y4.2646
G01 X8.3208 Y4.2729
G01 X8.3279 Y4.2816
G01 X8.3378 Y4.2952
G01 X8.3466 Y4.3095
G01 X8.3519 Y4.3194
G01 X8.3589 Y4.3347
G01 X8.3629 Y4.3451
G01 X8.3664 Y4.3557
G01 X8.3707 Y4.3720
G01 X8.3738 Y4.3885
G01 X8.3751 Y4.3996
G01 X8.3760 Y4.4108
G01 X8.3762 Y4.4220
G01 X8.3762 Y4.8886
G01 X8.3980 Y4.8285
G01 X8.4026 Y4.8183
G01 X8.4386 Y4.7423
G01 X8.4467 Y4.7275
G01 X8.4871 Y4.6602
G01 X8.4962 Y4.6461
G01 X8.5463 Y4.5785
G01 X8.5532 Y4.5697
G01 X8.6132 Y4.5030
G01 X8.6209 Y4.4949
G01 X8.6290 Y4.4872
G01 X8.6914 Y4.4308
G01 X8.7045 Y4.4203
G01 X8.7767 Y4.3670
G01 X8.8535 Y4.3207
G01 X8.8633 Y4.3152
G01 X8.8733 Y4.3101
G01 X8.9545 Y4.2720
G01 X9.0389 Y4.2415
G01 X9.0495 Y4.2380
G01 X9.0603 Y4.2350
G01 X9.1365 Y4.2160
G01 X9.1529 Y4.2125
G01 X9.2361 Y4.2001
G01 X9.2472 Y4.1987
G01 X9.2584 Y4.1979
G01 X9.3480 Y4.1938
G01 X9.4376 Y4.1979
G01 X9.4488 Y4.1987
G01 X9.4599 Y4.2001
G01 X9.5486 Y4.2135
G01 X9.6357 Y4.2350
G01 X9.6465 Y4.2380
G01 X9.6571 Y4.2415
G01 X9.7415 Y4.2720
G01 X9.8227 Y4.3101
G01 X9.8327 Y4.3152
G01 X9.8425 Y4.3207
G01 X9.9193 Y4.3670
G01 X9.9915 Y4.4203
G01 X10.0003 Y4.4272
G01 X10.0088 Y4.4345
G01 X10.0751 Y4.4949
G01 X10.1355 Y4.5612
G01 X10.1428 Y4.5697
G01 X10.1497 Y4.5785
G01 X10.1965 Y4.6416
G01 X10.2030 Y4.6507
G01 X10.2089 Y4.6602
G01 X10.2548 Y4.7373
G01 X10.2934 Y4.8183
G01 X10.2980 Y4.8285
G01 X10.3020 Y4.8390
G01 X10.3320 Y4.9235
G01 X10.3540 Y5.0105
G01 X10.3565 Y5.0214
G01 X10.3584 Y5.0324
G01 X10.3713 Y5.1212
G01 X10.3760 Y5.2108
G01 X10.3762 Y5.2220
G01 X10.3760 Y5.2332
G01 X10.3713 Y5.3228
G01 X10.3584 Y5.4116
G01 X10.3565 Y5.4226
G01 X10.3540 Y5.4335
G01 X10.3350 Y5.5097
G01 X10.3303 Y5.5258
G01 X10.3020 Y5.6050
G01 X10.2980 Y5.6155
G01 X10.2599 Y5.6967
G01 X10.2548 Y5.7067
G01 X10.2089 Y5.7838
G01 X10.2030 Y5.7933
G01 X10.1624 Y5.8484
G01 X10.1624 Y6.9565
G01 X10.1828 Y6.9601
G01 X10.2120 Y6.9674
G01 X10.2282 Y6.9720
G01 X10.2670 Y6.9862
G01 X10.2994 Y7.0012
G01 X10.3094 Y7.0062
G01 X10.3192 Y7.0118
G01 X10.3497 Y7.0304
G01 X10.3830 Y7.0548
G01 X10.3917 Y7.0619
G01 X10.4141 Y7.0821
G01 X10.4222 Y7.0898
G01 X10.4299 Y7.0979
G01 X10.4537 Y7.1246
G01 X10.4752 Y7.1531
G01 X10.4816 Y7.1623
G01 X10.5002 Y7.1928
G01 X10.5058 Y7.2026
G01 X10.5236 Y7.2398
G01 X10.5279 Y7.2502
G01 X10.5381 Y7.2785
G01 X10.5416 Y7.2892
G01 X10.5446 Y7.3000
G01 X10.5519 Y7.3292
G01 X10.5541 Y7.3402
G01 X10.5586 Y7.3700
G01 X10.5604 Y7.3867
G01 X10.5622 Y7.4280
G01 X10.5622 Y8.1280
G01 X10.5620 Y8.1392
G01 X10.5599 Y8.1749
G01 X10.5550 Y8.2103
G01 X10.5519 Y8.2268
G01 X10.5446 Y8.2560
G01 X10.5416 Y8.2668
G01 X10.5381 Y8.2775
G01 X10.5279 Y8.3058
G01 X10.5236 Y8.3162
G01 X10.5108 Y8.3434
G01 X10.5031 Y8.3583
G01 X10.4816 Y8.3937
G01 X10.4606 Y8.4226
G01 X10.4537 Y8.4314
G01 X10.4299 Y8.4581
G01 X10.4222 Y8.4662
G01 X10.3959 Y8.4904
G01 X10.3874 Y8.4977
G01 X10.3786 Y8.5046
G01 X10.3543 Y8.5225
G01 X10.3450 Y8.5287
G01 X10.3094 Y8.5498
G01 X10.2773 Y8.5653
G01 X10.2670 Y8.5698
G01 X10.2282 Y8.5840
G01 X10.2120 Y8.5886
G01 X10.1773 Y8.5971
G01 X10.1663 Y8.5990
G01 X10.1309 Y8.6039
G01 X10.0952 Y8.6060
G01 X10.0840 Y8.6062
G01 X9.1840 Y8.6062
G01 X9.1483 Y8.6048
G01 X9.1316 Y8.6033
G01 X9.0962 Y8.5981
G01 X9.0798 Y8.5946
G01 X9.0452 Y8.5856
G01 X9.0345 Y8.5821
G01 X9.0010 Y8.5698
G01 X8.9686 Y8.5548
G01 X8.9537 Y8.5471
G01 X8.9230 Y8.5287
G01 X8.9091 Y8.5192
G01 X8.8806 Y8.4977
G01 X8.8539 Y8.4739
G01 X8.8419 Y8.4622
G01 X8.8179 Y8.4357
G01 X8.8074 Y8.4226
G01 X8.7895 Y8.3983
G01 X8.7804 Y8.3842
G01 X8.7622 Y8.3534
G01 X8.7444 Y8.3162
G01 X8.7381 Y8.3006
G01 X8.7264 Y8.2668
G01 X8.7161 Y8.2268
G01 X8.7130 Y8.2103
G01 X8.7087 Y8.1804
G01 X8.7076 Y8.1693
G01 X8.7058 Y8.1280
G01 X8.7058 Y7.4280
G01 X8.7076 Y7.3867
G01 X8.7094 Y7.3700
G01 X8.7149 Y7.3347
G01 X8.7234 Y7.3000
G01 X8.7264 Y7.2892
G01 X8.7299 Y7.2785
G01 X8.7422 Y7.2450
G01 X8.7572 Y7.2126
G01 X8.7622 Y7.2026
G01 X8.7678 Y7.1928
G01 X8.7833 Y7.1670
G01 X8.7895 Y7.1577
G01 X8.8143 Y7.1246
G01 X8.8419 Y7.0938
G01 X8.8498 Y7.0859
G01 X8.8721 Y7.0656
G01 X8.8806 Y7.0583
G01 X8.8894 Y7.0514
G01 X8.9183 Y7.0304
G01 X8.9488 Y7.0118
G01 X8.9586 Y7.0062
G01 X8.9907 Y6.9907
G01 X9.0010 Y6.9862
G01 X9.0398 Y6.9720
G01 X9.0560 Y6.9674
G01 X9.0852 Y6.9601
G01 X9.1056 Y6.9565
G01 X9.1056 Y6.2203
G01 X9.0603 Y6.2090
G01 X9.0442 Y6.2043
G01 X8.9597 Y6.1740
G01 X8.9443 Y6.1674
G01 X8.8733 Y6.1339
G01 X8.8584 Y6.1261
G01 X8.7862 Y6.0829
G01 X8.7767 Y6.0770
G01 X8.7676 Y6.0705
G01 X8.6957 Y6.0168
G01 X8.6290 Y5.9568
G01 X8.6209 Y5.9491
G01 X8.6132 Y5.9410
G01 X8.5532 Y5.8743
G01 X8.4995 Y5.8024
G01 X8.4900 Y5.7886
G01 X8.4467 Y5.7165
G01 X8.4412 Y5.7067
G01 X8.4361 Y5.6967
G01 X8.3980 Y5.6155
G01 X8.3762 Y5.5554
G01 X8.3762 Y6.0220
G01 X8.3756 Y6.0388
G01 X8.3745 Y6.0499
G01 X8.3719 Y6.0665
G01 X8.3694 Y6.0775
G01 X8.3664 Y6.0883
G01 X8.3629 Y6.0989
G01 X8.3589 Y6.1093
G01 X8.3543 Y6.1196
G01 X8.3493 Y6.1296
G01 X8.3408 Y6.1441
G01 X8.3346 Y6.1534
G01 X8.3279 Y6.1624
G01 X8.3208 Y6.1711
G01 X8.3133 Y6.1794
G01 X8.3013 Y6.1911
G01 X8.2884 Y6.2019
G01 X8.2748 Y6.2118
G01 X8.2605 Y6.2206
G01 X8.2506 Y6.2259
G01 X8.2405 Y6.2307
G01 X8.2301 Y6.2349
G01 X8.2196 Y6.2387
G01 X8.2035 Y6.2434
G01 X8.1870 Y6.2469
G01 X8.1704 Y6.2491
G01 X8.1592 Y6.2500
G01 X8.1480 Y6.2502
G01 X7.6224 Y6.2502
G01 X7.6224 Y6.9565
G01 X7.6428 Y6.9601
G01 X7.6720 Y6.9674
G01 X7.6882 Y6.9720
G01 X7.7270 Y6.9862
G01 X7.7373 Y6.9907
G01 X7.7694 Y7.0062
G01 X7.8002 Y7.0244
G01 X7.8097 Y7.0304
G01 X7.8386 Y7.0514
G01 X7.8474 Y7.0583
G01 X7.8559 Y7.0656
G01 X7.8782 Y7.0859
G01 X7.8861 Y7.0938
G01 X7.9137 Y7.1246
G01 X7.9385 Y7.1577
G01 X7.9447 Y7.1670
G01 X7.9602 Y7.1928
G01 X7.9658 Y7.2026
G01 X7.9708 Y7.2126
G01 X7.9858 Y7.2450
G01 X7.9899 Y7.2554
G01 X8.0016 Y7.2892
G01 X8.0046 Y7.3000
G01 X8.0131 Y7.3347
G01 X8.0186 Y7.3700
G01 X8.0204 Y7.3867
G01 X8.0222 Y7.4280
G01 X8.0222 Y8.1280
G01 X8.0204 Y8.1693
G01 X8.0193 Y8.1804
G01 X8.0150 Y8.2103
G01 X8.0119 Y8.2268
G01 X8.0016 Y8.2668
G01 X7.9899 Y8.3006
G01 X7.9836 Y8.3162
G01 X7.9658 Y8.3534
G01 X7.9447 Y8.3890
G01 X7.9352 Y8.4029
G01 X7.9137 Y8.4314
G01 X7.8899 Y8.4581
G01 X7.8782 Y8.4701
G01 X7.8559 Y8.4904
G01 X7.8430 Y8.5012
G01 X7.8143 Y8.5225
G01 X7.8002 Y8.5316
G01 X7.7694 Y8.5498
G01 X7.7373 Y8.5653
G01 X7.7218 Y8.5719
G01 X7.6882 Y8.5840
G01 X7.6720 Y8.5886
G01 X7.6373 Y8.5971
G01 X7.6020 Y8.6026
G01 X7.5853 Y8.6044
G01 X7.5496 Y8.6062
G01 X6.6440 Y8.6062
G01 X6.6083 Y8.6048
G01 X6.5916 Y8.6033
G01 X6.5507 Y8.5971
G01 X6.5160 Y8.5886
G01 X6.5052 Y8.5856
G01 X6.4945 Y8.5821
G01 X6.4610 Y8.5698
G01 X6.4507 Y8.5653
G01 X6.4186 Y8.5498
G01 X6.3878 Y8.5316
G01 X6.3783 Y8.5256
G01 X6.3691 Y8.5192
G01 X6.3406 Y8.4977
G01 X6.3321 Y8.4904
G01 X6.3058 Y8.4662
G01 X6.2816 Y8.4399
G01 X6.2743 Y8.4314
G01 X6.2674 Y8.4226
G01 X6.2495 Y8.3983
G01 X6.2433 Y8.3890
G01 X6.2222 Y8.3534
G01 X6.2067 Y8.3213
G01 X6.2022 Y8.3110
G01 X6.1880 Y8.2722
G01 X6.1834 Y8.2560
G01 X6.1749 Y8.2213
G01 X6.1730 Y8.2103
G01 X6.1681 Y8.1749
G01 X6.1660 Y8.1392
G01 X6.1658 Y8.1280
G01 X6.1658 Y7.4280
G01 X6.1660 Y7.4168
G01 X6.1681 Y7.3811
G01 X6.1694 Y7.3700
G01 X6.1749 Y7.3347
G01 X6.1834 Y7.3000
G01 X6.1864 Y7.2892
G01 X6.1981 Y7.2554
G01 X6.2044 Y7.2398
G01 X6.2222 Y7.2026
G01 X6.2404 Y7.1718
G01 X6.2464 Y7.1623
G01 X6.2674 Y7.1334
G01 X6.2743 Y7.1246
G01 X6.2816 Y7.1161
G01 X6.3019 Y7.0938
G01 X6.3098 Y7.0859
G01 X6.3406 Y7.0583
G01 X6.3691 Y7.0368
G01 X6.3783 Y7.0304
G01 X6.3878 Y7.0244
G01 X6.4137 Y7.0089
G01 X6.4235 Y7.0037
G01 X6.4610 Y6.9862
G01 X6.4998 Y6.9720
G01 X6.5160 Y6.9674
G01 X6.5452 Y6.9601
G01 X6.5656 Y6.9565
G01 X6.5656 Y6.2502
G01 X6.5368 Y6.2500
G01 X6.5201 Y6.2485
G01 X6.5090 Y6.2469
G01 X6.4980 Y6.2447
G01 X6.4871 Y6.2420
G01 X6.4764 Y6.2387
G01 X6.4607 Y6.2329
G01 X6.4504 Y6.2283
G01 X6.4404 Y6.2233
G01 X6.4307 Y6.2178
G01 X6.4212 Y6.2118
G01 X6.4120 Y6.2053
G01 X6.4032 Y6.1984
G01 X6.3947 Y6.1911
G01 X6.3866 Y6.1834
G01 X6.3789 Y6.1753
G01 X6.3716 Y6.1668
G01 X6.3647 Y6.1580
G01 X6.3582 Y6.1488
G01 X6.3522 Y6.1393
G01 X6.3467 Y6.1296
G01 X6.3417 Y6.1196
G01 X6.3371 Y6.1093
G01 X6.3331 Y6.0989
G01 X6.3296 Y6.0883
G01 X6.3266 Y6.0775
G01 X6.3241 Y6.0665
G01 X6.3222 Y6.0555
G01 X6.3209 Y6.0444
G01 X6.3200 Y6.0332
G01 X6.3198 Y6.0220
G01 X6.3198 Y4.4220
G01 X6.3204 Y4.4052
G01 X6.3215 Y4.3941
G01 X6.3231 Y4.3830
G01 X6.3253 Y4.3720
G01 X6.3280 Y4.3611
G01 X6.3331 Y4.3451
G01 X6.3371 Y4.3347
G01 X6.3417 Y4.3244
G01 X6.3467 Y4.3144
G01 X6.3522 Y4.3047
G01 X6.3582 Y4.2952
G01 X6.3647 Y4.2860
G01 X6.3716 Y4.2772
G01 X6.3789 Y4.2687
G01 X6.3866 Y4.2606
G01 X6.3947 Y4.2529
G01 X6.4076 Y4.2421
G01 X6.4166 Y4.2354
G01 X6.4259 Y4.2292
G01 X6.4355 Y4.2234
G01 X6.4454 Y4.2181
G01 X6.4555 Y4.2133
G01 X6.4659 Y4.2091
G01 X6.4764 Y4.2053
G01 X6.4871 Y4.2020
G01 X6.5035 Y4.1981
G01 X6.5145 Y4.1962
G01 X6.5256 Y4.1949
G01 X6.5368 Y4.1940
G01 X6.5480 Y4.1938
G00 Z2.0000
G00 X6.4832 Y6.3258
G01 F40.00
G01 Z-0.0500
G01 F35.00
G01 X6.4725 Y6.3233
G01 X6.4578 Y6.3193
G01 X6.4362 Y6.3118
G01 X6.4221 Y6.3060
G01 X6.4083 Y6.2995
G01 X6.3883 Y6.2885
G01 X6.3691 Y6.2760
G01 X6.3509 Y6.2621
G01 X6.3338 Y6.2470
G01 X6.3230 Y6.2362
G01 X6.3128 Y6.2249
G01 X6.2985 Y6.2071
G01 X6.2855 Y6.1882
G01 X6.2777 Y6.1751
G01 X6.2705 Y6.1617
G01 X6.2610 Y6.1409
G01 X6.2555 Y6.1267
G01 X6.2507 Y6.1122
G01 X6.2449 Y6.0901
G01 X6.2419 Y6.0751
G01 X6.2397 Y6.0600
G01 X6.2377 Y6.0372
G01 X6.2373 Y6.0220
G01 X6.2373 Y4.4220
G01 X6.2382 Y4.3991
G01 X6.2397 Y4.3840
G01 X6.2433 Y4.3614
G01 X6.2486 Y4.3391
G01 X6.2530 Y4.3246
G01 X6.2610 Y4.3031
G01 X6.2672 Y4.2892
G01 X6.2740 Y4.2756
G01 X6.2815 Y4.2623
G01 X6.2897 Y4.2494
G01 X6.2985 Y4.2369
G01 X6.3128 Y4.2191
G01 X6.3230 Y4.2078
G01 X6.3338 Y4.1970
G01 X6.3509 Y4.1819
G01 X6.3691 Y4.1680
G01 X6.3818 Y4.1595
G01 X6.4016 Y4.1480
G01 X6.4221 Y4.1380
G01 X6.4362 Y4.1322
G01 X6.4578 Y4.1247
G01 X6.4799 Y4.1189
G01 X6.5024 Y4.1147
G01 X6.5176 Y4.1128
G01 X6.5404 Y4.1114
G01 X8.1480 Y4.1113
G01 X8.1632 Y4.1117
G01 X8.1784 Y4.1128
G01 X8.1936 Y4.1147
G01 X8.2086 Y4.1173
G01 X8.2235 Y4.1207
G01 X8.2382 Y4.1247
G01 X8.2527 Y4.1295
G01 X8.2669 Y4.1350
G01 X8.2808 Y4.1412
G01 X8.2944 Y4.1480
G01 X8.3077 Y4.1555
G01 X8.3269 Y4.1680
G01 X8.3391 Y4.1771
G01 X8.3566 Y4.1918
G01 X8.3677 Y4.2023
G01 X8.3782 Y4.2134
G01 X8.3929 Y4.2309
G01 X8.4020 Y4.2431
G01 X8.4105 Y4.2558
G01 X8.4183 Y4.2689
G01 X8.4255 Y4.2823
G01 X8.4320 Y4.2961
G01 X8.4378 Y4.3102
G01 X8.4430 Y4.3246
G01 X8.4493 Y4.3465
G01 X8.4527 Y4.3614
G01 X8.4553 Y4.3764
G01 X8.4572 Y4.3916
G01 X8.4586 Y4.4144
G01 X8.4587 Y4.5583
G01 X8.4847 Y4.5234
G01 X8.4944 Y4.5116
G01 X8.5521 Y4.4477
G01 X8.5681 Y4.4313
G01 X8.6319 Y4.3734
G01 X8.6434 Y4.3634
G01 X8.6554 Y4.3541
G01 X8.7185 Y4.3073
G01 X8.7373 Y4.2944
G01 X8.8112 Y4.2500
G01 X8.8244 Y4.2425
G01 X8.8381 Y4.2356
G01 X8.9090 Y4.2021
G01 X8.9230 Y4.1959
G01 X8.9372 Y4.1904
G01 X9.0111 Y4.1639
G01 X9.0256 Y4.1592
G01 X9.0403 Y4.1551
G01 X9.1239 Y4.1343
G01 X9.1463 Y4.1301
G01 X9.2240 Y4.1186
G01 X9.2391 Y4.1167
G01 X9.2543 Y4.1156
G01 X9.3328 Y4.1117
G01 X9.3556 Y4.1114
G01 X9.4417 Y4.1156
G01 X9.4569 Y4.1167
G01 X9.4720 Y4.1186
G01 X9.5497 Y4.1301
G01 X9.5647 Y4.1327
G01 X9.5796 Y4.1360
G01 X9.6557 Y4.1551
G01 X9.6704 Y4.1592
G01 X9.6849 Y4.1639
G01 X9.7588 Y4.1904
G01 X9.7730 Y4.1959
G01 X9.7870 Y4.2021
G01 X9.8648 Y4.2390
G01 X9.8848 Y4.2500
G01 X9.9522 Y4.2904
G01 X9.9650 Y4.2985
G01 X9.9775 Y4.3073
G01 X10.0406 Y4.3541
G01 X10.0526 Y4.3634
G01 X10.0641 Y4.3734
G01 X10.1279 Y4.4313
G01 X10.1439 Y4.4477
G01 X10.1966 Y4.5059
G01 X10.2066 Y4.5174
G01 X10.2159 Y4.5294
G01 X10.2627 Y4.5925
G01 X10.2715 Y4.6050
G01 X10.2796 Y4.6178
G01 X10.3200 Y4.6852
G01 X10.3275 Y4.6984
G01 X10.3344 Y4.7121
G01 X10.3679 Y4.7830
G01 X10.3741 Y4.7970
G01 X10.3796 Y4.8112
G01 X10.4061 Y4.8851
G01 X10.4108 Y4.8996
G01 X10.4149 Y4.9143
G01 X10.4340 Y4.9904
G01 X10.4387 Y5.0128
G01 X10.4514 Y5.0980
G01 X10.4533 Y5.1131
G01 X10.4544 Y5.1283
G01 X10.4583 Y5.2068
G01 X10.4587 Y5.2220
G01 X10.4583 Y5.2372
G01 X10.4544 Y5.3157
G01 X10.4533 Y5.3309
G01 X10.4514 Y5.3460
G01 X10.4399 Y5.4237
G01 X10.4357 Y5.4461
G01 X10.4149 Y5.5297
G01 X10.4108 Y5.5444
G01 X10.4061 Y5.5589
G01 X10.3796 Y5.6328
G01 X10.3711 Y5.6540
G01 X10.3344 Y5.7319
G01 X10.3238 Y5.7522
G01 X10.2756 Y5.8327
G01 X10.2672 Y5.8453
G01 X10.2448 Y5.8756
G01 X10.2448 Y6.8909
G01 X10.2612 Y6.8963
G01 X10.2915 Y6.9072
G01 X10.3125 Y6.9162
G01 X10.3483 Y6.9335
G01 X10.3616 Y6.9411
G01 X10.3891 Y6.9577
G01 X10.4080 Y6.9706
G01 X10.4397 Y6.9946
G01 X10.4512 Y7.0046
G01 X10.4750 Y7.0262
G01 X10.4910 Y7.0426
G01 X10.5174 Y7.0723
G01 X10.5268 Y7.0843
G01 X10.5459 Y7.1102
G01 X10.5583 Y7.1294
G01 X10.5785 Y7.1637
G01 X10.5853 Y7.1773
G01 X10.5990 Y7.2064
G01 X10.6075 Y7.2277
G01 X10.6205 Y7.2652
G01 X10.6246 Y7.2799
G01 X10.6323 Y7.3112
G01 X10.6353 Y7.3261
G01 X10.6411 Y7.3655
G01 X10.6426 Y7.3806
G01 X10.6446 Y7.4204
G01 X10.6447 Y8.1280
G01 X10.6443 Y8.1432
G01 X10.6426 Y8.1754
G01 X10.6401 Y8.1981
G01 X10.6339 Y8.2374
G01 X10.6246 Y8.2761
G01 X10.6182 Y8.2980
G01 X10.6048 Y8.3355
G01 X10.5990 Y8.3496
G01 X10.5820 Y8.3855
G01 X10.5709 Y8.4056
G01 X10.5502 Y8.4395
G01 X10.5414 Y8.4520
G01 X10.5222 Y8.4777
G01 X10.5074 Y8.4952
G01 X10.4804 Y8.5244
G01 X10.4694 Y8.5350
G01 X10.4455 Y8.5565
G01 X10.4277 Y8.5708
G01 X10.3955 Y8.5942
G01 X10.3826 Y8.6023
G01 X10.3550 Y8.6188
G01 X10.3347 Y8.6293
G01 X10.2986 Y8.6460
G01 X10.2843 Y8.6515
G01 X10.2540 Y8.6622
G01 X10.2321 Y8.6686
G01 X10.1934 Y8.6779
G01 X10.1784 Y8.6805
G01 X10.1465 Y8.6851
G01 X10.1237 Y8.6871
G01 X10.0840 Y8.6887
G01 X9.1840 Y8.6887
G01 X9.1688 Y8.6883
G01 X9.1366 Y8.6866
G01 X9.1139 Y8.6841
G01 X9.0821 Y8.6793
G01 X9.0672 Y8.6763
G01 X9.0286 Y8.6666
G01 X9.0140 Y8.6622
G01 X8.9837 Y8.6515
G01 X8.9694 Y8.6460
G01 X8.9555 Y8.6398
G01 X8.9197 Y8.6225
G01 X8.8854 Y8.6023
G01 X8.8725 Y8.5942
G01 X8.8600 Y8.5854
G01 X8.8283 Y8.5614
G01 X8.7986 Y8.5350
G01 X8.7876 Y8.5244
G01 X8.7770 Y8.5134
G01 X8.7555 Y8.4895
G01 X8.7458 Y8.4777
G01 X8.7266 Y8.4520
G01 X8.7137 Y8.4331
G01 X8.6971 Y8.4056
G01 X8.6895 Y8.3923
G01 X8.6827 Y8.3787
G01 X8.6690 Y8.3496
G01 X8.6605 Y8.3283
G01 X8.6498 Y8.2980
G01 X8.6454 Y8.2834
G01 X8.6375 Y8.2523
G01 X8.6341 Y8.2374
G01 X8.6315 Y8.2224
G01 X8.6269 Y8.1905
G01 X8.6249 Y8.1677
G01 X8.6233 Y8.1280
G01 X8.6233 Y7.4280
G01 X8.6249 Y7.3883
G01 X8.6269 Y7.3655
G01 X8.6315 Y7.3336
G01 X8.6341 Y7.3186
G01 X8.6434 Y7.2799
G01 X8.6498 Y7.2580
G01 X8.6605 Y7.2277
G01 X8.6660 Y7.2134
G01 X8.6722 Y7.1995
G01 X8.6860 Y7.1705
G01 X8.6971 Y7.1504
G01 X8.7178 Y7.1165
G01 X8.7266 Y7.1040
G01 X8.7506 Y7.0723
G01 X8.7770 Y7.0426
G01 X8.7876 Y7.0316
G01 X8.8168 Y7.0046
G01 X8.8343 Y6.9898
G01 X8.8600 Y6.9706
G01 X8.8725 Y6.9618
G01 X8.8854 Y6.9537
G01 X8.9197 Y6.9335
G01 X8.9555 Y6.9162
G01 X8.9765 Y6.9072
G01 X9.0068 Y6.8963
G01 X9.0232 Y6.8909
G01 X9.0232 Y6.2841
G01 X8.9372 Y6.2536
G01 X8.9230 Y6.2481
G01 X8.9090 Y6.2419
G01 X8.8381 Y6.2084
G01 X8.8244 Y6.2015
G01 X8.8112 Y6.1940
G01 X8.7438 Y6.1536
G01 X8.7247 Y6.1412
G01 X8.6554 Y6.0899
G01 X8.6434 Y6.0806
G01 X8.6319 Y6.0706
G01 X8.5681 Y6.0127
G01 X8.5521 Y5.9963
G01 X8.4944 Y5.9324
G01 X8.4847 Y5.9206
G01 X8.4587 Y5.8857
G01 X8.4587 Y6.0220
G01 X8.4578 Y6.0449
G01 X8.4553 Y6.0676
G01 X8.4511 Y6.0901
G01 X8.4453 Y6.1122
G01 X8.4378 Y6.1338
G01 X8.4288 Y6.1548
G01 X8.4220 Y6.1684
G01 X8.4145 Y6.1817
G01 X8.4020 Y6.2009
G01 X8.3929 Y6.2131
G01 X8.3832 Y6.2249
G01 X8.3730 Y6.2362
G01 X8.3622 Y6.2470
G01 X8.3451 Y6.2621
G01 X8.3269 Y6.2760
G01 X8.3077 Y6.2885
G01 X8.2944 Y6.2960
G01 X8.2739 Y6.3060
G01 X8.2527 Y6.3145
G01 X8.2382 Y6.3193
G01 X8.2161 Y6.3251
G01 X8.2011 Y6.3281
G01 X8.1860 Y6.3303
G01 X8.1709 Y6.3318
G01 X8.1480 Y6.3327
G01 X7.7048 Y6.3327
G01 X7.7048 Y6.8909
G01 X7.7212 Y6.8963
G01 X7.7515 Y6.9072
G01 X7.7725 Y6.9162
G01 X7.8083 Y6.9335
G01 X7.8426 Y6.9537
G01 X7.8555 Y6.9618
G01 X7.8680 Y6.9706
G01 X7.8937 Y6.9898
G01 X7.9112 Y7.0046
G01 X7.9404 Y7.0316
G01 X7.9674 Y7.0608
G01 X7.9774 Y7.0723
G01 X7.9868 Y7.0843
G01 X8.0059 Y7.1102
G01 X8.0183 Y7.1294
G01 X8.0385 Y7.1637
G01 X8.0558 Y7.1995
G01 X8.0620 Y7.2134
G01 X8.0675 Y7.2277
G01 X8.0782 Y7.2580
G01 X8.0846 Y7.2799
G01 X8.0939 Y7.3186
G01 X8.0965 Y7.3336
G01 X8.1011 Y7.3655
G01 X8.1031 Y7.3883
G01 X8.1047 Y7.4280
G01 X8.1047 Y8.1280
G01 X8.1043 Y8.1432
G01 X8.1020 Y8.1830
G01 X8.1001 Y8.1981
G01 X8.0953 Y8.2299
G01 X8.0905 Y8.2523
G01 X8.0805 Y8.2908
G01 X8.0757 Y8.3052
G01 X8.0648 Y8.3355
G01 X8.0558 Y8.3565
G01 X8.0420 Y8.3855
G01 X8.0348 Y8.3990
G01 X8.0183 Y8.4266
G01 X8.0102 Y8.4395
G01 X7.9868 Y8.4717
G01 X7.9725 Y8.4895
G01 X7.9458 Y8.5190
G01 X7.9350 Y8.5298
G01 X7.9055 Y8.5565
G01 X7.8937 Y8.5662
G01 X7.8618 Y8.5899
G01 X7.8491 Y8.5983
G01 X7.8150 Y8.6188
G01 X7.7947 Y8.6293
G01 X7.7586 Y8.6460
G01 X7.7443 Y8.6515
G01 X7.7068 Y8.6645
G01 X7.6683 Y8.6745
G01 X7.6534 Y8.6779
G01 X7.6384 Y8.6805
G01 X7.5990 Y8.6860
G01 X7.5592 Y8.6883
G01 X7.5440 Y8.6887
G01 X6.6440 Y8.6887
G01 X6.6043 Y8.6871
G01 X6.5815 Y8.6851
G01 X6.5421 Y8.6793
G01 X6.5272 Y8.6763
G01 X6.4886 Y8.6666
G01 X6.4740 Y8.6622
G01 X6.4365 Y8.6488
G01 X6.4224 Y8.6430
G01 X6.3865 Y8.6260
G01 X6.3664 Y8.6149
G01 X6.3325 Y8.5942
G01 X6.3200 Y8.5854
G01 X6.2883 Y8.5614
G01 X6.2586 Y8.5350
G01 X6.2476 Y8.5244
G01 X6.2206 Y8.4952
G01 X6.2058 Y8.4777
G01 X6.1821 Y8.4458
G01 X6.1737 Y8.4331
G01 X6.1532 Y8.3990
G01 X6.1427 Y8.3787
G01 X6.1290 Y8.3496
G01 X6.1205 Y8.3283
G01 X6.1075 Y8.2908
G01 X6.0975 Y8.2523
G01 X6.0927 Y8.2299
G01 X6.0869 Y8.1905
G01 X6.0854 Y8.1754
G01 X6.0834 Y8.1356
G01 X6.0833 Y7.4280
G01 X6.0837 Y7.4128
G01 X6.0860 Y7.3730
G01 X6.0879 Y7.3579
G01 X6.0941 Y7.3186
G01 X6.0975 Y7.3037
G01 X6.1075 Y7.2652
G01 X6.1205 Y7.2277
G01 X6.1260 Y7.2134
G01 X6.1322 Y7.1995
G01 X6.1460 Y7.1705
G01 X6.1532 Y7.1570
G01 X6.1697 Y7.1294
G01 X6.1778 Y7.1165
G01 X6.1866 Y7.1040
G01 X6.2058 Y7.0783
G01 X6.2155 Y7.0665
G01 X6.2370 Y7.0426
G01 X6.2476 Y7.0316
G01 X6.2586 Y7.0210
G01 X6.2883 Y6.9946
G01 X6.3200 Y6.9706
G01 X6.3325 Y6.9618
G01 X6.3454 Y6.9537
G01 X6.3797 Y6.9335
G01 X6.4155 Y6.9162
G01 X6.4365 Y6.9072
G01 X6.4668 Y6.8963
G01 X6.4832 Y6.8909
G01 X6.4832 Y6.3258
G00 Z2.0000
G00 X9.1880 Y6.1535
G01 F40.00
G01 Z-0.0500
G01 F35.00
G01 X9.1670 Y6.1503
G01 X9.1600 Y6.1489
G01 X9.0769 Y6.1281
G01 X9.0666 Y6.1248
G01 X8.9894 Y6.0972
G01 X8.9795 Y6.0929
G01 X8.9021 Y6.0561
G01 X8.8255 Y6.0104
G01 X8.8167 Y6.0043
G01 X8.7480 Y5.9531
G01 X8.6792 Y5.8908
G01 X8.6169 Y5.8220
G01 X8.5636 Y5.7504
G01 X8.5578 Y5.7414
G01 X8.5139 Y5.6679
G01 X8.4742 Y5.5839
G01 X8.4429 Y5.4966
G01 X8.4204 Y5.4065
G01 X8.4067 Y5.3147
G01 X8.4022 Y5.2220
G01 X8.4067 Y5.1293
G01 X8.4197 Y5.0410
G01 X8.4219 Y5.0305
G01 X8.4429 Y4.9474
G01 X8.4742 Y4.8601
G01 X8.5139 Y4.7761
G01 X8.5616 Y4.6965
G01 X8.6169 Y4.6220
G01 X8.6792 Y4.5532
G01 X8.7480 Y4.4909
G01 X8.8225 Y4.4356
G01 X8.9021 Y4.3879
G01 X8.9861 Y4.3482
G01 X9.0734 Y4.3169
G01 X9.1635 Y4.2944
G01 X9.2553 Y4.2807
G01 X9.3480 Y4.2762
G01 X9.4407 Y4.2807
G01 X9.5290 Y4.2937
G01 X9.5395 Y4.2959
G01 X9.6157 Y4.3150
G01 X9.6294 Y4.3192
G01 X9.7099 Y4.3482
G01 X9.7939 Y4.3879
G01 X9.8674 Y4.4318
G01 X9.8793 Y4.4397
G01 X9.9480 Y4.4909
G01 X10.0168 Y4.5532
G01 X10.0791 Y4.6220
G01 X10.1303 Y4.6907
G01 X10.1382 Y4.7026
G01 X10.1821 Y4.7761
G01 X10.2218 Y4.8601
G01 X10.2508 Y4.9406
G01 X10.2550 Y4.9543
G01 X10.2741 Y5.0305
G01 X10.2763 Y5.0410
G01 X10.2893 Y5.1293
G01 X10.2936 Y5.2148
G01 X10.2936 Y5.2292
G01 X10.2898 Y5.3076
G01 X10.2884 Y5.3218
G01 X10.2756 Y5.4065
G01 X10.2550 Y5.4897
G01 X10.2508 Y5.5034
G01 X10.2218 Y5.5839
G01 X10.1821 Y5.6679
G01 X10.1344 Y5.7475
G01 X10.0800 Y5.8210
G01 X10.0800 Y7.0322
G01 X10.0912 Y7.0324
G01 X10.1157 Y7.0336
G01 X10.1299 Y7.0350
G01 X10.1612 Y7.0398
G01 X10.1989 Y7.0492
G01 X10.2288 Y7.0597
G01 X10.2420 Y7.0652
G01 X10.2706 Y7.0789
G01 X10.3039 Y7.0989
G01 X10.3351 Y7.1220
G01 X10.3587 Y7.1432
G01 X10.3688 Y7.1533
G01 X10.3900 Y7.1769
G01 X10.4131 Y7.2081
G01 X10.4296 Y7.2352
G01 X10.4347 Y7.2446
G01 X10.4468 Y7.2700
G01 X10.4523 Y7.2832
G01 X10.4628 Y7.3131
G01 X10.4722 Y7.3508
G01 X10.4779 Y7.3892
G01 X10.4798 Y7.4244
G01 X10.4798 Y8.1280
G01 X10.4784 Y8.1597
G01 X10.4770 Y8.1739
G01 X10.4722 Y8.2052
G01 X10.4628 Y8.2429
G01 X10.4523 Y8.2728
G01 X10.4468 Y8.2860
G01 X10.4331 Y8.3146
G01 X10.4131 Y8.3479
G01 X10.3900 Y8.3791
G01 X10.3688 Y8.4027
G01 X10.3587 Y8.4128
G01 X10.3351 Y8.4340
G01 X10.3098 Y8.4530
G01 X10.2979 Y8.4609
G01 X10.2706 Y8.4771
G01 X10.2388 Y8.4923
G01 X10.2288 Y8.4963
G01 X10.1989 Y8.5068
G01 X10.1612 Y8.5162
G01 X10.1228 Y8.5219
G01 X10.0876 Y8.5238
G01 X9.1840 Y8.5238
G01 X9.1523 Y8.5224
G01 X9.1381 Y8.5210
G01 X9.1068 Y8.5162
G01 X9.0760 Y8.5087
G01 X9.0623 Y8.5045
G01 X9.0325 Y8.4937
G01 X9.0038 Y8.4803
G01 X8.9912 Y8.4736
G01 X8.9641 Y8.4571
G01 X8.9385 Y8.4384
G01 X8.9275 Y8.4293
G01 X8.9041 Y8.4079
G01 X8.8827 Y8.3845
G01 X8.8758 Y8.3763
G01 X8.8569 Y8.3509
G01 X8.8511 Y8.3419
G01 X8.8349 Y8.3146
G01 X8.8197 Y8.2828
G01 X8.8157 Y8.2728
G01 X8.8052 Y8.2429
G01 X8.7958 Y8.2052
G01 X8.7901 Y8.1668
G01 X8.7882 Y8.1316
G01 X8.7882 Y7.4280
G01 X8.7901 Y7.3892
G01 X8.7951 Y7.3543
G01 X8.7974 Y7.3438
G01 X8.8042 Y7.3165
G01 X8.8075 Y7.3063
G01 X8.8157 Y7.2832
G01 X8.8212 Y7.2700
G01 X8.8333 Y7.2446
G01 X8.8384 Y7.2352
G01 X8.8549 Y7.2081
G01 X8.8780 Y7.1769
G01 X8.9041 Y7.1481
G01 X8.9329 Y7.1220
G01 X8.9641 Y7.0989
G01 X8.9974 Y7.0789
G01 X9.0325 Y7.0623
G01 X9.0623 Y7.0515
G01 X9.0725 Y7.0482
G01 X9.0998 Y7.0414
G01 X9.1138 Y7.0386
G01 X9.1381 Y7.0350
G01 X9.1488 Y7.0338
G01 X9.1768 Y7.0324
G01 X9.1880 Y7.0322
G01 X9.1880 Y6.1535
G00 Z2.0000
G00 X9.2704 Y6.0817
G01 F40.00
G01 Z-0.0500
G01 F35.00
G01 X9.2603 Y6.0809
G01 X9.1796 Y6.0688
G01 X9.0974 Y6.0482
G01 X9.0176 Y6.0197
G01 X8.9410 Y5.9835
G01 X8.8683 Y5.9399
G01 X8.8003 Y5.8894
G01 X8.7375 Y5.8325
G01 X8.6806 Y5.7697
G01 X8.6301 Y5.7017
G01 X8.5865 Y5.6290
G01 X8.5503 Y5.5524
G01 X8.5218 Y5.4726
G01 X8.5012 Y5.3904
G01 X8.4888 Y5.3066
G01 X8.4846 Y5.2220
G01 X8.4888 Y5.1374
G01 X8.5012 Y5.0536
G01 X8.5218 Y4.9714
G01 X8.5503 Y4.8916
G01 X8.5865 Y4.8150
G01 X8.6301 Y4.7423
G01 X8.6806 Y4.6743
G01 X8.7375 Y4.6115
G01 X8.8003 Y4.5546
G01 X8.8683 Y4.5041
G01 X8.9410 Y4.4605
G01 X9.0176 Y4.4243
G01 X9.0974 Y4.3958
G01 X9.1796 Y4.3752
G01 X9.2634 Y4.3628
G01 X9.3480 Y4.3586
G01 X9.4326 Y4.3628
G01 X9.5164 Y4.3752
G01 X9.5956 Y4.3949
G01 X9.6016 Y4.3968
G01 X9.6755 Y4.4232
G01 X9.6813 Y4.4256
G01 X9.7550 Y4.4605
G01 X9.8277 Y4.5041
G01 X9.8957 Y4.5546
G01 X9.9563 Y4.6093
G01 X9.9607 Y4.6137
G01 X10.0134 Y4.6719
G01 X10.0173 Y4.6767
G01 X10.0659 Y4.7423
G01 X10.1095 Y4.8150
G01 X10.1444 Y4.8887
G01 X10.1468 Y4.8945
G01 X10.1742 Y4.9714
G01 X10.1948 Y5.0536
G01 X10.2072 Y5.1374
G01 X10.2113 Y5.2189
G01 X10.2113 Y5.2251
G01 X10.2072 Y5.3066
G01 X10.1953 Y5.3874
G01 X10.1941 Y5.3935
G01 X10.1747 Y5.4711
G01 X10.1457 Y5.5524
G01 X10.1087 Y5.6304
G01 X10.0650 Y5.7030
G01 X10.0164 Y5.7685
G01 X9.9975 Y5.7896
G01 X9.9976 Y7.1146
G01 X10.0871 Y7.1147
G01 X10.1147 Y7.1161
G01 X10.1451 Y7.1206
G01 X10.1750 Y7.1281
G01 X10.2039 Y7.1385
G01 X10.2317 Y7.1516
G01 X10.2568 Y7.1666
G01 X10.2828 Y7.1857
G01 X10.3056 Y7.2064
G01 X10.3263 Y7.2292
G01 X10.3446 Y7.2539
G01 X10.3604 Y7.2803
G01 X10.3735 Y7.3081
G01 X10.3839 Y7.3370
G01 X10.3907 Y7.3638
G01 X10.3919 Y7.3699
G01 X10.3959 Y7.3973
G01 X10.3974 Y7.4280
G01 X10.3974 Y8.1280
G01 X10.3959 Y8.1587
G01 X10.3917 Y8.1876
G01 X10.3839 Y8.2190
G01 X10.3747 Y8.2450
G01 X10.3723 Y8.2508
G01 X10.3604 Y8.2757
G01 X10.3462 Y8.2995
G01 X10.3428 Y8.3047
G01 X10.3263 Y8.3268
G01 X10.3078 Y8.3474
G01 X10.3034 Y8.3518
G01 X10.2828 Y8.3703
G01 X10.2607 Y8.3868
G01 X10.2555 Y8.3902
G01 X10.2317 Y8.4044
G01 X10.2025 Y8.4181
G01 X10.1750 Y8.4279
G01 X10.1451 Y8.4354
G01 X10.1147 Y8.4399
G01 X10.0856 Y8.4414
G01 X9.1840 Y8.4414
G01 X9.1517 Y8.4397
G01 X9.1229 Y8.4354
G01 X9.0960 Y8.4287
G01 X9.0901 Y8.4269
G01 X9.0641 Y8.4175
G01 X9.0390 Y8.4058
G01 X9.0336 Y8.4029
G01 X9.0099 Y8.3886
G01 X8.9876 Y8.3722
G01 X8.9828 Y8.3682
G01 X8.9624 Y8.3496
G01 X8.9438 Y8.3292
G01 X8.9398 Y8.3244
G01 X8.9234 Y8.3021
G01 X8.9091 Y8.2784
G01 X8.9062 Y8.2730
G01 X8.8939 Y8.2465
G01 X8.8841 Y8.2190
G01 X8.8766 Y8.1891
G01 X8.8721 Y8.1587
G01 X8.8706 Y8.1280
G01 X8.8706 Y7.4264
G01 X8.8721 Y7.3973
G01 X8.8761 Y7.3699
G01 X8.8773 Y7.3638
G01 X8.8846 Y7.3355
G01 X8.8945 Y7.3081
G01 X8.9076 Y7.2803
G01 X8.9234 Y7.2539
G01 X8.9417 Y7.2292
G01 X8.9624 Y7.2064
G01 X8.9852 Y7.1857
G01 X9.0099 Y7.1674
G01 X9.0349 Y7.1524
G01 X9.0641 Y7.1385
G01 X9.0901 Y7.1291
G01 X9.1198 Y7.1213
G01 X9.1259 Y7.1201
G01 X9.1533 Y7.1161
G01 X9.1809 Y7.1147
G01 X9.2705 Y7.1146
G01 X9.2704 Y6.0817
G00 Z2.0000
G00 X10.0992 Y8.8677
G01 F40.00
G01 Z-0.0500
G01 F35.00
G01 X10.1390 Y8.8700
G01 X10.1541 Y8.8719
G01 X10.1859 Y8.8767
G01 X10.2083 Y8.8815
G01 X10.2468 Y8.8915
G01 X10.2612 Y8.8963
G01 X10.2915 Y8.9072
G01 X10.3125 Y8.9162
G01 X10.3483 Y8.9335
G01 X10.3616 Y8.9411
G01 X10.3891 Y8.9577
G01 X10.4080 Y8.9706
G01 X10.4397 Y8.9946
G01 X10.4512 Y9.0046
G01 X10.4750 Y9.0262
G01 X10.4910 Y9.0426
G01 X10.5174 Y9.0723
G01 X10.5268 Y9.0843
G01 X10.5459 Y9.1102
G01 X10.5583 Y9.1294
G01 X10.5748 Y9.1570
G01 X10.5803 Y9.1672
G01 X10.8520 Y9.1672
G01 X10.8521 Y9.0752
G01 X10.8543 Y9.0305
G01 X10.8558 Y9.0154
G01 X10.8611 Y8.9787
G01 X10.8637 Y8.9636
G01 X10.8671 Y8.9488
G01 X10.8762 Y8.9128
G01 X10.8806 Y8.8982
G01 X10.8957 Y8.8561
G01 X10.9015 Y8.8420
G01 X10.9206 Y8.8016
G01 X10.9278 Y8.7882
G01 X10.9508 Y8.7498
G01 X10.9592 Y8.7372
G01 X10.9813 Y8.7073
G01 X10.9906 Y8.6953
G01 X11.0006 Y8.6838
G01 X11.0309 Y8.6509
G01 X11.6206 Y8.0612
G01 X11.5923 Y8.0402
G01 X11.5748 Y8.0254
G01 X11.5456 Y7.9984
G01 X11.5186 Y7.9692
G01 X11.5038 Y7.9517
G01 X11.4801 Y7.9198
G01 X11.4677 Y7.9006
G01 X11.4475 Y7.8663
G01 X11.4302 Y7.8305
G01 X11.4240 Y7.8166
G01 X11.4103 Y7.7792
G01 X11.4034 Y7.7574
G01 X11.3937 Y7.7188
G01 X11.3895 Y7.6964
G01 X11.3840 Y7.6570
G01 X11.3817 Y7.6172
G01 X11.3813 Y7.6020
G01 X11.3813 Y6.6520
G01 X11.3817 Y6.6368
G01 X11.3840 Y6.5970
G01 X11.3859 Y6.5819
G01 X11.3921 Y6.5426
G01 X11.4014 Y6.5039
G01 X11.4055 Y6.4892
G01 X11.4185 Y6.4517
G01 X11.4270 Y6.4304
G01 X11.4440 Y6.3945
G01 X11.4512 Y6.3810
G01 X11.4717 Y6.3469
G01 X11.4846 Y6.3280
G01 X11.5086 Y6.2963
G01 X11.5350 Y6.2666
G01 X11.5510 Y6.2502
G01 X11.5748 Y6.2286
G01 X11.5923 Y6.2138
G01 X11.6242 Y6.1901
G01 X11.6369 Y6.1817
G01 X11.6687 Y6.1626
G01 X11.6687 Y5.6481
G01 X11.6395 Y5.6302
G01 X11.6073 Y5.6068
G01 X11.5895 Y5.5925
G01 X11.5600 Y5.5658
G01 X11.5440 Y5.5494
G01 X11.5176 Y5.5197
G01 X11.4936 Y5.4880
G01 X11.4807 Y5.4691
G01 X11.4602 Y5.4350
G01 X11.4497 Y5.4147
G01 X11.4330 Y5.3786
G01 X11.4193 Y5.3412
G01 X11.4124 Y5.3194
G01 X11.4027 Y5.2808
G01 X11.3985 Y5.2584
G01 X11.3930 Y5.2190
G01 X11.3907 Y5.1792
G01 X11.3903 Y5.1640
G01 X11.3903 Y4.2640
G01 X11.3919 Y4.2243
G01 X11.3939 Y4.2015
G01 X11.3997 Y4.1621
G01 X11.4045 Y4.1397
G01 X11.4145 Y4.1012
G01 X11.4193 Y4.0868
G01 X11.4330 Y4.0494
G01 X11.4497 Y4.0133
G01 X11.4602 Y3.9930
G01 X11.4807 Y3.9589
G01 X11.4936 Y3.9400
G01 X11.5176 Y3.9083
G01 X11.5440 Y3.8786
G01 X11.5600 Y3.8622
G01 X11.5895 Y3.8355
G01 X11.6013 Y3.8258
G01 X11.6332 Y3.8021
G01 X11.6524 Y3.7897
G01 X11.6867 Y3.7695
G01 X11.7225 Y3.7522
G01 X11.7364 Y3.7460
G01 X11.7738 Y3.7323
G01 X11.7956 Y3.7254
G01 X11.8342 Y3.7157
G01 X11.8566 Y3.7115
G01 X11.8960 Y3.7060
G01 X11.9358 Y3.7037
G01 X11.9510 Y3.7033
G01 X12.6510 Y3.7033
G01 X12.6907 Y3.7049
G01 X12.7135 Y3.7069
G01 X12.7529 Y3.7127
G01 X12.7753 Y3.7175
G01 X12.8138 Y3.7275
G01 X12.8282 Y3.7323
G01 X12.8656 Y3.7460
G01 X12.9017 Y3.7627
G01 X12.9220 Y3.7732
G01 X12.9561 Y3.7937
G01 X12.9750 Y3.8066
G01 X13.0067 Y3.8306
G01 X13.0182 Y3.8406
G01 X13.0420 Y3.8622
G01 X13.0580 Y3.8786
G01 X13.0844 Y3.9083
G01 X13.1084 Y3.9400
G01 X13.1213 Y3.9589
G01 X13.1379 Y3.9864
G01 X13.1455 Y3.9997
G01 X13.1628 Y4.0355
G01 X13.1718 Y4.0565
G01 X13.1852 Y4.0940
G01 X13.1916 Y4.1159
G01 X13.2009 Y4.1546
G01 X13.2071 Y4.1939
G01 X13.2096 Y4.2166
G01 X13.2113 Y4.2488
G01 X13.2117 Y4.2640
G01 X13.2117 Y5.1640
G01 X13.2113 Y5.1792
G01 X13.2090 Y5.2190
G01 X13.2035 Y5.2584
G01 X13.1993 Y5.2808
G01 X13.1896 Y5.3194
G01 X13.1852 Y5.3340
G01 X13.1718 Y5.3715
G01 X13.1628 Y5.3925
G01 X13.1455 Y5.4283
G01 X13.1253 Y5.4626
G01 X13.1129 Y5.4818
G01 X13.0892 Y5.5137
G01 X13.0744 Y5.5312
G01 X13.0474 Y5.5604
G01 X13.0182 Y5.5874
G01 X13.0007 Y5.6022
G01 X12.9688 Y5.6259
G01 X12.9561 Y5.6343
G01 X12.9220 Y5.6548
G01 X12.9085 Y5.6620
G01 X12.8903 Y5.6707
G01 X12.8903 Y6.1626
G01 X12.9221 Y6.1817
G01 X12.9410 Y6.1946
G01 X12.9727 Y6.2186
G01 X13.0024 Y6.2450
G01 X13.0188 Y6.2610
G01 X13.0455 Y6.2905
G01 X13.0598 Y6.3083
G01 X13.0832 Y6.3405
G01 X13.0913 Y6.3534
G01 X13.1115 Y6.3877
G01 X13.1288 Y6.4235
G01 X13.1378 Y6.4445
G01 X13.1512 Y6.4820
G01 X13.1576 Y6.5039
G01 X13.1669 Y6.5426
G01 X13.1731 Y6.5819
G01 X13.1756 Y6.6046
G01 X13.1773 Y6.6368
G01 X13.1777 Y6.6520
G01 X13.1777 Y7.6020
G01 X13.1761 Y7.6417
G01 X13.1741 Y7.6645
G01 X13.1683 Y7.7039
G01 X13.1635 Y7.7263
G01 X13.1535 Y7.7648
G01 X13.1405 Y7.8023
G01 X13.1320 Y7.8236
G01 X13.1150 Y7.8595
G01 X13.1039 Y7.8796
G01 X13.0832 Y7.9135
G01 X13.0598 Y7.9457
G01 X13.0455 Y7.9635
G01 X13.0188 Y7.9930
G01 X13.0024 Y8.0090
G01 X12.9727 Y8.0354
G01 X12.9410 Y8.0594
G01 X12.9221 Y8.0723
G01 X12.8903 Y8.0914
G01 X12.8903 Y8.2661
G01 X12.8899 Y8.2813
G01 X12.8874 Y8.3260
G01 X12.8855 Y8.3411
G01 X12.8786 Y8.3853
G01 X12.8681 Y8.4287
G01 X12.8640 Y8.4434
G01 X12.8592 Y8.4579
G01 X12.8438 Y8.4998
G01 X12.8317 Y8.5264
G01 X12.8182 Y8.5540
G01 X12.7955 Y8.5926
G01 X12.7874 Y8.6054
G01 X12.7786 Y8.6179
G01 X12.7517 Y8.6536
G01 X12.7417 Y8.6651
G01 X12.7114 Y8.6980
G01 X12.0736 Y9.3358
G01 X12.0736 Y10.3030
G01 X12.3118 Y10.5412
G01 X14.3866 Y10.5414
G01 X14.4166 Y10.5429
G01 X14.4317 Y10.5444
G01 X14.4614 Y10.5488
G01 X14.4763 Y10.5518
G01 X14.5054 Y10.5591
G01 X14.5200 Y10.5635
G01 X14.5482 Y10.5736
G01 X14.5623 Y10.5794
G01 X14.5894 Y10.5922
G01 X14.6094 Y10.6032
G01 X14.6349 Y10.6190
G01 X14.6592 Y10.6365
G01 X14.6771 Y10.6508
G01 X14.6993 Y10.6709
G01 X14.7152 Y10.6873
G01 X14.7351 Y10.7098
G01 X14.7532 Y10.7336
G01 X14.7662 Y10.7525
G01 X14.7816 Y10.7782
G01 X14.7921 Y10.7985
G01 X14.8046 Y10.8257
G01 X14.8150 Y10.8538
G01 X14.8219 Y10.8756
G01 X14.8292 Y10.9047
G01 X14.8322 Y10.9196
G01 X14.8366 Y10.9493
G01 X14.8381 Y10.9644
G01 X14.8396 Y10.9944
G01 X14.8397 Y11.3020
G01 X14.8393 Y11.3172
G01 X14.8381 Y11.3396
G01 X14.8356 Y11.3623
G01 X14.8308 Y11.3919
G01 X14.8275 Y11.4067
G01 X14.8198 Y11.4357
G01 X14.8101 Y11.4641
G01 X14.8046 Y11.4783
G01 X14.7921 Y11.5055
G01 X14.7816 Y11.5258
G01 X14.7662 Y11.5515
G01 X14.7532 Y11.5704
G01 X14.7351 Y11.5942
G01 X14.7251 Y11.6058
G01 X14.7101 Y11.6223
G01 X14.6937 Y11.6382
G01 X14.6712 Y11.6581
G01 X14.6474 Y11.6762
G01 X14.6285 Y11.6892
G01 X14.6094 Y11.7008
G01 X14.5962 Y11.7083
G01 X14.5692 Y11.7214
G01 X14.5482 Y11.7304
G01 X14.5200 Y11.7405
G01 X14.4980 Y11.7469
G01 X14.4689 Y11.7538
G01 X14.4393 Y11.7586
G01 X14.4166 Y11.7611
G01 X14.3942 Y11.7623
G01 X14.3791 Y11.7627
G01 X12.0588 Y11.7628
G01 X12.0436 Y11.7624
G01 X11.9989 Y11.7599
G01 X11.9547 Y11.7537
G01 X11.9322 Y11.7495
G01 X11.8962 Y11.7406
G01 X11.8815 Y11.7365
G01 X11.8393 Y11.7218
G01 X11.8180 Y11.7133
G01 X11.7845 Y11.6975
G01 X11.7709 Y11.6907
G01 X11.7323 Y11.6680
G01 X11.7132 Y11.6556
G01 X11.6833 Y11.6335
G01 X11.6713 Y11.6242
G01 X11.6379 Y11.5944
G01 X11.6269 Y11.5839
G01 X11.0309 Y10.9879
G01 X11.0204 Y10.9769
G01 X10.9906 Y10.9435
G01 X10.9637 Y10.9078
G01 X10.9508 Y10.8890
G01 X10.9278 Y10.8506
G01 X10.9173 Y10.8303
G01 X10.9015 Y10.7968
G01 X10.8930 Y10.7755
G01 X10.8783 Y10.7333
G01 X10.8671 Y10.6900
G01 X10.8623 Y10.6677
G01 X10.8574 Y10.6353
G01 X10.8549 Y10.6159
G01 X10.8538 Y10.6007
G01 X10.8520 Y10.5560
G01 X10.8520 Y10.3888
G01 X10.5803 Y10.3888
G01 X10.5709 Y10.4056
G01 X10.5502 Y10.4395
G01 X10.5414 Y10.4520
G01 X10.5222 Y10.4777
G01 X10.5074 Y10.4952
G01 X10.4804 Y10.5244
G01 X10.4694 Y10.5350
G01 X10.4455 Y10.5565
G01 X10.4277 Y10.5708
G01 X10.3955 Y10.5942
G01 X10.3616 Y10.6149
G01 X10.3415 Y10.6260
G01 X10.3056 Y10.6430
G01 X10.2843 Y10.6515
G01 X10.2468 Y10.6645
G01 X10.2321 Y10.6686
G01 X10.2008 Y10.6763
G01 X10.1784 Y10.6805
G01 X10.1390 Y10.6860
G01 X10.0992 Y10.6883
G01 X10.0840 Y10.6887
G01 X9.1840 Y10.6887
G01 X9.1688 Y10.6883
G01 X9.1366 Y10.6866
G01 X9.1139 Y10.6841
G01 X9.0746 Y10.6779
G01 X9.0597 Y10.6745
G01 X9.0286 Y10.6666
G01 X9.0068 Y10.6597
G01 X8.9694 Y10.6460
G01 X8.9555 Y10.6398
G01 X8.9265 Y10.6260
G01 X8.9064 Y10.6149
G01 X8.8789 Y10.5983
G01 X8.8662 Y10.5899
G01 X8.8343 Y10.5662
G01 X8.8225 Y10.5565
G01 X8.7930 Y10.5298
G01 X8.7770 Y10.5134
G01 X8.7506 Y10.4837
G01 X8.7266 Y10.4520
G01 X8.7137 Y10.4331
G01 X8.6971 Y10.4056
G01 X8.6860 Y10.3855
G01 X8.6690 Y10.3496
G01 X8.6632 Y10.3355
G01 X8.6498 Y10.2980
G01 X8.6434 Y10.2761
G01 X8.6341 Y10.2374
G01 X8.6315 Y10.2224
G01 X8.6260 Y10.1830
G01 X8.6237 Y10.1432
G01 X8.6233 Y10.1280
G01 X8.6233 Y9.4280
G01 X8.6237 Y9.4128
G01 X8.6260 Y9.3730
G01 X8.6315 Y9.3336
G01 X8.6357 Y9.3112
G01 X8.6434 Y9.2799
G01 X8.6475 Y9.2652
G01 X8.6605 Y9.2277
G01 X8.6690 Y9.2064
G01 X8.6827 Y9.1773
G01 X8.6895 Y9.1637
G01 X8.7097 Y9.1294
G01 X8.7221 Y9.1102
G01 X8.7458 Y9.0783
G01 X8.7555 Y9.0665
G01 X8.7822 Y9.0370
G01 X8.7930 Y9.0262
G01 X8.8225 Y8.9995
G01 X8.8343 Y8.9898
G01 X8.8662 Y8.9661
G01 X8.8789 Y8.9577
G01 X8.9130 Y8.9372
G01 X8.9265 Y8.9300
G01 X8.9624 Y8.9130
G01 X8.9765 Y8.9072
G01 X9.0140 Y8.8938
G01 X9.0286 Y8.8894
G01 X9.0672 Y8.8797
G01 X9.0821 Y8.8767
G01 X9.1139 Y8.8719
G01 X9.1290 Y8.8700
G01 X9.1688 Y8.8677
G01 X9.1840 Y8.8673
G01 X10.0840 Y8.8673
G01 X10.0992 Y8.8677
G00 Z2.0000
G00 X10.0952 Y8.9500
G01 F40.00
G01 Z-0.0500
G01 F35.00
G01 X10.1309 Y8.9521
G01 X10.1718 Y8.9579
G01 X10.1828 Y8.9601
G01 X10.2120 Y8.9674
G01 X10.2282 Y8.9720
G01 X10.2670 Y8.9862
G01 X10.2994 Y9.0012
G01 X10.3094 Y9.0062
G01 X10.3192 Y9.0118
G01 X10.3450 Y9.0273
G01 X10.3543 Y9.0335
G01 X10.3874 Y9.0583
G01 X10.4141 Y9.0821
G01 X10.4261 Y9.0938
G01 X10.4537 Y9.1246
G01 X10.4752 Y9.1531
G01 X10.4816 Y9.1623
G01 X10.5002 Y9.1928
G01 X10.5058 Y9.2026
G01 X10.5108 Y9.2126
G01 X10.5236 Y9.2398
G01 X10.5277 Y9.2496
G01 X10.9344 Y9.2496
G01 X10.9344 Y9.0828
G01 X10.9347 Y9.0716
G01 X10.9370 Y9.0310
G01 X10.9383 Y9.0199
G01 X10.9446 Y8.9797
G01 X10.9470 Y8.9688
G01 X10.9572 Y8.9294
G01 X10.9607 Y8.9188
G01 X10.9746 Y8.8806
G01 X10.9851 Y8.8578
G01 X10.9968 Y8.8337
G01 X11.0175 Y8.7987
G01 X11.0235 Y8.7892
G01 X11.0299 Y8.7801
G01 X11.0543 Y8.7476
G01 X11.0617 Y8.7391
G01 X11.0892 Y8.7092
G01 X11.7511 Y8.0472
G01 X11.7511 Y8.0404
G01 X11.7166 Y8.0238
G01 X11.6810 Y8.0027
G01 X11.6671 Y7.9932
G01 X11.6430 Y7.9752
G01 X11.6343 Y7.9681
G01 X11.6078 Y7.9441
G01 X11.5961 Y7.9321
G01 X11.5723 Y7.9054
G01 X11.5475 Y7.8723
G01 X11.5384 Y7.8582
G01 X11.5229 Y7.8323
G01 X11.5177 Y7.8225
G01 X11.5002 Y7.7850
G01 X11.4879 Y7.7515
G01 X11.4828 Y7.7354
G01 X11.4729 Y7.6953
G01 X11.4667 Y7.6544
G01 X11.4652 Y7.6377
G01 X11.4638 Y7.6020
G01 X11.4638 Y6.6520
G01 X11.4640 Y6.6408
G01 X11.4661 Y6.6051
G01 X11.4674 Y6.5940
G01 X11.4729 Y6.5587
G01 X11.4828 Y6.5186
G01 X11.4879 Y6.5025
G01 X11.5002 Y6.4690
G01 X11.5152 Y6.4366
G01 X11.5229 Y6.4217
G01 X11.5413 Y6.3910
G01 X11.5508 Y6.3771
G01 X11.5723 Y6.3486
G01 X11.5961 Y6.3219
G01 X11.6078 Y6.3099
G01 X11.6343 Y6.2859
G01 X11.6474 Y6.2754
G01 X11.6763 Y6.2544
G01 X11.7068 Y6.2358
G01 X11.7215 Y6.2277
G01 X11.7511 Y6.2136
G01 X11.7511 Y5.5982
G01 X11.7256 Y5.5858
G01 X11.6900 Y5.5647
G01 X11.6761 Y5.5552
G01 X11.6520 Y5.5372
G01 X11.6433 Y5.5301
G01 X11.6168 Y5.5061
G01 X11.6051 Y5.4941
G01 X11.5813 Y5.4674
G01 X11.5565 Y5.4343
G01 X11.5474 Y5.4202
G01 X11.5292 Y5.3894
G01 X11.5114 Y5.3522
G01 X11.5051 Y5.3366
G01 X11.4934 Y5.3028
G01 X11.4844 Y5.2682
G01 X11.4809 Y5.2518
G01 X11.4751 Y5.2109
G01 X11.4730 Y5.1752
G01 X11.4728 Y5.1640
G01 X11.4728 Y4.2640
G01 X11.4730 Y4.2528
G01 X11.4746 Y4.2227
G01 X11.4764 Y4.2060
G01 X11.4819 Y4.1707
G01 X11.4904 Y4.1360
G01 X11.4950 Y4.1198
G01 X11.5071 Y4.0862
G01 X11.5137 Y4.0707
G01 X11.5292 Y4.0386
G01 X11.5503 Y4.0030
G01 X11.5598 Y3.9891
G01 X11.5813 Y3.9606
G01 X11.6051 Y3.9339
G01 X11.6168 Y3.9219
G01 X11.6433 Y3.8979
G01 X11.6564 Y3.8874
G01 X11.6853 Y3.8664
G01 X11.7158 Y3.8478
G01 X11.7305 Y3.8397
G01 X11.7628 Y3.8244
G01 X11.7784 Y3.8181
G01 X11.8122 Y3.8064
G01 X11.8468 Y3.7974
G01 X11.8632 Y3.7939
G01 X11.8930 Y3.7894
G01 X11.9097 Y3.7876
G01 X11.9510 Y3.7858
G01 X12.6510 Y3.7858
G01 X12.6867 Y3.7872
G01 X12.7034 Y3.7887
G01 X12.7388 Y3.7939
G01 X12.7552 Y3.7974
G01 X12.7844 Y3.8048
G01 X12.8005 Y3.8099
G01 X12.8340 Y3.8222
G01 X12.8664 Y3.8372
G01 X12.8764 Y3.8422
G01 X12.9120 Y3.8633
G01 X12.9259 Y3.8728
G01 X12.9544 Y3.8943
G01 X12.9811 Y3.9181
G01 X12.9931 Y3.9298
G01 X13.0171 Y3.9563
G01 X13.0276 Y3.9694
G01 X13.0486 Y3.9983
G01 X13.0701 Y4.0337
G01 X13.0778 Y4.0486
G01 X13.0928 Y4.0810
G01 X13.1070 Y4.1198
G01 X13.1116 Y4.1360
G01 X13.1201 Y4.1707
G01 X13.1263 Y4.2116
G01 X13.1278 Y4.2283
G01 X13.1292 Y4.2640
G01 X13.1292 Y5.1640
G01 X13.1290 Y5.1752
G01 X13.1269 Y5.2109
G01 X13.1220 Y5.2463
G01 X13.1189 Y5.2628
G01 X13.1102 Y5.2974
G01 X13.1051 Y5.3135
G01 X13.0928 Y5.3470
G01 X13.0778 Y5.3794
G01 X13.0701 Y5.3943
G01 X13.0486 Y5.4297
G01 X13.0276 Y5.4586
G01 X13.0171 Y5.4717
G01 X12.9892 Y5.5022
G01 X12.9629 Y5.5264
G01 X12.9500 Y5.5372
G01 X12.9213 Y5.5585
G01 X12.9072 Y5.5676
G01 X12.8813 Y5.5831
G01 X12.8715 Y5.5883
G01 X12.8340 Y5.6058
G01 X12.8079 Y5.6155
G01 X12.8079 Y6.2136
G01 X12.8424 Y6.2302
G01 X12.8732 Y6.2484
G01 X12.8873 Y6.2575
G01 X12.9160 Y6.2788
G01 X12.9289 Y6.2896
G01 X12.9552 Y6.3138
G01 X12.9831 Y6.3443
G01 X12.9936 Y6.3574
G01 X13.0146 Y6.3863
G01 X13.0332 Y6.4168
G01 X13.0413 Y6.4315
G01 X13.0588 Y6.4690
G01 X13.0730 Y6.5078
G01 X13.0776 Y6.5240
G01 X13.0861 Y6.5587
G01 X13.0916 Y6.5940
G01 X13.0934 Y6.6107
G01 X13.0952 Y6.6520
G01 X13.0952 Y7.6020
G01 X13.0934 Y7.6433
G01 X13.0916 Y7.6600
G01 X13.0861 Y7.6953
G01 X13.0776 Y7.7300
G01 X13.0730 Y7.7462
G01 X13.0588 Y7.7850
G01 X13.0413 Y7.8225
G01 X13.0332 Y7.8372
G01 X13.0146 Y7.8677
G01 X12.9936 Y7.8966
G01 X12.9831 Y7.9097
G01 X12.9552 Y7.9402
G01 X12.9289 Y7.9644
G01 X12.9160 Y7.9752
G01 X12.8873 Y7.9965
G01 X12.8732 Y8.0056
G01 X12.8424 Y8.0238
G01 X12.8079 Y8.0404
G01 X12.8078 Y8.2717
G01 X12.8053 Y8.3179
G01 X12.7988 Y8.3637
G01 X12.7953 Y8.3801
G01 X12.7851 Y8.4195
G01 X12.7816 Y8.4301
G01 X12.7677 Y8.4683
G01 X12.7572 Y8.4911
G01 X12.7455 Y8.5152
G01 X12.7248 Y8.5502
G01 X12.7188 Y8.5597
G01 X12.7124 Y8.5688
G01 X12.6880 Y8.6013
G01 X12.6806 Y8.6098
G01 X12.6531 Y8.6397
G01 X11.9912 Y9.3017
G01 X11.9912 Y10.3371
G01 X12.2777 Y10.6236
G01 X14.3846 Y10.6238
G01 X14.4161 Y10.6256
G01 X14.4418 Y10.6291
G01 X14.4528 Y10.6310
G01 X14.4637 Y10.6335
G01 X14.4888 Y10.6400
G01 X14.5133 Y10.6485
G01 X14.5237 Y10.6526
G01 X14.5473 Y10.6634
G01 X14.5622 Y10.6711
G01 X14.5891 Y10.6875
G01 X14.6101 Y10.7027
G01 X14.6232 Y10.7132
G01 X14.6424 Y10.7306
G01 X14.6542 Y10.7427
G01 X14.6714 Y10.7620
G01 X14.6870 Y10.7827
G01 X14.6965 Y10.7966
G01 X14.7099 Y10.8188
G01 X14.7176 Y10.8337
G01 X14.7284 Y10.8573
G01 X14.7374 Y10.8816
G01 X14.7425 Y10.8976
G01 X14.7488 Y10.9227
G01 X14.7510 Y10.9337
G01 X14.7548 Y10.9594
G01 X14.7559 Y10.9705
G01 X14.7572 Y10.9964
G01 X14.7572 Y11.3020
G01 X14.7559 Y11.3335
G01 X14.7540 Y11.3502
G01 X14.7500 Y11.3758
G01 X14.7475 Y11.3867
G01 X14.7410 Y11.4118
G01 X14.7325 Y11.4363
G01 X14.7284 Y11.4467
G01 X14.7239 Y11.4570
G01 X14.7126 Y11.4803
G01 X14.6995 Y11.5027
G01 X14.6903 Y11.5168
G01 X14.6714 Y11.5420
G01 X14.6542 Y11.5613
G01 X14.6424 Y11.5734
G01 X14.6232 Y11.5908
G01 X14.6101 Y11.6013
G01 X14.5891 Y11.6165
G01 X14.5670 Y11.6301
G01 X14.5523 Y11.6382
G01 X14.5237 Y11.6514
G01 X14.4994 Y11.6604
G01 X14.4834 Y11.6655
G01 X14.4528 Y11.6730
G01 X14.4272 Y11.6770
G01 X14.4105 Y11.6789
G01 X14.3790 Y11.6802
G01 X12.0588 Y11.6804
G01 X12.0476 Y11.6801
G01 X12.0070 Y11.6778
G01 X11.9612 Y11.6713
G01 X11.9502 Y11.6691
G01 X11.9162 Y11.6606
G01 X11.9001 Y11.6559
G01 X11.8618 Y11.6422
G01 X11.8514 Y11.6380
G01 X11.8338 Y11.6297
G01 X11.8147 Y11.6206
G01 X11.8048 Y11.6153
G01 X11.7699 Y11.5944
G01 X11.7561 Y11.5849
G01 X11.7280 Y11.5640
G01 X11.7193 Y11.5568
G01 X11.6852 Y11.5256
G01 X11.0892 Y10.9296
G01 X11.0580 Y10.8955
G01 X11.0475 Y10.8824
G01 X11.0266 Y10.8542
G01 X11.0204 Y10.8449
G01 X11.0118 Y10.8306
G01 X10.9968 Y10.8051
G01 X10.9792 Y10.7684
G01 X10.9726 Y10.7530
G01 X10.9572 Y10.7094
G01 X10.9542 Y10.6986
G01 X10.9446 Y10.6591
G01 X10.9390 Y10.6232
G01 X10.9370 Y10.6078
G01 X10.9345 Y10.5616
G01 X10.9344 Y10.3064
G01 X10.5277 Y10.3064
G01 X10.5236 Y10.3162
G01 X10.5108 Y10.3434
G01 X10.5031 Y10.3583
G01 X10.4816 Y10.3937
G01 X10.4606 Y10.4226
G01 X10.4501 Y10.4357
G01 X10.4222 Y10.4662
G01 X10.3917 Y10.4941
G01 X10.3786 Y10.5046
G01 X10.3497 Y10.5256
G01 X10.3192 Y10.5442
G01 X10.3045 Y10.5523
G01 X10.2670 Y10.5698
G01 X10.2282 Y10.5840
G01 X10.2120 Y10.5886
G01 X10.1773 Y10.5971
G01 X10.1663 Y10.5990
G01 X10.1309 Y10.6039
G01 X10.0952 Y10.6060
G01 X10.0840 Y10.6062
G01 X9.1840 Y10.6062
G01 X9.1427 Y10.6044
G01 X9.1316 Y10.6033
G01 X9.1017 Y10.5990
G01 X9.0907 Y10.5971
G01 X9.0798 Y10.5946
G01 X9.0452 Y10.5856
G01 X9.0345 Y10.5821
G01 X9.0010 Y10.5698
G01 X8.9635 Y10.5523
G01 X8.9488 Y10.5442
G01 X8.9183 Y10.5256
G01 X8.8850 Y10.5012
G01 X8.8721 Y10.4904
G01 X8.8458 Y10.4662
G01 X8.8381 Y10.4581
G01 X8.8143 Y10.4314
G01 X8.7928 Y10.4029
G01 X8.7864 Y10.3937
G01 X8.7804 Y10.3842
G01 X8.7622 Y10.3534
G01 X8.7467 Y10.3213
G01 X8.7422 Y10.3110
G01 X8.7299 Y10.2775
G01 X8.7248 Y10.2614
G01 X8.7174 Y10.2322
G01 X8.7139 Y10.2158
G01 X8.7087 Y10.1804
G01 X8.7072 Y10.1637
G01 X8.7058 Y10.1280
G01 X8.7058 Y9.4280
G01 X8.7060 Y9.4168
G01 X8.7081 Y9.3811
G01 X8.7094 Y9.3700
G01 X8.7149 Y9.3347
G01 X8.7234 Y9.3000
G01 X8.7280 Y9.2838
G01 X8.7422 Y9.2450
G01 X8.7597 Y9.2075
G01 X8.7678 Y9.1928
G01 X8.7864 Y9.1623
G01 X8.8108 Y9.1290
G01 X8.8216 Y9.1161
G01 X8.8458 Y9.0898
G01 X8.8539 Y9.0821
G01 X8.8806 Y9.0583
G01 X8.9091 Y9.0368
G01 X8.9183 Y9.0304
G01 X8.9537 Y9.0089
G01 X8.9686 Y9.0012
G01 X9.0010 Y8.9862
G01 X9.0398 Y8.9720
G01 X9.0560 Y8.9674
G01 X9.0852 Y8.9601
G01 X9.0962 Y8.9579
G01 X9.1260 Y8.9534
G01 X9.1427 Y8.9516
G01 X9.1840 Y8.9498
G01 X10.0840 Y8.9498
G01 X10.0952 Y8.9500
G00 Z2.0000
G00 X10.0912 Y9.0324
G01 F40.00
G01 Z-0.0500
G01 F35.00
G01 X10.1228 Y9.0341
G01 X10.1612 Y9.0398
G01 X10.1989 Y9.0492
G01 X10.2288 Y9.0597
G01 X10.2420 Y9.0652
G01 X10.2642 Y9.0757
G01 X10.2737 Y9.0806
G01 X10.3039 Y9.0989
G01 X10.3323 Y9.1198
G01 X10.3405 Y9.1267
G01 X10.3587 Y9.1432
G01 X10.3688 Y9.1533
G01 X10.3853 Y9.1715
G01 X10.3922 Y9.1797
G01 X10.4090 Y9.2022
G01 X10.4151 Y9.2111
G01 X10.4331 Y9.2414
G01 X10.4483 Y9.2732
G01 X10.4523 Y9.2832
G01 X10.4617 Y9.3097
G01 X10.4677 Y9.3320
G01 X11.0168 Y9.3320
G01 X11.0169 Y9.0792
G01 X11.0190 Y9.0391
G01 X11.0242 Y9.0028
G01 X11.0270 Y8.9888
G01 X11.0360 Y8.9533
G01 X11.0508 Y8.9121
G01 X11.0695 Y8.8726
G01 X11.0920 Y8.8350
G01 X11.1181 Y8.7999
G01 X11.1475 Y8.7675
G01 X11.8335 Y8.0814
G01 X11.8335 Y7.9826
G01 X11.8237 Y7.9797
G01 X11.7972 Y7.9703
G01 X11.7840 Y7.9648
G01 X11.7554 Y7.9511
G01 X11.7221 Y7.9311
G01 X11.6909 Y7.9080
G01 X11.6673 Y7.8868
G01 X11.6572 Y7.8767
G01 X11.6360 Y7.8531
G01 X11.6170 Y7.8278
G01 X11.6091 Y7.8159
G01 X11.5929 Y7.7886
G01 X11.5763 Y7.7535
G01 X11.5632 Y7.7169
G01 X11.5554 Y7.6862
G01 X11.5526 Y7.6722
G01 X11.5490 Y7.6479
G01 X11.5478 Y7.6372
G01 X11.5462 Y7.6020
G01 X11.5462 Y6.6520
G01 X11.5481 Y6.6132
G01 X11.5538 Y6.5748
G01 X11.5632 Y6.5371
G01 X11.5737 Y6.5072
G01 X11.5792 Y6.4940
G01 X11.5929 Y6.4654
G01 X11.6091 Y6.4381
G01 X11.6170 Y6.4262
G01 X11.6360 Y6.4009
G01 X11.6572 Y6.3773
G01 X11.6673 Y6.3672
G01 X11.6909 Y6.3460
G01 X11.7162 Y6.3270
G01 X11.7281 Y6.3191
G01 X11.7554 Y6.3029
G01 X11.7872 Y6.2877
G01 X11.7972 Y6.2837
G01 X11.8203 Y6.2755
G01 X11.8335 Y6.2714
G01 X11.8335 Y5.5420
G01 X11.7995 Y5.5297
G01 X11.7708 Y5.5163
G01 X11.7582 Y5.5096
G01 X11.7311 Y5.4931
G01 X11.6999 Y5.4700
G01 X11.6763 Y5.4488
G01 X11.6662 Y5.4387
G01 X11.6450 Y5.4151
G01 X11.6260 Y5.3898
G01 X11.6181 Y5.3779
G01 X11.6019 Y5.3506
G01 X11.5853 Y5.3155
G01 X11.5745 Y5.2857
G01 X11.5703 Y5.2720
G01 X11.5628 Y5.2412
G01 X11.5575 Y5.2064
G01 X11.5566 Y5.1957
G01 X11.5552 Y5.1640
G01 X11.5552 Y4.2640
G01 X11.5571 Y4.2252
G01 X11.5616 Y4.1938
G01 X11.5644 Y4.1798
G01 X11.5722 Y4.1491
G01 X11.5827 Y4.1192
G01 X11.5882 Y4.1060
G01 X11.6019 Y4.0774
G01 X11.6181 Y4.0501
G01 X11.6260 Y4.0382
G01 X11.6450 Y4.0129
G01 X11.6711 Y3.9841
G01 X11.6945 Y3.9627
G01 X11.7055 Y3.9536
G01 X11.7311 Y3.9349
G01 X11.7644 Y3.9149
G01 X11.7930 Y3.9012
G01 X11.8062 Y3.8957
G01 X11.8361 Y3.8852
G01 X11.8738 Y3.8758
G01 X11.9122 Y3.8701
G01 X11.9510 Y3.8682
G01 X12.6582 Y3.8684
G01 X12.6862 Y3.8698
G01 X12.6969 Y3.8710
G01 X12.7282 Y3.8758
G01 X12.7590 Y3.8833
G01 X12.7727 Y3.8875
G01 X12.8025 Y3.8983
G01 X12.8376 Y3.9149
G01 X12.8709 Y3.9349
G01 X12.8965 Y3.9536
G01 X12.9075 Y3.9627
G01 X12.9283 Y3.9816
G01 X12.9358 Y3.9893
G01 X12.9570 Y4.0129
G01 X12.9760 Y4.0382
G01 X12.9839 Y4.0501
G01 X13.0001 Y4.0774
G01 X13.0167 Y4.1125
G01 X13.0298 Y4.1491
G01 X13.0376 Y4.1798
G01 X13.0399 Y4.1903
G01 X13.0449 Y4.2252
G01 X13.0468 Y4.2640
G01 X13.0466 Y5.1712
G01 X13.0449 Y5.2028
G01 X13.0392 Y5.2412
G01 X13.0298 Y5.2789
G01 X13.0180 Y5.3122
G01 X13.0138 Y5.3220
G01 X13.0033 Y5.3442
G01 X12.9966 Y5.3568
G01 X12.9839 Y5.3779
G01 X12.9781 Y5.3869
G01 X12.9614 Y5.4095
G01 X12.9547 Y5.4178
G01 X12.9309 Y5.4439
G01 X12.9021 Y5.4700
G01 X12.8709 Y5.4931
G01 X12.8438 Y5.5096
G01 X12.8344 Y5.5147
G01 X12.8090 Y5.5268
G01 X12.7958 Y5.5323
G01 X12.7659 Y5.5428
G01 X12.7352 Y5.5506
G01 X12.7255 Y5.5527
G01 X12.7255 Y6.2714
G01 X12.7387 Y6.2755
G01 X12.7618 Y6.2837
G01 X12.7718 Y6.2877
G01 X12.8036 Y6.3029
G01 X12.8309 Y6.3191
G01 X12.8428 Y6.3270
G01 X12.8681 Y6.3460
G01 X12.8917 Y6.3672
G01 X12.9018 Y6.3773
G01 X12.9230 Y6.4009
G01 X12.9420 Y6.4262
G01 X12.9499 Y6.4381
G01 X12.9661 Y6.4654
G01 X12.9798 Y6.4940
G01 X12.9853 Y6.5072
G01 X12.9958 Y6.5371
G01 X13.0052 Y6.5748
G01 X13.0109 Y6.6132
G01 X13.0128 Y6.6520
G01 X13.0128 Y7.6020
G01 X13.0114 Y7.6337
G01 X13.0100 Y7.6479
G01 X13.0052 Y7.6792
G01 X12.9968 Y7.7135
G01 X12.9935 Y7.7237
G01 X12.9853 Y7.7468
G01 X12.9813 Y7.7568
G01 X12.9661 Y7.7886
G01 X12.9499 Y7.8159
G01 X12.9420 Y7.8278
G01 X12.9274 Y7.8475
G01 X12.9207 Y7.8558
G01 X12.8969 Y7.8819
G01 X12.8735 Y7.9033
G01 X12.8625 Y7.9124
G01 X12.8428 Y7.9270
G01 X12.8339 Y7.9331
G01 X12.8036 Y7.9511
G01 X12.7718 Y7.9663
G01 X12.7618 Y7.9703
G01 X12.7387 Y7.9785
G01 X12.7255 Y7.9826
G01 X12.7255 Y8.2661
G01 X12.7238 Y8.3027
G01 X12.7224 Y8.3169
G01 X12.7169 Y8.3531
G01 X12.7082 Y8.3887
G01 X12.7052 Y8.3990
G01 X12.6941 Y8.4301
G01 X12.6886 Y8.4433
G01 X12.6728 Y8.4763
G01 X12.6503 Y8.5139
G01 X12.6242 Y8.5490
G01 X12.5948 Y8.5814
G01 X11.9088 Y9.2675
G01 X11.9088 Y10.3713
G01 X12.2435 Y10.7060
G01 X14.3790 Y10.7062
G01 X14.4080 Y10.7076
G01 X14.4367 Y10.7119
G01 X14.4649 Y10.7189
G01 X14.4889 Y10.7274
G01 X14.4987 Y10.7316
G01 X14.5184 Y10.7411
G01 X14.5403 Y10.7541
G01 X14.5492 Y10.7602
G01 X14.5667 Y10.7733
G01 X14.5830 Y10.7879
G01 X14.5907 Y10.7954
G01 X14.6077 Y10.8143
G01 X14.6229 Y10.8347
G01 X14.6288 Y10.8437
G01 X14.6399 Y10.8626
G01 X14.6494 Y10.8823
G01 X14.6536 Y10.8921
G01 X14.6610 Y10.9127
G01 X14.6640 Y10.9230
G01 X14.6691 Y10.9443
G01 X14.6734 Y10.9730
G01 X14.6748 Y10.9984
G01 X14.6748 Y11.3020
G01 X14.6739 Y11.3239
G01 X14.6730 Y11.3346
G01 X14.6698 Y11.3562
G01 X14.6676 Y11.3667
G01 X14.6631 Y11.3844
G01 X14.6598 Y11.3947
G01 X14.6523 Y11.4152
G01 X14.6399 Y11.4414
G01 X14.6269 Y11.4633
G01 X14.6208 Y11.4722
G01 X14.6077 Y11.4897
G01 X14.5931 Y11.5060
G01 X14.5856 Y11.5137
G01 X14.5667 Y11.5307
G01 X14.5492 Y11.5438
G01 X14.5403 Y11.5499
G01 X14.5184 Y11.5629
G01 X14.4987 Y11.5724
G01 X14.4889 Y11.5766
G01 X14.4683 Y11.5840
G01 X14.4580 Y11.5870
G01 X14.4367 Y11.5921
G01 X14.4116 Y11.5960
G01 X14.4009 Y11.5969
G01 X14.3790 Y11.5978
G01 X12.0588 Y11.5980
G01 X12.0151 Y11.5958
G01 X11.9753 Y11.5901
G01 X11.9648 Y11.5878
G01 X11.9362 Y11.5807
G01 X11.9225 Y11.5765
G01 X11.8881 Y11.5640
G01 X11.8550 Y11.5485
G01 X11.8423 Y11.5418
G01 X11.8110 Y11.5228
G01 X11.7815 Y11.5011
G01 X11.7705 Y11.4921
G01 X11.7435 Y11.4673
G01 X11.1475 Y10.8713
G01 X11.1181 Y10.8389
G01 X11.0940 Y10.8067
G01 X11.0882 Y10.7977
G01 X11.0695 Y10.7662
G01 X11.0537 Y10.7332
G01 X11.0482 Y10.7200
G01 X11.0360 Y10.6855
G01 X11.0270 Y10.6500
G01 X11.0247 Y10.6395
G01 X11.0194 Y10.6033
G01 X11.0185 Y10.5926
G01 X11.0168 Y10.5560
G01 X11.0168 Y10.2240
G01 X10.4677 Y10.2240
G01 X10.4617 Y10.2463
G01 X10.4523 Y10.2728
G01 X10.4483 Y10.2828
G01 X10.4331 Y10.3146
G01 X10.4151 Y10.3449
G01 X10.4090 Y10.3538
G01 X10.3944 Y10.3735
G01 X10.3853 Y10.3845
G01 X10.3639 Y10.4079
G01 X10.3378 Y10.4317
G01 X10.3295 Y10.4384
G01 X10.3098 Y10.4530
G01 X10.2979 Y10.4609
G01 X10.2706 Y10.4771
G01 X10.2355 Y10.4937
G01 X10.2057 Y10.5045
G01 X10.1920 Y10.5087
G01 X10.1612 Y10.5162
G01 X10.1228 Y10.5219
G01 X10.0840 Y10.5238
G01 X9.1840 Y10.5238
G01 X9.1488 Y10.5222
G01 X9.1381 Y10.5210
G01 X9.1138 Y10.5174
G01 X9.0998 Y10.5146
G01 X9.0691 Y10.5068
G01 X9.0325 Y10.4937
G01 X9.0038 Y10.4803
G01 X8.9912 Y10.4736
G01 X8.9641 Y10.4571
G01 X8.9329 Y10.4340
G01 X8.9041 Y10.4079
G01 X8.8780 Y10.3791
G01 X8.8549 Y10.3479
G01 X8.8384 Y10.3208
G01 X8.8317 Y10.3082
G01 X8.8197 Y10.2828
G01 X8.8157 Y10.2728
G01 X8.8052 Y10.2429
G01 X8.7974 Y10.2122
G01 X8.7951 Y10.2017
G01 X8.7905 Y10.1704
G01 X8.7896 Y10.1597
G01 X8.7884 Y10.1352
G01 X8.7882 Y9.4280
G01 X8.7901 Y9.3892
G01 X8.7958 Y9.3508
G01 X8.8033 Y9.3200
G01 X8.8075 Y9.3063
G01 X8.8183 Y9.2765
G01 X8.8317 Y9.2478
G01 X8.8384 Y9.2352
G01 X8.8549 Y9.2081
G01 X8.8780 Y9.1769
G01 X8.9041 Y9.1481
G01 X8.9329 Y9.1220
G01 X8.9641 Y9.0989
G01 X8.9974 Y9.0789
G01 X9.0325 Y9.0623
G01 X9.0691 Y9.0492
G01 X9.1068 Y9.0398
G01 X9.1416 Y9.0345
G01 X9.1523 Y9.0336
G01 X9.1840 Y9.0322
G01 X10.0912 Y9.0324
G00 Z2.0000
G00 X10.0871 Y9.1147
G01 F40.00
G01 Z-0.0500
G01 F35.00
G01 X10.1147 Y9.1161
G01 X10.1451 Y9.1206
G01 X10.1750 Y9.1281
G01 X10.2039 Y9.1385
G01 X10.2317 Y9.1516
G01 X10.2581 Y9.1674
G01 X10.2828 Y9.1857
G01 X10.3045 Y9.2053
G01 X10.3263 Y9.2292
G01 X10.3446 Y9.2539
G01 X10.3604 Y9.2803
G01 X10.3729 Y9.3066
G01 X10.3839 Y9.3370
G01 X10.3911 Y9.3653
G01 X10.3957 Y9.3957
G01 X10.3968 Y9.4145
G01 X11.0993 Y9.4144
G01 X11.0993 Y9.0828
G01 X11.1012 Y9.0456
G01 X11.1057 Y9.0149
G01 X11.1069 Y9.0088
G01 X11.1149 Y8.9773
G01 X11.1258 Y8.9466
G01 X11.1282 Y8.9408
G01 X11.1422 Y8.9114
G01 X11.1597 Y8.8821
G01 X11.1818 Y8.8522
G01 X11.2057 Y8.8257
G01 X11.9160 Y8.1155
G01 X11.9159 Y7.9142
G01 X11.9082 Y7.9135
G01 X11.8778 Y7.9087
G01 X11.8510 Y7.9019
G01 X11.8250 Y7.8927
G01 X11.8192 Y7.8903
G01 X11.7943 Y7.8784
G01 X11.7679 Y7.8626
G01 X11.7432 Y7.8443
G01 X11.7204 Y7.8236
G01 X11.6997 Y7.8008
G01 X11.6814 Y7.7761
G01 X11.6656 Y7.7497
G01 X11.6537 Y7.7248
G01 X11.6513 Y7.7190
G01 X11.6413 Y7.6900
G01 X11.6346 Y7.6631
G01 X11.6300 Y7.6312
G01 X11.6286 Y7.6020
G01 X11.6286 Y6.6520
G01 X11.6301 Y6.6213
G01 X11.6349 Y6.5893
G01 X11.6421 Y6.5610
G01 X11.6513 Y6.5350
G01 X11.6642 Y6.5070
G01 X11.6671 Y6.5016
G01 X11.6814 Y6.4779
G01 X11.6997 Y6.4532
G01 X11.7204 Y6.4304
G01 X11.7408 Y6.4118
G01 X11.7653 Y6.3932
G01 X11.7705 Y6.3898
G01 X11.7943 Y6.3756
G01 X11.8221 Y6.3625
G01 X11.8510 Y6.3521
G01 X11.8778 Y6.3453
G01 X11.9082 Y6.3405
G01 X11.9160 Y6.3398
G01 X11.9159 Y5.4753
G01 X11.8899 Y5.4714
G01 X11.8600 Y5.4639
G01 X11.8311 Y5.4535
G01 X11.8060 Y5.4418
G01 X11.7795 Y5.4262
G01 X11.7743 Y5.4228
G01 X11.7522 Y5.4063
G01 X11.7294 Y5.3856
G01 X11.7087 Y5.3628
G01 X11.6922 Y5.3407
G01 X11.6888 Y5.3355
G01 X11.6732 Y5.3090
G01 X11.6615 Y5.2839
G01 X11.6511 Y5.2550
G01 X11.6436 Y5.2251
G01 X11.6393 Y5.1963
G01 X11.6376 Y5.1640
G01 X11.6376 Y4.2640
G01 X11.6391 Y4.2333
G01 X11.6439 Y4.2013
G01 X11.6511 Y4.1730
G01 X11.6603 Y4.1470
G01 X11.6627 Y4.1412
G01 X11.6746 Y4.1163
G01 X11.6888 Y4.0925
G01 X11.6922 Y4.0873
G01 X11.7087 Y4.0652
G01 X11.7294 Y4.0424
G01 X11.7498 Y4.0238
G01 X11.7546 Y4.0198
G01 X11.7769 Y4.0034
G01 X11.8033 Y3.9876
G01 X11.8311 Y3.9745
