(G-CODE GENERATED BY FLATCAM v8.994 - www.flatcam.org - Version Date: 2020/11/7)

(Name: ADCandDAC-F_Cu.gbr_0.1375_iso_cnc)
(Type: G-code from Geometry)
(Units: MM)

(Created on Аўторак, 24 лістапада 2020 at 12:00)

(This preprocessor is the default preprocessor used by FlatCAM.)
(It is made to work with MACH3 compatible motion controllers.)

(TOOL DIAMETER: 0.1375 mm)
(Feedrate_XY: 35.0 mm/min)
(Feedrate_Z: 40.0 mm/min)
(Feedrate rapids 1500.0 mm/min)

(Z_Cut: -0.07 mm)
(Z_Move: 2.0 mm)
(Z Start: None mm)
(Z End: 10.0 mm)
(X,Y End: None mm)
(Steps per circle: 64)
(Preprocessor Geometry: default)

(X range:    3.1174 ...   58.3654  mm)
(Y range:    2.3757 ...   30.5346  mm)

(Spindle Speed: 10000.0 RPM)
G21
G90
G94

G01 F35.00

M5
G00 Z15.0000
G00 X0.0000 Y0.0000
T2
M6    
(MSG, Change to Tool Dia = 0.1375)
M0
G00 Z15.0000

M03 S10000.0
G01 F35.00
G00 X4.0339 Y4.9430
G01 F40.00
G01 Z-0.0700
G01 F35.00
G01 X5.6847 Y3.2922
G01 X13.9815 Y3.2922
G01 X13.9749 Y3.3036
G01 X13.9608 Y3.3333
G01 X13.9485 Y3.3673
G01 X13.9392 Y3.4040
G01 X13.9337 Y3.4415
G01 X13.9321 Y3.4760
G01 X13.9321 Y3.9461
G01 X13.9181 Y3.9470
G01 X13.8872 Y3.9517
G01 X13.8585 Y3.9590
G01 X13.8306 Y3.9689
G01 X13.8007 Y3.9829
G01 X13.7768 Y3.9972
G01 X13.7712 Y4.0009
G01 X13.7475 Y4.0187
G01 X13.7256 Y4.0386
G01 X13.7046 Y4.0618
G01 X13.6860 Y4.0869
G01 X13.6716 Y4.1108
G01 X13.6684 Y4.1168
G01 X13.6579 Y4.1389
G01 X13.6553 Y4.1452
G01 X13.6460 Y4.1715
G01 X13.6384 Y4.2018
G01 X13.6338 Y4.2328
G01 X13.6323 Y4.2640
G01 X13.6323 Y5.1640
G01 X13.6338 Y5.1952
G01 X13.6384 Y5.2262
G01 X13.6460 Y5.2565
G01 X13.6553 Y5.2828
G01 X13.6579 Y5.2891
G01 X13.6699 Y5.3143
G01 X13.6842 Y5.3382
G01 X13.6879 Y5.3438
G01 X13.7025 Y5.3636
G01 X13.7068 Y5.3688
G01 X13.7256 Y5.3894
G01 X13.7462 Y5.4082
G01 X13.7514 Y5.4125
G01 X13.7739 Y5.4290
G01 X13.8007 Y5.4451
G01 X13.8290 Y5.4585
G01 X13.8585 Y5.4690
G01 X13.8888 Y5.4766
G01 X13.9198 Y5.4812
G01 X13.9493 Y5.4827
G01 X13.9856 Y5.4827
G01 X13.9856 Y6.3348
G01 X13.9548 Y6.3394
G01 X13.9245 Y6.3470
G01 X13.8950 Y6.3575
G01 X13.8698 Y6.3694
G01 X13.8638 Y6.3726
G01 X13.8428 Y6.3852
G01 X13.8372 Y6.3889
G01 X13.8148 Y6.4056
G01 X13.7916 Y6.4266
G01 X13.7706 Y6.4498
G01 X13.7539 Y6.4722
G01 X13.7502 Y6.4778
G01 X13.7376 Y6.4988
G01 X13.7344 Y6.5048
G01 X13.7225 Y6.5300
G01 X13.7120 Y6.5595
G01 X13.7044 Y6.5898
G01 X13.7000 Y6.6191
G01 X13.6983 Y6.6520
G01 X13.6983 Y7.6020
G01 X13.6998 Y7.6332
G01 X13.7044 Y7.6642
G01 X13.7120 Y7.6945
G01 X13.7213 Y7.7208
G01 X13.7239 Y7.7271
G01 X13.7359 Y7.7523
G01 X13.7502 Y7.7762
G01 X13.7539 Y7.7818
G01 X13.7685 Y7.8016
G01 X13.7728 Y7.8068
G01 X13.7916 Y7.8274
G01 X13.8148 Y7.8484
G01 X13.8399 Y7.8670
G01 X13.8667 Y7.8831
G01 X13.8950 Y7.8965
G01 X13.9245 Y7.9070
G01 X13.9548 Y7.9146
G01 X13.9856 Y7.9192
G01 X13.9856 Y8.2227
G01 X13.2931 Y8.9151
G01 X13.2688 Y8.9420
G01 X13.2464 Y8.9725
G01 X13.2303 Y8.9992
G01 X13.2271 Y9.0051
G01 X13.2132 Y9.0348
G01 X13.2020 Y9.0657
G01 X13.2001 Y9.0722
G01 X13.1922 Y9.1040
G01 X13.1871 Y9.1382
G01 X13.1851 Y9.1760
G01 X13.1851 Y9.5133
G01 X12.7290 Y9.5133
G01 X12.7059 Y9.5145
G01 X12.6863 Y9.5175
G01 X12.6655 Y9.5227
G01 X12.6453 Y9.5299
G01 X12.6259 Y9.5391
G01 X12.6075 Y9.5501
G01 X12.5902 Y9.5629
G01 X12.5743 Y9.5773
G01 X12.5599 Y9.5932
G01 X12.5471 Y9.6105
G01 X12.5377 Y9.6259
G01 X12.5346 Y9.6319
G01 X12.5269 Y9.6483
G01 X12.5197 Y9.6685
G01 X12.5152 Y9.6860
G01 X12.5139 Y9.6926
G01 X12.5113 Y9.7106
G01 X12.5103 Y9.7320
G01 X12.5103 Y10.0320
G01 X12.5111 Y10.0501
G01 X12.5141 Y10.0730
G01 X12.5188 Y10.0922
G01 X12.5257 Y10.1126
G01 X12.5283 Y10.1188
G01 X12.5361 Y10.1351
G01 X12.5471 Y10.1535
G01 X12.5599 Y10.1708
G01 X12.5743 Y10.1867
G01 X12.5902 Y10.2011
G01 X12.6075 Y10.2139
G01 X12.6259 Y10.2249
G01 X12.6422 Y10.2327
G01 X12.6484 Y10.2353
G01 X12.6688 Y10.2422
G01 X12.6863 Y10.2465
G01 X12.7076 Y10.2497
G01 X12.7290 Y10.2507
G01 X14.3807 Y10.2507
G01 X14.4004 Y10.2497
G01 X14.4184 Y10.2471
G01 X14.4392 Y10.2422
G01 X14.4457 Y10.2403
G01 X14.4627 Y10.2341
G01 X14.4821 Y10.2249
G01 X14.5005 Y10.2139
G01 X14.5151 Y10.2032
G01 X14.5312 Y10.1890
G01 X14.5360 Y10.1842
G01 X14.5481 Y10.1708
G01 X14.5609 Y10.1535
G01 X14.5719 Y10.1351
G01 X14.5797 Y10.1188
G01 X14.5823 Y10.1126
G01 X14.5883 Y10.0955
G01 X14.5928 Y10.0780
G01 X14.5941 Y10.0714
G01 X14.5967 Y10.0534
G01 X14.5977 Y10.0337
G01 X14.5977 Y9.7303
G01 X14.5965 Y9.7089
G01 X14.5928 Y9.6860
G01 X14.5883 Y9.6685
G01 X14.5823 Y9.6514
G01 X14.5727 Y9.6304
G01 X14.5609 Y9.6105
G01 X14.5502 Y9.5959
G01 X14.5459 Y9.5907
G01 X14.5312 Y9.5750
G01 X14.5178 Y9.5629
G01 X14.5033 Y9.5521
G01 X14.4977 Y9.5483
G01 X14.4821 Y9.5391
G01 X14.4627 Y9.5299
G01 X14.4425 Y9.5227
G01 X14.4200 Y9.5171
G01 X14.4004 Y9.5143
G01 X14.3790 Y9.5133
G01 X13.9229 Y9.5133
G01 X13.9229 Y9.3288
G01 X14.6154 Y8.6364
G01 X14.6397 Y8.6095
G01 X14.6621 Y8.5790
G01 X14.6782 Y8.5523
G01 X14.6814 Y8.5464
G01 X14.6953 Y8.5167
G01 X14.7065 Y8.4858
G01 X14.7084 Y8.4793
G01 X14.7163 Y8.4475
G01 X14.7216 Y8.4117
G01 X14.7234 Y8.3755
G01 X14.7234 Y7.9192
G01 X14.7542 Y7.9146
G01 X14.7813 Y7.9079
G01 X14.7877 Y7.9060
G01 X14.8108 Y7.8977
G01 X14.8171 Y7.8951
G01 X14.8423 Y7.8831
G01 X14.8691 Y7.8670
G01 X14.8942 Y7.8484
G01 X14.9149 Y7.8297
G01 X14.9197 Y7.8249
G01 X14.9362 Y7.8068
G01 X14.9405 Y7.8016
G01 X14.9570 Y7.7791
G01 X14.9731 Y7.7523
G01 X14.9865 Y7.7240
G01 X14.9960 Y7.6977
G01 X14.9979 Y7.6913
G01 X15.0039 Y7.6675
G01 X15.0052 Y7.6609
G01 X15.0092 Y7.6332
G01 X15.0107 Y7.6020
G01 X15.0107 Y6.6520
G01 X15.0092 Y6.6208
G01 X15.0043 Y6.5882
G01 X14.9970 Y6.5595
G01 X14.9877 Y6.5332
G01 X14.9851 Y6.5269
G01 X14.9746 Y6.5048
G01 X14.9714 Y6.4988
G01 X14.9570 Y6.4749
G01 X14.9384 Y6.4498
G01 X14.9174 Y6.4266
G01 X14.8968 Y6.4078
G01 X14.8916 Y6.4035
G01 X14.8718 Y6.3889
G01 X14.8662 Y6.3852
G01 X14.8423 Y6.3709
G01 X14.8140 Y6.3575
G01 X14.7877 Y6.3480
G01 X14.7813 Y6.3461
G01 X14.7542 Y6.3394
G01 X14.7234 Y6.3348
G01 X14.7234 Y5.4742
G01 X14.7435 Y5.4690
G01 X14.7730 Y5.4585
G01 X14.8013 Y5.4451
G01 X14.8267 Y5.4300
G01 X14.8506 Y5.4125
G01 X14.8558 Y5.4082
G01 X14.8764 Y5.3894
G01 X14.8974 Y5.3662
G01 X14.9160 Y5.3411
G01 X14.9304 Y5.3172
G01 X14.9336 Y5.3112
G01 X14.9441 Y5.2891
G01 X14.9467 Y5.2828
G01 X14.9560 Y5.2565
G01 X14.9636 Y5.2262
G01 X14.9682 Y5.1952
G01 X14.9697 Y5.1674
G01 X14.9697 Y4.2640
G01 X14.9682 Y4.2328
G01 X14.9642 Y4.2051
G01 X14.9629 Y4.1985
G01 X14.9560 Y4.1715
G01 X14.9455 Y4.1420
G01 X14.9321 Y4.1137
G01 X14.9178 Y4.0898
G01 X14.9141 Y4.0842
G01 X14.8995 Y4.0644
G01 X14.8952 Y4.0592
G01 X14.8764 Y4.0386
G01 X14.8545 Y4.0187
G01 X14.8308 Y4.0009
G01 X14.8252 Y3.9972
G01 X14.8013 Y3.9829
G01 X14.7714 Y3.9689
G01 X14.7435 Y3.9590
G01 X14.7148 Y3.9517
G01 X14.6839 Y3.9470
G01 X14.6699 Y3.9461
G01 X14.6699 Y3.4873
G01 X14.7771 Y3.3801
G01 X14.7937 Y3.3618
G01 X14.8086 Y3.3421
G01 X14.8123 Y3.3365
G01 X14.8241 Y3.3167
G01 X14.8357 Y3.2922
G01 X54.1598 Y3.2922
G01 X57.4489 Y6.5813
G01 X57.4489 Y9.0822
G01 X56.5682 Y9.0822
G01 X56.5682 Y9.0244
G01 X56.5670 Y8.9982
G01 X56.5663 Y8.9915
G01 X56.5621 Y8.9639
G01 X56.5554 Y8.9368
G01 X56.5535 Y8.9304
G01 X56.5433 Y8.9026
G01 X56.5306 Y8.8758
G01 X56.5163 Y8.8519
G01 X56.5126 Y8.8463
G01 X56.4959 Y8.8239
G01 X56.4749 Y8.8007
G01 X56.4543 Y8.7819
G01 X56.4491 Y8.7776
G01 X56.4252 Y8.7601
G01 X56.4027 Y8.7467
G01 X56.3967 Y8.7435
G01 X56.3715 Y8.7316
G01 X56.3452 Y8.7221
G01 X56.3388 Y8.7202
G01 X56.3117 Y8.7135
G01 X56.2824 Y8.7091
G01 X56.2495 Y8.7074
G01 X55.9809 Y8.7074
G01 X55.9808 Y8.2216
G01 X55.9798 Y8.1986
G01 X55.9791 Y8.1919
G01 X55.9757 Y8.1691
G01 X55.9693 Y8.1436
G01 X55.9604 Y8.1187
G01 X55.9483 Y8.0934
G01 X55.9355 Y8.0722
G01 X55.9219 Y8.0537
G01 X55.9176 Y8.0485
G01 X55.9021 Y8.0315
G01 X55.1711 Y7.3005
G01 X55.1848 Y7.2969
G01 X55.2142 Y7.2862
G01 X55.2410 Y7.2735
G01 X55.2664 Y7.2584
G01 X55.2903 Y7.2409
G01 X55.2955 Y7.2366
G01 X55.3161 Y7.2178
G01 X55.3360 Y7.1959
G01 X55.3538 Y7.1722
G01 X55.3575 Y7.1666
G01 X55.3718 Y7.1427
G01 X55.3852 Y7.1144
G01 X55.3947 Y7.0881
G01 X55.3966 Y7.0817
G01 X55.4033 Y7.0546
G01 X55.4077 Y7.0253
G01 X55.4094 Y6.9924
G01 X55.4094 Y6.0424
G01 X55.4082 Y6.0145
G01 X55.4075 Y6.0078
G01 X55.4039 Y5.9835
G01 X55.4026 Y5.9769
G01 X55.3957 Y5.9499
G01 X55.3852 Y5.9204
G01 X55.3733 Y5.8952
G01 X55.3701 Y5.8892
G01 X55.3557 Y5.8653
G01 X55.3382 Y5.8415
G01 X55.3161 Y5.8170
G01 X55.2929 Y5.7960
G01 X55.2678 Y5.7774
G01 X55.2410 Y5.7613
G01 X55.2127 Y5.7479
G01 X55.1832 Y5.7374
G01 X55.1529 Y5.7298
G01 X55.1236 Y5.7254
G01 X55.0907 Y5.7237
G01 X54.4157 Y5.7237
G01 X54.3828 Y5.7254
G01 X54.3535 Y5.7298
G01 X54.3264 Y5.7365
G01 X54.3200 Y5.7384
G01 X54.2969 Y5.7467
G01 X54.2906 Y5.7493
G01 X54.2654 Y5.7613
G01 X54.2386 Y5.7774
G01 X54.2135 Y5.7960
G01 X54.1928 Y5.8147
G01 X54.1880 Y5.8195
G01 X54.1715 Y5.8376
G01 X54.1672 Y5.8428
G01 X54.1507 Y5.8653
G01 X54.1346 Y5.8921
G01 X54.1212 Y5.9204
G01 X54.1117 Y5.9467
G01 X54.1098 Y5.9531
G01 X54.1028 Y5.9819
G01 X54.0985 Y6.0112
G01 X54.0970 Y6.0424
G01 X54.0970 Y6.9941
G01 X54.0982 Y7.0203
G01 X54.0989 Y7.0270
G01 X54.1031 Y7.0546
G01 X54.1098 Y7.0817
G01 X54.1117 Y7.0881
G01 X54.1212 Y7.1144
G01 X54.1354 Y7.1441
G01 X54.1507 Y7.1695
G01 X54.1672 Y7.1920
G01 X54.1715 Y7.1972
G01 X54.1880 Y7.2153
G01 X54.1928 Y7.2201
G01 X54.2135 Y7.2388
G01 X54.2386 Y7.2574
G01 X54.2654 Y7.2735
G01 X54.2906 Y7.2855
G01 X54.2969 Y7.2881
G01 X54.3200 Y7.2964
G01 X54.3264 Y7.2983
G01 X54.3535 Y7.3050
G01 X54.3828 Y7.3094
G01 X54.4140 Y7.3111
G01 X54.4888 Y7.3111
G01 X54.4903 Y7.3185
G01 X54.4970 Y7.3440
G01 X54.5048 Y7.3657
G01 X54.5161 Y7.3895
G01 X54.5279 Y7.4093
G01 X54.5316 Y7.4149
G01 X54.5454 Y7.4334
G01 X54.5619 Y7.4517
G01 X55.4432 Y8.3330
G01 X55.4432 Y8.7074
G01 X55.1745 Y8.7074
G01 X55.1466 Y8.7086
G01 X55.1399 Y8.7093
G01 X55.1156 Y8.7129
G01 X55.1090 Y8.7142
G01 X55.0820 Y8.7211
G01 X55.0541 Y8.7310
G01 X55.0242 Y8.7450
G01 X54.9974 Y8.7611
G01 X54.9723 Y8.7797
G01 X54.9516 Y8.7984
G01 X54.9468 Y8.8032
G01 X54.9281 Y8.8239
G01 X54.9114 Y8.8463
G01 X54.9077 Y8.8519
G01 X54.8951 Y8.8729
G01 X54.8919 Y8.8789
G01 X54.8800 Y8.9041
G01 X54.8695 Y8.9336
G01 X54.8626 Y8.9606
G01 X54.8613 Y8.9672
G01 X54.8573 Y8.9949
G01 X54.8558 Y9.0244
G01 X54.8558 Y9.8761
G01 X54.8570 Y9.9040
G01 X54.8577 Y9.9107
G01 X54.8613 Y9.9350
G01 X54.8626 Y9.9416
G01 X54.8695 Y9.9686
G01 X54.8800 Y9.9981
G01 X54.8934 Y10.0264
G01 X54.9077 Y10.0503
G01 X54.9114 Y10.0559
G01 X54.9292 Y10.0796
G01 X54.9491 Y10.1015
G01 X54.9723 Y10.1225
G01 X54.9974 Y10.1411
G01 X55.0242 Y10.1572
G01 X55.0525 Y10.1706
G01 X55.0820 Y10.1811
G01 X55.1123 Y10.1887
G01 X55.1449 Y10.1935
G01 X55.1745 Y10.1948
G01 X56.2495 Y10.1948
G01 X56.2807 Y10.1933
G01 X56.3117 Y10.1887
G01 X56.3420 Y10.1811
G01 X56.3715 Y10.1706
G01 X56.3998 Y10.1572
G01 X56.4266 Y10.1411
G01 X56.4517 Y10.1225
G01 X56.4749 Y10.1015
G01 X56.4970 Y10.0770
G01 X56.5145 Y10.0532
G01 X56.5306 Y10.0264
G01 X56.5440 Y9.9981
G01 X56.5550 Y9.9670
G01 X56.5621 Y9.9383
G01 X56.5667 Y9.9073
G01 X56.5682 Y9.8778
G01 X56.5682 Y9.8200
G01 X57.4489 Y9.8200
G01 X57.4489 Y16.0164
G01 X51.7476 Y16.0164
G01 X51.0366 Y15.3054
G01 X51.0366 Y14.4422
G01 X51.0351 Y14.4094
G01 X51.0344 Y14.4027
G01 X51.0295 Y14.3702
G01 X51.0216 Y14.3384
G01 X51.0197 Y14.3319
G01 X51.0085 Y14.3010
G01 X50.9946 Y14.2713
G01 X50.9914 Y14.2654
G01 X50.9744 Y14.2373
G01 X50.9529 Y14.2082
G01 X50.9286 Y14.1813
G01 X49.7094 Y12.9621
G01 X49.6851 Y12.9400
G01 X49.6799 Y12.9358
G01 X49.6534 Y12.9163
G01 X49.6224 Y12.8977
G01 X49.5928 Y12.8835
G01 X49.5865 Y12.8810
G01 X49.5556 Y12.8700
G01 X49.5238 Y12.8619
G01 X49.5171 Y12.8606
G01 X49.4847 Y12.8559
G01 X49.4485 Y12.8541
G01 X46.0803 Y12.8543
G01 X46.0572 Y12.8557
G01 X46.0393 Y12.8585
G01 X46.0218 Y12.8628
G01 X46.0153 Y12.8647
G01 X45.9983 Y12.8709
G01 X45.9789 Y12.8801
G01 X45.9633 Y12.8893
G01 X45.9577 Y12.8931
G01 X45.9432 Y12.9039
G01 X45.9298 Y12.9160
G01 X45.9250 Y12.9208
G01 X45.9129 Y12.9342
G01 X45.9021 Y12.9487
G01 X45.8983 Y12.9543
G01 X45.8876 Y12.9729
G01 X45.8799 Y12.9893
G01 X45.8737 Y13.0063
G01 X45.8718 Y13.0128
G01 X45.8675 Y13.0303
G01 X45.8642 Y13.0532
G01 X45.8633 Y13.0730
G01 X45.8633 Y13.3730
G01 X45.8642 Y13.3932
G01 X45.8676 Y13.4163
G01 X45.8716 Y13.4329
G01 X45.8775 Y13.4505
G01 X45.8848 Y13.4676
G01 X45.8877 Y13.4733
G01 X45.8960 Y13.4882
G01 X45.9074 Y13.5048
G01 X45.9203 Y13.5204
G01 X45.9323 Y13.5325
G01 X45.9477 Y13.5456
G01 X45.9528 Y13.5494
G01 X45.9668 Y13.5590
G01 X45.9845 Y13.5688
G01 X46.0060 Y13.5781
G01 X46.0221 Y13.5834
G01 X46.0418 Y13.5880
G01 X46.0618 Y13.5908
G01 X46.0820 Y13.5917
G01 X49.2957 Y13.5919
G01 X50.2988 Y14.5950
G01 X50.2989 Y15.4616
G01 X50.3003 Y15.4910
G01 X50.3010 Y15.4977
G01 X50.3059 Y15.5302
G01 X50.3138 Y15.5620
G01 X50.3157 Y15.5685
G01 X50.3269 Y15.5994
G01 X50.3416 Y15.6306
G01 X50.3592 Y15.6603
G01 X50.3629 Y15.6659
G01 X50.3825 Y15.6922
G01 X50.4068 Y15.7191
G01 X51.3364 Y16.6485
G01 X51.3608 Y16.6705
G01 X51.3899 Y16.6920
G01 X51.4209 Y16.7106
G01 X51.4505 Y16.7248
G01 X51.4568 Y16.7273
G01 X51.4845 Y16.7373
G01 X51.4910 Y16.7392
G01 X51.5228 Y16.7471
G01 X51.5603 Y16.7526
G01 X51.5948 Y16.7542
G01 X52.7362 Y16.7542
G01 X52.2229 Y17.2674
G01 X52.1986 Y17.2943
G01 X52.1790 Y17.3206
G01 X52.1753 Y17.3262
G01 X52.1585 Y17.3544
G01 X52.1430 Y17.3871
G01 X52.1318 Y17.4180
G01 X52.1299 Y17.4245
G01 X52.1220 Y17.4563
G01 X52.1167 Y17.4921
G01 X52.1149 Y17.5283
G01 X52.1149 Y22.6955
G01 X52.0830 Y22.7037
G01 X51.9844 Y22.7392
G01 X51.8911 Y22.7833
G01 X51.8025 Y22.8363
G01 X51.7196 Y22.8977
G01 X51.7143 Y22.9019
G01 X51.6392 Y22.9702
G01 X51.5698 Y23.0466
G01 X51.5082 Y23.1294
G01 X51.5045 Y23.1350
G01 X51.4523 Y23.2221
G01 X51.4075 Y23.3169
G01 X51.3722 Y23.4157
G01 X51.3474 Y23.5141
G01 X51.3461 Y23.5207
G01 X51.3312 Y23.6228
G01 X51.3262 Y23.7259
G01 X51.3310 Y23.8273
G01 X51.3317 Y23.8340
G01 X51.3461 Y23.9311
G01 X51.3474 Y23.9377
G01 X51.3722 Y24.0361
G01 X51.4075 Y24.1349
G01 X51.4523 Y24.2297
G01 X51.5053 Y24.3183
G01 X51.5687 Y24.4039
G01 X51.6369 Y24.4792
G01 X51.6416 Y24.4839
G01 X51.7182 Y24.5531
G01 X51.8011 Y24.6145
G01 X51.8896 Y24.6676
G01 X51.9844 Y24.7126
G01 X52.0260 Y24.7277
G01 X52.0260 Y25.3257
G01 X51.3173 Y26.0344
G01 X48.9598 Y26.0344
G01 X48.9552 Y26.0036
G01 X48.9485 Y25.9765
G01 X48.9466 Y25.9701
G01 X48.9371 Y25.9438
G01 X48.9237 Y25.9155
G01 X48.9094 Y25.8916
G01 X48.9057 Y25.8860
G01 X48.8911 Y25.8662
G01 X48.8868 Y25.8610
G01 X48.8680 Y25.8404
G01 X48.8448 Y25.8194
G01 X48.8197 Y25.8008
G01 X48.7958 Y25.7864
G01 X48.7898 Y25.7832
G01 X48.7677 Y25.7727
G01 X48.7614 Y25.7701
G01 X48.7351 Y25.7608
G01 X48.7064 Y25.7535
G01 X48.6738 Y25.7486
G01 X48.6426 Y25.7471
G01 X47.6926 Y25.7471
G01 X47.6614 Y25.7486
G01 X47.6304 Y25.7532
G01 X47.6001 Y25.7608
G01 X47.5738 Y25.7701
G01 X47.5675 Y25.7727
G01 X47.5423 Y25.7847
G01 X47.5184 Y25.7990
G01 X47.5128 Y25.8027
G01 X47.4930 Y25.8173
G01 X47.4878 Y25.8216
G01 X47.4672 Y25.8404
G01 X47.4462 Y25.8636
G01 X47.4276 Y25.8887
G01 X47.4115 Y25.9155
G01 X47.3981 Y25.9438
G01 X47.3876 Y25.9733
G01 X47.3800 Y26.0036
G01 X47.3754 Y26.0344
G01 X46.6738 Y26.0344
G01 X46.6692 Y26.0036
G01 X46.6625 Y25.9765
G01 X46.6606 Y25.9701
G01 X46.6511 Y25.9438
G01 X46.6377 Y25.9155
G01 X46.6234 Y25.8916
G01 X46.6197 Y25.8860
G01 X46.6051 Y25.8662
G01 X46.6008 Y25.8610
G01 X46.5820 Y25.8404
G01 X46.5588 Y25.8194
G01 X46.5337 Y25.8008
G01 X46.5098 Y25.7864
G01 X46.5038 Y25.7832
G01 X46.4817 Y25.7727
G01 X46.4754 Y25.7701
G01 X46.4491 Y25.7608
G01 X46.4204 Y25.7535
G01 X46.3878 Y25.7486
G01 X46.3566 Y25.7471
G01 X45.4066 Y25.7471
G01 X45.3754 Y25.7486
G01 X45.3444 Y25.7532
G01 X45.3141 Y25.7608
G01 X45.2878 Y25.7701
G01 X45.2815 Y25.7727
G01 X45.2563 Y25.7847
G01 X45.2324 Y25.7990
G01 X45.2268 Y25.8027
G01 X45.2070 Y25.8173
G01 X45.2018 Y25.8216
G01 X45.1812 Y25.8404
G01 X45.1602 Y25.8636
G01 X45.1416 Y25.8887
G01 X45.1255 Y25.9155
G01 X45.1121 Y25.9438
G01 X45.1016 Y25.9733
G01 X45.0940 Y26.0036
G01 X45.0894 Y26.0344
G01 X41.3694 Y26.0344
G01 X40.6734 Y25.3384
G01 X40.6734 Y20.2774
G01 X41.4526 Y19.4982
G01 X45.8022 Y19.4982
G01 X45.8022 Y19.5684
G01 X45.6461 Y19.5684
G01 X45.6132 Y19.5701
G01 X45.5839 Y19.5745
G01 X45.5536 Y19.5821
G01 X45.5241 Y19.5926
G01 X45.4989 Y19.6045
G01 X45.4929 Y19.6077
G01 X45.4690 Y19.6221
G01 X45.4439 Y19.6407
G01 X45.4207 Y19.6617
G01 X45.4019 Y19.6823
G01 X45.3976 Y19.6875
G01 X45.3830 Y19.7073
G01 X45.3793 Y19.7129
G01 X45.3650 Y19.7368
G01 X45.3530 Y19.7620
G01 X45.3504 Y19.7683
G01 X45.3411 Y19.7946
G01 X45.3335 Y19.8249
G01 X45.3289 Y19.8559
G01 X45.3274 Y19.8854
G01 X45.3274 Y20.5638
G01 X45.3286 Y20.5900
G01 X45.3293 Y20.5967
G01 X45.3335 Y20.6243
G01 X45.3402 Y20.6514
G01 X45.3421 Y20.6578
G01 X45.3516 Y20.6841
G01 X45.3635 Y20.7093
G01 X45.3667 Y20.7153
G01 X45.3793 Y20.7363
G01 X45.3830 Y20.7419
G01 X45.3997 Y20.7643
G01 X45.4184 Y20.7850
G01 X45.4232 Y20.7898
G01 X45.4439 Y20.8085
G01 X45.4690 Y20.8271
G01 X45.4958 Y20.8432
G01 X45.5210 Y20.8552
G01 X45.5273 Y20.8578
G01 X45.5536 Y20.8671
G01 X45.5806 Y20.8740
G01 X45.5872 Y20.8753
G01 X45.6132 Y20.8791
G01 X45.6461 Y20.8808
G01 X46.5961 Y20.8808
G01 X46.6273 Y20.8793
G01 X46.6583 Y20.8747
G01 X46.6854 Y20.8680
G01 X46.6918 Y20.8661
G01 X46.7181 Y20.8566
G01 X46.7464 Y20.8432
G01 X46.7703 Y20.8289
G01 X46.7759 Y20.8252
G01 X46.7983 Y20.8085
G01 X46.8190 Y20.7898
G01 X46.8238 Y20.7850
G01 X46.8425 Y20.7643
G01 X46.8611 Y20.7392
G01 X46.8772 Y20.7124
G01 X46.8892 Y20.6872
G01 X46.8918 Y20.6809
G01 X46.9016 Y20.6530
G01 X46.9087 Y20.6243
G01 X46.9129 Y20.5967
G01 X46.9136 Y20.5900
G01 X46.9148 Y20.5638
G01 X46.9148 Y19.8871
G01 X46.9131 Y19.8542
G01 X46.9087 Y19.8249
G01 X46.9011 Y19.7946
G01 X46.8906 Y19.7651
G01 X46.8772 Y19.7368
G01 X46.8611 Y19.7100
G01 X46.8425 Y19.6849
G01 X46.8215 Y19.6617
G01 X46.8009 Y19.6429
G01 X46.7957 Y19.6386
G01 X46.7732 Y19.6221
G01 X46.7493 Y19.6077
G01 X46.7433 Y19.6045
G01 X46.7212 Y19.5940
G01 X46.7149 Y19.5914
G01 X46.6886 Y19.5821
G01 X46.6583 Y19.5745
G01 X46.6273 Y19.5699
G01 X46.5978 Y19.5684
G01 X46.4400 Y19.5684
G01 X46.4400 Y19.4982
G01 X47.9682 Y19.4982
G01 X47.9682 Y19.7686
G01 X47.9697 Y19.7964
G01 X47.9737 Y19.8241
G01 X47.9750 Y19.8307
G01 X47.9810 Y19.8545
G01 X47.9829 Y19.8609
G01 X47.9924 Y19.8872
G01 X48.0043 Y19.9124
G01 X48.0075 Y19.9184
G01 X48.0219 Y19.9423
G01 X48.0384 Y19.9648
G01 X48.0427 Y19.9700
G01 X48.0592 Y19.9881
G01 X48.0640 Y19.9929
G01 X48.0847 Y20.0116
G01 X48.1098 Y20.0302
G01 X48.1366 Y20.0463
G01 X48.1634 Y20.0590
G01 X48.1944 Y20.0702
G01 X48.2247 Y20.0778
G01 X48.2557 Y20.0824
G01 X48.2852 Y20.0839
G01 X49.1385 Y20.0839
G01 X49.1695 Y20.0822
G01 X49.1955 Y20.0785
G01 X49.2226 Y20.0722
G01 X49.2491 Y20.0635
G01 X49.2550 Y20.0612
G01 X49.2790 Y20.0505
G01 X49.3047 Y20.0362
G01 X49.3264 Y20.0214
G01 X49.3315 Y20.0176
G01 X49.3516 Y20.0008
G01 X49.3725 Y19.9799
G01 X49.3893 Y19.9598
G01 X49.3931 Y19.9547
G01 X49.4079 Y19.9330
G01 X49.4222 Y19.9073
G01 X49.4341 Y19.8803
G01 X49.4425 Y19.8555
G01 X49.4443 Y19.8494
G01 X49.4505 Y19.8222
G01 X49.4543 Y19.7946
G01 X49.4556 Y19.7652
G01 X49.4556 Y18.6885
G01 X49.4541 Y18.6590
G01 X49.4501 Y18.6313
G01 X49.4488 Y18.6247
G01 X49.4428 Y18.6009
G01 X49.4409 Y18.5945
G01 X49.4314 Y18.5682
G01 X49.4180 Y18.5399
G01 X49.4019 Y18.5131
G01 X49.3854 Y18.4906
G01 X49.3811 Y18.4854
G01 X49.3646 Y18.4673
G01 X49.3598 Y18.4625
G01 X49.3391 Y18.4438
G01 X49.3140 Y18.4252
G01 X49.2872 Y18.4091
G01 X49.2620 Y18.3971
G01 X49.2557 Y18.3945
G01 X49.2278 Y18.3847
G01 X49.1991 Y18.3776
G01 X49.1715 Y18.3734
G01 X49.1648 Y18.3727
G01 X49.1386 Y18.3715
G01 X48.2852 Y18.3715
G01 X48.2590 Y18.3727
G01 X48.2523 Y18.3734
G01 X48.2247 Y18.3776
G01 X48.1976 Y18.3843
G01 X48.1912 Y18.3862
G01 X48.1649 Y18.3957
G01 X48.1366 Y18.4091
G01 X48.1127 Y18.4234
G01 X48.1071 Y18.4271
G01 X48.0847 Y18.4438
G01 X48.0640 Y18.4625
G01 X48.0592 Y18.4673
G01 X48.0405 Y18.4880
G01 X48.0209 Y18.5145
G01 X48.0058 Y18.5399
G01 X47.9924 Y18.5682
G01 X47.9819 Y18.5977
G01 X47.9750 Y18.6247
G01 X47.9737 Y18.6313
G01 X47.9697 Y18.6590
G01 X47.9682 Y18.6885
G01 X47.9682 Y18.8604
G01 X41.3205 Y18.8604
G01 X41.2876 Y18.8621
G01 X41.2583 Y18.8666
G01 X41.2312 Y18.8733
G01 X41.2247 Y18.8752
G01 X41.1985 Y18.8847
G01 X41.1702 Y18.8981
G01 X41.1462 Y18.9124
G01 X41.1406 Y18.9161
G01 X41.1169 Y18.9339
G01 X41.0950 Y18.9538
G01 X40.2097 Y19.8391
G01 X40.1958 Y19.8428
G01 X40.1618 Y19.8551
G01 X40.1306 Y19.8700
G01 X40.0982 Y19.8895
G01 X40.0705 Y19.9101
G01 X40.0436 Y19.9344
G01 X40.0193 Y19.9613
G01 X39.9987 Y19.9890
G01 X39.9792 Y20.0214
G01 X39.9650 Y20.0510
G01 X39.9625 Y20.0573
G01 X39.9515 Y20.0882
G01 X39.9434 Y20.1200
G01 X39.9421 Y20.1267
G01 X39.9372 Y20.1608
G01 X39.9356 Y20.1953
G01 X39.9356 Y20.7408
G01 X32.1621 Y20.7408
G01 X32.1276 Y20.7426
G01 X32.0918 Y20.7479
G01 X32.0567 Y20.7567
G01 X32.0226 Y20.7689
G01 X31.9899 Y20.7844
G01 X31.9589 Y20.8030
G01 X31.9298 Y20.8245
G01 X31.9042 Y20.8477
G01 X31.1628 Y21.5891
G01 X31.1396 Y21.6147
G01 X31.1181 Y21.6438
G01 X31.0995 Y21.6748
G01 X31.0840 Y21.7075
G01 X31.0718 Y21.7416
G01 X31.0630 Y21.7767
G01 X31.0577 Y21.8125
G01 X31.0559 Y21.8470
G01 X31.0559 Y22.8933
G01 X30.8873 Y22.8933
G01 X30.8544 Y22.8950
G01 X30.8251 Y22.8994
G01 X30.7948 Y22.9070
G01 X30.7653 Y22.9175
G01 X30.7370 Y22.9309
G01 X30.7102 Y22.9470
G01 X30.6851 Y22.9656
G01 X30.6619 Y22.9866
G01 X30.6431 Y23.0072
G01 X30.6388 Y23.0124
G01 X30.6223 Y23.0349
G01 X30.6079 Y23.0588
G01 X30.6047 Y23.0648
G01 X30.5942 Y23.0869
G01 X30.5916 Y23.0932
G01 X30.5823 Y23.1195
G01 X30.5747 Y23.1498
G01 X30.5701 Y23.1808
G01 X30.5686 Y23.2120
G01 X30.5686 Y24.0637
G01 X30.5701 Y24.0932
G01 X30.5747 Y24.1242
G01 X30.5823 Y24.1545
G01 X30.5928 Y24.1840
G01 X30.6062 Y24.2123
G01 X30.6223 Y24.2391
G01 X30.6409 Y24.2642
G01 X30.6619 Y24.2874
G01 X30.6851 Y24.3084
G01 X30.7102 Y24.3270
G01 X30.7370 Y24.3431
G01 X30.7653 Y24.3565
G01 X30.7948 Y24.3670
G01 X30.8218 Y24.3739
G01 X30.8284 Y24.3752
G01 X30.8577 Y24.3794
G01 X30.8873 Y24.3807
G01 X31.0686 Y24.3807
G01 X31.0686 Y26.7541
G01 X30.9000 Y26.7541
G01 X30.8722 Y26.7553
G01 X30.8414 Y26.7595
G01 X30.8158 Y26.7654
G01 X30.8097 Y26.7672
G01 X30.7819 Y26.7768
G01 X30.7551 Y26.7889
G01 X30.7322 Y26.8018
G01 X30.7105 Y26.8166
G01 X30.7054 Y26.8204
G01 X30.6853 Y26.8372
G01 X30.6666 Y26.8558
G01 X30.6624 Y26.8605
G01 X30.6456 Y26.8807
G01 X30.6290 Y26.9050
G01 X30.6147 Y26.9307
G01 X30.6034 Y26.9562
G01 X30.5934 Y26.9856
G01 X30.5867 Y27.0142
G01 X30.5826 Y27.0434
G01 X30.5813 Y27.0712
G01 X30.5813 Y27.9228
G01 X30.5828 Y27.9540
G01 X30.5868 Y27.9817
G01 X30.5881 Y27.9883
G01 X30.5950 Y28.0153
G01 X30.6043 Y28.0416
G01 X30.6069 Y28.0479
G01 X30.6189 Y28.0731
G01 X30.6350 Y28.0999
G01 X30.6536 Y28.1250
G01 X30.6723 Y28.1457
G01 X30.6771 Y28.1505
G01 X30.6952 Y28.1670
G01 X30.7004 Y28.1713
G01 X30.7229 Y28.1878
G01 X30.7468 Y28.2022
G01 X30.7528 Y28.2054
G01 X30.7780 Y28.2173
G01 X30.8075 Y28.2278
G01 X30.8378 Y28.2354
G01 X30.8671 Y28.2398
G01 X30.9000 Y28.2415
G01 X31.0686 Y28.2415
G01 X31.0686 Y28.7571
G01 X30.2076 Y29.6181
G01 X22.4489 Y29.6181
G01 X22.4489 Y27.3412
G01 X22.5567 Y27.3412
G01 X22.5862 Y27.3397
G01 X22.6172 Y27.3351
G01 X22.6475 Y27.3275
G01 X22.6770 Y27.3170
G01 X22.7053 Y27.3036
G01 X22.7321 Y27.2875
G01 X22.7572 Y27.2689
G01 X22.7804 Y27.2479
G01 X22.8014 Y27.2247
G01 X22.8181 Y27.2023
G01 X22.8218 Y27.1967
G01 X22.8361 Y27.1728
G01 X22.8481 Y27.1476
G01 X22.8507 Y27.1413
G01 X22.8590 Y27.1182
G01 X22.8609 Y27.1118
G01 X22.8676 Y27.0847
G01 X22.8722 Y27.0539
G01 X23.5735 Y27.0539
G01 X23.6063 Y27.0524
G01 X23.6130 Y27.0517
G01 X23.6455 Y27.0468
G01 X23.6806 Y27.0380
G01 X23.7147 Y27.0258
G01 X23.7444 Y27.0119
G01 X23.7504 Y27.0087
G01 X23.7785 Y26.9917
G01 X23.8049 Y26.9722
G01 X23.8101 Y26.9680
G01 X23.8344 Y26.9459
G01 X24.7422 Y26.0381
G01 X24.7581 Y26.0206
G01 X25.3414 Y25.4373
G01 X25.3854 Y25.4528
G01 X25.4649 Y25.4727
G01 X25.5492 Y25.4854
G01 X25.6360 Y25.4897
G01 X25.7195 Y25.4857
G01 X25.8055 Y25.4731
G01 X25.8882 Y25.4523
G01 X25.9685 Y25.4236
G01 X26.0440 Y25.3879
G01 X26.1187 Y25.3433
G01 X26.1871 Y25.2926
G01 X26.2503 Y25.2353
G01 X26.3076 Y25.1721
G01 X26.3583 Y25.1037
G01 X26.4022 Y25.0305
G01 X26.4386 Y24.9535
G01 X26.4663 Y24.8764
G01 X26.4700 Y24.8629
G01 X26.9380 Y24.8629
G01 X26.9742 Y24.8611
G01 X26.9970 Y24.8578
G01 X27.0198 Y24.8611
G01 X27.0526 Y24.8628
G01 X27.0594 Y24.8628
G01 X27.0888 Y24.8614
G01 X27.0955 Y24.8607
G01 X27.1280 Y24.8558
G01 X27.1631 Y24.8470
G01 X27.1972 Y24.8348
G01 X27.2299 Y24.8193
G01 X27.2609 Y24.8007
G01 X27.2874 Y24.7812
G01 X27.2926 Y24.7770
G01 X27.3169 Y24.7549
G01 X27.9554 Y24.1162
G01 X27.9764 Y24.0932
G01 X27.9806 Y24.0880
G01 X28.0001 Y24.0615
G01 X28.0171 Y24.0334
G01 X28.0203 Y24.0275
G01 X28.0342 Y23.9978
G01 X28.0454 Y23.9669
G01 X28.0473 Y23.9604
G01 X28.0552 Y23.9286
G01 X28.0601 Y23.8961
G01 X28.0608 Y23.8894
G01 X28.0623 Y23.8583
G01 X28.0623 Y21.0094
G01 X29.5799 Y19.4919
G01 X29.6042 Y19.4650
G01 X29.6257 Y19.4359
G01 X29.6443 Y19.4049
G01 X29.6592 Y19.3737
G01 X29.6720 Y19.3381
G01 X29.6808 Y19.3030
G01 X29.6861 Y19.2672
G01 X29.6879 Y19.2327
G01 X29.6879 Y17.4439
G01 X33.4440 Y17.4441
G01 X33.4669 Y17.4430
G01 X33.4931 Y17.4395
G01 X33.4997 Y17.4382
G01 X33.5220 Y17.4325
G01 X33.5468 Y17.4236
G01 X33.5707 Y17.4123
G01 X33.5905 Y17.4006
G01 X33.6119 Y17.3851
G01 X33.6171 Y17.3809
G01 X33.6341 Y17.3653
G01 X33.6518 Y17.3458
G01 X33.6675 Y17.3246
G01 X33.6794 Y17.3049
G01 X33.6910 Y17.2812
G01 X33.6936 Y17.2750
G01 X33.7012 Y17.2533
G01 X33.7073 Y17.2293
G01 X33.7115 Y17.2016
G01 X33.7128 Y17.1752
G01 X33.7115 Y17.1489
G01 X33.7076 Y17.1228
G01 X33.7012 Y17.0972
G01 X33.6923 Y17.0724
G01 X33.6811 Y17.0485
G01 X33.6693 Y17.0287
G01 X33.6656 Y17.0231
G01 X33.6518 Y17.0047
G01 X33.6364 Y16.9876
G01 X33.6171 Y16.9696
G01 X33.6119 Y16.9653
G01 X33.5947 Y16.9527
G01 X33.5736 Y16.9398
G01 X33.5677 Y16.9366
G01 X33.5468 Y16.9269
G01 X33.5220 Y16.9180
G01 X33.4964 Y16.9116
G01 X33.4686 Y16.9075
G01 X33.4440 Y16.9064
G01 X29.6879 Y16.9062
G01 X29.6879 Y13.5024
G01 X29.6861 Y13.4662
G01 X29.6808 Y13.4304
G01 X29.6720 Y13.3953
G01 X29.6610 Y13.3644
G01 X29.6585 Y13.3581
G01 X29.6443 Y13.3285
G01 X29.6257 Y13.2975
G01 X29.6042 Y13.2684
G01 X29.5799 Y13.2415
G01 X26.6399 Y10.3016
G01 X26.6399 Y7.1528
G01 X27.9986 Y5.7941
G01 X33.9160 Y5.7941
G01 X34.0875 Y5.9656
G01 X34.0875 Y6.2145
G01 X34.0454 Y6.2346
G01 X33.9752 Y6.2767
G01 X33.9040 Y6.3295
G01 X33.8421 Y6.3857
G01 X33.7871 Y6.4463
G01 X33.7828 Y6.4515
G01 X33.7331 Y6.5188
G01 X33.6902 Y6.5905
G01 X33.6551 Y6.6645
G01 X33.6526 Y6.6707
G01 X33.6251 Y6.7478
G01 X33.6043 Y6.8305
G01 X33.5922 Y6.9115
G01 X33.5916 Y6.9182
G01 X33.5877 Y6.9966
G01 X33.5877 Y7.0034
G01 X33.5918 Y7.0852
G01 X33.6038 Y7.1662
G01 X33.6051 Y7.1728
G01 X33.6251 Y7.2522
G01 X33.6526 Y7.3293
G01 X33.6551 Y7.3355
G01 X33.6902 Y7.4095
G01 X33.7331 Y7.4812
G01 X33.7828 Y7.5485
G01 X33.7871 Y7.5537
G01 X33.8421 Y7.6143
G01 X33.9040 Y7.6705
G01 X33.9752 Y7.7233
G01 X34.0454 Y7.7654
G01 X34.0875 Y7.7855
G01 X34.0875 Y10.0038
G01 X34.0890 Y10.0366
G01 X34.0897 Y10.0433
G01 X34.0946 Y10.0758
G01 X34.1025 Y10.1076
G01 X34.1044 Y10.1141
G01 X34.1156 Y10.1450
G01 X34.1295 Y10.1747
G01 X34.1327 Y10.1806
G01 X34.1497 Y10.2087
G01 X34.1692 Y10.2352
G01 X34.1734 Y10.2404
G01 X34.1944 Y10.2634
G01 X35.3517 Y11.4209
G01 X35.3786 Y11.4452
G01 X35.4077 Y11.4667
G01 X35.4283 Y11.4792
G01 X35.4402 Y11.4861
G01 X35.4714 Y11.5008
G01 X35.5055 Y11.5130
G01 X35.5373 Y11.5211
G01 X35.5440 Y11.5224
G01 X35.5781 Y11.5273
G01 X35.6126 Y11.5289
G01 X36.5345 Y11.5289
G01 X36.5546 Y11.5710
G01 X36.5967 Y11.6412
G01 X36.6495 Y11.7124
G01 X36.7057 Y11.7743
G01 X36.7663 Y11.8293
G01 X36.7715 Y11.8336
G01 X36.8388 Y11.8833
G01 X36.9105 Y11.9262
G01 X36.9845 Y11.9613
G01 X36.9907 Y11.9638
G01 X37.0678 Y11.9913
G01 X37.1472 Y12.0113
G01 X37.1538 Y12.0126
G01 X37.2348 Y12.0246
G01 X37.3183 Y12.0287
G01 X37.4018 Y12.0248
G01 X37.4085 Y12.0242
G01 X37.4895 Y12.0121
G01 X37.5722 Y11.9913
G01 X37.6493 Y11.9638
G01 X37.6555 Y11.9613
G01 X37.7295 Y11.9262
G01 X37.8012 Y11.8833
G01 X37.8685 Y11.8336
G01 X37.8737 Y11.8293
G01 X37.9343 Y11.7743
G01 X37.9905 Y11.7124
G01 X38.0433 Y11.6412
G01 X38.0854 Y11.5710
G01 X38.1055 Y11.5289
G01 X38.4062 Y11.5289
G01 X40.3624 Y13.4850
G01 X40.3854 Y13.5060
G01 X40.3906 Y13.5102
G01 X40.4171 Y13.5297
G01 X40.4452 Y13.5467
G01 X40.4511 Y13.5499
G01 X40.4808 Y13.5638
G01 X40.5117 Y13.5750
G01 X40.5182 Y13.5769
G01 X40.5500 Y13.5848
G01 X40.5825 Y13.5897
G01 X40.5892 Y13.5904
G01 X40.6220 Y13.5919
G01 X42.7820 Y13.5917
G01 X42.8018 Y13.5908
G01 X42.8214 Y13.5881
G01 X42.8280 Y13.5868
G01 X42.8455 Y13.5823
G01 X42.8657 Y13.5751
G01 X42.8851 Y13.5659
G01 X42.9007 Y13.5567
G01 X42.9063 Y13.5529
G01 X42.9233 Y13.5399
G01 X42.9367 Y13.5277
G01 X42.9511 Y13.5118
G01 X42.9639 Y13.4945
G01 X42.9733 Y13.4791
G01 X42.9764 Y13.4731
G01 X42.9853 Y13.4536
G01 X42.9913 Y13.4365
G01 X42.9962 Y13.4173
G01 X42.9997 Y13.3944
G01 X43.0007 Y13.3747
G01 X43.0007 Y13.0730
G01 X42.9999 Y13.0549
G01 X42.9993 Y13.0482
G01 X42.9965 Y13.0303
G01 X42.9918 Y13.0111
G01 X42.9841 Y12.9893
G01 X42.9764 Y12.9729
G01 X42.9733 Y12.9669
G01 X42.9639 Y12.9515
G01 X42.9532 Y12.9369
G01 X42.9489 Y12.9317
G01 X42.9367 Y12.9183
G01 X42.9233 Y12.9061
G01 X42.9181 Y12.9018
G01 X42.9035 Y12.8911
G01 X42.8881 Y12.8817
G01 X42.8821 Y12.8786
G01 X42.8657 Y12.8709
G01 X42.8487 Y12.8647
G01 X42.8422 Y12.8628
G01 X42.8247 Y12.8585
G01 X42.8068 Y12.8557
G01 X42.8001 Y12.8551
G01 X42.7820 Y12.8543
G01 X40.7748 Y12.8541
G01 X38.8199 Y10.8991
G01 X38.7917 Y10.8738
G01 X38.7639 Y10.8533
G01 X38.7358 Y10.8363
G01 X38.7299 Y10.8331
G01 X38.7002 Y10.8192
G01 X38.6693 Y10.8080
G01 X38.6628 Y10.8061
G01 X38.6310 Y10.7982
G01 X38.5968 Y10.7931
G01 X38.5590 Y10.7911
G01 X38.1055 Y10.7911
G01 X38.0854 Y10.7490
G01 X38.0414 Y10.6760
G01 X37.9916 Y10.6089
G01 X37.9331 Y10.5445
G01 X37.8711 Y10.4884
G01 X37.8027 Y10.4377
G01 X37.7295 Y10.3938
G01 X37.6555 Y10.3587
G01 X37.6493 Y10.3562
G01 X37.5722 Y10.3287
G01 X37.4895 Y10.3079
G01 X37.4052 Y10.2954
G01 X37.3200 Y10.2913
G01 X37.2348 Y10.2954
G01 X37.1505 Y10.3079
G01 X37.0678 Y10.3287
G01 X36.9891 Y10.3568
G01 X36.9105 Y10.3938
G01 X36.8373 Y10.4377
G01 X36.7689 Y10.4884
G01 X36.7069 Y10.5445
G01 X36.6484 Y10.6089
G01 X36.5986 Y10.6760
G01 X36.5546 Y10.7490
G01 X36.5345 Y10.7911
G01 X35.7654 Y10.7911
G01 X34.8253 Y9.8510
G01 X34.8253 Y7.7855
G01 X34.8674 Y7.7654
G01 X34.9404 Y7.7214
G01 X35.0075 Y7.6716
G01 X35.0695 Y7.6155
G01 X35.1257 Y7.5537
G01 X35.1300 Y7.5485
G01 X35.1787 Y7.4827
G01 X35.2218 Y7.4110
G01 X35.2577 Y7.3355
G01 X35.2602 Y7.3293
G01 X35.2877 Y7.2522
G01 X35.3085 Y7.1695
G01 X35.3210 Y7.0852
G01 X35.3251 Y7.0034
G01 X35.3251 Y6.9966
G01 X35.3208 Y6.9132
G01 X35.3090 Y6.8338
G01 X35.3077 Y6.8272
G01 X35.2877 Y6.7478
G01 X35.2602 Y6.6707
G01 X35.2577 Y6.6645
G01 X35.2226 Y6.5905
G01 X35.1778 Y6.5160
G01 X35.1300 Y6.4515
G01 X35.1257 Y6.4463
G01 X35.0707 Y6.3857
G01 X35.0088 Y6.3295
G01 X34.9376 Y6.2767
G01 X34.8674 Y6.2346
G01 X34.8253 Y6.2145
G01 X34.8253 Y5.8128
G01 X34.8237 Y5.7783
G01 X34.8182 Y5.7408
G01 X34.8094 Y5.7057
G01 X34.7972 Y5.6716
G01 X34.7833 Y5.6419
G01 X34.7801 Y5.6360
G01 X34.7631 Y5.6079
G01 X34.7436 Y5.5814
G01 X34.7394 Y5.5762
G01 X34.7184 Y5.5532
G01 X34.3297 Y5.1643
G01 X34.3054 Y5.1422
G01 X34.3002 Y5.1380
G01 X34.2737 Y5.1185
G01 X34.2427 Y5.0999
G01 X34.2131 Y5.0857
G01 X34.2068 Y5.0832
G01 X34.1759 Y5.0722
G01 X34.1441 Y5.0641
G01 X34.1374 Y5.0628
G01 X34.1050 Y5.0581
G01 X34.0688 Y5.0563
G01 X27.8458 Y5.0563
G01 X27.8130 Y5.0578
G01 X27.8063 Y5.0585
G01 X27.7738 Y5.0634
G01 X27.7420 Y5.0713
G01 X27.7355 Y5.0732
G01 X27.7046 Y5.0844
G01 X27.6749 Y5.0983
G01 X27.6690 Y5.1015
G01 X27.6409 Y5.1185
G01 X27.6144 Y5.1380
G01 X27.6092 Y5.1422
G01 X27.5849 Y5.1643
G01 X26.0101 Y6.7391
G01 X25.9880 Y6.7634
G01 X25.9838 Y6.7686
G01 X25.9643 Y6.7951
G01 X25.9465 Y6.8246
G01 X25.9302 Y6.8588
G01 X25.9190 Y6.8897
G01 X25.9171 Y6.8962
G01 X25.9092 Y6.9280
G01 X25.9043 Y6.9605
G01 X25.9036 Y6.9672
G01 X25.9021 Y6.9983
G01 X25.9021 Y8.4091
G01 X24.8782 Y8.4091
G01 X24.8581 Y8.3670
G01 X24.8141 Y8.2940
G01 X24.7643 Y8.2269
G01 X24.7082 Y8.1649
G01 X24.6464 Y8.1087
G01 X24.6412 Y8.1044
G01 X24.5754 Y8.0557
G01 X24.5037 Y8.0126
G01 X24.4282 Y7.9767
G01 X24.4220 Y7.9742
G01 X24.3449 Y7.9467
G01 X24.2622 Y7.9259
G01 X24.1779 Y7.9134
G01 X24.0961 Y7.9093
G01 X24.0893 Y7.9093
G01 X24.0109 Y7.9132
G01 X24.0042 Y7.9138
G01 X23.9232 Y7.9259
G01 X23.8405 Y7.9467
G01 X23.7602 Y7.9754
G01 X23.6832 Y8.0118
G01 X23.6100 Y8.0557
G01 X23.5416 Y8.1064
G01 X23.4784 Y8.1637
G01 X23.4234 Y8.2243
G01 X23.4191 Y8.2295
G01 X23.3704 Y8.2953
G01 X23.3282 Y8.3655
G01 X23.3250 Y8.3715
G01 X23.2914 Y8.4425
G01 X23.2889 Y8.4487
G01 X23.2614 Y8.5258
G01 X23.2406 Y8.6085
G01 X23.2281 Y8.6928
G01 X23.2240 Y8.7763
G01 X23.2281 Y8.8632
G01 X23.2406 Y8.9475
G01 X23.2614 Y9.0302
G01 X23.2889 Y9.1073
G01 X23.2914 Y9.1135
G01 X23.3265 Y9.1875
G01 X23.3686 Y9.2578
G01 X23.3723 Y9.2634
G01 X23.4191 Y9.3265
G01 X23.4234 Y9.3317
G01 X23.4784 Y9.3923
G01 X23.5416 Y9.4496
G01 X23.6100 Y9.5003
G01 X23.6832 Y9.5442
G01 X23.7602 Y9.5806
G01 X23.8405 Y9.6093
G01 X23.9232 Y9.6301
G01 X24.0042 Y9.6422
G01 X24.0109 Y9.6428
G01 X24.0893 Y9.6467
G01 X24.0961 Y9.6467
G01 X24.1779 Y9.6426
G01 X24.2622 Y9.6301
G01 X24.3449 Y9.6093
G01 X24.4220 Y9.5818
G01 X24.4282 Y9.5793
G01 X24.5037 Y9.5434
G01 X24.5754 Y9.5003
G01 X24.6412 Y9.4516
G01 X24.6464 Y9.4473
G01 X24.7082 Y9.3911
G01 X24.7643 Y9.3291
G01 X24.8141 Y9.2620
G01 X24.8581 Y9.1890
G01 X24.8782 Y9.1469
G01 X25.9021 Y9.1469
G01 X25.9022 Y10.4578
G01 X25.9039 Y10.4906
G01 X25.9086 Y10.5230
G01 X25.9099 Y10.5297
G01 X25.9180 Y10.5615
G01 X25.9302 Y10.5956
G01 X25.9441 Y10.6253
G01 X25.9473 Y10.6312
G01 X25.9643 Y10.6593
G01 X25.9858 Y10.6884
G01 X26.0101 Y10.7153
G01 X28.9501 Y13.6552
G01 X28.9501 Y14.3061
G01 X25.5032 Y14.3062
G01 X25.4802 Y14.3072
G01 X25.4541 Y14.3107
G01 X25.4475 Y14.3121
G01 X25.4252 Y14.3177
G01 X25.4003 Y14.3266
G01 X25.3765 Y14.3379
G01 X25.3567 Y14.3497
G01 X25.3511 Y14.3534
G01 X25.3301 Y14.3694
G01 X25.3131 Y14.3849
G01 X25.2954 Y14.4044
G01 X25.2797 Y14.4256
G01 X25.2678 Y14.4453
G01 X25.2562 Y14.4690
G01 X25.2536 Y14.4753
G01 X25.2459 Y14.4970
G01 X25.2392 Y14.5242
G01 X25.2356 Y14.5486
G01 X25.2344 Y14.5750
G01 X25.2356 Y14.6014
G01 X25.2389 Y14.6241
G01 X25.2403 Y14.6307
G01 X25.2470 Y14.6562
G01 X25.2548 Y14.6779
G01 X25.2646 Y14.6987
G01 X25.2678 Y14.7047
G01 X25.2787 Y14.7230
G01 X25.2933 Y14.7429
G01 X25.2976 Y14.7481
G01 X25.3131 Y14.7651
G01 X25.3326 Y14.7828
G01 X25.3538 Y14.7985
G01 X25.3765 Y14.8121
G01 X25.4003 Y14.8234
G01 X25.4252 Y14.8323
G01 X25.4507 Y14.8387
G01 X25.4768 Y14.8426
G01 X25.5032 Y14.8438
G01 X28.9501 Y14.8438
G01 X28.9501 Y19.0782
G01 X27.4314 Y20.5970
G01 X27.4082 Y20.6226
G01 X27.3886 Y20.6489
G01 X27.3849 Y20.6545
G01 X27.3681 Y20.6827
G01 X27.3539 Y20.7123
G01 X27.3514 Y20.7186
G01 X27.3414 Y20.7463
G01 X27.3395 Y20.7528
G01 X27.3323 Y20.7813
G01 X27.3310 Y20.7880
G01 X27.3263 Y20.8204
G01 X27.3245 Y20.8566
G01 X27.3245 Y23.7038
G01 X26.9032 Y24.1251
G01 X26.3486 Y24.1251
G01 X26.3076 Y24.0699
G01 X26.2526 Y24.0091
G01 X26.2479 Y24.0044
G01 X26.1897 Y23.9517
G01 X26.1845 Y23.9474
G01 X26.1187 Y23.8987
G01 X26.0485 Y23.8565
G01 X26.0425 Y23.8533
G01 X25.9685 Y23.8184
G01 X25.8882 Y23.7897
G01 X25.8055 Y23.7689
G01 X25.7228 Y23.7566
G01 X25.6360 Y23.7523
G01 X25.5542 Y23.7562
G01 X25.5475 Y23.7568
G01 X25.4698 Y23.7684
G01 X25.4632 Y23.7697
G01 X25.3838 Y23.7897
G01 X25.3035 Y23.8184
G01 X25.2265 Y23.8548
G01 X25.1533 Y23.8987
G01 X25.0849 Y23.9494
G01 X25.0241 Y24.0044
G01 X25.0194 Y24.0091
G01 X24.9667 Y24.0673
G01 X24.9624 Y24.0725
G01 X24.9137 Y24.1383
G01 X24.8698 Y24.2115
G01 X24.8334 Y24.2885
G01 X24.8052 Y24.3672
G01 X24.7839 Y24.4515
G01 X24.7718 Y24.5325
G01 X24.7712 Y24.5392
G01 X24.7673 Y24.6227
G01 X24.7714 Y24.7062
G01 X24.7836 Y24.7888
G01 X24.8042 Y24.8716
G01 X24.8197 Y24.9156
G01 X24.2205 Y25.5148
G01 X24.2046 Y25.5323
G01 X23.4207 Y26.3161
G01 X22.8722 Y26.3161
G01 X22.8676 Y26.2853
G01 X22.8609 Y26.2582
G01 X22.8590 Y26.2518
G01 X22.8507 Y26.2287
G01 X22.8481 Y26.2224
G01 X22.8361 Y26.1972
G01 X22.8200 Y26.1704
G01 X22.8014 Y26.1453
G01 X22.7827 Y26.1246
G01 X22.7779 Y26.1198
G01 X22.7598 Y26.1033
G01 X22.7546 Y26.0990
G01 X22.7321 Y26.0825
G01 X22.7053 Y26.0664
G01 X22.6770 Y26.0530
G01 X22.6507 Y26.0435
G01 X22.6443 Y26.0416
G01 X22.6205 Y26.0356
G01 X22.6139 Y26.0343
G01 X22.5862 Y26.0303
G01 X22.5550 Y26.0288
G01 X21.6050 Y26.0288
G01 X21.5738 Y26.0303
G01 X21.5428 Y26.0349
G01 X21.5125 Y26.0425
G01 X21.4862 Y26.0518
G01 X21.4799 Y26.0544
G01 X21.4578 Y26.0649
G01 X21.4518 Y26.0681
G01 X21.4279 Y26.0825
G01 X21.4054 Y26.0990
G01 X21.4002 Y26.1033
G01 X21.3796 Y26.1221
G01 X21.3586 Y26.1453
G01 X21.3400 Y26.1704
G01 X21.3239 Y26.1972
G01 X21.3105 Y26.2255
G01 X21.3000 Y26.2550
G01 X21.2924 Y26.2853
G01 X21.2878 Y26.3161
G01 X19.5717 Y26.3161
G01 X19.5717 Y26.1990
G01 X19.5704 Y26.1694
G01 X19.5656 Y26.1368
G01 X19.5580 Y26.1065
G01 X19.5487 Y26.0802
G01 X19.5461 Y26.0739
G01 X19.5341 Y26.0487
G01 X19.5180 Y26.0219
G01 X19.5015 Y25.9994
G01 X19.4972 Y25.9942
G01 X19.4784 Y25.9736
G01 X19.4578 Y25.9548
G01 X19.4526 Y25.9505
G01 X19.4301 Y25.9340
G01 X19.4062 Y25.9196
G01 X19.4002 Y25.9164
G01 X19.3750 Y25.9045
G01 X19.3487 Y25.8950
G01 X19.3423 Y25.8931
G01 X19.3152 Y25.8864
G01 X19.2842 Y25.8818
G01 X19.2547 Y25.8803
G01 X19.0819 Y25.8803
G01 X19.0819 Y24.2597
G01 X19.5380 Y24.2597
G01 X19.5594 Y24.2587
G01 X19.5807 Y24.2555
G01 X19.6015 Y24.2503
G01 X19.6217 Y24.2431
G01 X19.6381 Y24.2354
G01 X19.6441 Y24.2323
G01 X19.6623 Y24.2209
G01 X19.6768 Y24.2101
G01 X19.6927 Y24.1957
G01 X19.7071 Y24.1798
G01 X19.7199 Y24.1625
G01 X19.7309 Y24.1441
G01 X19.7401 Y24.1247
G01 X19.7473 Y24.1045
G01 X19.7525 Y24.0837
G01 X19.7557 Y24.0624
G01 X19.7567 Y24.0444
G01 X19.7567 Y23.7410
G01 X19.7557 Y23.7196
G01 X19.7531 Y23.7016
G01 X19.7518 Y23.6950
G01 X19.7473 Y23.6775
G01 X19.7413 Y23.6604
G01 X19.7387 Y23.6542
G01 X19.7309 Y23.6379
G01 X19.7199 Y23.6195
G01 X19.7092 Y23.6049
G01 X19.7049 Y23.5997
G01 X19.6927 Y23.5863
G01 X19.6793 Y23.5741
G01 X19.6741 Y23.5698
G01 X19.6595 Y23.5591
G01 X19.6411 Y23.5481
G01 X19.6217 Y23.5389
G01 X19.6047 Y23.5327
G01 X19.5982 Y23.5308
G01 X19.5807 Y23.5265
G01 X19.5628 Y23.5237
G01 X19.5397 Y23.5223
G01 X17.8848 Y23.5223
G01 X17.8662 Y23.5233
G01 X17.8447 Y23.5266
G01 X17.8281 Y23.5306
G01 X17.8120 Y23.5359
G01 X17.7934 Y23.5438
G01 X17.7728 Y23.5550
G01 X17.7562 Y23.5664
G01 X17.7406 Y23.5793
G01 X17.7274 Y23.5925
G01 X17.7134 Y23.6092
G01 X17.7037 Y23.6232
G01 X17.6937 Y23.6407
G01 X17.6908 Y23.6464
G01 X17.6840 Y23.6620
G01 X17.6776 Y23.6811
G01 X17.6730 Y23.7008
G01 X17.6705 Y23.7177
G01 X17.6693 Y23.7410
G01 X17.6693 Y24.0410
G01 X17.6703 Y24.0624
G01 X17.6735 Y24.0837
G01 X17.6787 Y24.1045
G01 X17.6859 Y24.1247
G01 X17.6951 Y24.1441
G01 X17.7061 Y24.1625
G01 X17.7189 Y24.1798
G01 X17.7310 Y24.1932
G01 X17.7467 Y24.2079
G01 X17.7519 Y24.2122
G01 X17.7679 Y24.2238
G01 X17.7879 Y24.2354
G01 X17.8043 Y24.2431
G01 X17.8245 Y24.2503
G01 X17.8453 Y24.2555
G01 X17.8666 Y24.2587
G01 X17.8880 Y24.2597
G01 X18.3441 Y24.2597
G01 X18.3441 Y25.8803
G01 X18.3013 Y25.8803
G01 X18.2718 Y25.8818
G01 X18.2408 Y25.8864
G01 X18.2105 Y25.8940
G01 X18.1810 Y25.9045
G01 X18.1527 Y25.9179
G01 X18.1259 Y25.9340
G01 X18.1008 Y25.9526
G01 X18.0776 Y25.9736
G01 X18.0566 Y25.9968
G01 X18.0380 Y26.0219
G01 X18.0219 Y26.0487
G01 X18.0085 Y26.0770
G01 X17.9980 Y26.1065
G01 X17.9904 Y26.1368
G01 X17.9858 Y26.1676
G01 X17.2579 Y26.1676
G01 X17.2550 Y26.1479
G01 X17.2481 Y26.1192
G01 X17.2392 Y26.0929
G01 X17.2266 Y26.0645
G01 X17.2130 Y26.0402
G01 X17.1964 Y26.0159
G01 X17.1776 Y25.9933
G01 X17.1579 Y25.9735
G01 X17.1341 Y25.9536
G01 X17.1125 Y25.9387
G01 X17.0869 Y25.9241
G01 X17.0812 Y25.9213
G01 X17.0571 Y25.9108
G01 X17.0292 Y25.9014
G01 X17.0006 Y25.8947
G01 X16.9730 Y25.8908
G01 X16.9420 Y25.8893
G01 X16.0403 Y25.8893
G01 X16.0108 Y25.8908
G01 X15.9798 Y25.8954
G01 X15.9495 Y25.9030
G01 X15.9232 Y25.9123
G01 X15.9169 Y25.9149
G01 X15.8917 Y25.9269
G01 X15.8678 Y25.9412
G01 X15.8622 Y25.9449
G01 X15.8398 Y25.9616
G01 X15.8191 Y25.9803
G01 X15.8143 Y25.9851
G01 X15.7956 Y26.0058
G01 X15.7789 Y26.0282
G01 X15.7752 Y26.0338
G01 X15.7609 Y26.0577
G01 X15.7489 Y26.0829
G01 X15.7463 Y26.0892
G01 X15.7370 Y26.1155
G01 X15.7301 Y26.1425
G01 X15.7288 Y26.1491
G01 X15.7250 Y26.1751
G01 X15.7233 Y26.2080
G01 X15.7233 Y26.9080
G01 X15.7245 Y26.9359
G01 X15.7252 Y26.9426
G01 X15.7294 Y26.9702
G01 X15.7361 Y26.9973
G01 X15.7380 Y27.0037
G01 X15.7475 Y27.0300
G01 X15.7594 Y27.0552
G01 X15.7626 Y27.0612
G01 X15.7770 Y27.0851
G01 X15.7956 Y27.1102
G01 X15.8166 Y27.1334
G01 X15.8398 Y27.1544
G01 X15.8622 Y27.1711
G01 X15.8678 Y27.1748
G01 X15.8917 Y27.1891
G01 X15.9169 Y27.2011
G01 X15.9232 Y27.2037
G01 X15.9463 Y27.2120
G01 X15.9527 Y27.2139
G01 X15.9798 Y27.2206
G01 X16.0091 Y27.2250
G01 X16.0420 Y27.2267
G01 X16.9420 Y27.2267
G01 X16.9749 Y27.2250
G01 X17.0042 Y27.2206
G01 X17.0345 Y27.2130
G01 X17.0640 Y27.2025
G01 X17.0923 Y27.1891
G01 X17.1191 Y27.1730
G01 X17.1442 Y27.1544
G01 X17.1674 Y27.1334
G01 X17.1862 Y27.1128
G01 X17.1905 Y27.1076
G01 X17.2070 Y27.0851
G01 X17.2214 Y27.0612
G01 X17.2246 Y27.0552
G01 X17.2351 Y27.0331
G01 X17.2377 Y27.0268
G01 X17.2470 Y27.0005
G01 X17.2546 Y26.9702
G01 X17.2592 Y26.9392
G01 X17.2607 Y26.9054
G01 X17.9858 Y26.9054
G01 X17.9904 Y26.9362
G01 X17.9980 Y26.9665
G01 X18.0085 Y26.9960
G01 X18.0204 Y27.0212
G01 X18.0236 Y27.0272
G01 X18.0380 Y27.0511
G01 X18.0545 Y27.0736
G01 X18.0588 Y27.0788
G01 X18.0753 Y27.0969
G01 X18.0801 Y27.1017
G01 X18.1008 Y27.1204
G01 X18.1259 Y27.1390
G01 X18.1527 Y27.1551
G01 X18.1810 Y27.1685
G01 X18.2105 Y27.1790
G01 X18.2408 Y27.1866
G01 X18.2718 Y27.1912
G01 X18.2996 Y27.1927
G01 X19.2530 Y27.1927
G01 X19.2859 Y27.1910
G01 X19.3152 Y27.1866
G01 X19.3455 Y27.1790
G01 X19.3750 Y27.1685
G01 X19.4002 Y27.1566
G01 X19.4062 Y27.1534
G01 X19.4301 Y27.1390
G01 X19.4526 Y27.1225
G01 X19.4578 Y27.1182
G01 X19.4759 Y27.1017
G01 X19.4807 Y27.0969
G01 X19.4994 Y27.0762
G01 X19.5160 Y27.0539
G01 X21.2878 Y27.0539
G01 X21.2924 Y27.0847
G01 X21.2991 Y27.1118
G01 X21.3010 Y27.1182
G01 X21.3093 Y27.1413
G01 X21.3119 Y27.1476
G01 X21.3239 Y27.1728
G01 X21.3382 Y27.1967
G01 X21.3419 Y27.2023
G01 X21.3586 Y27.2247
G01 X21.3796 Y27.2479
G01 X21.4028 Y27.2689
G01 X21.4279 Y27.2875
G01 X21.4547 Y27.3036
G01 X21.4830 Y27.3170
G01 X21.5125 Y27.3275
G01 X21.5428 Y27.3351
G01 X21.5738 Y27.3397
G01 X21.6033 Y27.3412
G01 X21.7111 Y27.3412
G01 X21.7111 Y29.6181
G01 X5.4688 Y29.6181
G01 X4.0339 Y28.1832
G01 X4.0339 Y4.9430
G00 Z2.0000
G00 X6.5480 Y4.3533
G01 F40.00
G01 Z-0.0700
G01 F35.00
G01 X8.1497 Y4.3533
G01 X8.1598 Y4.3543
G01 X8.1712 Y4.3573
G01 X8.1804 Y4.3614
G01 X8.1903 Y4.3678
G01 X8.1989 Y4.3758
G01 X8.2052 Y4.3838
G01 X8.2109 Y4.3941
G01 X8.2143 Y4.4037
G01 X8.2162 Y4.4136
G01 X8.2167 Y4.4220
G01 X8.2167 Y6.0220
G01 X8.2164 Y6.0287
G01 X8.2154 Y6.0354
G01 X8.2133 Y6.0436
G01 X8.2109 Y6.0499
G01 X8.2070 Y6.0573
G01 X8.2011 Y6.0656
G01 X8.1954 Y6.0718
G01 X8.1876 Y6.0782
G01 X8.1789 Y6.0834
G01 X8.1696 Y6.0873
G01 X8.1598 Y6.0897
G01 X8.1514 Y6.0907
G01 X7.4629 Y6.0907
G01 X7.4629 Y7.1093
G01 X7.5474 Y7.1093
G01 X7.5752 Y7.1108
G01 X7.6078 Y7.1157
G01 X7.6365 Y7.1230
G01 X7.6660 Y7.1335
G01 X7.6943 Y7.1469
G01 X7.7182 Y7.1612
G01 X7.7238 Y7.1649
G01 X7.7436 Y7.1795
G01 X7.7488 Y7.1838
G01 X7.7694 Y7.2026
G01 X7.7882 Y7.2232
G01 X7.7925 Y7.2284
G01 X7.8090 Y7.2509
G01 X7.8234 Y7.2748
G01 X7.8266 Y7.2808
G01 X7.8385 Y7.3060
G01 X7.8490 Y7.3355
G01 X7.8566 Y7.3658
G01 X7.8614 Y7.3984
G01 X7.8627 Y7.4280
G01 X7.8627 Y8.1280
G01 X7.8612 Y8.1592
G01 X7.8563 Y8.1918
G01 X7.8490 Y8.2205
G01 X7.8397 Y8.2468
G01 X7.8371 Y8.2531
G01 X7.8251 Y8.2783
G01 X7.8108 Y8.3022
G01 X7.8071 Y8.3078
G01 X7.7904 Y8.3302
G01 X7.7717 Y8.3509
G01 X7.7669 Y8.3557
G01 X7.7462 Y8.3744
G01 X7.7238 Y8.3911
G01 X7.7182 Y8.3948
G01 X7.6943 Y8.4091
G01 X7.6691 Y8.4211
G01 X7.6628 Y8.4237
G01 X7.6349 Y8.4335
G01 X7.6062 Y8.4406
G01 X7.5786 Y8.4448
G01 X7.5719 Y8.4455
G01 X7.5440 Y8.4467
G01 X6.6440 Y8.4467
G01 X6.6128 Y8.4452
G01 X6.5835 Y8.4409
G01 X6.5547 Y8.4339
G01 X6.5483 Y8.4320
G01 X6.5220 Y8.4225
G01 X6.4937 Y8.4091
G01 X6.4698 Y8.3948
G01 X6.4642 Y8.3911
G01 X6.4418 Y8.3744
G01 X6.4211 Y8.3557
G01 X6.4163 Y8.3509
G01 X6.3976 Y8.3302
G01 X6.3809 Y8.3078
G01 X6.3772 Y8.3022
G01 X6.3629 Y8.2783
G01 X6.3509 Y8.2531
G01 X6.3483 Y8.2468
G01 X6.3385 Y8.2189
G01 X6.3314 Y8.1902
G01 X6.3272 Y8.1626
G01 X6.3265 Y8.1559
G01 X6.3253 Y8.1297
G01 X6.3253 Y7.4280
G01 X6.3268 Y7.3968
G01 X6.3308 Y7.3691
G01 X6.3321 Y7.3625
G01 X6.3381 Y7.3387
G01 X6.3400 Y7.3323
G01 X6.3495 Y7.3060
G01 X6.3629 Y7.2777
G01 X6.3790 Y7.2509
G01 X6.3976 Y7.2258
G01 X6.4186 Y7.2026
G01 X6.4418 Y7.1816
G01 X6.4669 Y7.1630
G01 X6.4923 Y7.1477
G01 X6.5189 Y7.1349
G01 X6.5252 Y7.1323
G01 X6.5515 Y7.1230
G01 X6.5835 Y7.1151
G01 X6.6128 Y7.1108
G01 X6.6406 Y7.1093
G01 X6.7251 Y7.1093
G01 X6.7251 Y6.0907
G01 X6.5480 Y6.0907
G01 X6.5396 Y6.0902
G01 X6.5313 Y6.0887
G01 X6.5217 Y6.0855
G01 X6.5112 Y6.0801
G01 X6.5018 Y6.0729
G01 X6.4949 Y6.0656
G01 X6.4882 Y6.0559
G01 X6.4839 Y6.0467
G01 X6.4809 Y6.0371
G01 X6.4794 Y6.0271
G01 X6.4793 Y4.4186
G01 X6.4800 Y4.4119
G01 X6.4813 Y4.4053
G01 X6.4851 Y4.3941
G01 X6.4882 Y4.3881
G01 X6.4918 Y4.3824
G01 X6.4959 Y4.3771
G01 X6.5006 Y4.3722
G01 X6.5057 Y4.3678
G01 X6.5112 Y4.3639
G01 X6.5171 Y4.3606
G01 X6.5233 Y4.3579
G01 X6.5297 Y4.3557
G01 X6.5362 Y4.3543
G01 X6.5480 Y4.3533
G00 Z2.0000
G00 X6.5480 Y4.2639
G01 F40.00
G01 Z-0.0700
G01 F35.00
G01 X8.1480 Y4.2639
G01 X8.1596 Y4.2643
G01 X8.1712 Y4.2656
G01 X8.1826 Y4.2677
G01 X8.1976 Y4.2719
G01 X8.2085 Y4.2759
G01 X8.2225 Y4.2825
G01 X8.2326 Y4.2884
G01 X8.2422 Y4.2950
G01 X8.2513 Y4.3023
G01 X8.2598 Y4.3102
G01 X8.2677 Y4.3187
G01 X8.2750 Y4.3278
G01 X8.2836 Y4.3407
G01 X8.2892 Y4.3509
G01 X8.2941 Y4.3615
G01 X8.2981 Y4.3724
G01 X8.3014 Y4.3836
G01 X8.3038 Y4.3950
G01 X8.3049 Y4.4026
G01 X8.3057 Y4.4104
G01 X8.3061 Y4.4220
G01 X8.3061 Y6.0220
G01 X8.3054 Y6.0375
G01 X8.3031 Y6.0528
G01 X8.2993 Y6.0679
G01 X8.2941 Y6.0825
G01 X8.2909 Y6.0896
G01 X8.2856 Y6.0999
G01 X8.2816 Y6.1066
G01 X8.2750 Y6.1162
G01 X8.2677 Y6.1253
G01 X8.2625 Y6.1310
G01 X8.2542 Y6.1392
G01 X8.2453 Y6.1467
G01 X8.2358 Y6.1535
G01 X8.2293 Y6.1576
G01 X8.2191 Y6.1632
G01 X8.2085 Y6.1681
G01 X8.1976 Y6.1721
G01 X8.1902 Y6.1744
G01 X8.1788 Y6.1771
G01 X8.1674 Y6.1789
G01 X8.1558 Y6.1799
G01 X8.1480 Y6.1801
G01 X7.5523 Y6.1801
G01 X7.5523 Y7.0201
G01 X7.5840 Y7.0218
G01 X7.6236 Y7.0277
G01 X7.6625 Y7.0374
G01 X7.7002 Y7.0509
G01 X7.7364 Y7.0681
G01 X7.7707 Y7.0887
G01 X7.8029 Y7.1125
G01 X7.8326 Y7.1394
G01 X7.8595 Y7.1691
G01 X7.8833 Y7.2013
G01 X7.9039 Y7.2356
G01 X7.9211 Y7.2718
G01 X7.9346 Y7.3095
G01 X7.9443 Y7.3484
G01 X7.9502 Y7.3880
G01 X7.9519 Y7.4202
G01 X7.9521 Y8.1319
G01 X7.9505 Y8.1641
G01 X7.9492 Y8.1757
G01 X7.9443 Y8.2076
G01 X7.9356 Y8.2427
G01 X7.9321 Y8.2538
G01 X7.9211 Y8.2842
G01 X7.9074 Y8.3135
G01 X7.9001 Y8.3271
G01 X7.8833 Y8.3547
G01 X7.8643 Y8.3808
G01 X7.8544 Y8.3928
G01 X7.8326 Y8.4166
G01 X7.8088 Y8.4384
G01 X7.7968 Y8.4483
G01 X7.7707 Y8.4673
G01 X7.7431 Y8.4841
G01 X7.7295 Y8.4914
G01 X7.7002 Y8.5051
G01 X7.6698 Y8.5161
G01 X7.6550 Y8.5206
G01 X7.6236 Y8.5283
G01 X7.5917 Y8.5332
G01 X7.5763 Y8.5347
G01 X7.5440 Y8.5361
G01 X6.6440 Y8.5361
G01 X6.6040 Y8.5342
G01 X6.5644 Y8.5283
G01 X6.5330 Y8.5206
G01 X6.5182 Y8.5161
G01 X6.4878 Y8.5051
G01 X6.4516 Y8.4879
G01 X6.4238 Y8.4715
G01 X6.4109 Y8.4629
G01 X6.3851 Y8.4435
G01 X6.3610 Y8.4219
G01 X6.3501 Y8.4110
G01 X6.3285 Y8.3869
G01 X6.3091 Y8.3611
G01 X6.3005 Y8.3482
G01 X6.2841 Y8.3204
G01 X6.2685 Y8.2878
G01 X6.2641 Y8.2769
G01 X6.2559 Y8.2538
G01 X6.2514 Y8.2390
G01 X6.2437 Y8.2076
G01 X6.2388 Y8.1757
G01 X6.2375 Y8.1641
G01 X6.2359 Y8.1319
G01 X6.2359 Y7.4280
G01 X6.2373 Y7.3957
G01 X6.2388 Y7.3803
G01 X6.2437 Y7.3484
G01 X6.2534 Y7.3095
G01 X6.2641 Y7.2791
G01 X6.2701 Y7.2647
G01 X6.2841 Y7.2356
G01 X6.3047 Y7.2013
G01 X6.3285 Y7.1691
G01 X6.3501 Y7.1450
G01 X6.3582 Y7.1367
G01 X6.3792 Y7.1176
G01 X6.3912 Y7.1077
G01 X6.4173 Y7.0887
G01 X6.4482 Y7.0699
G01 X6.4585 Y7.0646
G01 X6.4807 Y7.0541
G01 X6.4951 Y7.0481
G01 X6.5255 Y7.0374
G01 X6.5644 Y7.0277
G01 X6.6040 Y7.0218
G01 X6.6357 Y7.0201
G01 X6.6357 Y6.1801
G01 X6.5441 Y6.1801
G01 X6.5364 Y6.1797
G01 X6.5248 Y6.1784
G01 X6.5134 Y6.1763
G01 X6.5058 Y6.1744
G01 X6.4911 Y6.1695
G01 X6.4769 Y6.1632
G01 X6.4634 Y6.1556
G01 X6.4538 Y6.1490
G01 X6.4477 Y6.1442
G01 X6.4418 Y6.1392
G01 X6.4335 Y6.1310
G01 X6.4258 Y6.1223
G01 X6.4210 Y6.1162
G01 X6.4144 Y6.1066
G01 X6.4104 Y6.0999
G01 X6.4068 Y6.0931
G01 X6.4019 Y6.0825
G01 X6.3991 Y6.0753
G01 X6.3956 Y6.0642
G01 X6.3929 Y6.0528
G01 X6.3916 Y6.0452
G01 X6.3906 Y6.0375
G01 X6.3899 Y6.0259
G01 X6.3899 Y4.4220
G01 X6.3906 Y4.4065
G01 X6.3922 Y4.3950
G01 X6.3956 Y4.3798
G01 X6.4005 Y4.3651
G01 X6.4068 Y4.3509
G01 X6.4144 Y4.3374
G01 X6.4210 Y4.3278
G01 X6.4308 Y4.3158
G01 X6.4418 Y4.3048
G01 X6.4538 Y4.2950
G01 X6.4634 Y4.2884
G01 X6.4769 Y4.2808
G01 X6.4911 Y4.2745
G01 X6.5058 Y4.2696
G01 X6.5210 Y4.2662
G01 X6.5325 Y4.2646
G01 X6.5480 Y4.2639
G00 Z2.0000
G00 X6.5463 Y6.2695
G01 F40.00
G01 Z-0.0700
G01 F35.00
G01 X6.5359 Y6.2692
G01 X6.5237 Y6.2683
G01 X6.5117 Y6.2668
G01 X6.4997 Y6.2647
G01 X6.4879 Y6.2621
G01 X6.4762 Y6.2588
G01 X6.4646 Y6.2550
G01 X6.4533 Y6.2507
G01 X6.4422 Y6.2457
G01 X6.4313 Y6.2403
G01 X6.4208 Y6.2343
G01 X6.4105 Y6.2278
G01 X6.3957 Y6.2171
G01 X6.3863 Y6.2094
G01 X6.3773 Y6.2013
G01 X6.3687 Y6.1927
G01 X6.3606 Y6.1837
G01 X6.3529 Y6.1743
G01 X6.3456 Y6.1645
G01 X6.3389 Y6.1544
G01 X6.3327 Y6.1440
G01 X6.3269 Y6.1333
G01 X6.3217 Y6.1223
G01 X6.3150 Y6.1054
G01 X6.3112 Y6.0938
G01 X6.3079 Y6.0821
G01 X6.3053 Y6.0703
G01 X6.3032 Y6.0583
G01 X6.3017 Y6.0463
G01 X6.3008 Y6.0341
G01 X6.3005 Y6.0220
G01 X6.3005 Y4.4220
G01 X6.3012 Y4.4038
G01 X6.3024 Y4.3917
G01 X6.3053 Y4.3737
G01 X6.3079 Y4.3619
G01 X6.3112 Y4.3502
G01 X6.3171 Y4.3329
G01 X6.3217 Y4.3217
G01 X6.3269 Y4.3107
G01 X6.3357 Y4.2948
G01 X6.3456 Y4.2795
G01 X6.3529 Y4.2697
G01 X6.3606 Y4.2603
G01 X6.3730 Y4.2470
G01 X6.3863 Y4.2346
G01 X6.3957 Y4.2269
G01 X6.4055 Y4.2196
G01 X6.4208 Y4.2097
G01 X6.4367 Y4.2009
G01 X6.4533 Y4.1933
G01 X6.4646 Y4.1890
G01 X6.4820 Y4.1835
G01 X6.4938 Y4.1805
G01 X6.5117 Y4.1772
G01 X6.5298 Y4.1752
G01 X6.5419 Y4.1746
G01 X8.1480 Y4.1745
G01 X8.1662 Y4.1752
G01 X8.1843 Y4.1772
G01 X8.2022 Y4.1805
G01 X8.2198 Y4.1852
G01 X8.2371 Y4.1911
G01 X8.2483 Y4.1957
G01 X8.2647 Y4.2037
G01 X8.2752 Y4.2097
G01 X8.2855 Y4.2162
G01 X8.3003 Y4.2269
G01 X8.3142 Y4.2386
G01 X8.3230 Y4.2470
G01 X8.3314 Y4.2558
G01 X8.3431 Y4.2697
G01 X8.3504 Y4.2795
G01 X8.3603 Y4.2948
G01 X8.3691 Y4.3107
G01 X8.3743 Y4.3217
G01 X8.3789 Y4.3329
G01 X8.3848 Y4.3502
G01 X8.3895 Y4.3678
G01 X8.3928 Y4.3857
G01 X8.3943 Y4.3977
G01 X8.3954 Y4.4159
G01 X8.3955 Y4.7882
G01 X8.4242 Y4.7282
G01 X8.4302 Y4.7176
G01 X8.4705 Y4.6503
G01 X8.4770 Y4.6400
G01 X8.4840 Y4.6301
G01 X8.5345 Y4.5622
G01 X8.5462 Y4.5483
G01 X8.5989 Y4.4901
G01 X8.6073 Y4.4813
G01 X8.6161 Y4.4729
G01 X8.6788 Y4.4162
G01 X8.6930 Y4.4048
G01 X8.7561 Y4.3580
G01 X8.7660 Y4.3510
G01 X8.7763 Y4.3445
G01 X8.8436 Y4.3042
G01 X8.8542 Y4.2982
G01 X8.8651 Y4.2927
G01 X8.9360 Y4.2592
G01 X8.9471 Y4.2542
G01 X8.9585 Y4.2499
G01 X9.0381 Y4.2214
G01 X9.0556 Y4.2164
G01 X9.1318 Y4.1973
G01 X9.1436 Y4.1946
G01 X9.1556 Y4.1926
G01 X9.2333 Y4.1810
G01 X9.2453 Y4.1795
G01 X9.2574 Y4.1787
G01 X9.3359 Y4.1748
G01 X9.3480 Y4.1745
G01 X9.3601 Y4.1748
G01 X9.4386 Y4.1787
G01 X9.4507 Y4.1795
G01 X9.4627 Y4.1810
G01 X9.5404 Y4.1926
G01 X9.5524 Y4.1946
G01 X9.5642 Y4.1973
G01 X9.6404 Y4.2164
G01 X9.6521 Y4.2196
G01 X9.6636 Y4.2234
G01 X9.7375 Y4.2499
G01 X9.7489 Y4.2542
G01 X9.7600 Y4.2592
G01 X9.8309 Y4.2927
G01 X9.8418 Y4.2982
G01 X9.8524 Y4.3042
G01 X9.9197 Y4.3445
G01 X9.9300 Y4.3510
G01 X9.9399 Y4.3580
G01 X10.0030 Y4.4048
G01 X10.0125 Y4.4123
G01 X10.0217 Y4.4202
G01 X10.0799 Y4.4729
G01 X10.0887 Y4.4813
G01 X10.0971 Y4.4901
G01 X10.1498 Y4.5483
G01 X10.1577 Y4.5575
G01 X10.1652 Y4.5670
G01 X10.2120 Y4.6301
G01 X10.2190 Y4.6400
G01 X10.2255 Y4.6503
G01 X10.2658 Y4.7176
G01 X10.2718 Y4.7282
G01 X10.2773 Y4.7391
G01 X10.3108 Y4.8100
G01 X10.3158 Y4.8211
G01 X10.3201 Y4.8325
G01 X10.3466 Y4.9064
G01 X10.3504 Y4.9179
G01 X10.3536 Y4.9296
G01 X10.3727 Y5.0058
G01 X10.3765 Y5.0236
G01 X10.3890 Y5.1073
G01 X10.3905 Y5.1193
G01 X10.3913 Y5.1314
G01 X10.3952 Y5.2099
G01 X10.3955 Y5.2220
G01 X10.3952 Y5.2341
G01 X10.3913 Y5.3126
G01 X10.3905 Y5.3247
G01 X10.3890 Y5.3367
G01 X10.3774 Y5.4144
G01 X10.3741 Y5.4323
G01 X10.3536 Y5.5144
G01 X10.3504 Y5.5261
G01 X10.3466 Y5.5376
G01 X10.3201 Y5.6115
G01 X10.3134 Y5.6284
G01 X10.2773 Y5.7049
G01 X10.2689 Y5.7211
G01 X10.2255 Y5.7937
G01 X10.2190 Y5.8040
G01 X10.1816 Y5.8548
G01 X10.1817 Y6.9402
G01 X10.2167 Y6.9487
G01 X10.2284 Y6.9519
G01 X10.2631 Y6.9640
G01 X10.2800 Y6.9708
G01 X10.3185 Y6.9892
G01 X10.3553 Y7.0110
G01 X10.3703 Y7.0213
G01 X10.3996 Y7.0434
G01 X10.4270 Y7.0678
G01 X10.4358 Y7.0762
G01 X10.4442 Y7.0850
G01 X10.4686 Y7.1124
G01 X10.4907 Y7.1417
G01 X10.5010 Y7.1567
G01 X10.5228 Y7.1935
G01 X10.5412 Y7.2320
G01 X10.5480 Y7.2489
G01 X10.5601 Y7.2836
G01 X10.5693 Y7.3191
G01 X10.5731 Y7.3369
G01 X10.5784 Y7.3732
G01 X10.5800 Y7.3914
G01 X10.5814 Y7.4219
G01 X10.5815 Y8.1280
G01 X10.5812 Y8.1401
G01 X10.5796 Y8.1707
G01 X10.5776 Y8.1888
G01 X10.5719 Y8.2251
G01 X10.5633 Y8.2607
G01 X10.5582 Y8.2782
G01 X10.5459 Y8.3127
G01 X10.5387 Y8.3295
G01 X10.5228 Y8.3625
G01 X10.5010 Y8.3993
G01 X10.4907 Y8.4143
G01 X10.4686 Y8.4436
G01 X10.4400 Y8.4754
G01 X10.4270 Y8.4882
G01 X10.3996 Y8.5126
G01 X10.3654 Y8.5382
G01 X10.3501 Y8.5482
G01 X10.3185 Y8.5668
G01 X10.2855 Y8.5827
G01 X10.2687 Y8.5899
G01 X10.2284 Y8.6041
G01 X10.1870 Y8.6147
G01 X10.1691 Y8.6180
G01 X10.1328 Y8.6231
G01 X10.0961 Y8.6252
G01 X10.0840 Y8.6255
G01 X9.1840 Y8.6255
G01 X9.1413 Y8.6236
G01 X9.1232 Y8.6216
G01 X9.0929 Y8.6171
G01 X9.0810 Y8.6147
G01 X9.0513 Y8.6073
G01 X9.0338 Y8.6022
G01 X8.9936 Y8.5876
G01 X8.9603 Y8.5722
G01 X8.9442 Y8.5638
G01 X8.9076 Y8.5417
G01 X8.8977 Y8.5347
G01 X8.8684 Y8.5126
G01 X8.8410 Y8.4882
G01 X8.8322 Y8.4798
G01 X8.8074 Y8.4528
G01 X8.7956 Y8.4389
G01 X8.7703 Y8.4044
G01 X8.7512 Y8.3731
G01 X8.7424 Y8.3571
G01 X8.7244 Y8.3184
G01 X8.7098 Y8.2782
G01 X8.7047 Y8.2607
G01 X8.6961 Y8.2251
G01 X8.6940 Y8.2131
G01 X8.6889 Y8.1768
G01 X8.6868 Y8.1401
G01 X8.6865 Y8.1280
G01 X8.6865 Y7.4280
G01 X8.6880 Y7.3914
G01 X8.6896 Y7.3732
G01 X8.6961 Y7.3309
G01 X8.7062 Y7.2894
G01 X8.7098 Y7.2778
G01 X8.7200 Y7.2489
G01 X8.7244 Y7.2376
G01 X8.7293 Y7.2265
G01 X8.7452 Y7.1935
G01 X8.7638 Y7.1619
G01 X8.7703 Y7.1516
G01 X8.7773 Y7.1417
G01 X8.7994 Y7.1124
G01 X8.8238 Y7.0850
G01 X8.8322 Y7.0762
G01 X8.8410 Y7.0678
G01 X8.8637 Y7.0473
G01 X8.8731 Y7.0396
G01 X8.9076 Y7.0143
G01 X8.9442 Y6.9922
G01 X8.9549 Y6.9864
G01 X8.9825 Y6.9733
G01 X8.9936 Y6.9684
G01 X9.0049 Y6.9640
G01 X9.0396 Y6.9519
G01 X9.0513 Y6.9487
G01 X9.0864 Y6.9402
G01 X9.0863 Y6.2353
G01 X9.0498 Y6.2261
G01 X9.0381 Y6.2226
G01 X8.9528 Y6.1920
G01 X8.9360 Y6.1848
G01 X8.8596 Y6.1486
G01 X8.8436 Y6.1398
G01 X8.7763 Y6.0995
G01 X8.7660 Y6.0930
G01 X8.7561 Y6.0860
G01 X8.6930 Y6.0392
G01 X8.6835 Y6.0317
G01 X8.6743 Y6.0238
G01 X8.6161 Y5.9711
G01 X8.6073 Y5.9627
G01 X8.5989 Y5.9539
G01 X8.5462 Y5.8957
G01 X8.5345 Y5.8818
G01 X8.4840 Y5.8139
G01 X8.4770 Y5.8040
G01 X8.4705 Y5.7937
G01 X8.4302 Y5.7264
G01 X8.4242 Y5.7158
G01 X8.3955 Y5.6558
G01 X8.3955 Y6.0220
G01 X8.3952 Y6.0341
G01 X8.3943 Y6.0463
G01 X8.3919 Y6.0643
G01 X8.3895 Y6.0762
G01 X8.3865 Y6.0880
G01 X8.3810 Y6.1054
G01 X8.3767 Y6.1167
G01 X8.3717 Y6.1278
G01 X8.3633 Y6.1440
G01 X8.3538 Y6.1595
G01 X8.3468 Y6.1694
G01 X8.3393 Y6.1790
G01 X8.3314 Y6.1882
G01 X8.3230 Y6.1970
G01 X8.3142 Y6.2054
G01 X8.3050 Y6.2133
G01 X8.2905 Y6.2244
G01 X8.2752 Y6.2343
G01 X8.2593 Y6.2431
G01 X8.2427 Y6.2507
G01 X8.2314 Y6.2550
G01 X8.2198 Y6.2588
G01 X8.2022 Y6.2635
G01 X8.1843 Y6.2668
G01 X8.1662 Y6.2688
G01 X8.1480 Y6.2695
G01 X7.6416 Y6.2695
G01 X7.6417 Y6.9402
G01 X7.6767 Y6.9487
G01 X7.6884 Y6.9519
G01 X7.7231 Y6.9640
G01 X7.7344 Y6.9684
G01 X7.7455 Y6.9733
G01 X7.7731 Y6.9864
G01 X7.7838 Y6.9922
G01 X7.8204 Y7.0143
G01 X7.8549 Y7.0396
G01 X7.8643 Y7.0473
G01 X7.8870 Y7.0678
G01 X7.8958 Y7.0762
G01 X7.9042 Y7.0850
G01 X7.9286 Y7.1124
G01 X7.9507 Y7.1417
G01 X7.9577 Y7.1516
G01 X7.9642 Y7.1619
G01 X7.9828 Y7.1935
G01 X7.9987 Y7.2265
G01 X8.0036 Y7.2376
G01 X8.0080 Y7.2489
G01 X8.0182 Y7.2778
G01 X8.0218 Y7.2894
G01 X8.0319 Y7.3309
G01 X8.0376 Y7.3672
G01 X8.0396 Y7.3853
G01 X8.0415 Y7.4280
G01 X8.0415 Y8.1280
G01 X8.0396 Y8.1707
G01 X8.0376 Y8.1888
G01 X8.0319 Y8.2251
G01 X8.0218 Y8.2666
G01 X8.0163 Y8.2840
G01 X8.0036 Y8.3184
G01 X7.9882 Y8.3517
G01 X7.9798 Y8.3678
G01 X7.9577 Y8.4044
G01 X7.9507 Y8.4143
G01 X7.9286 Y8.4436
G01 X7.9042 Y8.4710
G01 X7.8914 Y8.4840
G01 X7.8688 Y8.5046
G01 X7.8549 Y8.5164
G01 X7.8254 Y8.5382
G01 X7.8101 Y8.5482
G01 X7.7785 Y8.5668
G01 X7.7455 Y8.5827
G01 X7.7287 Y8.5899
G01 X7.7000 Y8.6003
G01 X7.6826 Y8.6058
G01 X7.6470 Y8.6147
G01 X7.6291 Y8.6180
G01 X7.5928 Y8.6231
G01 X7.5561 Y8.6252
G01 X7.5440 Y8.6255
G01 X6.6440 Y8.6255
G01 X6.6319 Y8.6252
G01 X6.6013 Y8.6236
G01 X6.5832 Y8.6216
G01 X6.5469 Y8.6159
G01 X6.5113 Y8.6073
G01 X6.4938 Y8.6022
G01 X6.4593 Y8.5899
G01 X6.4425 Y8.5827
G01 X6.4095 Y8.5668
G01 X6.3779 Y8.5482
G01 X6.3676 Y8.5417
G01 X6.3380 Y8.5200
G01 X6.3237 Y8.5087
G01 X6.3010 Y8.4882
G01 X6.2880 Y8.4754
G01 X6.2633 Y8.4483
G01 X6.2520 Y8.4340
G01 X6.2338 Y8.4094
G01 X6.2238 Y8.3941
G01 X6.2052 Y8.3625
G01 X6.1893 Y8.3295
G01 X6.1821 Y8.3127
G01 X6.1698 Y8.2782
G01 X6.1647 Y8.2607
G01 X6.1573 Y8.2310
G01 X6.1540 Y8.2131
G01 X6.1489 Y8.1768
G01 X6.1468 Y8.1401
G01 X6.1465 Y8.1280
G01 X6.1465 Y7.4280
G01 X6.1480 Y7.3914
G01 X6.1489 Y7.3792
G01 X6.1504 Y7.3672
G01 X6.1549 Y7.3369
G01 X6.1573 Y7.3250
G01 X6.1679 Y7.2836
G01 X6.1717 Y7.2720
G01 X6.1844 Y7.2376
G01 X6.1893 Y7.2265
G01 X6.2052 Y7.1935
G01 X6.2238 Y7.1619
G01 X6.2303 Y7.1516
G01 X6.2373 Y7.1417
G01 X6.2556 Y7.1171
G01 X6.2633 Y7.1077
G01 X6.2922 Y7.0762
G01 X6.3192 Y7.0514
G01 X6.3284 Y7.0434
G01 X6.3577 Y7.0213
G01 X6.3676 Y7.0143
G01 X6.3989 Y6.9952
G01 X6.4095 Y6.9892
G01 X6.4203 Y6.9838
G01 X6.4480 Y6.9708
G01 X6.4593 Y6.9661
G01 X6.4996 Y6.9519
G01 X6.5113 Y6.9487
G01 X6.5464 Y6.9402
G01 X6.5463 Y6.2695
G00 Z2.0000
G00 X9.1757 Y6.1641
G01 F40.00
G01 Z-0.0700
G01 F35.00
G01 X9.1649 Y6.1624
G01 X9.1535 Y6.1600
G01 X9.0699 Y6.1389
G01 X8.9813 Y6.1072
G01 X8.8963 Y6.0670
G01 X8.8157 Y6.0187
G01 X8.7402 Y5.9626
G01 X8.6705 Y5.8995
G01 X8.6074 Y5.8298
G01 X8.5513 Y5.7543
G01 X8.5030 Y5.6737
G01 X8.4628 Y5.5887
G01 X8.4311 Y5.5001
G01 X8.4083 Y5.4089
G01 X8.3945 Y5.3159
G01 X8.3899 Y5.2220
G01 X8.3945 Y5.1281
G01 X8.4083 Y5.0351
G01 X8.4311 Y4.9439
G01 X8.4628 Y4.8553
G01 X8.5030 Y4.7703
G01 X8.5513 Y4.6897
G01 X8.6074 Y4.6142
G01 X8.6705 Y4.5445
G01 X8.7402 Y4.4814
G01 X8.8157 Y4.4253
G01 X8.8963 Y4.3770
G01 X8.9813 Y4.3368
G01 X9.0699 Y4.3051
G01 X9.1611 Y4.2823
G01 X9.2541 Y4.2685
G01 X9.3480 Y4.2639
G01 X9.4419 Y4.2685
G01 X9.5349 Y4.2823
G01 X9.6261 Y4.3051
G01 X9.7074 Y4.3340
G01 X9.7218 Y4.3400
G01 X9.7997 Y4.3770
G01 X9.8737 Y4.4212
G01 X9.8867 Y4.4298
G01 X9.9558 Y4.4814
G01 X10.0255 Y4.5445
G01 X10.0886 Y4.6142
G01 X10.1402 Y4.6833
G01 X10.1488 Y4.6963
G01 X10.1930 Y4.7703
G01 X10.2332 Y4.8553
G01 X10.2624 Y4.9365
G01 X10.2669 Y4.9514
G01 X10.2860 Y5.0275
G01 X10.2884 Y5.0389
G01 X10.3015 Y5.1281
G01 X10.3061 Y5.2220
G01 X10.3015 Y5.3159
G01 X10.2890 Y5.4013
G01 X10.2860 Y5.4165
G01 X10.2649 Y5.5001
G01 X10.2360 Y5.5814
G01 X10.2300 Y5.5958
G01 X10.1965 Y5.6667
G01 X10.1892 Y5.6804
G01 X10.1447 Y5.7543
G01 X10.0923 Y5.8252
G01 X10.0923 Y7.0201
G01 X10.1240 Y7.0218
G01 X10.1598 Y7.0270
G01 X10.1712 Y7.0294
G01 X10.1950 Y7.0354
G01 X10.2062 Y7.0386
G01 X10.2402 Y7.0509
G01 X10.2695 Y7.0646
G01 X10.2831 Y7.0719
G01 X10.3042 Y7.0845
G01 X10.3139 Y7.0909
G01 X10.3429 Y7.1125
G01 X10.3670 Y7.1341
G01 X10.3779 Y7.1450
G01 X10.3944 Y7.1632
G01 X10.4019 Y7.1721
G01 X10.4233 Y7.2013
G01 X10.4421 Y7.2322
G01 X10.4474 Y7.2425
G01 X10.4579 Y7.2647
G01 X10.4639 Y7.2791
G01 X10.4746 Y7.3095
G01 X10.4843 Y7.3484
G01 X10.4902 Y7.3880
G01 X10.4921 Y7.4241
G01 X10.4921 Y8.1319
G01 X10.4902 Y8.1680
G01 X10.4856 Y8.2000
G01 X10.4826 Y8.2152
G01 X10.4746 Y8.2465
G01 X10.4639 Y8.2769
G01 X10.4579 Y8.2913
G01 X10.4439 Y8.3204
G01 X10.4233 Y8.3547
G01 X10.3995 Y8.3869
G01 X10.3779 Y8.4110
G01 X10.3670 Y8.4219
G01 X10.3429 Y8.4435
G01 X10.3171 Y8.4629
G01 X10.3042 Y8.4715
G01 X10.2764 Y8.4879
G01 X10.2438 Y8.5035
G01 X10.2329 Y8.5079
G01 X10.2025 Y8.5186
G01 X10.1636 Y8.5283
G01 X10.1240 Y8.5342
G01 X10.0879 Y8.5361
G01 X9.1840 Y8.5361
G01 X9.1440 Y8.5342
G01 X9.1120 Y8.5296
G01 X9.0968 Y8.5266
G01 X9.0655 Y8.5186
G01 X9.0351 Y8.5079
G01 X9.0242 Y8.5035
G01 X8.9916 Y8.4879
G01 X8.9638 Y8.4715
G01 X8.9541 Y8.4651
G01 X8.9281 Y8.4459
G01 X8.9192 Y8.4384
G01 X8.8954 Y8.4166
G01 X8.8736 Y8.3928
G01 X8.8637 Y8.3808
G01 X8.8447 Y8.3547
G01 X8.8279 Y8.3271
G01 X8.8223 Y8.3169
G01 X8.8085 Y8.2878
G01 X8.8041 Y8.2769
G01 X8.7934 Y8.2465
G01 X8.7837 Y8.2076
G01 X8.7778 Y8.1680
G01 X8.7759 Y8.1319
G01 X8.7759 Y7.4280
G01 X8.7778 Y7.3880
G01 X8.7830 Y7.3522
G01 X8.7854 Y7.3408
G01 X8.7924 Y7.3133
G01 X8.7959 Y7.3022
G01 X8.8041 Y7.2791
G01 X8.8085 Y7.2682
G01 X8.8206 Y7.2425
G01 X8.8279 Y7.2289
G01 X8.8447 Y7.2013
G01 X8.8685 Y7.1691
G01 X8.8954 Y7.1394
G01 X8.9221 Y7.1150
G01 X8.9312 Y7.1077
G01 X8.9509 Y7.0931
G01 X8.9638 Y7.0845
G01 X8.9849 Y7.0719
G01 X8.9951 Y7.0663
G01 X9.0207 Y7.0541
G01 X9.0314 Y7.0495
G01 X9.0655 Y7.0374
G01 X9.1044 Y7.0277
G01 X9.1440 Y7.0218
G01 X9.1757 Y7.0201
G01 X9.1757 Y6.1641
G00 Z2.0000
G00 X9.2651 Y6.0867
G01 F40.00
G01 Z-0.0700
G01 F35.00
G01 X9.1785 Y6.0741
G01 X9.0958 Y6.0533
G01 X9.0155 Y6.0246
G01 X8.9385 Y5.9882
G01 X8.8653 Y5.9443
G01 X8.7969 Y5.8936
G01 X8.7337 Y5.8363
G01 X8.6764 Y5.7731
G01 X8.6257 Y5.7047
G01 X8.5818 Y5.6315
G01 X8.5454 Y5.5545
G01 X8.5167 Y5.4742
G01 X8.4959 Y5.3915
G01 X8.4834 Y5.3072
G01 X8.4793 Y5.2220
G01 X8.4834 Y5.1368
G01 X8.4959 Y5.0525
G01 X8.5167 Y4.9698
G01 X8.5454 Y4.8895
G01 X8.5818 Y4.8125
G01 X8.6257 Y4.7393
G01 X8.6764 Y4.6709
G01 X8.7337 Y4.6077
G01 X8.7969 Y4.5504
G01 X8.8653 Y4.4997
G01 X8.9385 Y4.4558
G01 X9.0155 Y4.4194
G01 X9.0958 Y4.3907
G01 X9.1785 Y4.3699
G01 X9.2628 Y4.3574
G01 X9.3480 Y4.3533
G01 X9.4332 Y4.3574
G01 X9.5175 Y4.3699
G01 X9.5969 Y4.3898
G01 X9.6034 Y4.3917
G01 X9.6773 Y4.4182
G01 X9.6835 Y4.4207
G01 X9.7575 Y4.4558
G01 X9.8307 Y4.4997
G01 X9.8991 Y4.5504
G01 X9.9599 Y4.6054
G01 X9.9646 Y4.6101
G01 X10.0173 Y4.6683
G01 X10.0216 Y4.6735
G01 X10.0703 Y4.7393
G01 X10.1142 Y4.8125
G01 X10.1493 Y4.8865
G01 X10.1518 Y4.8927
G01 X10.1793 Y4.9698
G01 X10.2001 Y5.0525
G01 X10.2126 Y5.1368
G01 X10.2167 Y5.2186
G01 X10.2167 Y5.2254
G01 X10.2126 Y5.3072
G01 X10.2006 Y5.3882
G01 X10.1993 Y5.3948
G01 X10.1798 Y5.4726
G01 X10.1506 Y5.5545
G01 X10.1134 Y5.6330
G01 X10.0694 Y5.7060
G01 X10.0206 Y5.7718
G01 X10.0029 Y5.7916
G01 X10.0029 Y7.1093
G01 X10.0874 Y7.1093
G01 X10.1152 Y7.1108
G01 X10.1462 Y7.1154
G01 X10.1765 Y7.1230
G01 X10.2060 Y7.1335
G01 X10.2343 Y7.1469
G01 X10.2611 Y7.1630
G01 X10.2862 Y7.1816
G01 X10.3094 Y7.2026
G01 X10.3304 Y7.2258
G01 X10.3490 Y7.2509
G01 X10.3651 Y7.2777
G01 X10.3785 Y7.3060
G01 X10.3890 Y7.3355
G01 X10.3959 Y7.3625
G01 X10.3972 Y7.3691
G01 X10.4012 Y7.3968
G01 X10.4027 Y7.4280
G01 X10.4027 Y8.1280
G01 X10.4012 Y8.1592
G01 X10.3969 Y8.1885
G01 X10.3890 Y8.2205
G01 X10.3797 Y8.2468
G01 X10.3771 Y8.2531
G01 X10.3651 Y8.2783
G01 X10.3508 Y8.3022
G01 X10.3471 Y8.3078
G01 X10.3304 Y8.3302
G01 X10.3094 Y8.3534
G01 X10.2888 Y8.3722
G01 X10.2836 Y8.3765
G01 X10.2611 Y8.3930
G01 X10.2372 Y8.4074
G01 X10.2312 Y8.4106
G01 X10.2060 Y8.4225
G01 X10.1765 Y8.4330
G01 X10.1462 Y8.4406
G01 X10.1152 Y8.4452
G01 X10.0857 Y8.4467
G01 X9.1840 Y8.4467
G01 X9.1511 Y8.4450
G01 X9.1218 Y8.4406
G01 X9.0947 Y8.4339
G01 X9.0883 Y8.4320
G01 X9.0620 Y8.4225
G01 X9.0368 Y8.4106
G01 X9.0308 Y8.4074
G01 X9.0069 Y8.3930
G01 X8.9844 Y8.3765
G01 X8.9792 Y8.3722
G01 X8.9586 Y8.3534
G01 X8.9398 Y8.3328
G01 X8.9355 Y8.3276
G01 X8.9190 Y8.3051
G01 X8.9046 Y8.2812
G01 X8.9014 Y8.2752
G01 X8.8895 Y8.2500
G01 X8.8790 Y8.2205
G01 X8.8714 Y8.1902
G01 X8.8668 Y8.1592
G01 X8.8653 Y8.1280
G01 X8.8653 Y7.4263
G01 X8.8668 Y7.3968
G01 X8.8708 Y7.3691
G01 X8.8721 Y7.3625
G01 X8.8795 Y7.3339
G01 X8.8895 Y7.3060
G01 X8.9029 Y7.2777
G01 X8.9190 Y7.2509
G01 X8.9376 Y7.2258
G01 X8.9586 Y7.2026
G01 X8.9818 Y7.1816
G01 X9.0069 Y7.1630
G01 X9.0323 Y7.1477
G01 X9.0589 Y7.1349
G01 X9.0652 Y7.1323
G01 X9.0915 Y7.1230
G01 X9.1235 Y7.1151
G01 X9.1528 Y7.1108
G01 X9.1806 Y7.1093
G01 X9.2651 Y7.1093
G01 X9.2651 Y6.0867
G00 Z2.0000
G00 X10.0961 Y8.9308
G01 F40.00
G01 Z-0.0700
G01 F35.00
G01 X10.1328 Y8.9329
G01 X10.1691 Y8.9380
G01 X10.1870 Y8.9413
G01 X10.2284 Y8.9519
G01 X10.2687 Y8.9661
G01 X10.2855 Y8.9733
G01 X10.3185 Y8.9892
G01 X10.3501 Y9.0078
G01 X10.3604 Y9.0143
G01 X10.3703 Y9.0213
G01 X10.3996 Y9.0434
G01 X10.4270 Y9.0678
G01 X10.4400 Y9.0806
G01 X10.4686 Y9.1124
G01 X10.4942 Y9.1466
G01 X10.5042 Y9.1619
G01 X10.5228 Y9.1935
G01 X10.5405 Y9.2304
G01 X10.9152 Y9.2303
G01 X10.9152 Y9.0828
G01 X10.9154 Y9.0707
G01 X10.9178 Y9.0291
G01 X10.9193 Y9.0171
G01 X10.9257 Y8.9760
G01 X10.9283 Y8.9641
G01 X10.9387 Y8.9238
G01 X10.9425 Y8.9123
G01 X10.9568 Y8.8732
G01 X10.9677 Y8.8495
G01 X10.9798 Y8.8246
G01 X11.0009 Y8.7888
G01 X11.0074 Y8.7785
G01 X11.0144 Y8.7686
G01 X11.0395 Y8.7354
G01 X11.0474 Y8.7262
G01 X11.0756 Y8.6956
G01 X11.7228 Y8.0483
G01 X11.7022 Y8.0378
G01 X11.6707 Y8.0190
G01 X11.6557 Y8.0087
G01 X11.6311 Y7.9904
G01 X11.6217 Y7.9827
G01 X11.5902 Y7.9538
G01 X11.5654 Y7.9268
G01 X11.5536 Y7.9129
G01 X11.5283 Y7.8784
G01 X11.5062 Y7.8418
G01 X11.4978 Y7.8257
G01 X11.4824 Y7.7924
G01 X11.4678 Y7.7522
G01 X11.4627 Y7.7347
G01 X11.4541 Y7.6991
G01 X11.4476 Y7.6568
G01 X11.4460 Y7.6386
G01 X11.4445 Y7.6020
G01 X11.4445 Y6.6520
G01 X11.4448 Y6.6399
G01 X11.4469 Y6.6032
G01 X11.4484 Y6.5912
G01 X11.4541 Y6.5549
G01 X11.4627 Y6.5193
G01 X11.4678 Y6.5018
G01 X11.4801 Y6.4673
G01 X11.4873 Y6.4505
G01 X11.5032 Y6.4175
G01 X11.5218 Y6.3859
G01 X11.5318 Y6.3706
G01 X11.5536 Y6.3411
G01 X11.5654 Y6.3272
G01 X11.5902 Y6.3002
G01 X11.6172 Y6.2754
G01 X11.6311 Y6.2636
G01 X11.6557 Y6.2453
G01 X11.6707 Y6.2350
G01 X11.7075 Y6.2132
G01 X11.7319 Y6.2014
G01 X11.7318 Y5.6104
G01 X11.7112 Y5.5998
G01 X11.6797 Y5.5810
G01 X11.6647 Y5.5707
G01 X11.6401 Y5.5524
G01 X11.6307 Y5.5447
G01 X11.6036 Y5.5200
G01 X11.5908 Y5.5070
G01 X11.5664 Y5.4796
G01 X11.5408 Y5.4454
G01 X11.5308 Y5.4301
G01 X11.5122 Y5.3985
G01 X11.4938 Y5.3600
G01 X11.4870 Y5.3431
G01 X11.4749 Y5.3084
G01 X11.4657 Y5.2729
G01 X11.4619 Y5.2551
G01 X11.4559 Y5.2128
G01 X11.4538 Y5.1761
G01 X11.4535 Y5.1640
G01 X11.4535 Y4.2640
G01 X11.4538 Y4.2519
G01 X11.4554 Y4.2213
G01 X11.4574 Y4.2032
G01 X11.4631 Y4.1669
G01 X11.4717 Y4.1313
G01 X11.4768 Y4.1138
G01 X11.4891 Y4.0793
G01 X11.4963 Y4.0625
G01 X11.5122 Y4.0295
G01 X11.5308 Y3.9979
G01 X11.5408 Y3.9826
G01 X11.5626 Y3.9531
G01 X11.5744 Y3.9392
G01 X11.5992 Y3.9122
G01 X11.6262 Y3.8874
G01 X11.6401 Y3.8756
G01 X11.6696 Y3.8538
G01 X11.6849 Y3.8438
G01 X11.7165 Y3.8252
G01 X11.7495 Y3.8093
G01 X11.7606 Y3.8044
G01 X11.7950 Y3.7917
G01 X11.8124 Y3.7862
G01 X11.8480 Y3.7773
G01 X11.8659 Y3.7740
G01 X11.9022 Y3.7689
G01 X11.9389 Y3.7668
G01 X11.9510 Y3.7665
G01 X12.6510 Y3.7665
G01 X12.6876 Y3.7680
G01 X12.7058 Y3.7696
G01 X12.7421 Y3.7749
G01 X12.7599 Y3.7787
G01 X12.7896 Y3.7862
G01 X12.8070 Y3.7917
G01 X12.8414 Y3.8044
G01 X12.8525 Y3.8093
G01 X12.8855 Y3.8252
G01 X12.9223 Y3.8470
G01 X12.9373 Y3.8573
G01 X12.9666 Y3.8794
G01 X12.9940 Y3.9038
G01 X13.0070 Y3.9166
G01 X13.0356 Y3.9484
G01 X13.0577 Y3.9777
G01 X13.0680 Y3.9927
G01 X13.0898 Y4.0295
G01 X13.1057 Y4.0625
G01 X13.1129 Y4.0793
G01 X13.1252 Y4.1138
G01 X13.1303 Y4.1313
G01 X13.1389 Y4.1669
G01 X13.1454 Y4.2092
G01 X13.1470 Y4.2274
G01 X13.1485 Y4.2640
G01 X13.1485 Y5.1640
G01 X13.1482 Y5.1761
G01 X13.1461 Y5.2128
G01 X13.1410 Y5.2491
G01 X13.1377 Y5.2670
G01 X13.1288 Y5.3026
G01 X13.1233 Y5.3200
G01 X13.1106 Y5.3544
G01 X13.0952 Y5.3877
G01 X13.0868 Y5.4038
G01 X13.0647 Y5.4404
G01 X13.0430 Y5.4700
G01 X13.0317 Y5.4843
G01 X13.0028 Y5.5158
G01 X12.9758 Y5.5406
G01 X12.9619 Y5.5524
G01 X12.9324 Y5.5742
G01 X12.9171 Y5.5842
G01 X12.8855 Y5.6028
G01 X12.8470 Y5.6212
G01 X12.8271 Y5.6290
G01 X12.8272 Y6.2014
G01 X12.8515 Y6.2132
G01 X12.8883 Y6.2350
G01 X12.9033 Y6.2453
G01 X12.9326 Y6.2674
G01 X12.9644 Y6.2960
G01 X12.9772 Y6.3090
G01 X13.0016 Y6.3364
G01 X13.0237 Y6.3657
G01 X13.0340 Y6.3807
G01 X13.0558 Y6.4175
G01 X13.0717 Y6.4505
G01 X13.0789 Y6.4673
G01 X13.0912 Y6.5018
G01 X13.0963 Y6.5193
G01 X13.1049 Y6.5549
G01 X13.1106 Y6.5912
G01 X13.1126 Y6.6093
G01 X13.1145 Y6.6520
G01 X13.1145 Y7.6020
G01 X13.1130 Y7.6386
G01 X13.1114 Y7.6568
G01 X13.1061 Y7.6931
G01 X13.1023 Y7.7109
G01 X13.0931 Y7.7464
G01 X13.0810 Y7.7811
G01 X13.0742 Y7.7980
G01 X13.0558 Y7.8365
G01 X13.0372 Y7.8681
G01 X13.0272 Y7.8834
G01 X13.0016 Y7.9176
G01 X12.9772 Y7.9450
G01 X12.9644 Y7.9580
G01 X12.9373 Y7.9827
G01 X12.9279 Y7.9904
G01 X12.9033 Y8.0087
G01 X12.8883 Y8.0190
G01 X12.8515 Y8.0408
G01 X12.8271 Y8.0526
G01 X12.8271 Y8.2722
G01 X12.8245 Y8.3198
G01 X12.8177 Y8.3670
G01 X12.8140 Y8.3848
G01 X12.8036 Y8.4251
G01 X12.7998 Y8.4366
G01 X12.7855 Y8.4757
G01 X12.7746 Y8.4994
G01 X12.7625 Y8.5243
G01 X12.7414 Y8.5601
G01 X12.7349 Y8.5704
G01 X12.7279 Y8.5803
G01 X12.7028 Y8.6135
G01 X12.6949 Y8.6227
G01 X12.6667 Y8.6533
G01 X12.0104 Y9.3096
G01 X12.0104 Y10.3292
G01 X12.2856 Y10.6044
G01 X14.3851 Y10.6046
G01 X14.4119 Y10.6059
G01 X14.4240 Y10.6071
G01 X14.4506 Y10.6110
G01 X14.4625 Y10.6134
G01 X14.4886 Y10.6199
G01 X14.5002 Y10.6235
G01 X14.5255 Y10.6325
G01 X14.5367 Y10.6372
G01 X14.5610 Y10.6486
G01 X14.5769 Y10.6574
G01 X14.5998 Y10.6715
G01 X14.6216 Y10.6873
G01 X14.6358 Y10.6986
G01 X14.6557 Y10.7167
G01 X14.6685 Y10.7297
G01 X14.6863 Y10.7498
G01 X14.7025 Y10.7712
G01 X14.7128 Y10.7863
G01 X14.7266 Y10.8093
G01 X14.7350 Y10.8255
G01 X14.7462 Y10.8499
G01 X14.7556 Y10.8751
G01 X14.7611 Y10.8924
G01 X14.7676 Y10.9185
G01 X14.7700 Y10.9304
G01 X14.7739 Y10.9570
G01 X14.7751 Y10.9691
G01 X14.7764 Y10.9959
G01 X14.7765 Y11.3020
G01 X14.7751 Y11.3349
G01 X14.7731 Y11.3530
G01 X14.7689 Y11.3795
G01 X14.7662 Y11.3914
G01 X14.7594 Y11.4174
G01 X14.7506 Y11.4428
G01 X14.7462 Y11.4541
G01 X14.7350 Y11.4785
G01 X14.7266 Y11.4947
G01 X14.7128 Y11.5177
G01 X14.7025 Y11.5328
G01 X14.6863 Y11.5542
G01 X14.6643 Y11.5787
G01 X14.6513 Y11.5915
G01 X14.6312 Y11.6093
G01 X14.6098 Y11.6255
G01 X14.5947 Y11.6358
G01 X14.5664 Y11.6526
G01 X14.5422 Y11.6643
G01 X14.5255 Y11.6715
G01 X14.5002 Y11.6805
G01 X14.4827 Y11.6856
G01 X14.4565 Y11.6919
G01 X14.4300 Y11.6961
G01 X14.4119 Y11.6981
G01 X14.3790 Y11.6995
G01 X12.0588 Y11.6996
G01 X12.0467 Y11.6994
G01 X12.0051 Y11.6970
G01 X11.9579 Y11.6902
G01 X11.9460 Y11.6879
G01 X11.9115 Y11.6793
G01 X11.8940 Y11.6742
G01 X11.8549 Y11.6602
G01 X11.8436 Y11.6556
G01 X11.8255 Y11.6471
G01 X11.8060 Y11.6378
G01 X11.7953 Y11.6321
G01 X11.7596 Y11.6107
G01 X11.7446 Y11.6004
G01 X11.7161 Y11.5791
G01 X11.7067 Y11.5714
G01 X11.6716 Y11.5392
G01 X11.0756 Y10.9432
G01 X11.0474 Y10.9126
G01 X11.0357 Y10.8987
G01 X11.0109 Y10.8653
G01 X11.0009 Y10.8500
G01 X10.9798 Y10.8142
G01 X10.9618 Y10.7767
G01 X10.9546 Y10.7599
G01 X10.9406 Y10.7208
G01 X10.9355 Y10.7033
G01 X10.9257 Y10.6628
G01 X10.9199 Y10.6261
G01 X10.9178 Y10.6097
G01 X10.9152 Y10.5621
G01 X10.9151 Y10.3256
G01 X10.5405 Y10.3257
G01 X10.5228 Y10.3625
G01 X10.5042 Y10.3941
G01 X10.4942 Y10.4094
G01 X10.4686 Y10.4436
G01 X10.4400 Y10.4754
G01 X10.4270 Y10.4882
G01 X10.3996 Y10.5126
G01 X10.3703 Y10.5347
G01 X10.3553 Y10.5450
G01 X10.3185 Y10.5668
G01 X10.2855 Y10.5827
G01 X10.2687 Y10.5899
G01 X10.2284 Y10.6041
G01 X10.1929 Y10.6133
G01 X10.1751 Y10.6171
G01 X10.1328 Y10.6231
G01 X10.0961 Y10.6252
G01 X10.0840 Y10.6255
G01 X9.1840 Y10.6255
G01 X9.1413 Y10.6236
G01 X9.1292 Y10.6224
G01 X9.0989 Y10.6180
G01 X9.0869 Y10.6159
G01 X9.0751 Y10.6133
G01 X9.0396 Y10.6041
G01 X9.0280 Y10.6003
G01 X8.9936 Y10.5876
G01 X8.9549 Y10.5696
G01 X8.9389 Y10.5608
G01 X8.9076 Y10.5417
G01 X8.8731 Y10.5164
G01 X8.8592 Y10.5046
G01 X8.8322 Y10.4798
G01 X8.8238 Y10.4710
G01 X8.7994 Y10.4436
G01 X8.7773 Y10.4143
G01 X8.7703 Y10.4044
G01 X8.7638 Y10.3941
G01 X8.7452 Y10.3625
G01 X8.7293 Y10.3295
G01 X8.7244 Y10.3184
G01 X8.7117 Y10.2840
G01 X8.7062 Y10.2666
G01 X8.6987 Y10.2369
G01 X8.6949 Y10.2191
G01 X8.6896 Y10.1828
G01 X8.6880 Y10.1646
G01 X8.6865 Y10.1280
G01 X8.6865 Y9.4280
G01 X8.6868 Y9.4159
G01 X8.6889 Y9.3792
G01 X8.6904 Y9.3672
G01 X8.6961 Y9.3309
G01 X8.7047 Y9.2953
G01 X8.7098 Y9.2778
G01 X8.7244 Y9.2376
G01 X8.7424 Y9.1989
G01 X8.7512 Y9.1829
G01 X8.7703 Y9.1516
G01 X8.7956 Y9.1171
G01 X8.8074 Y9.1032
G01 X8.8322 Y9.0762
G01 X8.8410 Y9.0678
G01 X8.8684 Y9.0434
G01 X8.8977 Y9.0213
G01 X8.9076 Y9.0143
G01 X8.9442 Y8.9922
G01 X8.9603 Y8.9838
G01 X8.9936 Y8.9684
G01 X9.0338 Y8.9538
G01 X9.0513 Y8.9487
G01 X9.0810 Y8.9413
G01 X9.0929 Y8.9389
G01 X9.1232 Y8.9344
G01 X9.1413 Y8.9324
G01 X9.1840 Y8.9305
G01 X10.0840 Y8.9305
G01 X10.0961 Y8.9308
G00 Z2.0000
G00 X10.0918 Y9.0201
G01 F40.00
G01 Z-0.0700
G01 F35.00
G01 X10.1240 Y9.0218
G01 X10.1636 Y9.0277
G01 X10.2025 Y9.0374
G01 X10.2329 Y9.0481
G01 X10.2473 Y9.0541
G01 X10.2695 Y9.0646
G01 X10.2798 Y9.0699
G01 X10.3107 Y9.0887
G01 X10.3399 Y9.1101
G01 X10.3488 Y9.1176
G01 X10.3670 Y9.1341
G01 X10.3779 Y9.1450
G01 X10.3995 Y9.1691
G01 X10.4233 Y9.2013
G01 X10.4439 Y9.2356
G01 X10.4595 Y9.2682
G01 X10.4639 Y9.2791
G01 X10.4721 Y9.3022
G01 X10.4773 Y9.3197
G01 X11.0045 Y9.3197
G01 X11.0046 Y9.0789
G01 X11.0067 Y9.0379
G01 X11.0120 Y9.0010
G01 X11.0150 Y8.9858
G01 X11.0243 Y8.9498
G01 X11.0394 Y8.9074
G01 X11.0586 Y8.8668
G01 X11.0818 Y8.8282
G01 X11.1085 Y8.7921
G01 X11.1388 Y8.7588
G01 X11.8212 Y8.0763
G01 X11.8212 Y7.9918
G01 X11.7858 Y7.9791
G01 X11.7496 Y7.9619
G01 X11.7153 Y7.9413
G01 X11.6892 Y7.9223
G01 X11.6801 Y7.9150
G01 X11.6590 Y7.8959
G01 X11.6481 Y7.8850
G01 X11.6265 Y7.8609
G01 X11.6027 Y7.8287
G01 X11.5859 Y7.8011
G01 X11.5786 Y7.7875
G01 X11.5649 Y7.7582
G01 X11.5539 Y7.7278
G01 X11.5494 Y7.7130
G01 X11.5417 Y7.6816
G01 X11.5368 Y7.6497
G01 X11.5355 Y7.6381
G01 X11.5339 Y7.6020
G01 X11.5339 Y6.6520
G01 X11.5358 Y6.6120
G01 X11.5417 Y6.5724
G01 X11.5494 Y6.5410
G01 X11.5539 Y6.5262
G01 X11.5649 Y6.4958
G01 X11.5786 Y6.4665
G01 X11.5859 Y6.4529
G01 X11.6027 Y6.4253
G01 X11.6217 Y6.3992
G01 X11.6316 Y6.3872
G01 X11.6534 Y6.3634
G01 X11.6772 Y6.3416
G01 X11.6892 Y6.3317
G01 X11.7153 Y6.3127
G01 X11.7429 Y6.2959
G01 X11.7565 Y6.2886
G01 X11.7858 Y6.2749
G01 X11.8212 Y6.2622
G01 X11.8212 Y5.5507
G01 X11.7948 Y5.5411
G01 X11.7621 Y5.5257
G01 X11.7519 Y5.5201
G01 X11.7308 Y5.5075
G01 X11.7211 Y5.5011
G01 X11.6921 Y5.4795
G01 X11.6680 Y5.4579
G01 X11.6571 Y5.4470
G01 X11.6355 Y5.4229
G01 X11.6161 Y5.3971
G01 X11.6075 Y5.3842
G01 X11.5911 Y5.3564
G01 X11.5739 Y5.3202
G01 X11.5629 Y5.2898
G01 X11.5584 Y5.2750
G01 X11.5507 Y5.2436
G01 X11.5453 Y5.2079
G01 X11.5443 Y5.1963
G01 X11.5429 Y5.1640
G01 X11.5429 Y4.2640
G01 X11.5448 Y4.2240
G01 X11.5494 Y4.1920
G01 X11.5524 Y4.1768
G01 X11.5604 Y4.1455
G01 X11.5711 Y4.1151
G01 X11.5771 Y4.1007
G01 X11.5911 Y4.0716
G01 X11.6075 Y4.0438
G01 X11.6161 Y4.0309
G01 X11.6355 Y4.0051
G01 X11.6624 Y3.9754
G01 X11.6862 Y3.9536
G01 X11.6982 Y3.9437
G01 X11.7243 Y3.9247
G01 X11.7586 Y3.9041
G01 X11.7877 Y3.8901
G01 X11.8021 Y3.8841
G01 X11.8325 Y3.8734
G01 X11.8714 Y3.8637
G01 X11.9110 Y3.8578
G01 X11.9510 Y3.8559
G01 X12.6588 Y3.8561
G01 X12.6871 Y3.8575
G01 X12.6987 Y3.8588
G01 X12.7306 Y3.8637
G01 X12.7620 Y3.8714
G01 X12.7768 Y3.8759
G01 X12.8072 Y3.8869
G01 X12.8434 Y3.9041
G01 X12.8777 Y3.9247
G01 X12.9038 Y3.9437
G01 X12.9158 Y3.9536
G01 X12.9368 Y3.9727
G01 X12.9449 Y3.9810
G01 X12.9665 Y4.0051
G01 X12.9859 Y4.0309
G01 X12.9945 Y4.0438
G01 X13.0109 Y4.0716
G01 X13.0281 Y4.1078
G01 X13.0416 Y4.1455
G01 X13.0496 Y4.1768
G01 X13.0520 Y4.1882
G01 X13.0572 Y4.2240
G01 X13.0591 Y4.2640
G01 X13.0589 Y5.1718
G01 X13.0572 Y5.2040
G01 X13.0513 Y5.2436
G01 X13.0416 Y5.2825
G01 X13.0309 Y5.3129
G01 X13.0265 Y5.3238
G01 X13.0144 Y5.3495
G01 X13.0071 Y5.3631
G01 X12.9903 Y5.3907
G01 X12.9665 Y5.4229
G01 X12.9396 Y5.4526
G01 X12.9158 Y5.4744
G01 X12.9038 Y5.4843
G01 X12.8809 Y5.5011
G01 X12.8712 Y5.5075
G01 X12.8434 Y5.5239
G01 X12.8072 Y5.5411
G01 X12.7695 Y5.5546
G01 X12.7378 Y5.5627
G01 X12.7378 Y6.2622
G01 X12.7732 Y6.2749
G01 X12.8025 Y6.2886
G01 X12.8161 Y6.2959
G01 X12.8437 Y6.3127
G01 X12.8698 Y6.3317
G01 X12.8818 Y6.3416
G01 X12.9056 Y6.3634
G01 X12.9274 Y6.3872
G01 X12.9373 Y6.3992
G01 X12.9563 Y6.4253
G01 X12.9731 Y6.4529
G01 X12.9804 Y6.4665
G01 X12.9941 Y6.4958
G01 X13.0051 Y6.5262
G01 X13.0096 Y6.5410
G01 X13.0173 Y6.5724
G01 X13.0232 Y6.6120
G01 X13.0251 Y6.6520
G01 X13.0251 Y7.6020
G01 X13.0237 Y7.6343
G01 X13.0222 Y7.6497
G01 X13.0173 Y7.6816
G01 X13.0096 Y7.7130
G01 X13.0051 Y7.7278
G01 X12.9941 Y7.7582
G01 X12.9804 Y7.7875
G01 X12.9731 Y7.8011
G01 X12.9563 Y7.8287
G01 X12.9325 Y7.8609
G01 X12.9056 Y7.8906
G01 X12.8818 Y7.9124
G01 X12.8698 Y7.9223
G01 X12.8437 Y7.9413
G01 X12.8161 Y7.9581
G01 X12.8025 Y7.9654
G01 X12.7732 Y7.9791
G01 X12.7378 Y7.9918
G01 X12.7378 Y8.2661
G01 X12.7361 Y8.3033
G01 X12.7346 Y8.3187
G01 X12.7290 Y8.3555
G01 X12.7201 Y8.3917
G01 X12.7169 Y8.4028
G01 X12.7057 Y8.4342
G01 X12.6997 Y8.4486
G01 X12.6837 Y8.4821
G01 X12.6605 Y8.5207
G01 X12.6338 Y8.5568
G01 X12.6035 Y8.5901
G01 X11.9211 Y9.2726
G01 X11.9211 Y10.3662
G01 X12.2486 Y10.6937
G01 X14.3790 Y10.6939
G01 X14.4092 Y10.6954
G01 X14.4391 Y10.6998
G01 X14.4684 Y10.7071
G01 X14.4933 Y10.7159
G01 X14.5040 Y10.7205
G01 X14.5242 Y10.7303
G01 X14.5436 Y10.7417
G01 X14.5534 Y10.7480
G01 X14.5745 Y10.7638
G01 X14.5913 Y10.7788
G01 X14.5996 Y10.7869
G01 X14.6147 Y10.8036
G01 X14.6220 Y10.8126
G01 X14.6352 Y10.8308
G01 X14.6469 Y10.8500
G01 X14.6525 Y10.8602
G01 X14.6621 Y10.8805
G01 X14.6665 Y10.8913
G01 X14.6739 Y10.9126
G01 X14.6804 Y10.9381
G01 X14.6819 Y10.9457
G01 X14.6852 Y10.9679
G01 X14.6860 Y10.9757
G01 X14.6871 Y10.9981
G01 X14.6871 Y11.3020
G01 X14.6862 Y11.3245
G01 X14.6852 Y11.3361
G01 X14.6819 Y11.3583
G01 X14.6804 Y11.3659
G01 X14.6749 Y11.3877
G01 X14.6714 Y11.3988
G01 X14.6637 Y11.4199
G01 X14.6507 Y11.4472
G01 X14.6373 Y11.4699
G01 X14.6307 Y11.4795
G01 X14.6172 Y11.4975
G01 X14.6022 Y11.5143
G01 X14.5941 Y11.5226
G01 X14.5745 Y11.5402
G01 X14.5565 Y11.5537
G01 X14.5469 Y11.5603
G01 X14.5242 Y11.5737
G01 X14.5040 Y11.5835
G01 X14.4933 Y11.5881
G01 X14.4721 Y11.5957
G01 X14.4610 Y11.5989
G01 X14.4391 Y11.6042
G01 X14.4131 Y11.6082
G01 X14.4015 Y11.6092
G01 X14.3790 Y11.6101
G01 X12.0588 Y11.6103
G01 X12.0139 Y11.6081
G01 X11.9732 Y11.6022
G01 X11.9618 Y11.5998
G01 X11.9332 Y11.5926
G01 X11.9184 Y11.5881
G01 X11.8834 Y11.5754
G01 X11.8497 Y11.5597
G01 X11.8360 Y11.5523
G01 X11.8042 Y11.5330
G01 X11.7742 Y11.5110
G01 X11.7622 Y11.5012
G01 X11.7348 Y11.4760
G01 X11.1388 Y10.8800
G01 X11.1085 Y10.8467
G01 X11.0840 Y10.8138
G01 X11.0776 Y10.8040
G01 X11.0586 Y10.7720
G01 X11.0426 Y10.7385
G01 X11.0380 Y10.7278
G01 X11.0254 Y10.6927
G01 X11.0222 Y10.6816
G01 X11.0133 Y10.6454
G01 X11.0077 Y10.6086
G01 X11.0062 Y10.5932
G01 X11.0045 Y10.5560
G01 X11.0045 Y10.2363
G01 X10.4773 Y10.2363
G01 X10.4721 Y10.2538
G01 X10.4639 Y10.2769
G01 X10.4595 Y10.2878
G01 X10.4439 Y10.3204
G01 X10.4255 Y10.3515
G01 X10.4189 Y10.3611
G01 X10.4043 Y10.3808
G01 X10.3944 Y10.3928
G01 X10.3726 Y10.4166
G01 X10.3459 Y10.4410
G01 X10.3368 Y10.4483
G01 X10.3171 Y10.4629
G01 X10.3042 Y10.4715
G01 X10.2764 Y10.4879
G01 X10.2402 Y10.5051
G01 X10.2098 Y10.5161
G01 X10.1950 Y10.5206
G01 X10.1636 Y10.5283
G01 X10.1240 Y10.5342
G01 X10.0840 Y10.5361
G01 X9.1840 Y10.5361
G01 X9.1479 Y10.5345
G01 X9.1363 Y10.5332
G01 X9.1120 Y10.5296
G01 X9.0968 Y10.5266
G01 X9.0655 Y10.5186
G01 X9.0278 Y10.5051
G01 X8.9985 Y10.4914
G01 X8.9849 Y10.4841
G01 X8.9573 Y10.4673
G01 X8.9251 Y10.4435
G01 X8.8954 Y10.4166
G01 X8.8685 Y10.3869
G01 X8.8447 Y10.3547
G01 X8.8279 Y10.3271
G01 X8.8206 Y10.3135
G01 X8.8085 Y10.2878
G01 X8.8041 Y10.2769
G01 X8.7934 Y10.2465
G01 X8.7854 Y10.2152
G01 X8.7830 Y10.2038
G01 X8.7783 Y10.1719
G01 X8.7773 Y10.1603
G01 X8.7761 Y10.1358
G01 X8.7759 Y9.4280
G01 X8.7778 Y9.3880
G01 X8.7837 Y9.3484
G01 X8.7914 Y9.3170
G01 X8.7959 Y9.3022
G01 X8.8069 Y9.2718
G01 X8.8206 Y9.2425
G01 X8.8279 Y9.2289
G01 X8.8447 Y9.2013
G01 X8.8685 Y9.1691
G01 X8.8954 Y9.1394
G01 X8.9251 Y9.1125
G01 X8.9573 Y9.0887
G01 X8.9916 Y9.0681
G01 X9.0278 Y9.0509
G01 X9.0655 Y9.0374
G01 X9.1044 Y9.0277
G01 X9.1401 Y9.0223
G01 X9.1517 Y9.0213
G01 X9.1840 Y9.0199
G01 X10.0918 Y9.0201
G00 Z2.0000
G00 X10.0874 Y9.1093
G01 F40.00
G01 Z-0.0700
G01 F35.00
G01 X10.1152 Y9.1108
G01 X10.1462 Y9.1154
G01 X10.1765 Y9.1230
G01 X10.2060 Y9.1335
G01 X10.2343 Y9.1469
G01 X10.2611 Y9.1630
G01 X10.2862 Y9.1816
G01 X10.3082 Y9.2014
G01 X10.3304 Y9.2258
G01 X10.3490 Y9.2509
G01 X10.3651 Y9.2777
G01 X10.3778 Y9.3045
G01 X10.3890 Y9.3355
G01 X10.3963 Y9.3642
G01 X10.4010 Y9.3951
G01 X10.4019 Y9.4091
G01 X11.0939 Y9.4091
G01 X11.0939 Y9.0828
G01 X11.0959 Y9.0450
G01 X11.1004 Y9.0142
G01 X11.1017 Y9.0075
G01 X11.1098 Y8.9757
G01 X11.1208 Y8.9448
G01 X11.1233 Y8.9385
G01 X11.1375 Y8.9089
G01 X11.1552 Y8.8793
G01 X11.1776 Y8.8488
G01 X11.2019 Y8.8219
G01 X11.9106 Y8.1133
G01 X11.9106 Y7.9192
G01 X11.8798 Y7.9146
G01 X11.8495 Y7.9070
G01 X11.8200 Y7.8965
G01 X11.7948 Y7.8846
G01 X11.7888 Y7.8814
G01 X11.7678 Y7.8688
G01 X11.7622 Y7.8651
G01 X11.7398 Y7.8484
G01 X11.7166 Y7.8274
G01 X11.6956 Y7.8042
G01 X11.6770 Y7.7791
G01 X11.6609 Y7.7523
G01 X11.6489 Y7.7271
G01 X11.6463 Y7.7208
G01 X11.6380 Y7.6977
G01 X11.6361 Y7.6913
G01 X11.6294 Y7.6642
G01 X11.6246 Y7.6316
G01 X11.6233 Y7.6020
G01 X11.6233 Y6.6520
G01 X11.6248 Y6.6208
G01 X11.6297 Y6.5882
G01 X11.6370 Y6.5595
G01 X11.6463 Y6.5332
G01 X11.6489 Y6.5269
G01 X11.6594 Y6.5048
G01 X11.6626 Y6.4988
G01 X11.6770 Y6.4749
G01 X11.6956 Y6.4498
G01 X11.7166 Y6.4266
G01 X11.7372 Y6.4078
G01 X11.7424 Y6.4035
G01 X11.7622 Y6.3889
G01 X11.7678 Y6.3852
G01 X11.7917 Y6.3709
G01 X11.8200 Y6.3575
G01 X11.8463 Y6.3480
G01 X11.8527 Y6.3461
G01 X11.8798 Y6.3394
G01 X11.9106 Y6.3348
G01 X11.9106 Y5.4799
G01 X11.8888 Y5.4766
G01 X11.8585 Y5.4690
G01 X11.8290 Y5.4585
G01 X11.8022 Y5.4459
G01 X11.7768 Y5.4308
G01 X11.7712 Y5.4271
G01 X11.7488 Y5.4104
G01 X11.7256 Y5.3894
G01 X11.7046 Y5.3662
G01 X11.6879 Y5.3438
G01 X11.6842 Y5.3382
G01 X11.6716 Y5.3172
G01 X11.6684 Y5.3112
G01 X11.6565 Y5.2860
G01 X11.6460 Y5.2565
G01 X11.6384 Y5.2262
G01 X11.6340 Y5.1969
G01 X11.6323 Y5.1640
G01 X11.6323 Y4.2640
G01 X11.6338 Y4.2328
G01 X11.6387 Y4.2002
G01 X11.6460 Y4.1715
G01 X11.6553 Y4.1452
G01 X11.6579 Y4.1389
G01 X11.6699 Y4.1137
G01 X11.6842 Y4.0898
G01 X11.6879 Y4.0842
G01 X11.7046 Y4.0618
G01 X11.7256 Y4.0386
G01 X11.7462 Y4.0198
G01 X11.7514 Y4.0155
G01 X11.7739 Y3.9990
G01 X11.8007 Y3.9829
G01 X11.8259 Y3.9709
G01 X11.8322 Y3.9683
G01 X11.8585 Y3.9590
G01 X11.8888 Y3.9514
G01 X11.9198 Y3.9468
G01 X11.9510 Y3.9453
G01 X12.6527 Y3.9453
G01 X12.6789 Y3.9465
G01 X12.6856 Y3.9472
G01 X12.7132 Y3.9514
G01 X12.7403 Y3.9581
G01 X12.7467 Y3.9600
G01 X12.7730 Y3.9695
G01 X12.8013 Y3.9829
G01 X12.8252 Y3.9972
G01 X12.8308 Y4.0009
G01 X12.8532 Y4.0176
G01 X12.8739 Y4.0363
G01 X12.8787 Y4.0411
G01 X12.8974 Y4.0618
G01 X12.9160 Y4.0869
G01 X12.9321 Y4.1137
G01 X12.9441 Y4.1389
G01 X12.9467 Y4.1452
G01 X12.9550 Y4.1683
G01 X12.9569 Y4.1747
G01 X12.9636 Y4.2018
G01 X12.9678 Y4.2294
G01 X12.9685 Y4.2361
G01 X12.9697 Y4.2640
G01 X12.9697 Y5.1640
G01 X12.9684 Y5.1936
G01 X12.9636 Y5.2262
G01 X12.9560 Y5.2565
G01 X12.9455 Y5.2860
G01 X12.9321 Y5.3143
G01 X12.9160 Y5.3411
G01 X12.8974 Y5.3662
G01 X12.8764 Y5.3894
G01 X12.8558 Y5.4082
G01 X12.8506 Y5.4125
G01 X12.8308 Y5.4271
G01 X12.8252 Y5.4308
G01 X12.8013 Y5.4451
G01 X12.7761 Y5.4571
G01 X12.7698 Y5.4597
G01 X12.7435 Y5.4690
G01 X12.7132 Y5.4766
G01 X12.6822 Y5.4812
G01 X12.6484 Y5.4827
G01 X12.6484 Y6.3348
G01 X12.6792 Y6.3394
G01 X12.7063 Y6.3461
G01 X12.7127 Y6.3480
G01 X12.7390 Y6.3575
G01 X12.7673 Y6.3709
G01 X12.7912 Y6.3852
G01 X12.7968 Y6.3889
G01 X12.8166 Y6.4035
G01 X12.8218 Y6.4078
G01 X12.8424 Y6.4266
G01 X12.8634 Y6.4498
G01 X12.8820 Y6.4749
G01 X12.8964 Y6.4988
G01 X12.8996 Y6.5048
G01 X12.9101 Y6.5269
G01 X12.9127 Y6.5332
G01 X12.9220 Y6.5595
G01 X12.9293 Y6.5882
G01 X12.9342 Y6.6208
G01 X12.9357 Y6.6520
G01 X12.9357 Y7.6020
G01 X12.9342 Y7.6332
G01 X12.9302 Y7.6609
G01 X12.9289 Y7.6675
G01 X12.9229 Y7.6913
G01 X12.9210 Y7.6977
G01 X12.9115 Y7.7240
G01 X12.8981 Y7.7523
G01 X12.8820 Y7.7791
G01 X12.8655 Y7.8016
G01 X12.8612 Y7.8068
G01 X12.8447 Y7.8249
G01 X12.8399 Y7.8297
G01 X12.8192 Y7.8484
G01 X12.7941 Y7.8670
G01 X12.7673 Y7.8831
G01 X12.7421 Y7.8951
G01 X12.7358 Y7.8977
G01 X12.7127 Y7.9060
G01 X12.7063 Y7.9079
G01 X12.6792 Y7.9146
G01 X12.6484 Y7.9192
G01 X12.6484 Y8.2661
G01 X12.6464 Y8.3039
G01 X12.6419 Y8.3347
G01 X12.6406 Y8.3414
G01 X12.6325 Y8.3732
G01 X12.6215 Y8.4041
G01 X12.6190 Y8.4104
G01 X12.6048 Y8.4400
G01 X12.5853 Y8.4724
G01 X12.5647 Y8.5001
G01 X12.5404 Y8.5270
G01 X11.8317 Y9.2356
G01 X11.8317 Y10.4032
G01 X12.2116 Y10.7831
G01 X14.3790 Y10.7833
G01 X14.4004 Y10.7843
G01 X14.4217 Y10.7875
G01 X14.4425 Y10.7927
G01 X14.4596 Y10.7987
G01 X14.4658 Y10.8013
G01 X14.4821 Y10.8091
G01 X14.4977 Y10.8183
G01 X14.5033 Y10.8221
G01 X14.5178 Y10.8329
G01 X14.5312 Y10.8450
G01 X14.5360 Y10.8498
G01 X14.5481 Y10.8632
G01 X14.5589 Y10.8777
G01 X14.5627 Y10.8833
G01 X14.5719 Y10.8989
G01 X14.5797 Y10.9152
G01 X14.5823 Y10.9214
G01 X14.5883 Y10.9385
G01 X14.5939 Y10.9610
G01 X14.5967 Y10.9806
G01 X14.5977 Y11.0020
G01 X14.5977 Y11.3020
G01 X14.5969 Y11.3201
G01 X14.5963 Y11.3268
G01 X14.5935 Y11.3447
G01 X14.5883 Y11.3655
G01 X14.5811 Y11.3857
G01 X14.5719 Y11.4051
G01 X14.5627 Y11.4207
G01 X14.5589 Y11.4263
G01 X14.5481 Y11.4408
G01 X14.5360 Y11.4542
G01 X14.5312 Y11.4590
G01 X14.5178 Y11.4711
G01 X14.5033 Y11.4819
G01 X14.4977 Y11.4857
G01 X14.4821 Y11.4949
G01 X14.4658 Y11.5027
G01 X14.4596 Y11.5053
G01 X14.4425 Y11.5113
G01 X14.4250 Y11.5158
G01 X14.4184 Y11.5171
G01 X14.4004 Y11.5197
G01 X14.3807 Y11.5207
G01 X12.0588 Y11.5209
G01 X12.0226 Y11.5191
G01 X11.9868 Y11.5138
G01 X11.9517 Y11.5050
G01 X11.9208 Y11.4940
G01 X11.9145 Y11.4915
G01 X11.8849 Y11.4773
G01 X11.8539 Y11.4587
G01 X11.8248 Y11.4372
G01 X11.7992 Y11.4140
G01 X11.2019 Y10.8169
G01 X11.1776 Y10.7900
G01 X11.1580 Y10.7637
G01 X11.1543 Y10.7581
G01 X11.1375 Y10.7299
G01 X11.1274 Y10.7088
G01 X11.1214 Y10.6956
G01 X11.1108 Y10.6663
G01 X11.1089 Y10.6598
G01 X11.1010 Y10.6280
G01 X11.0957 Y10.5922
G01 X11.0939 Y10.5560
G01 X11.0939 Y10.1469
G01 X10.4019 Y10.1469
G01 X10.4010 Y10.1609
G01 X10.3963 Y10.1918
G01 X10.3890 Y10.2205
G01 X10.3778 Y10.2515
G01 X10.3651 Y10.2783
G01 X10.3490 Y10.3051
G01 X10.3304 Y10.3302
G01 X10.3106 Y10.3522
G01 X10.2862 Y10.3744
G01 X10.2638 Y10.3911
G01 X10.2582 Y10.3948
G01 X10.2372 Y10.4074
G01 X10.2312 Y10.4106
G01 X10.2060 Y10.4225
G01 X10.1765 Y10.4330
G01 X10.1462 Y10.4406
G01 X10.1152 Y10.4452
G01 X10.0840 Y10.4467
G01 X9.1840 Y10.4467
G01 X9.1544 Y10.4454
G01 X9.1251 Y10.4412
G01 X9.1185 Y10.4399
G01 X9.0915 Y10.4330
G01 X9.0620 Y10.4225
G01 X9.0337 Y10.4091
G01 X9.0098 Y10.3948
G01 X9.0042 Y10.3911
G01 X8.9805 Y10.3733
G01 X8.9586 Y10.3534
G01 X8.9398 Y10.3328
G01 X8.9355 Y10.3276
G01 X8.9209 Y10.3078
G01 X8.9172 Y10.3022
G01 X8.9029 Y10.2783
G01 X8.8909 Y10.2531
G01 X8.8883 Y10.2468
G01 X8.8790 Y10.2205
G01 X8.8714 Y10.1902
G01 X8.8668 Y10.1592
G01 X8.8653 Y10.1297
G01 X8.8653 Y9.4280
G01 X8.8666 Y9.3984
G01 X8.8708 Y9.3691
G01 X8.8721 Y9.3625
G01 X8.8790 Y9.3355
G01 X8.8895 Y9.3060
G01 X8.9029 Y9.2777
G01 X8.9172 Y9.2538
G01 X8.9209 Y9.2482
G01 X8.9387 Y9.2245
G01 X8.9586 Y9.2026
G01 X8.9818 Y9.1816
G01 X9.0069 Y9.1630
G01 X9.0337 Y9.1469
G01 X9.0620 Y9.1335
G01 X9.0915 Y9.1230
G01 X9.1218 Y9.1154
G01 X9.1528 Y9.1108
G01 X9.1840 Y9.1093
G01 X10.0874 Y9.1093
G00 Z2.0000
G00 X6.5463 Y10.6158
G01 F40.00
G01 Z-0.0700
G01 F35.00
G01 X6.5113 Y10.6073
G01 X6.4996 Y10.6041
G01 X6.4649 Y10.5920
G01 X6.4480 Y10.5852
G01 X6.4095 Y10.5668
G01 X6.3727 Y10.5450
G01 X6.3577 Y10.5347
G01 X6.3284 Y10.5126
G01 X6.3010 Y10.4882
G01 X6.2922 Y10.4798
G01 X6.2633 Y10.4483
G01 X6.2520 Y10.4340
G01 X6.2303 Y10.4044
G01 X6.2238 Y10.3941
G01 X6.2052 Y10.3625
G01 X6.1868 Y10.3240
G01 X6.1800 Y10.3071
G01 X6.1679 Y10.2724
G01 X6.1573 Y10.2310
G01 X6.1540 Y10.2131
G01 X6.1489 Y10.1768
G01 X6.1468 Y10.1401
G01 X6.1465 Y10.1280
G01 X6.1465 Y9.4280
G01 X6.1484 Y9.3853
G01 X6.1504 Y9.3672
G01 X6.1561 Y9.3309
G01 X6.1662 Y9.2894
G01 X6.1717 Y9.2720
G01 X6.1844 Y9.2376
G01 X6.1998 Y9.2043
G01 X6.2082 Y9.1882
G01 X6.2303 Y9.1516
G01 X6.2373 Y9.1417
G01 X6.2594 Y9.1124
G01 X6.2838 Y9.0850
G01 X6.2966 Y9.0720
G01 X6.3192 Y9.0514
G01 X6.3331 Y9.0396
G01 X6.3626 Y9.0178
G01 X6.3779 Y9.0078
G01 X6.4042 Y8.9922
G01 X6.4149 Y8.9864
G01 X6.4480 Y8.9708
G01 X6.4649 Y8.9640
G01 X6.4996 Y8.9519
G01 X6.5351 Y8.9427
G01 X6.5529 Y8.9389
G01 X6.5832 Y8.9344
G01 X6.6013 Y8.9324
G01 X6.6440 Y8.9305
G01 X7.5440 Y8.9305
G01 X7.5806 Y8.9320
G01 X7.5988 Y8.9336
G01 X7.6351 Y8.9389
G01 X7.6529 Y8.9427
G01 X7.6884 Y8.9519
G01 X7.7231 Y8.9640
G01 X7.7400 Y8.9708
G01 X7.7785 Y8.9892
G01 X7.8153 Y9.0110
G01 X7.8303 Y9.0213
G01 X7.8596 Y9.0434
G01 X7.8870 Y9.0678
G01 X7.9000 Y9.0806
G01 X7.9286 Y9.1124
G01 X7.9507 Y9.1417
G01 X7.9610 Y9.1567
G01 X7.9828 Y9.1935
G01 X7.9987 Y9.2265
G01 X8.0059 Y9.2433
G01 X8.0182 Y9.2778
G01 X8.0218 Y9.2894
G01 X8.0293 Y9.3191
G01 X8.0319 Y9.3309
G01 X8.0340 Y9.3429
G01 X8.0391 Y9.3792
G01 X8.0414 Y9.4219
G01 X8.0415 Y10.1280
G01 X8.0412 Y10.1401
G01 X8.0391 Y10.1768
G01 X8.0331 Y10.2191
G01 X8.0307 Y10.2310
G01 X8.0233 Y10.2607
G01 X8.0201 Y10.2724
G01 X8.0163 Y10.2840
G01 X8.0036 Y10.3184
G01 X7.9987 Y10.3295
G01 X7.9828 Y10.3625
G01 X7.9642 Y10.3941
G01 X7.9577 Y10.4044
G01 X7.9507 Y10.4143
G01 X7.9286 Y10.4436
G01 X7.9042 Y10.4710
G01 X7.8958 Y10.4798
G01 X7.8643 Y10.5087
G01 X7.8549 Y10.5164
G01 X7.8303 Y10.5347
G01 X7.8204 Y10.5417
G01 X7.8101 Y10.5482
G01 X7.7785 Y10.5668
G01 X7.7455 Y10.5827
G01 X7.7344 Y10.5876
G01 X7.7231 Y10.5920
G01 X7.6884 Y10.6041
G01 X7.6767 Y10.6073
G01 X7.6416 Y10.6158
G01 X7.6417 Y10.9966
G01 X7.6601 Y10.9994
G01 X7.6720 Y11.0018
G01 X7.7076 Y11.0107
G01 X7.7192 Y11.0143
G01 X7.7481 Y11.0245
G01 X7.7650 Y11.0313
G01 X7.7981 Y11.0469
G01 X7.8141 Y11.0557
G01 X7.8454 Y11.0748
G01 X7.8799 Y11.1001
G01 X7.8938 Y11.1119
G01 X7.9208 Y11.1367
G01 X7.9497 Y11.1682
G01 X7.9610 Y11.1825
G01 X7.9827 Y11.2121
G01 X8.0018 Y11.2434
G01 X8.0106 Y11.2594
G01 X8.0270 Y11.2944
G01 X8.8545 Y11.2943
G01 X8.8722 Y11.2575
G01 X8.8908 Y11.2259
G01 X8.9008 Y11.2106
G01 X8.9264 Y11.1764
G01 X8.9550 Y11.1446
G01 X8.9680 Y11.1318
G01 X8.9954 Y11.1074
G01 X9.0247 Y11.0853
G01 X9.0397 Y11.0750
G01 X9.0765 Y11.0532
G01 X9.1095 Y11.0373
G01 X9.1263 Y11.0301
G01 X9.1608 Y11.0178
G01 X9.1783 Y11.0127
G01 X9.2139 Y11.0041
G01 X9.2562 Y10.9976
G01 X9.2744 Y10.9960
G01 X9.3110 Y10.9945
G01 X10.2110 Y10.9945
G01 X10.2231 Y10.9948
G01 X10.2598 Y10.9969
G01 X10.2718 Y10.9984
G01 X10.3081 Y11.0041
G01 X10.3437 Y11.0127
G01 X10.3612 Y11.0178
G01 X10.3957 Y11.0301
G01 X10.4125 Y11.0373
G01 X10.4455 Y11.0532
G01 X10.4771 Y11.0718
G01 X10.4924 Y11.0818
G01 X10.5266 Y11.1074
G01 X10.5540 Y11.1318
G01 X10.5670 Y11.1446
G01 X10.5917 Y11.1717
G01 X10.6030 Y11.1860
G01 X10.6247 Y11.2156
G01 X10.6438 Y11.2469
G01 X10.6526 Y11.2629
G01 X10.6675 Y11.2944
G01 X10.9515 Y11.2944
G01 X10.9991 Y11.2970
G01 X11.0403 Y11.3028
G01 X11.0582 Y11.3061
G01 X11.0985 Y11.3162
G01 X11.1159 Y11.3217
G01 X11.1493 Y11.3338
G01 X11.1661 Y11.3410
G01 X11.1982 Y11.3562
G01 X11.2089 Y11.3619
G01 X11.2394 Y11.3801
G01 X11.2547 Y11.3901
G01 X11.2881 Y11.4149
G01 X11.3020 Y11.4266
G01 X11.3283 Y11.4505
G01 X11.7522 Y11.8744
G01 X14.3790 Y11.8745
G01 X14.3911 Y11.8748
G01 X14.4180 Y11.8764
G01 X14.4446 Y11.8801
G01 X14.4565 Y11.8821
G01 X14.4684 Y11.8848
G01 X14.4944 Y11.8916
G01 X14.5255 Y11.9025
G01 X14.5422 Y11.9097
G01 X14.5664 Y11.9214
G01 X14.5896 Y11.9350
G01 X14.5998 Y11.9415
G01 X14.6098 Y11.9485
G01 X14.6312 Y11.9647
G01 X14.6513 Y11.9825
G01 X14.6643 Y11.9953
G01 X14.6824 Y12.0152
G01 X14.6901 Y12.0246
G01 X14.7061 Y12.0462
G01 X14.7160 Y12.0614
G01 X14.7296 Y12.0846
G01 X14.7413 Y12.1088
G01 X14.7485 Y12.1255
G01 X14.7575 Y12.1508
G01 X14.7626 Y12.1683
G01 X14.7676 Y12.1885
G01 X14.7700 Y12.2004
G01 X14.7746 Y12.2330
G01 X14.7764 Y12.2659
G01 X14.7764 Y12.5781
G01 X14.7751 Y12.6049
G01 X14.7739 Y12.6170
G01 X14.7700 Y12.6436
G01 X14.7662 Y12.6614
G01 X14.7611 Y12.6816
G01 X14.7575 Y12.6932
G01 X14.7462 Y12.7241
G01 X14.7324 Y12.7540
G01 X14.7266 Y12.7647
G01 X14.7160 Y12.7826
G01 X14.7095 Y12.7928
G01 X14.7025 Y12.8028
G01 X14.6901 Y12.8194
G01 X14.6824 Y12.8288
G01 X14.6601 Y12.8531
G01 X14.6358 Y12.8754
G01 X14.6264 Y12.8831
G01 X14.6098 Y12.8955
G01 X14.5998 Y12.9025
G01 X14.5896 Y12.9090
G01 X14.5717 Y12.9196
G01 X14.5610 Y12.9254
G01 X14.5311 Y12.9392
G01 X14.5002 Y12.9505
G01 X14.4827 Y12.9556
G01 X14.4625 Y12.9606
G01 X14.4506 Y12.9630
G01 X14.4180 Y12.9676
G01 X14.3911 Y12.9692
G01 X14.3790 Y12.9695
G01 X11.5254 Y12.9696
G01 X11.4778 Y12.9675
G01 X11.4597 Y12.9655
G01 X11.4186 Y12.9591
G01 X11.4067 Y12.9565
G01 X11.3664 Y12.9461
G01 X11.3549 Y12.9423
G01 X11.3158 Y12.9280
G01 X11.2781 Y12.9104
G01 X11.2672 Y12.9050
G01 X11.2567 Y12.8990
G01 X11.2262 Y12.8807
G01 X11.2161 Y12.8739
G01 X11.1780 Y12.8453
G01 X11.1425 Y12.8135
G01 X10.7186 Y12.3896
G01 X10.6675 Y12.3897
G01 X10.6498 Y12.4265
G01 X10.6280 Y12.4633
G01 X10.6177 Y12.4783
G01 X10.5994 Y12.5029
G01 X10.5917 Y12.5123
G01 X10.5628 Y12.5438
G01 X10.5358 Y12.5686
G01 X10.5266 Y12.5766
G01 X10.5170 Y12.5840
G01 X10.4924 Y12.6022
G01 X10.4823 Y12.6090
G01 X10.4508 Y12.6278
G01 X10.4347 Y12.6362
G01 X10.4014 Y12.6516
G01 X10.3670 Y12.6643
G01 X10.3496 Y12.6698
G01 X10.3081 Y12.6799
G01 X10.2718 Y12.6856
G01 X10.2537 Y12.6876
G01 X10.2110 Y12.6895
G01 X9.3110 Y12.6895
G01 X9.2989 Y12.6892
G01 X9.2622 Y12.6871
G01 X9.2259 Y12.6820
G01 X9.2080 Y12.6787
G01 X9.1724 Y12.6698
G01 X9.1550 Y12.6643
G01 X9.1206 Y12.6516
G01 X9.0873 Y12.6362
G01 X9.0712 Y12.6278
G01 X9.0397 Y12.6090
G01 X9.0247 Y12.5987
G01 X8.9954 Y12.5766
G01 X8.9680 Y12.5522
G01 X8.9550 Y12.5394
G01 X8.9303 Y12.5123
G01 X8.9190 Y12.4980
G01 X8.8973 Y12.4684
G01 X8.8782 Y12.4371
G01 X8.8694 Y12.4211
G01 X8.8545 Y12.3896
G01 X8.0120 Y12.3897
G01 X8.0018 Y12.4086
G01 X7.9827 Y12.4399
G01 X7.9574 Y12.4744
G01 X7.9456 Y12.4883
G01 X7.9208 Y12.5153
G01 X7.8938 Y12.5401
G01 X7.8799 Y12.5519
G01 X7.8454 Y12.5772
G01 X7.8141 Y12.5963
G01 X7.7981 Y12.6051
G01 X7.7650 Y12.6207
G01 X7.7481 Y12.6275
G01 X7.7134 Y12.6396
G01 X7.6779 Y12.6488
G01 X7.6601 Y12.6526
G01 X7.6178 Y12.6586
G01 X7.5811 Y12.6607
G01 X7.5690 Y12.6610
G01 X6.6190 Y12.6610
G01 X6.5824 Y12.6595
G01 X6.5642 Y12.6579
G01 X6.5279 Y12.6526
G01 X6.5101 Y12.6488
G01 X6.4746 Y12.6396
G01 X6.4399 Y12.6275
G01 X6.4230 Y12.6207
G01 X6.3845 Y12.6023
G01 X6.3477 Y12.5805
G01 X6.3327 Y12.5702
G01 X6.3034 Y12.5481
G01 X6.2760 Y12.5237
G01 X6.2630 Y12.5109
G01 X6.2344 Y12.4791
G01 X6.2123 Y12.4498
G01 X6.2020 Y12.4348
G01 X6.1802 Y12.3980
G01 X6.1643 Y12.3650
G01 X6.1571 Y12.3482
G01 X6.1448 Y12.3137
G01 X6.1412 Y12.3021
G01 X6.1337 Y12.2724
G01 X6.1311 Y12.2606
G01 X6.1290 Y12.2486
G01 X6.1239 Y12.2123
G01 X6.1216 Y12.1696
G01 X6.1216 Y11.4824
G01 X6.1239 Y11.4397
G01 X6.1254 Y11.4277
G01 X6.1311 Y11.3914
G01 X6.1397 Y11.3558
G01 X6.1429 Y11.3441
G01 X6.1550 Y11.3094
G01 X6.1594 Y11.2981
G01 X6.1643 Y11.2870
G01 X6.1774 Y11.2594
G01 X6.1862 Y11.2434
G01 X6.2020 Y11.2172
G01 X6.2088 Y11.2071
G01 X6.2270 Y11.1825
G01 X6.2383 Y11.1682
G01 X6.2672 Y11.1367
G01 X6.2760 Y11.1283
G01 X6.3034 Y11.1039
G01 X6.3327 Y11.0818
G01 X6.3426 Y11.0748
G01 X6.3792 Y11.0527
G01 X6.3953 Y11.0443
G01 X6.4286 Y11.0289
G01 X6.4688 Y11.0143
G01 X6.4863 Y11.0092
G01 X6.5160 Y11.0018
G01 X6.5279 Y10.9994
G01 X6.5464 Y10.9966
G01 X6.5463 Y10.6158
G00 Z2.0000
G00 X6.6156 Y12.4822
G01 F40.00
G01 Z-0.0700
G01 F35.00
G01 X6.5878 Y12.4807
G01 X6.5601 Y12.4767
G01 X6.5535 Y12.4754
G01 X6.5297 Y12.4694
G01 X6.5233 Y12.4675
G01 X6.4970 Y12.4580
G01 X6.4687 Y12.4446
G01 X6.4419 Y12.4285
G01 X6.4194 Y12.4120
G01 X6.4142 Y12.4077
G01 X6.3961 Y12.3912
G01 X6.3913 Y12.3864
G01 X6.3726 Y12.3657
G01 X6.3540 Y12.3406
G01 X6.3396 Y12.3167
G01 X6.3364 Y12.3107
G01 X6.3245 Y12.2855
G01 X6.3145 Y12.2576
G01 X6.3071 Y12.2290
G01 X6.3058 Y12.2224
G01 X6.3018 Y12.1947
G01 X6.3003 Y12.1652
G01 X6.3003 Y11.4885
G01 X6.3018 Y11.4573
G01 X6.3058 Y11.4296
G01 X6.3071 Y11.4230
G01 X6.3131 Y11.3992
G01 X6.3150 Y11.3928
G01 X6.3245 Y11.3665
G01 X6.3364 Y11.3413
G01 X6.3396 Y11.3353
G01 X6.3540 Y11.3114
G01 X6.3726 Y11.2863
G01 X6.3936 Y11.2631
G01 X6.4142 Y11.2443
G01 X6.4194 Y11.2400
G01 X6.4392 Y11.2254
G01 X6.4448 Y11.2217
G01 X6.4687 Y11.2074
G01 X6.4939 Y11.1954
G01 X6.5002 Y11.1928
G01 X6.5265 Y11.1835
G01 X6.5552 Y11.1762
G01 X6.5878 Y11.1713
G01 X6.6156 Y11.1698
G01 X6.7251 Y11.1698
G01 X6.7251 Y10.4467
G01 X6.6423 Y10.4467
G01 X6.6144 Y10.4454
G01 X6.5818 Y10.4406
G01 X6.5547 Y10.4339
G01 X6.5483 Y10.4320
G01 X6.5220 Y10.4225
G01 X6.4937 Y10.4091
G01 X6.4669 Y10.3930
G01 X6.4431 Y10.3755
G01 X6.4186 Y10.3534
G01 X6.3976 Y10.3302
G01 X6.3790 Y10.3051
G01 X6.3646 Y10.2812
G01 X6.3614 Y10.2752
G01 X6.3509 Y10.2531
G01 X6.3483 Y10.2468
G01 X6.3390 Y10.2205
G01 X6.3321 Y10.1935
G01 X6.3308 Y10.1869
G01 X6.3268 Y10.1592
G01 X6.3253 Y10.1314
G01 X6.3253 Y9.4263
G01 X6.3268 Y9.3968
G01 X6.3308 Y9.3691
G01 X6.3321 Y9.3625
G01 X6.3390 Y9.3355
G01 X6.3483 Y9.3092
G01 X6.3509 Y9.3029
G01 X6.3629 Y9.2777
G01 X6.3790 Y9.2509
G01 X6.3976 Y9.2258
G01 X6.4163 Y9.2051
G01 X6.4211 Y9.2003
G01 X6.4392 Y9.1838
G01 X6.4444 Y9.1795
G01 X6.4669 Y9.1630
G01 X6.4937 Y9.1469
G01 X6.5220 Y9.1335
G01 X6.5483 Y9.1240
G01 X6.5547 Y9.1221
G01 X6.5785 Y9.1161
G01 X6.5851 Y9.1148
G01 X6.6128 Y9.1108
G01 X6.6423 Y9.1093
G01 X7.5440 Y9.1093
G01 X7.5719 Y9.1105
G01 X7.5786 Y9.1112
G01 X7.6062 Y9.1154
G01 X7.6333 Y9.1221
G01 X7.6397 Y9.1240
G01 X7.6628 Y9.1323
G01 X7.6691 Y9.1349
G01 X7.6943 Y9.1469
G01 X7.7211 Y9.1630
G01 X7.7436 Y9.1795
G01 X7.7488 Y9.1838
G01 X7.7694 Y9.2026
G01 X7.7882 Y9.2232
G01 X7.7925 Y9.2284
G01 X7.8090 Y9.2509
G01 X7.8251 Y9.2777
G01 X7.8385 Y9.3060
G01 X7.8480 Y9.3323
G01 X7.8499 Y9.3387
G01 X7.8566 Y9.3658
G01 X7.8608 Y9.3934
G01 X7.8615 Y9.4001
G01 X7.8627 Y9.4263
G01 X7.8627 Y10.1280
G01 X7.8612 Y10.1592
G01 X7.8566 Y10.1902
G01 X7.8490 Y10.2205
G01 X7.8385 Y10.2500
G01 X7.8251 Y10.2783
G01 X7.8090 Y10.3051
G01 X7.7904 Y10.3302
G01 X7.7694 Y10.3534
G01 X7.7462 Y10.3744
G01 X7.7211 Y10.3930
G01 X7.6943 Y10.4091
G01 X7.6660 Y10.4225
G01 X7.6365 Y10.4330
G01 X7.6062 Y10.4406
G01 X7.5752 Y10.4452
G01 X7.5474 Y10.4467
G01 X7.4629 Y10.4467
G01 X7.4629 Y11.1698
G01 X7.5707 Y11.1698
G01 X7.6002 Y11.1713
G01 X7.6312 Y11.1759
G01 X7.6615 Y11.1835
G01 X7.6910 Y11.1940
G01 X7.7193 Y11.2074
G01 X7.7475 Y11.2244
G01 X7.7686 Y11.2400
G01 X7.7738 Y11.2443
G01 X7.7944 Y11.2631
G01 X7.8132 Y11.2837
G01 X7.8175 Y11.2889
G01 X7.8340 Y11.3114
G01 X7.8493 Y11.3368
G01 X7.8635 Y11.3665
G01 X7.8745 Y11.3976
G01 X7.8819 Y11.4280
G01 X7.8860 Y11.4556
G01 X7.8871 Y11.4731
G01 X8.9931 Y11.4731
G01 X8.9940 Y11.4591
G01 X8.9987 Y11.4282
G01 X9.0060 Y11.3995
G01 X9.0159 Y11.3716
G01 X9.0284 Y11.3448
G01 X9.0316 Y11.3388
G01 X9.0460 Y11.3149
G01 X9.0657 Y11.2885
G01 X9.0856 Y11.2666
G01 X9.1062 Y11.2478
G01 X9.1114 Y11.2435
G01 X9.1312 Y11.2289
G01 X9.1368 Y11.2252
G01 X9.1607 Y11.2109
G01 X9.1890 Y11.1975
G01 X9.2185 Y11.1870
G01 X9.2455 Y11.1801
G01 X9.2521 Y11.1788
G01 X9.2798 Y11.1748
G01 X9.3110 Y11.1733
G01 X10.2110 Y11.1733
G01 X10.2439 Y11.1750
G01 X10.2732 Y11.1794
G01 X10.3035 Y11.1870
G01 X10.3330 Y11.1975
G01 X10.3582 Y11.2094
G01 X10.3642 Y11.2126
G01 X10.3852 Y11.2252
G01 X10.3908 Y11.2289
G01 X10.4132 Y11.2456
G01 X10.4376 Y11.2678
G01 X10.4574 Y11.2898
G01 X10.4760 Y11.3149
G01 X10.4921 Y11.3417
G01 X10.5048 Y11.3685
G01 X10.5160 Y11.3995
G01 X10.5233 Y11.4282
G01 X10.5280 Y11.4591
G01 X10.5289 Y11.4731
G01 X10.9454 Y11.4731
