(G-CODE GENERATED BY FLATCAM v8.994 - www.flatcam.org - Version Date: 2020/11/7)

(Name: ADCandDAC-F_Cu.gbr_ncc_cnc)
(Type: G-code from Geometry)
(Units: MM)

(Created on Серада, 25 лістапада 2020 at 12:00)

(This preprocessor is the default preprocessor used by FlatCAM.)
(It is made to work with MACH3 compatible motion controllers.)

(TOOL DIAMETER: 0.1268 mm)
(Feedrate_XY: 35.0 mm/min)
(Feedrate_Z: 40.0 mm/min)
(Feedrate rapids 1000.0 mm/min)

(Z_Cut: -0.0 mm)
(Z_Move: 2.0 mm)
(Z Start: None mm)
(Z End: 15.0 mm)
(X,Y End: None mm)
(Steps per circle: 64)
(Preprocessor Geometry: default)

(X range:    4.3286 ...   57.1542  mm)
(Y range:    3.5869 ...   29.3234  mm)

(Spindle Speed: 10000.0 RPM)
G21
G90
G94

G01 F35.00

M5
G00 Z15.0000
G00 X0.0000 Y0.0000
T4
M6    
(MSG, Change to Tool Dia = 0.1268)
M0
G00 Z15.0000

M03 S10000.0
G01 F35.00
G00 X4.3286 Y5.0651
G01 F40.00
G01 Z-0.0500
G01 F35.00
G01 X4.3286 Y28.0611
G01 X5.5909 Y29.3234
G01 X15.5911 Y29.3234
G01 X15.5785 Y29.3095
G01 X15.5569 Y29.2831
G01 X15.5405 Y29.2608
G01 X15.5233 Y29.2350
G01 X15.5151 Y29.2216
G01 X14.4534 Y29.2216
G01 X14.4356 Y29.2211
G01 X14.4046 Y29.2196
G01 X14.3707 Y29.2162
G01 X14.3400 Y29.2116
G01 X14.3096 Y29.2056
G01 X14.2765 Y29.1973
G01 X14.2453 Y29.1879
G01 X14.2147 Y29.1769
G01 X14.1832 Y29.1638
G01 X14.1551 Y29.1505
G01 X14.1278 Y29.1359
G01 X14.0985 Y29.1184
G01 X14.0714 Y29.1004
G01 X14.0453 Y29.0810
G01 X14.0201 Y29.0603
G01 X13.9971 Y29.0395
G01 X13.9842 Y29.0272
G01 X13.3558 Y28.3988
G01 X13.3435 Y28.3859
G01 X13.3227 Y28.3629
G01 X13.3030 Y28.3389
G01 X13.2826 Y28.3116
G01 X13.2654 Y28.2858
G01 X13.2471 Y28.2552
G01 X13.2325 Y28.2279
G01 X13.2185 Y28.1984
G01 X13.2061 Y28.1683
G01 X13.1951 Y28.1377
G01 X13.1857 Y28.1065
G01 X13.1781 Y28.0765
G01 X13.1712 Y28.0415
G01 X13.1666 Y28.0108
G01 X13.1634 Y27.9784
G01 X13.1618 Y27.9459
G01 X13.1614 Y27.9159
G01 X13.1480 Y27.9077
G01 X13.1222 Y27.8905
G01 X13.0975 Y27.8722
G01 X13.0735 Y27.8525
G01 X13.0542 Y27.8350
G01 X13.0290 Y27.8098
G01 X13.0115 Y27.7905
G01 X12.9918 Y27.7665
G01 X12.9743 Y27.7431
G01 X12.9563 Y27.7160
G01 X12.9428 Y27.6937
G01 X12.9260 Y27.6622
G01 X12.9149 Y27.6386
G01 X12.9024 Y27.6086
G01 X12.8931 Y27.5825
G01 X12.8837 Y27.5514
G01 X12.8769 Y27.5246
G01 X12.8706 Y27.4926
G01 X12.8665 Y27.4653
G01 X12.8632 Y27.4313
G01 X12.8620 Y27.4068
G01 X12.8616 Y27.3890
G01 X12.8616 Y26.4890
G01 X12.8631 Y26.4491
G01 X12.8660 Y26.4172
G01 X12.8696 Y26.3914
G01 X12.8752 Y26.3613
G01 X12.8815 Y26.3345
G01 X12.8895 Y26.3065
G01 X12.8973 Y26.2832
G01 X12.9083 Y26.2546
G01 X12.9194 Y26.2294
G01 X12.9330 Y26.2020
G01 X12.9457 Y26.1793
G01 X12.9626 Y26.1520
G01 X12.9774 Y26.1306
G01 X12.9950 Y26.1073
G01 X13.0107 Y26.0884
G01 X13.0323 Y26.0647
G01 X13.0507 Y26.0463
G01 X13.0733 Y26.0256
G01 X13.0922 Y26.0099
G01 X13.0994 Y26.0043
G01 X13.0994 Y24.5544
G01 X12.9380 Y24.5544
G01 X12.9217 Y24.5540
G01 X12.9024 Y24.5530
G01 X12.8715 Y24.5500
G01 X12.8539 Y24.5473
G01 X12.8220 Y24.5410
G01 X12.8062 Y24.5371
G01 X12.7720 Y24.5267
G01 X12.7567 Y24.5212
G01 X12.7266 Y24.5087
G01 X12.7105 Y24.5011
G01 X12.6832 Y24.4865
G01 X12.6665 Y24.4766
G01 X12.6394 Y24.4585
G01 X12.6251 Y24.4479
G01 X12.6000 Y24.4272
G01 X12.5867 Y24.4153
G01 X12.5637 Y24.3923
G01 X12.5518 Y24.3790
G01 X12.5321 Y24.3551
G01 X12.5205 Y24.3396
G01 X12.5024 Y24.3125
G01 X12.4932 Y24.2972
G01 X12.4786 Y24.2699
G01 X12.4703 Y24.2524
G01 X12.4584 Y24.2237
G01 X12.4513 Y24.2040
G01 X12.4423 Y24.1743
G01 X12.4384 Y24.1586
G01 X12.4317 Y24.1251
G01 X12.4290 Y24.1075
G01 X12.4259 Y24.0751
G01 X12.4246 Y24.0426
G01 X12.4246 Y23.7410
G01 X12.4250 Y23.7242
G01 X12.4258 Y23.7075
G01 X12.4285 Y23.6784
G01 X12.4306 Y23.6632
G01 X12.4365 Y23.6317
G01 X12.4407 Y23.6139
G01 X12.4487 Y23.5859
G01 X12.4536 Y23.5713
G01 X12.4646 Y23.5427
G01 X12.4719 Y23.5260
G01 X12.4849 Y23.4999
G01 X12.4937 Y23.4839
G01 X12.5098 Y23.4579
G01 X12.5193 Y23.4440
G01 X12.5378 Y23.4196
G01 X12.5485 Y23.4067
G01 X12.5702 Y23.3830
G01 X12.5810 Y23.3722
G01 X12.6026 Y23.3525
G01 X12.6154 Y23.3417
G01 X12.6410 Y23.3223
G01 X12.6549 Y23.3128
G01 X12.6809 Y23.2967
G01 X12.6956 Y23.2886
G01 X12.7036 Y23.2846
G01 X11.3567 Y23.2846
G01 X11.2755 Y23.3657
G01 X11.2626 Y23.3780
G01 X11.2396 Y23.3988
G01 X11.2156 Y23.4185
G01 X11.1870 Y23.4397
G01 X11.1612 Y23.4569
G01 X11.1333 Y23.4737
G01 X11.1046 Y23.4890
G01 X11.0765 Y23.5023
G01 X11.0436 Y23.5160
G01 X11.0144 Y23.5264
G01 X10.9832 Y23.5358
G01 X10.9501 Y23.5441
G01 X10.9197 Y23.5501
G01 X10.8890 Y23.5547
G01 X10.8551 Y23.5581
G01 X10.8241 Y23.5596
G01 X10.8079 Y23.5600
G01 X9.8664 Y23.5601
G01 X9.8477 Y23.5881
G01 X9.8302 Y23.6115
G01 X9.8105 Y23.6355
G01 X9.7930 Y23.6548
G01 X9.7690 Y23.6790
G01 X9.7485 Y23.6975
G01 X9.7221 Y23.7191
G01 X9.7011 Y23.7347
G01 X9.6753 Y23.7519
G01 X9.6503 Y23.7670
G01 X9.6202 Y23.7830
G01 X9.5966 Y23.7941
G01 X9.5680 Y23.8060
G01 X9.5405 Y23.8159
G01 X9.5094 Y23.8253
G01 X9.4826 Y23.8321
G01 X9.4491 Y23.8387
G01 X9.4233 Y23.8425
G01 X9.3924 Y23.8455
G01 X9.3648 Y23.8470
G01 X9.3470 Y23.8474
G01 X8.3970 Y23.8474
G01 X8.3792 Y23.8470
G01 X8.3516 Y23.8455
G01 X8.3207 Y23.8425
G01 X8.2918 Y23.8381
G01 X8.2614 Y23.8321
G01 X8.2346 Y23.8253
G01 X8.2035 Y23.8159
G01 X8.1760 Y23.8060
G01 X8.1474 Y23.7941
G01 X8.1210 Y23.7816
G01 X8.0937 Y23.7670
G01 X8.0713 Y23.7536
G01 X8.0442 Y23.7355
G01 X8.0207 Y23.7182
G01 X7.9955 Y23.6975
G01 X7.9750 Y23.6790
G01 X7.9520 Y23.6560
G01 X7.9335 Y23.6355
G01 X7.9128 Y23.6103
G01 X7.8963 Y23.5881
G01 X7.8776 Y23.5601
G01 X6.7651 Y23.5601
G01 X6.7582 Y23.5693
G01 X6.7385 Y23.5933
G01 X6.7200 Y23.6138
G01 X6.6960 Y23.6380
G01 X6.6766 Y23.6555
G01 X6.6503 Y23.6772
G01 X6.6281 Y23.6937
G01 X6.6010 Y23.7117
G01 X6.5787 Y23.7252
G01 X6.5486 Y23.7413
G01 X6.5236 Y23.7531
G01 X6.4936 Y23.7656
G01 X6.4675 Y23.7749
G01 X6.4364 Y23.7843
G01 X6.4096 Y23.7911
G01 X6.3776 Y23.7974
G01 X6.3606 Y23.8000
G01 X6.3606 Y24.5222
G01 X6.3680 Y24.5250
G01 X6.3966 Y24.5369
G01 X6.4230 Y24.5494
G01 X6.4503 Y24.5640
G01 X6.4727 Y24.5774
G01 X6.5024 Y24.5972
G01 X6.5233 Y24.6128
G01 X6.5473 Y24.6325
G01 X6.5690 Y24.6520
G01 X6.5920 Y24.6750
G01 X6.6095 Y24.6944
G01 X6.6312 Y24.7207
G01 X6.6485 Y24.7442
G01 X6.6657 Y24.7700
G01 X6.6792 Y24.7923
G01 X6.6953 Y24.8224
G01 X6.7077 Y24.8488
G01 X6.7196 Y24.8774
G01 X6.7284 Y24.9020
G01 X6.7383 Y24.9346
G01 X6.7454 Y24.9630
G01 X6.7514 Y24.9934
G01 X6.7555 Y25.0207
G01 X6.7587 Y25.0531
G01 X6.7600 Y25.0792
G01 X6.7604 Y25.0970
G01 X6.7604 Y25.7970
G01 X6.7589 Y25.8383
G01 X6.7562 Y25.8674
G01 X6.7522 Y25.8960
G01 X6.7468 Y25.9247
G01 X6.7412 Y25.9486
G01 X6.7325 Y25.9795
G01 X6.7237 Y26.0056
G01 X6.7131 Y26.0327
G01 X6.7032 Y26.0552
G01 X6.6890 Y26.0840
G01 X6.6763 Y26.1067
G01 X6.6610 Y26.1315
G01 X6.6455 Y26.1542
G01 X6.6270 Y26.1787
G01 X6.6094 Y26.1998
G01 X6.5897 Y26.2213
G01 X6.5724 Y26.2387
G01 X6.5498 Y26.2594
G01 X6.5287 Y26.2770
G01 X6.5042 Y26.2955
G01 X6.4828 Y26.3102
G01 X6.4554 Y26.3270
G01 X6.4340 Y26.3390
G01 X6.4079 Y26.3520
G01 X6.3841 Y26.3626
G01 X6.3542 Y26.3742
G01 X6.3295 Y26.3825
G01 X6.3000 Y26.3909
G01 X6.2733 Y26.3971
G01 X6.2446 Y26.4024
G01 X6.2203 Y26.4058
G01 X6.1883 Y26.4089
G01 X6.1470 Y26.4104
G01 X5.2470 Y26.4104
G01 X5.2292 Y26.4100
G01 X5.2031 Y26.4087
G01 X5.1723 Y26.4056
G01 X5.1418 Y26.4011
G01 X5.1114 Y26.3951
G01 X5.0846 Y26.3883
G01 X5.0535 Y26.3789
G01 X5.0289 Y26.3701
G01 X4.9974 Y26.3571
G01 X4.9710 Y26.3446
G01 X4.9437 Y26.3300
G01 X4.9200 Y26.3157
G01 X4.8929 Y26.2977
G01 X4.8719 Y26.2821
G01 X4.8455 Y26.2605
G01 X4.8250 Y26.2420
G01 X4.8031 Y26.2201
G01 X4.7825 Y26.1973
G01 X4.7628 Y26.1733
G01 X4.7463 Y26.1511
G01 X4.7283 Y26.1240
G01 X4.7140 Y26.1003
G01 X4.6987 Y26.0716
G01 X4.6875 Y26.0480
G01 X4.6739 Y26.0151
G01 X4.6651 Y25.9905
G01 X4.6557 Y25.9594
G01 X4.6489 Y25.9326
G01 X4.6426 Y25.9006
G01 X4.6385 Y25.8733
G01 X4.6355 Y25.8424
G01 X4.6340 Y25.8148
G01 X4.6336 Y25.7970
G01 X4.6336 Y25.0970
G01 X4.6340 Y25.0802
G01 X4.6351 Y25.0557
G01 X4.6378 Y25.0266
G01 X4.6418 Y24.9980
G01 X4.6472 Y24.9693
G01 X4.6531 Y24.9440
G01 X4.6615 Y24.9145
G01 X4.6693 Y24.8912
G01 X4.6814 Y24.8599
G01 X4.6914 Y24.8374
G01 X4.7050 Y24.8100
G01 X4.7177 Y24.7873
G01 X4.7330 Y24.7625
G01 X4.7485 Y24.7398
G01 X4.7679 Y24.7142
G01 X4.7836 Y24.6953
G01 X4.8043 Y24.6727
G01 X4.8227 Y24.6543
G01 X4.8442 Y24.6346
G01 X4.8665 Y24.6161
G01 X4.8898 Y24.5985
G01 X4.9100 Y24.5846
G01 X4.9386 Y24.5670
G01 X4.9600 Y24.5550
G01 X4.9874 Y24.5414
G01 X5.0113 Y24.5309
G01 X5.0334 Y24.5223
G01 X5.0334 Y23.7027
G01 X5.0199 Y23.6937
G01 X4.9989 Y23.6781
G01 X4.9737 Y23.6575
G01 X4.9520 Y23.6380
G01 X4.9290 Y23.6150
G01 X4.9095 Y23.5933
G01 X4.8898 Y23.5693
G01 X4.8742 Y23.5484
G01 X4.8553 Y23.5200
G01 X4.8403 Y23.4950
G01 X4.8257 Y23.4676
G01 X4.8145 Y23.4440
G01 X4.8020 Y23.4140
G01 X4.7921 Y23.3865
G01 X4.7827 Y23.3554
G01 X4.7756 Y23.3270
G01 X4.7696 Y23.2966
G01 X4.7655 Y23.2693
G01 X4.7623 Y23.2369
G01 X4.7610 Y23.2108
G01 X4.7606 Y23.1930
G01 X4.7606 Y22.4914
G01 X4.7623 Y22.4491
G01 X4.7655 Y22.4167
G01 X4.7696 Y22.3894
G01 X4.7759 Y22.3574
G01 X4.7827 Y22.3306
G01 X4.7921 Y22.2995
G01 X4.8014 Y22.2734
G01 X4.8133 Y22.2448
G01 X4.8257 Y22.2184
G01 X4.8403 Y22.1910
G01 X4.8561 Y22.1647
G01 X4.8733 Y22.1389
G01 X4.8898 Y22.1167
G01 X4.9105 Y22.0915
G01 X4.9290 Y22.0710
G01 X4.9520 Y22.0480
G01 X4.9725 Y22.0295
G01 X4.9977 Y22.0088
G01 X5.0199 Y21.9923
G01 X5.0483 Y21.9734
G01 X5.0707 Y21.9600
G01 X5.0980 Y21.9454
G01 X5.1244 Y21.9329
G01 X5.1559 Y21.9199
G01 X5.1805 Y21.9111
G01 X5.2101 Y21.9021
G01 X5.2384 Y21.8949
G01 X5.2719 Y21.8883
G01 X5.2977 Y21.8845
G01 X5.3301 Y21.8813
G01 X5.3562 Y21.8800
G01 X5.3740 Y21.8796
G01 X6.2740 Y21.8796
G01 X6.2908 Y21.8800
G01 X6.3168 Y21.8813
G01 X6.3458 Y21.8840
G01 X6.3701 Y21.8873
G01 X6.4017 Y21.8932
G01 X6.4270 Y21.8991
G01 X6.4551 Y21.9071
G01 X6.4812 Y21.9158
G01 X6.5097 Y21.9269
G01 X6.5322 Y21.9368
G01 X6.5610 Y21.9510
G01 X6.5850 Y21.9645
G01 X6.6098 Y21.9798
G01 X6.6300 Y21.9937
G01 X6.6568 Y22.0139
G01 X6.6757 Y22.0296
G01 X6.6973 Y22.0493
G01 X6.7167 Y22.0687
G01 X6.7383 Y22.0924
G01 X6.7540 Y22.1113
G01 X6.7716 Y22.1346
G01 X6.7872 Y22.1572
G01 X6.8040 Y22.1846
G01 X6.8160 Y22.2060
G01 X6.8294 Y22.2329
G01 X7.8776 Y22.2329
G01 X7.8963 Y22.2049
G01 X7.9128 Y22.1827
G01 X7.9335 Y22.1575
G01 X7.9520 Y22.1370
G01 X7.9750 Y22.1140
G01 X7.9955 Y22.0955
G01 X8.0207 Y22.0748
G01 X8.0442 Y22.0575
G01 X8.0700 Y22.0403
G01 X8.0923 Y22.0268
G01 X8.1210 Y22.0114
G01 X8.1474 Y21.9989
G01 X8.1760 Y21.9870
G01 X8.2035 Y21.9771
G01 X8.2346 Y21.9677
G01 X8.2614 Y21.9609
G01 X8.2918 Y21.9549
G01 X8.3207 Y21.9505
G01 X8.3516 Y21.9475
G01 X8.3792 Y21.9460
G01 X8.3970 Y21.9456
G01 X9.3470 Y21.9456
G01 X9.3648 Y21.9460
G01 X9.3924 Y21.9475
G01 X9.4233 Y21.9505
G01 X9.4491 Y21.9543
G01 X9.4826 Y21.9609
G01 X9.5094 Y21.9677
G01 X9.5405 Y21.9771
G01 X9.5680 Y21.9870
G01 X9.5966 Y21.9989
G01 X9.6202 Y22.0100
G01 X9.6503 Y22.0260
G01 X9.6753 Y22.0411
G01 X9.7011 Y22.0583
G01 X9.7221 Y22.0739
G01 X9.7485 Y22.0955
G01 X9.7690 Y22.1140
G01 X9.7930 Y22.1382
G01 X9.8105 Y22.1575
G01 X9.8302 Y22.1815
G01 X9.8477 Y22.2049
G01 X9.8664 Y22.2329
G01 X10.5314 Y22.2329
G01 X10.6126 Y22.1518
G01 X10.6255 Y22.1395
G01 X10.6485 Y22.1187
G01 X10.6725 Y22.0990
G01 X10.7011 Y22.0778
G01 X10.7269 Y22.0606
G01 X10.7535 Y22.0446
G01 X10.7849 Y22.0278
G01 X10.8130 Y22.0145
G01 X10.8431 Y22.0021
G01 X10.8737 Y21.9911
G01 X10.9007 Y21.9829
G01 X10.8926 Y21.9804
G01 X10.8634 Y21.9699
G01 X10.8333 Y21.9575
G01 X10.8039 Y21.9435
G01 X10.7751 Y21.9282
G01 X10.7472 Y21.9114
G01 X10.7201 Y21.8934
G01 X10.6940 Y21.8740
G01 X10.6700 Y21.8543
G01 X10.6458 Y21.8325
G01 X10.6329 Y21.8202
G01 X10.2978 Y21.4851
G01 X9.8664 Y21.4851
G01 X9.8477 Y21.5131
G01 X9.8302 Y21.5365
G01 X9.8105 Y21.5605
G01 X9.7930 Y21.5798
G01 X9.7690 Y21.6040
G01 X9.7485 Y21.6225
G01 X9.7221 Y21.6441
G01 X9.6998 Y21.6605
G01 X9.6740 Y21.6777
G01 X9.6517 Y21.6912
G01 X9.6216 Y21.7073
G01 X9.5966 Y21.7191
G01 X9.5666 Y21.7316
G01 X9.5390 Y21.7414
G01 X9.5079 Y21.7507
G01 X9.4826 Y21.7571
G01 X9.4522 Y21.7631
G01 X9.4233 Y21.7675
G01 X9.3893 Y21.7708
G01 X9.3648 Y21.7720
G01 X9.3470 Y21.7724
G01 X8.3970 Y21.7724
G01 X8.3792 Y21.7720
G01 X8.3516 Y21.7705
G01 X8.3207 Y21.7675
G01 X8.2934 Y21.7634
G01 X8.2614 Y21.7571
G01 X8.2346 Y21.7503
G01 X8.2035 Y21.7409
G01 X8.1774 Y21.7316
G01 X8.1474 Y21.7191
G01 X8.1224 Y21.7073
G01 X8.0937 Y21.6920
G01 X8.0700 Y21.6777
G01 X8.0429 Y21.6597
G01 X8.0207 Y21.6432
G01 X7.9955 Y21.6225
G01 X7.9750 Y21.6040
G01 X7.9520 Y21.5810
G01 X7.9335 Y21.5605
G01 X7.9128 Y21.5353
G01 X7.8972 Y21.5144
G01 X7.8919 Y21.5066
G01 X6.8009 Y21.5066
G01 X6.7927 Y21.5200
G01 X6.7755 Y21.5458
G01 X6.7591 Y21.5681
G01 X6.7375 Y21.5945
G01 X6.7200 Y21.6138
G01 X6.6960 Y21.6380
G01 X6.6755 Y21.6565
G01 X6.6503 Y21.6772
G01 X6.6281 Y21.6937
G01 X6.6010 Y21.7117
G01 X6.5760 Y21.7267
G01 X6.5486 Y21.7413
G01 X6.5250 Y21.7525
G01 X6.4950 Y21.7650
G01 X6.4675 Y21.7749
G01 X6.4364 Y21.7843
G01 X6.4096 Y21.7911
G01 X6.3776 Y21.7974
G01 X6.3503 Y21.8015
G01 X6.3194 Y21.8045
G01 X6.2918 Y21.8060
G01 X6.2740 Y21.8064
G01 X5.3740 Y21.8064
G01 X5.3562 Y21.8060
G01 X5.3301 Y21.8047
G01 X5.2962 Y21.8013
G01 X5.2704 Y21.7974
G01 X5.2400 Y21.7914
G01 X5.2101 Y21.7839
G01 X5.1805 Y21.7749
G01 X5.1559 Y21.7661
G01 X5.1244 Y21.7531
G01 X5.0980 Y21.7406
G01 X5.0707 Y21.7260
G01 X5.0483 Y21.7126
G01 X5.0199 Y21.6937
G01 X4.9965 Y21.6762
G01 X4.9725 Y21.6565
G01 X4.9532 Y21.6390
G01 X4.9290 Y21.6150
G01 X4.9105 Y21.5945
G01 X4.8908 Y21.5705
G01 X4.8733 Y21.5471
G01 X4.8544 Y21.5187
G01 X4.8410 Y21.4963
G01 X4.8264 Y21.4690
G01 X4.8139 Y21.4426
G01 X4.8009 Y21.4111
G01 X4.7921 Y21.3865
G01 X4.7831 Y21.3569
G01 X4.7759 Y21.3286
G01 X4.7696 Y21.2966
G01 X4.7655 Y21.2693
G01 X4.7623 Y21.2369
G01 X4.7606 Y21.1946
G01 X4.7606 Y20.4930
G01 X4.7610 Y20.4752
G01 X4.7622 Y20.4507
G01 X4.7655 Y20.4167
G01 X4.7699 Y20.3878
G01 X4.7759 Y20.3574
G01 X4.7823 Y20.3321
G01 X4.7916 Y20.3010
G01 X4.8014 Y20.2734
G01 X4.8139 Y20.2434
G01 X4.8257 Y20.2184
G01 X4.8418 Y20.1883
G01 X4.8561 Y20.1647
G01 X4.8733 Y20.1389
G01 X4.8889 Y20.1179
G01 X4.9105 Y20.0915
G01 X4.9290 Y20.0710
G01 X4.9532 Y20.0470
G01 X4.9725 Y20.0295
G01 X4.9965 Y20.0098
G01 X5.0199 Y19.9923
G01 X5.0470 Y19.9743
G01 X5.0720 Y19.9593
G01 X5.0994 Y19.9447
G01 X5.1230 Y19.9335
G01 X5.1544 Y19.9204
G01 X5.1805 Y19.9111
G01 X5.2116 Y19.9017
G01 X5.2400 Y19.8946
G01 X5.2704 Y19.8886
G01 X5.2962 Y19.8847
G01 X5.3301 Y19.8813
G01 X5.3562 Y19.8800
G01 X5.3740 Y19.8796
G01 X6.2740 Y19.8796
G01 X6.3153 Y19.8811
G01 X6.3458 Y19.8840
G01 X6.3716 Y19.8876
G01 X6.4017 Y19.8932
G01 X6.4270 Y19.8991
G01 X6.4565 Y19.9075
G01 X6.4812 Y19.9158
G01 X6.5111 Y19.9274
G01 X6.5336 Y19.9374
G01 X6.5597 Y19.9504
G01 X6.5824 Y19.9630
G01 X6.6098 Y19.9798
G01 X6.6312 Y19.9945
G01 X6.6557 Y20.0130
G01 X6.6757 Y20.0296
G01 X6.6983 Y20.0503
G01 X6.7177 Y20.0697
G01 X6.7374 Y20.0913
G01 X6.7549 Y20.1125
G01 X6.7733 Y20.1370
G01 X6.7872 Y20.1572
G01 X6.8009 Y20.1794
G01 X7.8647 Y20.1794
G01 X7.8783 Y20.1570
G01 X7.8963 Y20.1299
G01 X7.9128 Y20.1077
G01 X7.9345 Y20.0814
G01 X7.9520 Y20.0620
G01 X7.9739 Y20.0401
G01 X7.9944 Y20.0215
G01 X8.0207 Y19.9998
G01 X8.0416 Y19.9842
G01 X8.0700 Y19.9653
G01 X8.0937 Y19.9510
G01 X8.1224 Y19.9357
G01 X8.1474 Y19.9239
G01 X8.1774 Y19.9114
G01 X8.2035 Y19.9021
G01 X8.2346 Y19.8927
G01 X8.2630 Y19.8856
G01 X8.2934 Y19.8796
G01 X8.3207 Y19.8755
G01 X8.3531 Y19.8723
G01 X8.3792 Y19.8710
G01 X8.3970 Y19.8706
G01 X9.3470 Y19.8706
G01 X9.3648 Y19.8710
G01 X9.3909 Y19.8723
G01 X9.4248 Y19.8757
G01 X9.4506 Y19.8796
G01 X9.4810 Y19.8856
G01 X9.5094 Y19.8927
G01 X9.5405 Y19.9021
G01 X9.5666 Y19.9114
G01 X9.5980 Y19.9245
G01 X9.6230 Y19.9364
G01 X9.6503 Y19.9510
G01 X9.6727 Y19.9644
G01 X9.7011 Y19.9833
G01 X9.7233 Y19.9998
G01 X9.7485 Y20.0205
G01 X9.7701 Y20.0401
G01 X9.7930 Y20.0632
G01 X9.8105 Y20.0825
G01 X9.8302 Y20.1065
G01 X9.8477 Y20.1299
G01 X9.8664 Y20.1579
G01 X10.5726 Y20.1579
G01 X10.5905 Y20.1584
G01 X10.6214 Y20.1599
G01 X10.6523 Y20.1629
G01 X10.6876 Y20.1682
G01 X10.7180 Y20.1742
G01 X10.7496 Y20.1822
G01 X10.7807 Y20.1916
G01 X10.8099 Y20.2020
G01 X10.8429 Y20.2157
G01 X10.8709 Y20.2290
G01 X10.9009 Y20.2451
G01 X10.9275 Y20.2611
G01 X10.9546 Y20.2791
G01 X10.9807 Y20.2985
G01 X11.0059 Y20.3192
G01 X11.0289 Y20.3400
G01 X11.0418 Y20.3523
G01 X11.3770 Y20.6874
G01 X11.6258 Y20.6874
G01 X11.5963 Y20.6735
G01 X11.5676 Y20.6582
G01 X11.5397 Y20.6414
G01 X11.5139 Y20.6242
G01 X11.4865 Y20.6040
G01 X11.4625 Y20.5843
G01 X11.4383 Y20.5625
G01 X11.4265 Y20.5513
G01 X9.8977 Y19.0225
G01 X9.8016 Y19.0083
G01 X9.7696 Y19.0020
G01 X9.6699 Y18.9771
G01 X9.6373 Y18.9671
G01 X9.5449 Y18.9340
G01 X9.5134 Y18.9210
G01 X9.4205 Y18.8770
G01 X9.3918 Y18.8616
G01 X9.3076 Y18.8112
G01 X9.2780 Y18.7914
G01 X9.1991 Y18.7329
G01 X9.1727 Y18.7113
G01 X9.0977 Y18.6433
G01 X9.0736 Y18.6192
G01 X9.0077 Y18.5464
G01 X8.9870 Y18.5213
G01 X8.9266 Y18.4400
G01 X8.9068 Y18.4104
G01 X8.8548 Y18.3235
G01 X8.8396 Y18.2948
G01 X8.7963 Y18.2032
G01 X8.7840 Y18.1731
G01 X8.7499 Y18.0778
G01 X8.7406 Y18.0466
G01 X8.7167 Y17.9514
G01 X8.7103 Y17.9195
G01 X8.6953 Y17.8193
G01 X8.6921 Y17.7870
G01 X8.6870 Y17.6858
G01 X8.6870 Y17.6502
G01 X8.6921 Y17.5490
G01 X8.6953 Y17.5167
G01 X8.7097 Y17.4196
G01 X8.7163 Y17.3861
G01 X8.7406 Y17.2894
G01 X8.7509 Y17.2553
G01 X8.7851 Y17.1600
G01 X8.7976 Y17.1299
G01 X8.8396 Y17.0412
G01 X8.8548 Y17.0125
G01 X8.9068 Y16.9256
G01 X8.9249 Y16.8985
G01 X8.9851 Y16.8171
G01 X9.0077 Y16.7896
G01 X9.0736 Y16.7168
G01 X9.0966 Y16.6938
G01 X9.1716 Y16.6257
G01 X9.1979 Y16.6040
G01 X9.2780 Y16.5446
G01 X9.3076 Y16.5248
G01 X9.3945 Y16.4728
G01 X9.4232 Y16.4576
G01 X9.5148 Y16.4143
G01 X9.5449 Y16.4020
G01 X9.6373 Y16.3689
G01 X9.6684 Y16.3594
G01 X9.7666 Y16.3347
G01 X9.8001 Y16.3280
G01 X9.9017 Y16.3130
G01 X9.9342 Y16.3099
G01 X10.0322 Y16.3050
G01 X10.0678 Y16.3050
G01 X10.1690 Y16.3101
G01 X10.2013 Y16.3133
G01 X10.2984 Y16.3277
G01 X10.3334 Y16.3347
G01 X10.4286 Y16.3586
G01 X10.4598 Y16.3679
G01 X10.5551 Y16.4020
G01 X10.5881 Y16.4156
G01 X10.6768 Y16.4576
G01 X10.7055 Y16.4728
G01 X10.7924 Y16.5248
G01 X10.8220 Y16.5446
G01 X10.9009 Y16.6031
G01 X10.9261 Y16.6237
G01 X11.0023 Y16.6927
G01 X11.0264 Y16.7168
G01 X11.0923 Y16.7896
G01 X11.1140 Y16.8159
G01 X11.1751 Y16.8985
G01 X11.1932 Y16.9256
G01 X11.2444 Y17.0111
G01 X11.2604 Y17.0412
G01 X11.3024 Y17.1299
G01 X11.3160 Y17.1629
G01 X11.3491 Y17.2553
G01 X11.3586 Y17.2864
G01 X11.3840 Y17.3876
G01 X11.3903 Y17.4196
G01 X11.4050 Y17.5197
G01 X11.4081 Y17.5522
G01 X11.4130 Y17.6502
G01 X11.4130 Y17.6858
G01 X11.4081 Y17.7854
G01 X11.4047 Y17.8193
G01 X11.3903 Y17.9164
G01 X11.3840 Y17.9484
G01 X11.3586 Y18.0496
G01 X11.3491 Y18.0807
G01 X11.3160 Y18.1731
G01 X11.3024 Y18.2061
G01 X11.2604 Y18.2948
G01 X11.2452 Y18.3235
G01 X11.1932 Y18.4104
G01 X11.1809 Y18.4289
G01 X12.1695 Y19.4174
G01 X14.5880 Y19.4176
G01 X14.6058 Y19.4180
G01 X14.6221 Y19.4189
G01 X14.6545 Y19.4220
G01 X14.6721 Y19.4247
G01 X14.7025 Y19.4307
G01 X14.7228 Y19.4358
G01 X14.7525 Y19.4448
G01 X14.7693 Y19.4508
G01 X14.7994 Y19.4633
G01 X14.8141 Y19.4702
G01 X14.8455 Y19.4870
G01 X14.8595 Y19.4954
G01 X14.8866 Y19.5135
G01 X14.9009 Y19.5241
G01 X14.9260 Y19.5448
G01 X14.9393 Y19.5567
G01 X14.9612 Y19.5786
G01 X14.9742 Y19.5930
G01 X14.9949 Y19.6181
G01 X15.0046 Y19.6312
G01 X15.0244 Y19.6608
G01 X15.0328 Y19.6748
G01 X15.0474 Y19.7021
G01 X15.0564 Y19.7211
G01 X15.0682 Y19.7497
G01 X15.0742 Y19.7665
G01 X15.0837 Y19.7977
G01 X15.0876 Y19.8134
G01 X15.0943 Y19.8469
G01 X15.0970 Y19.8645
G01 X15.1001 Y19.8969
G01 X15.1010 Y19.9147
G01 X15.1014 Y19.9310
G01 X15.1014 Y20.2310
G01 X15.1011 Y20.2463
G01 X15.1002 Y20.2645
G01 X15.0975 Y20.2936
G01 X15.0951 Y20.3102
G01 X15.0895 Y20.3403
G01 X15.0860 Y20.3553
G01 X15.0768 Y20.3875
G01 X15.0720 Y20.4021
G01 X15.0609 Y20.4306
G01 X15.0541 Y20.4460
G01 X15.0411 Y20.4721
G01 X15.0315 Y20.4893
G01 X15.0162 Y20.5141
G01 X15.0067 Y20.5280
G01 X14.9882 Y20.5524
G01 X14.9784 Y20.5642
G01 X14.9558 Y20.5890
G01 X14.9450 Y20.5998
G01 X14.9223 Y20.6205
G01 X14.9094 Y20.6312
G01 X14.8861 Y20.6488
G01 X14.8699 Y20.6599
G01 X14.8451 Y20.6753
G01 X14.8304 Y20.6834
G01 X14.8030 Y20.6971
G01 X14.7890 Y20.7033
G01 X14.7559 Y20.7160
G01 X14.7693 Y20.7208
G01 X14.7979 Y20.7326
G01 X14.8169 Y20.7416
G01 X14.8442 Y20.7562
G01 X14.8582 Y20.7646
G01 X14.8853 Y20.7826
G01 X14.8920 Y20.7875
G01 X15.1156 Y20.7875
G01 X15.6745 Y20.2286
G01 X15.6745 Y19.0142
G01 X15.6759 Y18.9768
G01 X15.6792 Y18.9428
G01 X15.6828 Y18.9188
G01 X15.6889 Y18.8884
G01 X15.6940 Y18.8678
G01 X15.7039 Y18.8352
G01 X15.7121 Y18.8123
G01 X15.7240 Y18.7837
G01 X15.7330 Y18.7645
G01 X15.7490 Y18.7344
G01 X15.7616 Y18.7136
G01 X15.7788 Y18.6878
G01 X15.7924 Y18.6695
G01 X15.8130 Y18.6444
G01 X15.8395 Y18.6157
G01 X17.0287 Y17.4265
G01 X17.0574 Y17.4000
G01 X17.0825 Y17.3794
G01 X17.1008 Y17.3658
G01 X17.1279 Y17.3477
G01 X17.1474 Y17.3360
G01 X17.1761 Y17.3207
G01 X17.1967 Y17.3110
G01 X17.2267 Y17.2985
G01 X17.2482 Y17.2909
G01 X17.2793 Y17.2814
G01 X17.3014 Y17.2759
G01 X17.3333 Y17.2695
G01 X17.3558 Y17.2662
G01 X17.3882 Y17.2630
G01 X17.4272 Y17.2615
G01 X22.6546 Y17.2615
G01 X21.5164 Y16.1233
G01 X14.4854 Y16.1233
G01 X14.4464 Y16.1218
G01 X14.4125 Y16.1184
G01 X14.3915 Y16.1153
G01 X14.3611 Y16.1092
G01 X14.3360 Y16.1030
G01 X14.3064 Y16.0939
G01 X14.2864 Y16.0868
G01 X14.2563 Y16.0744
G01 X14.2343 Y16.0641
G01 X14.2056 Y16.0488
G01 X14.1861 Y16.0371
G01 X14.1578 Y16.0181
G01 X14.1407 Y16.0054
G01 X14.1168 Y15.9858
G01 X14.0999 Y15.9706
G01 X14.0869 Y15.9583
G01 X13.1555 Y15.0269
G01 X13.1290 Y14.9982
G01 X13.1084 Y14.9731
G01 X13.0939 Y14.9535
G01 X13.0767 Y14.9277
G01 X13.0696 Y14.9159
G01 X13.0643 Y14.9068
G01 X13.0504 Y14.8809
G01 X13.0400 Y14.8589
G01 X13.0275 Y14.8289
G01 X13.0194 Y14.8060
G01 X13.0100 Y14.7748
G01 X13.0049 Y14.7542
G01 X12.9988 Y14.7238
G01 X12.9952 Y14.6998
G01 X12.9921 Y14.6689
G01 X12.9909 Y14.6462
G01 X12.9905 Y14.6300
G01 X12.9905 Y14.3556
G01 X12.0508 Y14.3556
G01 X12.0393 Y14.3650
G01 X12.0132 Y14.3844
G01 X11.9848 Y14.4033
G01 X11.9582 Y14.4192
G01 X11.9308 Y14.4338
G01 X11.8986 Y14.4491
G01 X11.8699 Y14.4609
G01 X11.8408 Y14.4714
G01 X11.8081 Y14.4813
G01 X11.7765 Y14.4893
G01 X11.7461 Y14.4953
G01 X11.7124 Y14.5004
G01 X11.6800 Y14.5036
G01 X11.6490 Y14.5051
G01 X11.6312 Y14.5056
G01 X10.7379 Y14.5056
G01 X10.7297 Y14.5190
G01 X10.7125 Y14.5448
G01 X10.6961 Y14.5671
G01 X10.6745 Y14.5935
G01 X10.6549 Y14.6151
G01 X10.6318 Y14.6380
G01 X10.6125 Y14.6555
G01 X10.5885 Y14.6752
G01 X10.5651 Y14.6927
G01 X10.5367 Y14.7116
G01 X10.5130 Y14.7257
G01 X10.4856 Y14.7403
G01 X10.4620 Y14.7515
G01 X10.4306 Y14.7646
G01 X10.4045 Y14.7739
G01 X10.3719 Y14.7837
G01 X10.3466 Y14.7901
G01 X10.3162 Y14.7961
G01 X10.2873 Y14.8005
G01 X10.2533 Y14.8038
G01 X10.2288 Y14.8050
G01 X10.2110 Y14.8054
G01 X9.3094 Y14.8054
G01 X9.2671 Y14.8037
G01 X9.2347 Y14.8005
G01 X9.2074 Y14.7964
G01 X9.1770 Y14.7904
G01 X9.1486 Y14.7833
G01 X9.1175 Y14.7739
G01 X9.0914 Y14.7646
G01 X9.0614 Y14.7521
G01 X9.0364 Y14.7403
G01 X9.0077 Y14.7250
G01 X8.9840 Y14.7107
G01 X8.9556 Y14.6918
G01 X8.9347 Y14.6762
G01 X8.9095 Y14.6555
G01 X8.8890 Y14.6370
G01 X8.8650 Y14.6128
G01 X8.8475 Y14.5935
G01 X8.8259 Y14.5671
G01 X8.8095 Y14.5448
G01 X8.7923 Y14.5190
G01 X8.7841 Y14.5056
G01 X8.1209 Y14.5056
G01 X8.1166 Y14.5145
G01 X8.1020 Y14.5418
G01 X8.0869 Y14.5668
G01 X8.0697 Y14.5926
G01 X8.0541 Y14.6136
G01 X8.0325 Y14.6400
G01 X8.0129 Y14.6616
G01 X7.9910 Y14.6835
G01 X7.9716 Y14.7010
G01 X7.9453 Y14.7227
G01 X7.9218 Y14.7400
G01 X7.8960 Y14.7572
G01 X7.8737 Y14.7707
G01 X7.8436 Y14.7868
G01 X7.8172 Y14.7992
G01 X7.7886 Y14.8111
G01 X7.7640 Y14.8199
G01 X7.7314 Y14.8298
G01 X7.7030 Y14.8369
G01 X7.6726 Y14.8429
G01 X7.6468 Y14.8468
G01 X7.6129 Y14.8502
G01 X7.5868 Y14.8515
G01 X7.5690 Y14.8519
G01 X6.6190 Y14.8519
G01 X6.6012 Y14.8515
G01 X6.5736 Y14.8500
G01 X6.5427 Y14.8470
G01 X6.5169 Y14.8432
G01 X6.4834 Y14.8366
G01 X6.4566 Y14.8298
G01 X6.4270 Y14.8209
G01 X6.3994 Y14.8111
G01 X6.3694 Y14.7986
G01 X6.3458 Y14.7875
G01 X6.3157 Y14.7715
G01 X6.2920 Y14.7572
G01 X6.2662 Y14.7400
G01 X6.2415 Y14.7217
G01 X6.2175 Y14.7020
G01 X6.1970 Y14.6835
G01 X6.1740 Y14.6605
G01 X6.1555 Y14.6400
G01 X6.1348 Y14.6148
G01 X6.1183 Y14.5926
G01 X6.1003 Y14.5655
G01 X6.0868 Y14.5432
G01 X6.0707 Y14.5131
G01 X6.0595 Y14.4895
G01 X6.0459 Y14.4566
G01 X6.0371 Y14.4320
G01 X6.0277 Y14.4009
G01 X6.0209 Y14.3741
G01 X6.0149 Y14.3437
G01 X6.0105 Y14.3148
G01 X6.0075 Y14.2839
G01 X6.0060 Y14.2563
G01 X6.0056 Y14.2385
G01 X6.0056 Y13.5635
G01 X6.0060 Y13.5457
G01 X6.0073 Y13.5196
G01 X6.0104 Y13.4888
G01 X6.0149 Y13.4583
G01 X6.0209 Y13.4279
G01 X6.0277 Y13.4011
G01 X6.0376 Y13.3685
G01 X6.0464 Y13.3439
G01 X6.0589 Y13.3139
G01 X6.0714 Y13.2875
G01 X6.0860 Y13.2602
G01 X6.1003 Y13.2365
G01 X6.1192 Y13.2081
G01 X6.1348 Y13.1872
G01 X6.1545 Y13.1632
G01 X6.1740 Y13.1415
G01 X6.1982 Y13.1175
G01 X6.2175 Y13.1000
G01 X6.2415 Y13.0803
G01 X6.2662 Y13.0620
G01 X6.2920 Y13.0448
G01 X6.3143 Y13.0313
G01 X6.3444 Y13.0152
G01 X6.3694 Y13.0034
G01 X6.3980 Y12.9915
G01 X6.4270 Y12.9811
G01 X6.4566 Y12.9722
G01 X6.4819 Y12.9658
G01 X6.5154 Y12.9591
G01 X6.5427 Y12.9550
G01 X6.5736 Y12.9520
G01 X6.6027 Y12.9505
G01 X6.6190 Y12.9501
G01 X7.5690 Y12.9501
G01 X7.5868 Y12.9505
G01 X7.6129 Y12.9518
G01 X7.6453 Y12.9550
G01 X7.6726 Y12.9591
G01 X7.7046 Y12.9654
G01 X7.7314 Y12.9722
G01 X7.7625 Y12.9816
G01 X7.7886 Y12.9909
G01 X7.8186 Y13.0034
G01 X7.8450 Y13.0159
G01 X7.8723 Y13.0305
G01 X7.8960 Y13.0448
G01 X7.9231 Y13.0628
G01 X7.9465 Y13.0803
G01 X7.9705 Y13.1000
G01 X7.9921 Y13.1196
G01 X8.0150 Y13.1427
G01 X8.0325 Y13.1620
G01 X8.0461 Y13.1784
G01 X8.7841 Y13.1784
G01 X8.7923 Y13.1650
G01 X8.8095 Y13.1392
G01 X8.8259 Y13.1169
G01 X8.8475 Y13.0905
G01 X8.8650 Y13.0712
G01 X8.8890 Y13.0470
G01 X8.9095 Y13.0285
G01 X8.9347 Y13.0078
G01 X8.9556 Y12.9922
G01 X8.9840 Y12.9733
G01 X9.0077 Y12.9590
G01 X9.0364 Y12.9437
G01 X9.0614 Y12.9319
G01 X9.0914 Y12.9194
G01 X9.1175 Y12.9101
G01 X9.1486 Y12.9007
G01 X9.1770 Y12.8936
G01 X9.2074 Y12.8876
G01 X9.2347 Y12.8835
G01 X9.2671 Y12.8803
G01 X9.3094 Y12.8786
G01 X10.2126 Y12.8786
G01 X10.2549 Y12.8803
G01 X10.2888 Y12.8837
G01 X10.3146 Y12.8876
G01 X10.3450 Y12.8936
G01 X10.3734 Y12.9007
G01 X10.4060 Y12.9106
G01 X10.4306 Y12.9194
G01 X10.4592 Y12.9313
G01 X10.4856 Y12.9437
G01 X10.5143 Y12.9590
G01 X10.5393 Y12.9741
G01 X10.5651 Y12.9913
G01 X10.5861 Y13.0069
G01 X10.6125 Y13.0285
G01 X10.6341 Y13.0481
G01 X10.6560 Y13.0700
G01 X10.6735 Y13.0894
G01 X10.6952 Y13.1157
G01 X10.7125 Y13.1392
G01 X10.7297 Y13.1650
G01 X10.7379 Y13.1784
G01 X11.3616 Y13.1784
G01 X11.3731 Y13.1690
G01 X11.3992 Y13.1496
G01 X11.4276 Y13.1307
G01 X11.4542 Y13.1148
G01 X11.4816 Y13.1002
G01 X11.5130 Y13.0853
G01 X11.4750 Y13.0834
G01 X11.4442 Y13.0804
G01 X11.4120 Y13.0756
G01 X11.3801 Y13.0693
G01 X11.3500 Y13.0617
G01 X11.3173 Y13.0519
G01 X11.2867 Y13.0409
G01 X11.2580 Y13.0291
G01 X11.2271 Y13.0145
G01 X11.1971 Y12.9984
G01 X11.1705 Y12.9824
G01 X11.1447 Y12.9652
G01 X11.1173 Y12.9450
G01 X11.0933 Y12.9253
G01 X11.0691 Y12.9035
G01 X11.0573 Y12.8923
G01 X10.7114 Y12.5464
G01 X10.6942 Y12.5695
G01 X10.6745 Y12.5935
G01 X10.6570 Y12.6128
G01 X10.6330 Y12.6370
G01 X10.6125 Y12.6555
G01 X10.5873 Y12.6762
G01 X10.5638 Y12.6935
G01 X10.5367 Y12.7116
G01 X10.5143 Y12.7250
G01 X10.4870 Y12.7396
G01 X10.4606 Y12.7521
G01 X10.4306 Y12.7646
G01 X10.4045 Y12.7739
G01 X10.3719 Y12.7837
G01 X10.3466 Y12.7901
G01 X10.3162 Y12.7961
G01 X10.2888 Y12.8003
G01 X10.2549 Y12.8037
G01 X10.2273 Y12.8050
G01 X10.2110 Y12.8054
G01 X9.3094 Y12.8054
G01 X9.2671 Y12.8037
G01 X9.2347 Y12.8005
G01 X9.2074 Y12.7964
G01 X9.1770 Y12.7904
G01 X9.1486 Y12.7833
G01 X9.1175 Y12.7739
G01 X9.0914 Y12.7646
G01 X9.0614 Y12.7521
G01 X9.0364 Y12.7403
G01 X9.0077 Y12.7250
G01 X8.9840 Y12.7107
G01 X8.9556 Y12.6918
G01 X8.9347 Y12.6762
G01 X8.9095 Y12.6555
G01 X8.8890 Y12.6370
G01 X8.8650 Y12.6128
G01 X8.8475 Y12.5935
G01 X8.8259 Y12.5671
G01 X8.8095 Y12.5448
G01 X8.7923 Y12.5190
G01 X8.7841 Y12.5056
G01 X8.0777 Y12.5056
G01 X8.0697 Y12.5176
G01 X8.0541 Y12.5386
G01 X8.0325 Y12.5650
G01 X8.0140 Y12.5855
G01 X7.9910 Y12.6085
G01 X7.9693 Y12.6280
G01 X7.9453 Y12.6477
G01 X7.9244 Y12.6633
G01 X7.8960 Y12.6822
G01 X7.8723 Y12.6965
G01 X7.8436 Y12.7118
G01 X7.8186 Y12.7236
G01 X7.7886 Y12.7361
G01 X7.7610 Y12.7459
G01 X7.7314 Y12.7548
G01 X7.7061 Y12.7612
G01 X7.6742 Y12.7676
G01 X7.6453 Y12.7720
G01 X7.6129 Y12.7752
G01 X7.5868 Y12.7765
G01 X7.5690 Y12.7769
G01 X6.6190 Y12.7769
G01 X6.6012 Y12.7765
G01 X6.5751 Y12.7752
G01 X6.5412 Y12.7718
G01 X6.5154 Y12.7679
G01 X6.4834 Y12.7616
G01 X6.4551 Y12.7544
G01 X6.4255 Y12.7454
G01 X6.4009 Y12.7366
G01 X6.3694 Y12.7236
G01 X6.3430 Y12.7111
G01 X6.3157 Y12.6965
G01 X6.2933 Y12.6831
G01 X6.2649 Y12.6642
G01 X6.2427 Y12.6477
G01 X6.2175 Y12.6270
G01 X6.1970 Y12.6085
G01 X6.1740 Y12.5855
G01 X6.1555 Y12.5650
G01 X6.1348 Y12.5398
G01 X6.1183 Y12.5176
G01 X6.1011 Y12.4918
G01 X6.0853 Y12.4655
G01 X6.0707 Y12.4381
G01 X6.0583 Y12.4117
G01 X6.0464 Y12.3831
G01 X6.0371 Y12.3570
G01 X6.0277 Y12.3259
G01 X6.0206 Y12.2975
G01 X6.0146 Y12.2671
G01 X6.0105 Y12.2398
G01 X6.0073 Y12.2074
G01 X6.0056 Y12.1651
G01 X6.0056 Y11.4885
G01 X6.0060 Y11.4707
G01 X6.0073 Y11.4446
G01 X6.0105 Y11.4122
G01 X6.0143 Y11.3864
G01 X6.0209 Y11.3529
G01 X6.0277 Y11.3261
G01 X6.0366 Y11.2965
G01 X6.0464 Y11.2689
G01 X6.0589 Y11.2389
G01 X6.0700 Y11.2153
G01 X6.0860 Y11.1852
G01 X6.1003 Y11.1615
G01 X6.1175 Y11.1357
G01 X6.1348 Y11.1122
G01 X6.1555 Y11.0870
G01 X6.1730 Y11.0677
G01 X6.1970 Y11.0435
G01 X6.2187 Y11.0240
G01 X6.2427 Y11.0043
G01 X6.2649 Y10.9878
G01 X6.2933 Y10.9689
G01 X6.3157 Y10.9555
G01 X6.3444 Y10.9402
G01 X6.3694 Y10.9284
G01 X6.3980 Y10.9165
G01 X6.4304 Y10.9051
G01 X6.4304 Y10.7028
G01 X6.4230 Y10.7000
G01 X6.3944 Y10.6881
G01 X6.3694 Y10.6763
G01 X6.3407 Y10.6610
G01 X6.3157 Y10.6459
G01 X6.2886 Y10.6278
G01 X6.2677 Y10.6122
G01 X6.2437 Y10.5925
G01 X6.2220 Y10.5730
G01 X6.1980 Y10.5488
G01 X6.1805 Y10.5295
G01 X6.1608 Y10.5055
G01 X6.1442 Y10.4834
G01 X6.1253 Y10.4550
G01 X6.1110 Y10.4313
G01 X6.0957 Y10.4026
G01 X6.0833 Y10.3762
G01 X6.0714 Y10.3476
G01 X6.0626 Y10.3230
G01 X6.0527 Y10.2904
G01 X6.0456 Y10.2620
G01 X6.0396 Y10.2316
G01 X6.0355 Y10.2043
G01 X6.0323 Y10.1719
G01 X6.0310 Y10.1458
G01 X6.0306 Y10.1280
G01 X6.0306 Y9.4264
G01 X6.0323 Y9.3841
G01 X6.0355 Y9.3517
G01 X6.0396 Y9.3244
G01 X6.0459 Y9.2924
G01 X6.0531 Y9.2641
G01 X6.0621 Y9.2345
G01 X6.0714 Y9.2084
G01 X6.0845 Y9.1770
G01 X6.0957 Y9.1534
G01 X6.1110 Y9.1247
G01 X6.1253 Y9.1010
G01 X6.1425 Y9.0752
G01 X6.1598 Y9.0517
G01 X6.1805 Y9.0265
G01 X6.1980 Y9.0072
G01 X6.2220 Y8.9830
G01 X6.2437 Y8.9635
G01 X6.2677 Y8.9438
G01 X6.2899 Y8.9273
G01 X6.3183 Y8.9084
G01 X6.3407 Y8.8950
G01 X6.3694 Y8.8797
G01 X6.3944 Y8.8679
G01 X6.4230 Y8.8560
G01 X6.4505 Y8.8461
G01 X6.4816 Y8.8367
G01 X6.5069 Y8.8303
G01 X6.5404 Y8.8236
G01 X6.5677 Y8.8195
G01 X6.5986 Y8.8165
G01 X6.6262 Y8.8150
G01 X6.6440 Y8.8146
G01 X7.5440 Y8.8146
G01 X7.5618 Y8.8150
G01 X7.5879 Y8.8163
G01 X7.6203 Y8.8195
G01 X7.6476 Y8.8236
G01 X7.6780 Y8.8296
G01 X7.7064 Y8.8367
G01 X7.7375 Y8.8461
G01 X7.7621 Y8.8549
G01 X7.7950 Y8.8685
G01 X7.8186 Y8.8797
G01 X7.8460 Y8.8943
G01 X7.8723 Y8.9101
G01 X7.8981 Y8.9273
G01 X7.9203 Y8.9438
G01 X7.9455 Y8.9645
G01 X7.9648 Y8.9820
G01 X7.9900 Y9.0072
G01 X8.0075 Y9.0265
G01 X8.0282 Y9.0517
G01 X8.0447 Y9.0739
G01 X8.0619 Y9.0997
G01 X8.0777 Y9.1260
G01 X8.0923 Y9.1534
G01 X8.1041 Y9.1784
G01 X8.1166 Y9.2084
G01 X8.1254 Y9.2330
G01 X8.1353 Y9.2656
G01 X8.1417 Y9.2909
G01 X8.1487 Y9.3259
G01 X8.1525 Y9.3517
G01 X8.1557 Y9.3841
G01 X8.1570 Y9.4102
G01 X8.1574 Y9.4280
G01 X8.1574 Y10.1280
G01 X8.1570 Y10.1458
G01 X8.1557 Y10.1719
G01 X8.1526 Y10.2027
G01 X8.1481 Y10.2332
G01 X8.1421 Y10.2636
G01 X8.1357 Y10.2889
G01 X8.1259 Y10.3215
G01 X8.1160 Y10.3490
G01 X8.1041 Y10.3776
G01 X8.0930 Y10.4012
G01 X8.0770 Y10.4313
G01 X8.0627 Y10.4550
G01 X8.0455 Y10.4808
G01 X8.0282 Y10.5043
G01 X8.0075 Y10.5295
G01 X7.9900 Y10.5488
G01 X7.9660 Y10.5730
G01 X7.9443 Y10.5925
G01 X7.9203 Y10.6122
G01 X7.8994 Y10.6278
G01 X7.8697 Y10.6476
G01 X7.8473 Y10.6610
G01 X7.8200 Y10.6756
G01 X7.7936 Y10.6881
G01 X7.7650 Y10.7000
G01 X7.7576 Y10.7028
G01 X7.7576 Y10.9051
G01 X7.7900 Y10.9165
G01 X7.8186 Y10.9284
G01 X7.8450 Y10.9409
G01 X7.8723 Y10.9555
G01 X7.8960 Y10.9698
G01 X7.9231 Y10.9878
G01 X7.9465 Y11.0053
G01 X7.9705 Y11.0250
G01 X7.9910 Y11.0435
G01 X8.0140 Y11.0665
G01 X8.0325 Y11.0870
G01 X8.0532 Y11.1122
G01 X8.0697 Y11.1344
G01 X8.0877 Y11.1615
G01 X8.0980 Y11.1784
G01 X8.7841 Y11.1784
G01 X8.7923 Y11.1650
G01 X8.8095 Y11.1392
G01 X8.8259 Y11.1169
G01 X8.8475 Y11.0905
G01 X8.8660 Y11.0700
G01 X8.8890 Y11.0470
G01 X8.9107 Y11.0275
G01 X8.9347 Y11.0078
G01 X8.9556 Y10.9922
G01 X8.9827 Y10.9741
G01 X9.0077 Y10.9590
G01 X9.0364 Y10.9437
G01 X9.0614 Y10.9319
G01 X9.0929 Y10.9189
G01 X9.1175 Y10.9101
G01 X9.1501 Y10.9003
G01 X9.1754 Y10.8939
G01 X9.2058 Y10.8879
G01 X9.2332 Y10.8837
G01 X9.2671 Y10.8803
G01 X9.2932 Y10.8790
G01 X9.3110 Y10.8786
G01 X10.2126 Y10.8786
G01 X10.2549 Y10.8803
G01 X10.2888 Y10.8837
G01 X10.3146 Y10.8876
G01 X10.3450 Y10.8936
G01 X10.3734 Y10.9007
G01 X10.4060 Y10.9106
G01 X10.4306 Y10.9194
G01 X10.4592 Y10.9313
G01 X10.4856 Y10.9437
G01 X10.5143 Y10.9590
G01 X10.5393 Y10.9741
G01 X10.5651 Y10.9913
G01 X10.5861 Y11.0069
G01 X10.6125 Y11.0285
G01 X10.6341 Y11.0481
G01 X10.6560 Y11.0700
G01 X10.6735 Y11.0894
G01 X10.6952 Y11.1157
G01 X10.7125 Y11.1392
G01 X10.7297 Y11.1650
G01 X10.7379 Y11.1784
G01 X10.9470 Y11.1785
G01 X10.9632 Y11.1789
G01 X10.9942 Y11.1804
G01 X11.0251 Y11.1834
G01 X11.0603 Y11.1887
G01 X11.0907 Y11.1947
G01 X11.1208 Y11.2023
G01 X11.1535 Y11.2121
G01 X11.1841 Y11.2231
G01 X11.1966 Y11.2282
G01 X10.9936 Y11.0252
G01 X10.9813 Y11.0123
G01 X10.9605 Y10.9893
G01 X10.9389 Y10.9629
G01 X10.9204 Y10.9380
G01 X10.9032 Y10.9122
G01 X10.8856 Y10.8830
G01 X10.8703 Y10.8543
G01 X10.8557 Y10.8234
G01 X10.8439 Y10.7947
G01 X10.8329 Y10.7641
G01 X10.8231 Y10.7314
G01 X10.8155 Y10.7013
G01 X10.8092 Y10.6694
G01 X10.8042 Y10.6357
G01 X10.8012 Y10.6048
G01 X10.7997 Y10.5738
G01 X10.7992 Y10.5560
G01 X10.7992 Y10.4416
G01 X10.6109 Y10.4416
G01 X10.6027 Y10.4550
G01 X10.5855 Y10.4808
G01 X10.5691 Y10.5031
G01 X10.5475 Y10.5295
G01 X10.5290 Y10.5500
G01 X10.5060 Y10.5730
G01 X10.4843 Y10.5925
G01 X10.4603 Y10.6122
G01 X10.4394 Y10.6278
G01 X10.4110 Y10.6467
G01 X10.3860 Y10.6617
G01 X10.3586 Y10.6763
G01 X10.3350 Y10.6875
G01 X10.3036 Y10.7006
G01 X10.2775 Y10.7099
G01 X10.2464 Y10.7193
G01 X10.2180 Y10.7264
G01 X10.1861 Y10.7327
G01 X10.1603 Y10.7365
G01 X10.1294 Y10.7395
G01 X10.1018 Y10.7410
G01 X10.0840 Y10.7414
G01 X9.1840 Y10.7414
G01 X9.1662 Y10.7410
G01 X9.1401 Y10.7397
G01 X9.1062 Y10.7363
G01 X9.0804 Y10.7324
G01 X9.0484 Y10.7261
G01 X9.0201 Y10.7189
G01 X8.9905 Y10.7099
G01 X8.9659 Y10.7011
G01 X8.9344 Y10.6881
G01 X8.9080 Y10.6756
G01 X8.8807 Y10.6610
G01 X8.8583 Y10.6476
G01 X8.8286 Y10.6278
G01 X8.8077 Y10.6122
G01 X8.7825 Y10.5915
G01 X8.7620 Y10.5730
G01 X8.7390 Y10.5500
G01 X8.7205 Y10.5295
G01 X8.6998 Y10.5043
G01 X8.6833 Y10.4821
G01 X8.6653 Y10.4550
G01 X8.6510 Y10.4313
G01 X8.6357 Y10.4026
G01 X8.6239 Y10.3776
G01 X8.6114 Y10.3476
G01 X8.6021 Y10.3215
G01 X8.5927 Y10.2904
G01 X8.5859 Y10.2636
G01 X8.5796 Y10.2316
G01 X8.5755 Y10.2043
G01 X8.5725 Y10.1734
G01 X8.5710 Y10.1458
G01 X8.5706 Y10.1280
G01 X8.5706 Y9.4280
G01 X8.5710 Y9.4102
G01 X8.5723 Y9.3841
G01 X8.5755 Y9.3517
G01 X8.5796 Y9.3244
G01 X8.5856 Y9.2940
G01 X8.5931 Y9.2641
G01 X8.6021 Y9.2345
G01 X8.6114 Y9.2084
G01 X8.6239 Y9.1784
G01 X8.6350 Y9.1548
G01 X8.6518 Y9.1233
G01 X8.6653 Y9.1010
G01 X8.6833 Y9.0739
G01 X8.6998 Y9.0517
G01 X8.7195 Y9.0277
G01 X8.7401 Y9.0049
G01 X8.7620 Y8.9830
G01 X8.7825 Y8.9645
G01 X8.8077 Y8.9438
G01 X8.8286 Y8.9282
G01 X8.8570 Y8.9093
G01 X8.8807 Y8.8950
G01 X8.9080 Y8.8804
G01 X8.9358 Y8.8673
G01 X8.9644 Y8.8554
G01 X8.9905 Y8.8461
G01 X9.0216 Y8.8367
G01 X9.0469 Y8.8303
G01 X9.0819 Y8.8233
G01 X9.1077 Y8.8195
G01 X9.1401 Y8.8163
G01 X9.1662 Y8.8150
G01 X9.1840 Y8.8146
G01 X10.0840 Y8.8146
G01 X10.1018 Y8.8150
G01 X10.1294 Y8.8165
G01 X10.1603 Y8.8195
G01 X10.1876 Y8.8236
G01 X10.2196 Y8.8299
G01 X10.2464 Y8.8367
G01 X10.2775 Y8.8461
G01 X10.3050 Y8.8560
G01 X10.3350 Y8.8685
G01 X10.3586 Y8.8797
G01 X10.3860 Y8.8943
G01 X10.4110 Y8.9093
G01 X10.4381 Y8.9273
G01 X10.4603 Y8.9438
G01 X10.4855 Y8.9645
G01 X10.5060 Y8.9830
G01 X10.5300 Y9.0072
G01 X10.5475 Y9.0265
G01 X10.5691 Y9.0529
G01 X10.5855 Y9.0752
G01 X10.6027 Y9.1010
G01 X10.6109 Y9.1144
G01 X10.7992 Y9.1144
G01 X10.7992 Y9.0828
G01 X10.7997 Y9.0650
G01 X10.8012 Y9.0340
G01 X10.8044 Y9.0016
G01 X10.8092 Y8.9694
G01 X10.8152 Y8.9390
G01 X10.8239 Y8.9044
G01 X10.8329 Y8.8747
G01 X10.8439 Y8.8441
G01 X10.8563 Y8.8140
G01 X10.8696 Y8.7859
G01 X10.8864 Y8.7545
G01 X10.9024 Y8.7279
G01 X10.9204 Y8.7008
G01 X10.9398 Y8.6747
G01 X10.9595 Y8.6507
G01 X10.9813 Y8.6265
G01 X10.9936 Y8.6136
G01 X11.5411 Y8.0661
G01 X11.5200 Y8.0470
G01 X11.4970 Y8.0240
G01 X11.4785 Y8.0035
G01 X11.4578 Y7.9783
G01 X11.4413 Y7.9561
G01 X11.4233 Y7.9290
G01 X11.4090 Y7.9053
G01 X11.3930 Y7.8752
G01 X11.3819 Y7.8516
G01 X11.3689 Y7.8201
G01 X11.3601 Y7.7955
G01 X11.3511 Y7.7659
G01 X11.3443 Y7.7391
G01 X11.3376 Y7.7056
G01 X11.3335 Y7.6783
G01 X11.3303 Y7.6459
G01 X11.3290 Y7.6198
G01 X11.3286 Y7.6020
G01 X11.3286 Y6.6520
G01 X11.3290 Y6.6342
G01 X11.3305 Y6.6066
G01 X11.3335 Y6.5757
G01 X11.3379 Y6.5468
G01 X11.3439 Y6.5164
G01 X11.3503 Y6.4911
G01 X11.3596 Y6.4600
G01 X11.3694 Y6.4324
G01 X11.3813 Y6.4038
G01 X11.3937 Y6.3774
G01 X11.4090 Y6.3487
G01 X11.4233 Y6.3250
G01 X11.4405 Y6.2992
G01 X11.4578 Y6.2757
G01 X11.4785 Y6.2505
G01 X11.4970 Y6.2300
G01 X11.5200 Y6.2070
G01 X11.5405 Y6.1885
G01 X11.5657 Y6.1678
G01 X11.5879 Y6.1513
G01 X11.6159 Y6.1326
G01 X11.6159 Y5.6774
G01 X11.5969 Y5.6647
G01 X11.5759 Y5.6491
G01 X11.5507 Y5.6285
G01 X11.5290 Y5.6090
G01 X11.5071 Y5.5871
G01 X11.4875 Y5.5655
G01 X11.4668 Y5.5403
G01 X11.4503 Y5.5181
G01 X11.4323 Y5.4910
G01 X11.4180 Y5.4673
G01 X11.4027 Y5.4386
G01 X11.3909 Y5.4136
G01 X11.3779 Y5.3821
G01 X11.3686 Y5.3560
G01 X11.3597 Y5.3264
G01 X11.3533 Y5.3011
G01 X11.3466 Y5.2676
G01 X11.3425 Y5.2403
G01 X11.3393 Y5.2079
G01 X11.3380 Y5.1818
G01 X11.3376 Y5.1640
G01 X11.3376 Y4.2640
G01 X11.3380 Y4.2477
G01 X11.3393 Y4.2201
G01 X11.3424 Y4.1893
G01 X11.3469 Y4.1588
G01 X11.3529 Y4.1284
G01 X11.3597 Y4.1016
G01 X11.3691 Y4.0705
G01 X11.3779 Y4.0459
G01 X11.3909 Y4.0144
G01 X11.4027 Y3.9894
G01 X11.4180 Y3.9607
G01 X11.4331 Y3.9357
G01 X11.4512 Y3.9086
G01 X11.4668 Y3.8877
G01 X11.4865 Y3.8637
G01 X11.5060 Y3.8420
G01 X11.5302 Y3.8180
G01 X11.5495 Y3.8005
G01 X11.5735 Y3.7808
G01 X11.5956 Y3.7642
G01 X11.6240 Y3.7453
G01 X11.6477 Y3.7310
G01 X11.6778 Y3.7150
G01 X11.7014 Y3.7039
G01 X11.7300 Y3.6920
G01 X11.7575 Y3.6821
G01 X11.7886 Y3.6727
G01 X11.8170 Y3.6656
G01 X11.8474 Y3.6596
G01 X11.8732 Y3.6557
G01 X11.9071 Y3.6523
G01 X11.9494 Y3.6506
G01 X12.6510 Y3.6506
G01 X12.6688 Y3.6510
G01 X12.6964 Y3.6525
G01 X12.7273 Y3.6555
G01 X12.7546 Y3.6596
G01 X12.7866 Y3.6659
G01 X12.8119 Y3.6723
G01 X12.8460 Y3.6826
G01 X12.8706 Y3.6914
G01 X12.9006 Y3.7039
G01 X12.9256 Y3.7157
G01 X12.9530 Y3.7303
G01 X12.9793 Y3.7461
G01 X13.0051 Y3.7633
G01 X13.0273 Y3.7798
G01 X13.0525 Y3.8005
G01 X13.0718 Y3.8180
G01 X13.0960 Y3.8420
G01 X13.1155 Y3.8637
G01 X13.1352 Y3.8877
G01 X13.1517 Y3.9099
G01 X13.1697 Y3.9370
G01 X13.1832 Y3.9593
G01 X13.2000 Y3.9908
G01 X13.2111 Y4.0144
G01 X13.2236 Y4.0444
G01 X13.2329 Y4.0705
G01 X13.2419 Y4.1001
G01 X13.2494 Y4.1300
G01 X13.2554 Y4.1604
G01 X13.2595 Y4.1877
G01 X13.2627 Y4.2201
G01 X13.2640 Y4.2462
G01 X13.2644 Y4.2640
G01 X13.2644 Y5.1640
G01 X13.2640 Y5.1818
G01 X13.2627 Y5.2079
G01 X13.2595 Y5.2403
G01 X13.2554 Y5.2676
G01 X13.2494 Y5.2980
G01 X13.2423 Y5.3264
G01 X13.2329 Y5.3575
G01 X13.2236 Y5.3836
G01 X13.2105 Y5.4150
G01 X13.1993 Y5.4386
G01 X13.1832 Y5.4687
G01 X13.1697 Y5.4910
G01 X13.1525 Y5.5168
G01 X13.1361 Y5.5391
G01 X13.1145 Y5.5655
G01 X13.0960 Y5.5860
G01 X13.0730 Y5.6090
G01 X13.0525 Y5.6275
G01 X13.0273 Y5.6482
G01 X13.0051 Y5.6647
G01 X12.9780 Y5.6827
G01 X12.9543 Y5.6970
G01 X12.9431 Y5.7030
G01 X12.9431 Y6.1326
G01 X12.9711 Y6.1513
G01 X12.9933 Y6.1678
G01 X13.0185 Y6.1885
G01 X13.0401 Y6.2081
G01 X13.0620 Y6.2300
G01 X13.0815 Y6.2517
G01 X13.1012 Y6.2757
G01 X13.1168 Y6.2966
G01 X13.1349 Y6.3237
G01 X13.1500 Y6.3487
G01 X13.1653 Y6.3774
G01 X13.1771 Y6.4024
G01 X13.1896 Y6.4324
G01 X13.1989 Y6.4585
G01 X13.2083 Y6.4896
G01 X13.2151 Y6.5164
G01 X13.2217 Y6.5499
G01 X13.2255 Y6.5757
G01 X13.2287 Y6.6081
G01 X13.2300 Y6.6342
G01 X13.2304 Y6.6520
G01 X13.2304 Y7.6020
G01 X13.2300 Y7.6198
G01 X13.2285 Y7.6474
G01 X13.2255 Y7.6783
G01 X13.2217 Y7.7041
G01 X13.2151 Y7.7376
G01 X13.2083 Y7.7644
G01 X13.1989 Y7.7955
G01 X13.1890 Y7.8230
G01 X13.1771 Y7.8516
G01 X13.1660 Y7.8752
G01 X13.1500 Y7.9053
G01 X13.1357 Y7.9290
G01 X13.1168 Y7.9574
G01 X13.1012 Y7.9783
G01 X13.0815 Y8.0023
G01 X13.0620 Y8.0240
G01 X13.0378 Y8.0480
G01 X13.0185 Y8.0655
G01 X12.9945 Y8.0852
G01 X12.9711 Y8.1027
G01 X12.9431 Y8.1214
G01 X12.9431 Y8.2661
G01 X12.9426 Y8.2839
G01 X12.9412 Y8.3134
G01 X12.9377 Y8.3488
G01 X12.9331 Y8.3795
G01 X12.9271 Y8.4099
G01 X12.9184 Y8.4445
G01 X12.9094 Y8.4742
G01 X12.8978 Y8.5063
G01 X12.8860 Y8.5349
G01 X12.8720 Y8.5644
G01 X12.8567 Y8.5931
G01 X12.8399 Y8.6210
G01 X12.8219 Y8.6481
G01 X12.8025 Y8.6742
G01 X12.7818 Y8.6994
G01 X12.7610 Y8.7224
G01 X12.7498 Y8.7342
G01 X12.1264 Y9.3577
G01 X12.1264 Y10.2811
G01 X12.3337 Y10.4884
G01 X12.4946 Y10.4884
G01 X12.4728 Y10.4768
G01 X12.4588 Y10.4684
G01 X12.4317 Y10.4504
G01 X12.4161 Y10.4389
G01 X12.3922 Y10.4192
G01 X12.3777 Y10.4063
G01 X12.3547 Y10.3833
G01 X12.3428 Y10.3700
G01 X12.3221 Y10.3449
G01 X12.3115 Y10.3306
G01 X12.2926 Y10.3022
G01 X12.2835 Y10.2868
G01 X12.2689 Y10.2595
G01 X12.2619 Y10.2448
G01 X12.2488 Y10.2133
G01 X12.2428 Y10.1965
G01 X12.2333 Y10.1653
G01 X12.2290 Y10.1480
G01 X12.2227 Y10.1161
G01 X12.2200 Y10.0985
G01 X12.2169 Y10.0661
G01 X12.2160 Y10.0483
G01 X12.2156 Y10.0320
G01 X12.2156 Y9.7320
G01 X12.2169 Y9.6979
G01 X12.2200 Y9.6655
G01 X12.2227 Y9.6479
G01 X12.2290 Y9.6160
G01 X12.2333 Y9.5987
G01 X12.2428 Y9.5675
G01 X12.2488 Y9.5507
G01 X12.2613 Y9.5206
G01 X12.2689 Y9.5045
G01 X12.2842 Y9.4758
G01 X12.2934 Y9.4605
G01 X12.3115 Y9.4334
G01 X12.3212 Y9.4204
G01 X12.3438 Y9.3928
G01 X12.3547 Y9.3807
G01 X12.3777 Y9.3577
G01 X12.3910 Y9.3458
G01 X12.4149 Y9.3261
G01 X12.4317 Y9.3136
G01 X12.4575 Y9.2964
G01 X12.4728 Y9.2872
G01 X12.5015 Y9.2719
G01 X12.5162 Y9.2649
G01 X12.5492 Y9.2513
G01 X12.5645 Y9.2458
G01 X12.5957 Y9.2363
G01 X12.6145 Y9.2317
G01 X12.6449 Y9.2257
G01 X12.6625 Y9.2230
G01 X12.6949 Y9.2199
G01 X12.7274 Y9.2186
G01 X12.8904 Y9.2186
G01 X12.8904 Y9.1760
G01 X12.8909 Y9.1582
G01 X12.8924 Y9.1272
G01 X12.8954 Y9.0963
G01 X12.9007 Y9.0611
G01 X12.9067 Y9.0307
G01 X12.9147 Y8.9991
G01 X12.9241 Y8.9679
G01 X12.9351 Y8.9373
G01 X12.9475 Y8.9072
G01 X12.9541 Y8.8932
G01 X12.9615 Y8.8777
G01 X12.9768 Y8.8490
G01 X12.9936 Y8.8211
G01 X13.0116 Y8.7940
G01 X13.0310 Y8.7679
G01 X13.0507 Y8.7439
G01 X13.0725 Y8.7197
G01 X13.0848 Y8.7068
G01 X13.6785 Y8.1131
G01 X13.6629 Y8.1027
G01 X13.6419 Y8.0871
G01 X13.6167 Y8.0665
G01 X13.5950 Y8.0470
G01 X13.5731 Y8.0251
G01 X13.5535 Y8.0035
G01 X13.5328 Y7.9783
G01 X13.5163 Y7.9561
G01 X13.4991 Y7.9303
G01 X13.4840 Y7.9053
G01 X13.4687 Y7.8766
G01 X13.4569 Y7.8516
G01 X13.4444 Y7.8216
G01 X13.4351 Y7.7955
G01 X13.4257 Y7.7644
G01 X13.4189 Y7.7376
G01 X13.4129 Y7.7072
G01 X13.4085 Y7.6783
G01 X13.4055 Y7.6474
G01 X13.4040 Y7.6198
G01 X13.4036 Y7.6020
G01 X13.4036 Y6.6520
G01 X13.4040 Y6.6342
G01 X13.4053 Y6.6081
G01 X13.4085 Y6.5757
G01 X13.4129 Y6.5468
G01 X13.4189 Y6.5164
G01 X13.4257 Y6.4896
G01 X13.4351 Y6.4585
G01 X13.4450 Y6.4310
G01 X13.4569 Y6.4024
G01 X13.4680 Y6.3788
G01 X13.4840 Y6.3487
G01 X13.4983 Y6.3250
G01 X13.5172 Y6.2966
G01 X13.5328 Y6.2757
G01 X13.5525 Y6.2517
G01 X13.5720 Y6.2300
G01 X13.5962 Y6.2060
G01 X13.6155 Y6.1885
G01 X13.6395 Y6.1688
G01 X13.6629 Y6.1513
G01 X13.6909 Y6.1326
G01 X13.6909 Y5.7192
G01 X13.6764 Y5.7123
G01 X13.6490 Y5.6977
G01 X13.6240 Y5.6827
G01 X13.5956 Y5.6638
G01 X13.5747 Y5.6482
G01 X13.5495 Y5.6275
G01 X13.5290 Y5.6090
G01 X13.5071 Y5.5871
G01 X13.4875 Y5.5655
G01 X13.4668 Y5.5403
G01 X13.4512 Y5.5194
G01 X13.4323 Y5.4910
G01 X13.4173 Y5.4660
G01 X13.4027 Y5.4386
G01 X13.3909 Y5.4136
G01 X13.3779 Y5.3821
G01 X13.3691 Y5.3575
G01 X13.3597 Y5.3264
G01 X13.3526 Y5.2980
G01 X13.3466 Y5.2676
G01 X13.3425 Y5.2403
G01 X13.3393 Y5.2079
G01 X13.3380 Y5.1818
G01 X13.3376 Y5.1640
G01 X13.3376 Y4.2640
G01 X13.3380 Y4.2462
G01 X13.3395 Y4.2186
G01 X13.3425 Y4.1877
G01 X13.3469 Y4.1588
G01 X13.3529 Y4.1284
G01 X13.3593 Y4.1031
G01 X13.3686 Y4.0720
G01 X13.3784 Y4.0444
G01 X13.3903 Y4.0158
G01 X13.4027 Y3.9894
G01 X13.4180 Y3.9607
G01 X13.4323 Y3.9370
G01 X13.4503 Y3.9099
G01 X13.4668 Y3.8877
G01 X13.4875 Y3.8625
G01 X13.5060 Y3.8420
G01 X13.5302 Y3.8180
G01 X13.5495 Y3.8005
G01 X13.5759 Y3.7789
G01 X13.5982 Y3.7625
G01 X13.6240 Y3.7453
G01 X13.6374 Y3.7371
G01 X13.6374 Y3.5869
G01 X5.8068 Y3.5869
G01 X4.3286 Y5.0651
G01 X4.4110 Y5.0992
G01 X4.4110 Y28.0270
G01 X5.6250 Y29.2410
G01 X14.1540 Y29.2410
G01 X14.1190 Y29.2246
G01 X14.0889 Y29.2086
G01 X14.0514 Y29.1861
G01 X14.0231 Y29.1672
G01 X13.9938 Y29.1453
G01 X13.9670 Y29.1234
G01 X13.9410 Y29.0999
G01 X13.9259 Y29.0855
G01 X13.2975 Y28.4571
G01 X13.2831 Y28.4420
G01 X13.2580 Y28.4140
G01 X13.2364 Y28.3876
G01 X13.2147 Y28.3582
G01 X13.1955 Y28.3294
G01 X13.1779 Y28.3003
G01 X13.1573 Y28.2617
G01 X13.1428 Y28.2309
G01 X13.1296 Y28.1990
G01 X13.1172 Y28.1645
G01 X13.1072 Y28.1320
G01 X13.0968 Y28.0905
G01 X13.0900 Y28.0561
G01 X13.0849 Y28.0219
G01 X13.0813 Y27.9855
G01 X13.0801 Y27.9615
G01 X13.0713 Y27.9556
G01 X13.0460 Y27.9366
G01 X13.0205 Y27.9156
G01 X12.9969 Y27.8944
G01 X12.9679 Y27.8652
G01 X12.9484 Y27.8435
G01 X12.9265 Y27.8168
G01 X12.9075 Y27.7914
G01 X12.8886 Y27.7631
G01 X12.8698 Y27.7321
G01 X12.8535 Y27.7016
G01 X12.8410 Y27.6753
G01 X12.8250 Y27.6368
G01 X12.8090 Y27.6753
G01 X12.7965 Y27.7016
G01 X12.7814 Y27.7298
G01 X12.7628 Y27.7610
G01 X12.7410 Y27.7935
G01 X12.7235 Y27.8168
G01 X12.7033 Y27.8416
G01 X12.6790 Y27.8685
G01 X12.6545 Y27.8930
G01 X12.6330 Y27.9126
G01 X12.6028 Y27.9375
G01 X12.5736 Y27.9591
G01 X12.5470 Y27.9768
G01 X12.5220 Y27.9919
G01 X12.4876 Y28.0105
G01 X12.4547 Y28.0259
G01 X12.4252 Y28.0381
G01 X12.3978 Y28.0480
G01 X12.3603 Y28.0595
G01 X12.3251 Y28.0682
G01 X12.2937 Y28.0744
G01 X12.2639 Y28.0789
G01 X12.2239 Y28.0829
G01 X12.1959 Y28.0843
G01 X12.1760 Y28.0848
G01 X11.4750 Y28.0848
G01 X11.4541 Y28.0843
G01 X11.4261 Y28.0829
G01 X11.3851 Y28.0788
G01 X11.3563 Y28.0744
G01 X11.3204 Y28.0673
G01 X11.2897 Y28.0595
G01 X11.2590 Y28.0502
G01 X11.2225 Y28.0372
G01 X11.1929 Y28.0249
G01 X11.1665 Y28.0125
G01 X11.1280 Y27.9919
G01 X11.1030 Y27.9768
G01 X11.0743 Y27.9576
G01 X11.0452 Y27.9359
G01 X11.0205 Y27.9156
G01 X10.9981 Y27.8954
G01 X10.9710 Y27.8685
G01 X10.9497 Y27.8451
G01 X10.9265 Y27.8168
G01 X10.9090 Y27.7935
G01 X10.8872 Y27.7610
G01 X10.8721 Y27.7360
G01 X10.8515 Y27.6975
G01 X10.8391 Y27.6711
G01 X10.8252 Y27.6373
G01 X10.8145 Y27.6074
G01 X10.8040 Y27.5724
G01 X10.7963 Y27.5416
G01 X10.7892 Y27.5057
G01 X10.7846 Y27.4744
G01 X10.7814 Y27.4415
G01 X10.7797 Y27.4099
G01 X10.7792 Y27.3890
G01 X10.7792 Y26.4890
G01 X10.7796 Y26.4694
G01 X10.7807 Y26.4453
G01 X10.7840 Y26.4086
G01 X10.7881 Y26.3791
G01 X10.7944 Y26.3452
G01 X10.8011 Y26.3162
G01 X10.8105 Y26.2830
G01 X10.8200 Y26.2547
G01 X10.8324 Y26.2226
G01 X10.8455 Y26.1930
G01 X9.8686 Y26.1930
G01 X9.8469 Y26.2221
G01 X9.8379 Y26.2333
G01 X9.8492 Y26.2380
G01 X9.8830 Y26.2543
G01 X9.9145 Y26.2730
G01 X9.9255 Y26.2804
G01 X9.9556 Y26.3030
G01 X9.9839 Y26.3286
G01 X9.9915 Y26.3362
G01 X10.0119 Y26.3588
G01 X10.0195 Y26.3678
G01 X10.0421 Y26.3985
G01 X10.0617 Y26.4306
G01 X10.0680 Y26.4423
G01 X10.0835 Y26.4755
G01 X10.0967 Y26.5117
G01 X10.1003 Y26.5235
G01 X10.1091 Y26.5590
G01 X10.1149 Y26.5972
G01 X10.1161 Y26.6094
G01 X10.1178 Y26.6470
G01 X10.1178 Y28.2496
G01 X10.1158 Y28.2897
G01 X10.1103 Y28.3279
G01 X10.1083 Y28.3385
G01 X10.1005 Y28.3695
G01 X10.0964 Y28.3832
G01 X10.0835 Y28.4185
G01 X10.0656 Y28.4563
G01 X10.0432 Y28.4938
G01 X10.0210 Y28.5242
G01 X10.0119 Y28.5352
G01 X9.9904 Y28.5589
G01 X9.9828 Y28.5665
G01 X9.9540 Y28.5923
G01 X9.9205 Y28.6171
G01 X9.8830 Y28.6397
G01 X9.8492 Y28.6560
G01 X9.8369 Y28.6611
G01 X9.8004 Y28.6739
G01 X9.7600 Y28.6841
G01 X9.7228 Y28.6898
G01 X9.7096 Y28.6911
G01 X9.6720 Y28.6928
G01 X8.0720 Y28.6928
G01 X8.0273 Y28.6906
G01 X7.9921 Y28.6855
G01 X7.9825 Y28.6837
G01 X7.9416 Y28.6733
G01 X7.9005 Y28.6585
G01 X7.8627 Y28.6406
G01 X7.8252 Y28.6182
G01 X7.7900 Y28.5923
G01 X7.7575 Y28.5630
G01 X7.7280 Y28.5306
G01 X7.7048 Y28.4997
G01 X7.6980 Y28.4895
G01 X7.6801 Y28.4594
G01 X7.6630 Y28.4242
G01 X7.6584 Y28.4133
G01 X7.6476 Y28.3832
G01 X7.6435 Y28.3695
G01 X7.6346 Y28.3330
G01 X7.6282 Y28.2897
G01 X7.6262 Y28.2496
G01 X7.6262 Y28.1930
G01 X6.7188 Y28.1930
G01 X6.6968 Y28.2232
G01 X6.6736 Y28.2515
G01 X6.6510 Y28.2765
G01 X6.6265 Y28.3010
G01 X6.6015 Y28.3236
G01 X6.5732 Y28.3468
G01 X6.5477 Y28.3656
G01 X6.5151 Y28.3873
G01 X6.4901 Y28.4022
G01 X6.4619 Y28.4173
G01 X6.4333 Y28.4310
G01 X6.3972 Y28.4461
G01 X6.3698 Y28.4560
G01 X6.3323 Y28.4675
G01 X6.3016 Y28.4753
G01 X6.2657 Y28.4824
G01 X6.2324 Y28.4874
G01 X6.1959 Y28.4909
G01 X6.1679 Y28.4923
G01 X6.1470 Y28.4928
G01 X5.2470 Y28.4928
G01 X5.2261 Y28.4923
G01 X5.1981 Y28.4909
G01 X5.1616 Y28.4874
G01 X5.1258 Y28.4820
G01 X5.0944 Y28.4757
G01 X5.0636 Y28.4680
G01 X5.0242 Y28.4560
G01 X4.9968 Y28.4461
G01 X4.9673 Y28.4339
G01 X4.9344 Y28.4185
G01 X4.9000 Y28.3999
G01 X4.8750 Y28.3848
G01 X4.8484 Y28.3671
G01 X4.8192 Y28.3455
G01 X4.7890 Y28.3206
G01 X4.7675 Y28.3010
G01 X4.7430 Y28.2765
G01 X4.7187 Y28.2496
G01 X4.6985 Y28.2248
G01 X4.6810 Y28.2015
G01 X4.6592 Y28.1690
G01 X4.6406 Y28.1378
G01 X4.6255 Y28.1096
G01 X4.6130 Y28.0833
G01 X4.5972 Y28.0453
G01 X4.5865 Y28.0154
G01 X4.5760 Y27.9804
G01 X4.5683 Y27.9496
G01 X4.5618 Y27.9172
G01 X4.5569 Y27.8844
G01 X4.5534 Y27.8495
G01 X4.5517 Y27.8189
G01 X4.5512 Y27.8006
G01 X4.5512 Y27.0970
G01 X4.5515 Y27.0798
G01 X4.5530 Y27.0490
G01 X4.5565 Y27.0123
G01 X4.5604 Y26.9852
G01 X4.5659 Y26.9556
G01 X4.5731 Y26.9242
G01 X4.5831 Y26.8892
G01 X4.5935 Y26.8587
G01 X4.6044 Y26.8306
G01 X4.6154 Y26.8055
G01 X4.6317 Y26.7724
G01 X4.6484 Y26.7426
G01 X4.6643 Y26.7170
G01 X4.6797 Y26.6944
G01 X4.7018 Y26.6649
G01 X4.7230 Y26.6394
G01 X4.7470 Y26.6133
G01 X4.7664 Y26.5940
G01 X4.7887 Y26.5737
G01 X4.8149 Y26.5518
G01 X4.8436 Y26.5302
G01 X4.8670 Y26.5143
G01 X4.8926 Y26.4984
G01 X4.9207 Y26.4826
G01 X4.9546 Y26.4658
G01 X4.9788 Y26.4551
G01 X4.9994 Y26.4471
G01 X4.9607 Y26.4310
G01 X4.9344 Y26.4185
G01 X4.9039 Y26.4022
G01 X4.8729 Y26.3834
G01 X4.8463 Y26.3656
G01 X4.8208 Y26.3468
G01 X4.7890 Y26.3206
G01 X4.7675 Y26.3010
G01 X4.7430 Y26.2765
G01 X4.7187 Y26.2496
G01 X4.6985 Y26.2248
G01 X4.6795 Y26.1994
G01 X4.6567 Y26.1651
G01 X4.6418 Y26.1401
G01 X4.6255 Y26.1096
G01 X4.6101 Y26.0767
G01 X4.5979 Y26.0472
G01 X4.5872 Y26.0173
G01 X4.5753 Y25.9779
G01 X4.5683 Y25.9496
G01 X4.5616 Y25.9157
G01 X4.5563 Y25.8798
G01 X4.5531 Y25.8459
G01 X4.5516 Y25.8153
G01 X4.5512 Y25.7970
G01 X4.5512 Y25.0970
G01 X4.5516 Y25.0788
G01 X4.5530 Y25.0490
G01 X4.5557 Y25.0190
G01 X4.5604 Y24.9852
G01 X4.5673 Y24.9490
G01 X4.5736 Y24.9223
G01 X4.5821 Y24.8924
G01 X4.5926 Y24.8609
G01 X4.6051 Y24.8288
G01 X4.6172 Y24.8016
G01 X4.6337 Y24.7686
G01 X4.6484 Y24.7426
G01 X4.6643 Y24.7170
G01 X4.6797 Y24.6944
G01 X4.7018 Y24.6649
G01 X4.7208 Y24.6419
G01 X4.7440 Y24.6164
G01 X4.7664 Y24.5940
G01 X4.7919 Y24.5708
G01 X4.8168 Y24.5503
G01 X4.8409 Y24.5322
G01 X4.8634 Y24.5166
G01 X4.8926 Y24.4984
G01 X4.9207 Y24.4826
G01 X4.9510 Y24.4674
G01 X4.9510 Y23.7452
G01 X4.9195 Y23.7196
G01 X4.8959 Y23.6984
G01 X4.8700 Y23.6725
G01 X4.8487 Y23.6491
G01 X4.8255 Y23.6208
G01 X4.8065 Y23.5954
G01 X4.7862 Y23.5650
G01 X4.7698 Y23.5378
G01 X4.7525 Y23.5056
G01 X4.7389 Y23.4770
G01 X4.7249 Y23.4432
G01 X4.7142 Y23.4133
G01 X4.7035 Y23.3783
G01 X4.6957 Y23.3476
G01 X4.6886 Y23.3117
G01 X4.6839 Y23.2804
G01 X4.6801 Y23.2419
G01 X4.6787 Y23.2139
G01 X4.6782 Y23.1940
G01 X4.6782 Y22.4930
G01 X4.6787 Y22.4721
G01 X4.6801 Y22.4441
G01 X4.6842 Y22.4031
G01 X4.6886 Y22.3743
G01 X4.6948 Y22.3429
G01 X4.7035 Y22.3077
G01 X4.7150 Y22.2702
G01 X4.7249 Y22.2428
G01 X4.7371 Y22.2133
G01 X4.7525 Y22.1804
G01 X4.7711 Y22.1460
G01 X4.7862 Y22.1210
G01 X4.8039 Y22.0944
G01 X4.8255 Y22.0652
G01 X4.8474 Y22.0385
G01 X4.8669 Y22.0168
G01 X4.8945 Y21.9890
G01 X4.9214 Y21.9647
G01 X4.9462 Y21.9445
G01 X4.9695 Y21.9270
G01 X5.0020 Y21.9052
G01 X5.0332 Y21.8866
G01 X5.0614 Y21.8715
G01 X5.0877 Y21.8590
G01 X5.1262 Y21.8430
G01 X5.0900 Y21.8281
G01 X5.0591 Y21.8133
G01 X5.0309 Y21.7982
G01 X5.0059 Y21.7833
G01 X4.9733 Y21.7616
G01 X4.9442 Y21.7399
G01 X4.9195 Y21.7196
G01 X4.8978 Y21.7001
G01 X4.8700 Y21.6725
G01 X4.8457 Y21.6456
G01 X4.8255 Y21.6208
G01 X4.8080 Y21.5975
G01 X4.7862 Y21.5650
G01 X4.7676 Y21.5338
G01 X4.7525 Y21.5056
G01 X4.7400 Y21.4793
G01 X4.7249 Y21.4432
G01 X4.7128 Y21.4090
G01 X4.7035 Y21.3783
G01 X4.6963 Y21.3501
G01 X4.6882 Y21.3097
G01 X4.6836 Y21.2784
G01 X4.6802 Y21.2440
G01 X4.6787 Y21.2139
G01 X4.6782 Y21.1930
G01 X4.6782 Y20.4920
G01 X4.6787 Y20.4721
G01 X4.6801 Y20.4441
G01 X4.6836 Y20.4076
G01 X4.6890 Y20.3718
G01 X4.6953 Y20.3404
G01 X4.7030 Y20.3096
G01 X4.7150 Y20.2702
G01 X4.7249 Y20.2428
G01 X4.7371 Y20.2133
G01 X4.7525 Y20.1804
G01 X4.7711 Y20.1460
G01 X4.7862 Y20.1210
G01 X4.8039 Y20.0944
G01 X4.8264 Y20.0640
G01 X4.8487 Y20.0369
G01 X4.8700 Y20.0135
G01 X4.8959 Y19.9876
G01 X4.9214 Y19.9647
G01 X4.9478 Y19.9432
G01 X4.9754 Y19.9229
G01 X5.0059 Y19.9027
G01 X5.0309 Y19.8878
G01 X5.0591 Y19.8727
G01 X5.0900 Y19.8579
G01 X5.1238 Y19.8439
G01 X5.1556 Y19.8325
G01 X5.1906 Y19.8220
G01 X5.2214 Y19.8143
G01 X5.2573 Y19.8072
G01 X5.2886 Y19.8026
G01 X5.3266 Y19.7990
G01 X5.3531 Y19.7977
G01 X5.3740 Y19.7972
G01 X6.2740 Y19.7972
G01 X6.2936 Y19.7976
G01 X6.3201 Y19.7989
G01 X6.3563 Y19.8022
G01 X6.3858 Y19.8064
G01 X6.4220 Y19.8133
G01 X6.4487 Y19.8196
G01 X6.4777 Y19.8278
G01 X6.5060 Y19.8372
G01 X6.5404 Y19.8504
G01 X6.5677 Y19.8624
G01 X6.5986 Y19.8777
G01 X6.6263 Y19.8931
G01 X6.6556 Y19.9113
G01 X6.6821 Y19.9296
G01 X6.7061 Y19.9478
G01 X6.7272 Y19.9653
G01 X6.7535 Y19.9890
G01 X6.7770 Y20.0124
G01 X6.8002 Y20.0379
G01 X6.8201 Y20.0621
G01 X6.8388 Y20.0869
G01 X6.8459 Y20.0970
G01 X7.8191 Y20.0970
G01 X7.8295 Y20.0816
G01 X7.8494 Y20.0550
G01 X7.8717 Y20.0279
G01 X7.8941 Y20.0034
G01 X7.9189 Y19.9786
G01 X7.9425 Y19.9574
G01 X7.9708 Y19.9342
G01 X7.9975 Y19.9145
G01 X8.0267 Y19.8951
G01 X8.0539 Y19.8788
G01 X8.0844 Y19.8625
G01 X8.1149 Y19.8481
G01 X8.1468 Y19.8349
G01 X8.1786 Y19.8235
G01 X8.2136 Y19.8130
G01 X8.2469 Y19.8048
G01 X8.2803 Y19.7982
G01 X8.3116 Y19.7936
G01 X8.3481 Y19.7901
G01 X8.3761 Y19.7887
G01 X8.3944 Y19.7882
G01 X9.3496 Y19.7882
G01 X9.3679 Y19.7887
G01 X9.3959 Y19.7901
G01 X9.4324 Y19.7936
G01 X9.4657 Y19.7986
G01 X9.5031 Y19.8061
G01 X9.5348 Y19.8142
G01 X9.5654 Y19.8235
G01 X9.5929 Y19.8333
G01 X9.6291 Y19.8481
G01 X9.6596 Y19.8625
G01 X9.6940 Y19.8811
G01 X9.7190 Y19.8962
G01 X9.7456 Y19.9139
G01 X9.7732 Y19.9342
G01 X9.8015 Y19.9574
G01 X9.8265 Y19.9800
G01 X9.8534 Y20.0071
G01 X9.8753 Y20.0314
G01 X9.8955 Y20.0562
G01 X9.9100 Y20.0755
G01 X10.5726 Y20.0755
G01 X10.5935 Y20.0760
G01 X10.6285 Y20.0778
G01 X10.6649 Y20.0814
G01 X10.7011 Y20.0869
G01 X10.7370 Y20.0941
G01 X10.7725 Y20.1030
G01 X10.8075 Y20.1137
G01 X10.8420 Y20.1261
G01 X10.8772 Y20.1408
G01 X10.9070 Y20.1549
G01 X10.9208 Y20.1622
G01 X9.8587 Y19.1000
G01 X9.7870 Y19.0894
G01 X9.7526 Y19.0826
G01 X9.6489 Y19.0568
G01 X9.6095 Y19.0447
G01 X9.5147 Y19.0107
G01 X9.4809 Y18.9968
G01 X9.3816 Y18.9497
G01 X9.3503 Y18.9328
G01 X9.2630 Y18.8805
G01 X9.2309 Y18.8591
G01 X9.1500 Y18.7991
G01 X9.1181 Y18.7730
G01 X9.0416 Y18.7037
G01 X9.0157 Y18.6779
G01 X8.9450 Y18.5999
G01 X8.9189 Y18.5680
G01 X8.8563 Y18.4833
G01 X8.8367 Y18.4536
G01 X8.7857 Y18.3686
G01 X8.7662 Y18.3323
G01 X8.7227 Y18.2404
G01 X8.7073 Y18.2033
G01 X8.6733 Y18.1085
G01 X8.6606 Y18.0666
G01 X8.6362 Y17.9689
G01 X8.6290 Y17.9330
G01 X8.6135 Y17.8289
G01 X8.6097 Y17.7905
G01 X8.6047 Y17.6889
G01 X8.6045 Y17.6523
G01 X8.6096 Y17.5471
G01 X8.6129 Y17.5117
G01 X8.6294 Y17.4004
G01 X8.6365 Y17.3656
G01 X8.6618 Y17.2650
G01 X8.6730 Y17.2285
G01 X8.7080 Y17.1308
G01 X8.7220 Y17.0970
G01 X8.7651 Y17.0060
G01 X8.7857 Y16.9674
G01 X8.8375 Y16.8810
G01 X8.8589 Y16.8489
G01 X8.9195 Y16.7672
G01 X8.9426 Y16.7389
G01 X9.0132 Y16.6608
G01 X9.0383 Y16.6355
G01 X9.1216 Y16.5600
G01 X9.1492 Y16.5375
G01 X9.2309 Y16.4769
G01 X9.2630 Y16.4555
G01 X9.3494 Y16.4037
G01 X9.3880 Y16.3831
G01 X9.4790 Y16.3400
G01 X9.5128 Y16.3260
G01 X9.6119 Y16.2905
G01 X9.6489 Y16.2792
G01 X9.7476 Y16.2545
G01 X9.7834 Y16.2473
G01 X9.8876 Y16.2317
G01 X9.9230 Y16.2281
G01 X10.0353 Y16.2225
G01 X10.0709 Y16.2227
G01 X10.1745 Y16.2278
G01 X10.2124 Y16.2317
G01 X10.3150 Y16.2470
G01 X10.3509 Y16.2542
G01 X10.4486 Y16.2786
G01 X10.4905 Y16.2913
G01 X10.5853 Y16.3253
G01 X10.6224 Y16.3407
G01 X10.7129 Y16.3835
G01 X10.7453 Y16.4006
G01 X10.8356 Y16.4547
G01 X10.8653 Y16.4743
G01 X10.9556 Y16.5413
G01 X10.9830 Y16.5640
G01 X11.0599 Y16.6337
G01 X11.0868 Y16.6608
G01 X11.1564 Y16.7377
G01 X11.1795 Y16.7660
G01 X11.2396 Y16.8469
G01 X11.2639 Y16.8832
G01 X11.3156 Y16.9696
G01 X11.3338 Y17.0037
G01 X11.3773 Y17.0956
G01 X11.3911 Y17.1284
G01 X11.4289 Y17.2343
G01 X11.4391 Y17.2684
G01 X11.4646 Y17.3706
G01 X11.4716 Y17.4065
G01 X11.4865 Y17.5071
G01 X11.4903 Y17.5455
G01 X11.4953 Y17.6461
G01 X11.4953 Y17.6899
G01 X11.4903 Y17.7905
G01 X11.4868 Y17.8269
G01 X11.4716 Y17.9295
G01 X11.4643 Y17.9669
G01 X11.4375 Y18.0735
G01 X11.4270 Y18.1075
G01 X11.3920 Y18.2052
G01 X11.3773 Y18.2404
G01 X11.3329 Y18.3341
G01 X11.3156 Y18.3664
G01 X11.2854 Y18.4168
G01 X12.2036 Y19.3350
G01 X14.5880 Y19.3352
G01 X14.6089 Y19.3357
G01 X14.6292 Y19.3367
G01 X14.6610 Y19.3399
G01 X14.6872 Y19.3436
G01 X14.7211 Y19.3504
G01 X14.7399 Y19.3550
G01 X14.7793 Y19.3669
G01 X14.7999 Y19.3743
G01 X14.8295 Y19.3865
G01 X14.8534 Y19.3977
G01 X14.8839 Y19.4140
G01 X14.9005 Y19.4239
G01 X14.9369 Y19.4482
G01 X14.9524 Y19.4598
G01 X14.9771 Y19.4800
G01 X14.9935 Y19.4946
G01 X15.0213 Y19.5222
G01 X15.0373 Y19.5399
G01 X15.0620 Y19.5703
G01 X15.0735 Y19.5858
G01 X15.0913 Y19.6124
G01 X15.1050 Y19.6351
G01 X15.1213 Y19.6656
G01 X15.1315 Y19.6872
G01 X15.1463 Y19.7234
G01 X15.1528 Y19.7416
G01 X15.1621 Y19.7722
G01 X15.1682 Y19.7959
G01 X15.1754 Y19.8318
G01 X15.1789 Y19.8554
G01 X15.1824 Y19.8919
G01 X15.1838 Y19.9300
G01 X15.1838 Y20.2310
G01 X15.1827 Y20.2664
G01 X15.1794 Y20.3021
G01 X15.1759 Y20.3268
G01 X15.1703 Y20.3564
G01 X15.1663 Y20.3741
G01 X15.1563 Y20.4096
G01 X15.1491 Y20.4309
G01 X15.1383 Y20.4590
G01 X15.1272 Y20.4840
G01 X15.1138 Y20.5110
G01 X15.1038 Y20.5290
G01 X15.0857 Y20.5583
G01 X15.0741 Y20.5753
G01 X15.0534 Y20.6028
G01 X15.0418 Y20.6169
G01 X15.0158 Y20.6456
G01 X15.0012 Y20.6601
G01 X14.9771 Y20.6820
G01 X14.9613 Y20.6952
G01 X14.9484 Y20.7051
G01 X15.0815 Y20.7051
G01 X15.5921 Y20.1945
G01 X15.5921 Y19.0142
G01 X15.5926 Y18.9933
G01 X15.5937 Y18.9701
G01 X15.5973 Y18.9337
G01 X15.6020 Y18.9027
G01 X15.6082 Y18.8713
G01 X15.6141 Y18.8478
G01 X15.6253 Y18.8103
G01 X15.6350 Y18.7831
G01 X15.6501 Y18.7470
G01 X15.6605 Y18.7251
G01 X15.6756 Y18.6969
G01 X15.6917 Y18.6699
G01 X15.7109 Y18.6412
G01 X15.7280 Y18.6180
G01 X15.7513 Y18.5898
G01 X15.7669 Y18.5726
G01 X15.7806 Y18.5582
G01 X16.9712 Y17.3676
G01 X16.9856 Y17.3539
G01 X17.0055 Y17.3360
G01 X17.0310 Y17.3150
G01 X17.0542 Y17.2979
G01 X17.0829 Y17.2787
G01 X17.1059 Y17.2648
G01 X17.1381 Y17.2475
G01 X17.1600 Y17.2371
G01 X17.1961 Y17.2220
G01 X17.2213 Y17.2129
G01 X17.2564 Y17.2022
G01 X17.2843 Y17.1952
G01 X17.3182 Y17.1885
G01 X17.3467 Y17.1843
G01 X17.3831 Y17.1807
G01 X17.4063 Y17.1796
G01 X17.4262 Y17.1791
G01 X22.4556 Y17.1791
G01 X21.4823 Y16.2057
G01 X14.4854 Y16.2057
G01 X14.4645 Y16.2052
G01 X14.4413 Y16.2041
G01 X14.4029 Y16.2003
G01 X14.3764 Y16.1963
G01 X14.3450 Y16.1901
G01 X14.3146 Y16.1826
G01 X14.2771 Y16.1710
G01 X14.2543 Y16.1628
G01 X14.2248 Y16.1506
G01 X14.1982 Y16.1382
G01 X14.1659 Y16.1210
G01 X14.1411 Y16.1061
G01 X14.1087 Y16.0843
G01 X14.0892 Y16.0698
G01 X14.0645 Y16.0495
G01 X14.0445 Y16.0316
G01 X14.0287 Y16.0165
G01 X13.0973 Y15.0851
G01 X13.0829 Y15.0700
G01 X13.0673 Y15.0528
G01 X13.0450 Y15.0258
G01 X13.0269 Y15.0014
G01 X13.0066 Y14.9710
G01 X12.9928 Y14.9479
G01 X12.9745 Y14.9133
G01 X12.9642 Y14.8914
G01 X12.9519 Y14.8618
G01 X12.9428 Y14.8367
G01 X12.9312 Y14.7992
G01 X12.9247 Y14.7733
G01 X12.9175 Y14.7374
G01 X12.9139 Y14.7134
G01 X12.9096 Y14.6699
G01 X12.9081 Y14.6294
G01 X12.9081 Y14.4380
G01 X12.0793 Y14.4380
G01 X12.0598 Y14.4523
G01 X12.0324 Y14.4707
G01 X11.9979 Y14.4914
G01 X11.9674 Y14.5077
G01 X11.9367 Y14.5223
G01 X11.8987 Y14.5382
G01 X11.8661 Y14.5498
G01 X11.8336 Y14.5598
G01 X11.7936 Y14.5699
G01 X11.7597 Y14.5766
G01 X11.7260 Y14.5817
G01 X11.6851 Y14.5858
G01 X11.6521 Y14.5875
G01 X11.6312 Y14.5880
G01 X10.7828 Y14.5880
G01 X10.7608 Y14.6182
G01 X10.7376 Y14.6465
G01 X10.7150 Y14.6715
G01 X10.6872 Y14.6991
G01 X10.6636 Y14.7203
G01 X10.6388 Y14.7405
G01 X10.6155 Y14.7580
G01 X10.5830 Y14.7798
G01 X10.5558 Y14.7962
G01 X10.5218 Y14.8144
G01 X10.4907 Y14.8289
G01 X10.4569 Y14.8427
G01 X10.4294 Y14.8525
G01 X10.3988 Y14.8618
G01 X10.3656 Y14.8703
G01 X10.3277 Y14.8778
G01 X10.2964 Y14.8824
G01 X10.2574 Y14.8861
G01 X10.2319 Y14.8873
G01 X10.2110 Y14.8878
G01 X9.3100 Y14.8878
G01 X9.2901 Y14.8873
G01 X9.2585 Y14.8856
G01 X9.2236 Y14.8821
G01 X9.1898 Y14.8770
G01 X9.1564 Y14.8703
G01 X9.1257 Y14.8625
G01 X9.0926 Y14.8525
G01 X9.0608 Y14.8411
G01 X9.0289 Y14.8279
G01 X9.0002 Y14.8144
G01 X8.9679 Y14.7972
G01 X8.9390 Y14.7798
G01 X8.9103 Y14.7606
G01 X8.8848 Y14.7418
G01 X8.8565 Y14.7186
G01 X8.8315 Y14.6960
G01 X8.8070 Y14.6715
G01 X8.7844 Y14.6465
G01 X8.7612 Y14.6182
G01 X8.7392 Y14.5880
G01 X8.1704 Y14.5880
G01 X8.1568 Y14.6105
G01 X8.1391 Y14.6371
G01 X8.1203 Y14.6627
G01 X8.0956 Y14.6930
G01 X8.0730 Y14.7180
G01 X8.0452 Y14.7456
G01 X8.0235 Y14.7651
G01 X7.9988 Y14.7854
G01 X7.9714 Y14.8060
G01 X7.9393 Y14.8274
G01 X7.9098 Y14.8449
G01 X7.8816 Y14.8600
G01 X7.8553 Y14.8725
G01 X7.8192 Y14.8876
G01 X7.7874 Y14.8990
G01 X7.7524 Y14.9095
G01 X7.7191 Y14.9177
G01 X7.6877 Y14.9239
G01 X7.6589 Y14.9283
G01 X7.6200 Y14.9323
G01 X7.5899 Y14.9338
G01 X7.5690 Y14.9343
G01 X6.6190 Y14.9343
G01 X6.5981 Y14.9338
G01 X6.5701 Y14.9324
G01 X6.5362 Y14.9292
G01 X6.4978 Y14.9235
G01 X6.4664 Y14.9172
G01 X6.4356 Y14.9095
G01 X6.3962 Y14.8975
G01 X6.3688 Y14.8876
G01 X6.3393 Y14.8754
G01 X6.3064 Y14.8600
G01 X6.2720 Y14.8414
G01 X6.2470 Y14.8263
G01 X6.2204 Y14.8086
G01 X6.1892 Y14.7854
G01 X6.1645 Y14.7651
G01 X6.1409 Y14.7439
G01 X6.1150 Y14.7180
G01 X6.0954 Y14.6965
G01 X6.0677 Y14.6627
G01 X6.0504 Y14.6392
G01 X6.0301 Y14.6088
G01 X6.0138 Y14.5816
G01 X5.9966 Y14.5493
G01 X5.9831 Y14.5206
G01 X5.9708 Y14.4910
G01 X5.9578 Y14.4545
G01 X5.9480 Y14.4219
G01 X5.9403 Y14.3911
G01 X5.9336 Y14.3572
G01 X5.9286 Y14.3239
G01 X5.9251 Y14.2874
G01 X5.9237 Y14.2594
G01 X5.9232 Y14.2421
G01 X5.9232 Y13.5609
G01 X5.9237 Y13.5426
G01 X5.9251 Y13.5146
G01 X5.9286 Y13.4781
G01 X5.9336 Y13.4448
G01 X5.9411 Y13.4074
G01 X5.9492 Y13.3757
G01 X5.9585 Y13.3451
G01 X5.9683 Y13.3176
G01 X5.9831 Y13.2814
G01 X5.9982 Y13.2495
G01 X6.0161 Y13.2165
G01 X6.0312 Y13.1915
G01 X6.0489 Y13.1649
G01 X6.0692 Y13.1373
G01 X6.0937 Y13.1074
G01 X6.1168 Y13.0821
G01 X6.1395 Y13.0595
G01 X6.1610 Y13.0399
G01 X6.1912 Y13.0150
G01 X6.2204 Y12.9934
G01 X6.2470 Y12.9757
G01 X6.2720 Y12.9606
G01 X6.3064 Y12.9420
G01 X6.3393 Y12.9266
G01 X6.3688 Y12.9144
G01 X6.3962 Y12.9045
G01 X6.4337 Y12.8930
G01 X6.4689 Y12.8843
G01 X6.5003 Y12.8781
G01 X6.5291 Y12.8737
G01 X6.5665 Y12.8699
G01 X6.5981 Y12.8682
G01 X6.6190 Y12.8677
G01 X7.5690 Y12.8677
G01 X7.5899 Y12.8682
G01 X7.6200 Y12.8697
G01 X7.6564 Y12.8734
G01 X7.6877 Y12.8781
G01 X7.7236 Y12.8852
G01 X7.7543 Y12.8930
G01 X7.7893 Y12.9037
G01 X7.8192 Y12.9144
G01 X7.8544 Y12.9291
G01 X7.8816 Y12.9420
G01 X7.9138 Y12.9593
G01 X7.9410 Y12.9757
G01 X7.9727 Y12.9969
G01 X7.9968 Y13.0150
G01 X8.0262 Y13.0392
G01 X8.0496 Y13.0606
G01 X8.0730 Y13.0840
G01 X8.0840 Y13.0960
G01 X8.7392 Y13.0960
G01 X8.7450 Y13.0875
G01 X8.7634 Y13.0630
G01 X8.7844 Y13.0375
G01 X8.8056 Y13.0139
G01 X8.8348 Y12.9849
G01 X8.8565 Y12.9654
G01 X8.8832 Y12.9435
G01 X8.9124 Y12.9219
G01 X8.9407 Y12.9031
G01 X8.9679 Y12.8868
G01 X8.9984 Y12.8705
G01 X9.0247 Y12.8580
G01 X9.0632 Y12.8420
G01 X9.0247 Y12.8260
G01 X8.9984 Y12.8135
G01 X8.9679 Y12.7972
G01 X8.9369 Y12.7784
G01 X8.9086 Y12.7595
G01 X8.8832 Y12.7405
G01 X8.8565 Y12.7186
G01 X8.8348 Y12.6991
G01 X8.8056 Y12.6701
G01 X8.7844 Y12.6465
G01 X8.7634 Y12.6210
G01 X8.7450 Y12.5965
G01 X8.7392 Y12.5880
G01 X8.1201 Y12.5880
G01 X8.0956 Y12.6180
G01 X8.0744 Y12.6416
G01 X8.0485 Y12.6675
G01 X8.0270 Y12.6871
G01 X7.9968 Y12.7120
G01 X7.9735 Y12.7295
G01 X7.9371 Y12.7538
G01 X7.9121 Y12.7687
G01 X7.8798 Y12.7859
G01 X7.8511 Y12.7994
G01 X7.8173 Y12.8133
G01 X7.7874 Y12.8240
G01 X7.7524 Y12.8345
G01 X7.7216 Y12.8422
G01 X7.6857 Y12.8493
G01 X7.6544 Y12.8539
G01 X7.6200 Y12.8573
G01 X7.5899 Y12.8588
G01 X7.5690 Y12.8593
G01 X6.6190 Y12.8593
G01 X6.5981 Y12.8588
G01 X6.5701 Y12.8574
G01 X6.5291 Y12.8533
G01 X6.5003 Y12.8489
G01 X6.4689 Y12.8427
G01 X6.4337 Y12.8340
G01 X6.4006 Y12.8240
G01 X6.3731 Y12.8142
G01 X6.3350 Y12.7986
G01 X6.3064 Y12.7850
G01 X6.2782 Y12.7699
G01 X6.2470 Y12.7513
G01 X6.2145 Y12.7295
G01 X6.1912 Y12.7120
G01 X6.1664 Y12.6918
G01 X6.1376 Y12.6657
G01 X6.1150 Y12.6430
G01 X6.0954 Y12.6215
G01 X6.0705 Y12.5913
G01 X6.0489 Y12.5621
G01 X6.0312 Y12.5355
G01 X6.0161 Y12.5105
G01 X5.9975 Y12.4761
G01 X5.9821 Y12.4432
G01 X5.9699 Y12.4137
G01 X5.9592 Y12.3838
G01 X5.9473 Y12.3444
G01 X5.9403 Y12.3161
G01 X5.9332 Y12.2802
G01 X5.9286 Y12.2489
G01 X5.9254 Y12.2160
G01 X5.9237 Y12.1844
G01 X5.9232 Y12.1645
G01 X5.9232 Y11.4885
G01 X5.9236 Y11.4702
G01 X5.9252 Y11.4375
G01 X5.9292 Y11.3986
G01 X5.9340 Y11.3673
G01 X5.9403 Y11.3359
G01 X5.9473 Y11.3076
G01 X5.9585 Y11.2701
G01 X5.9692 Y11.2402
G01 X5.9839 Y11.2045
G01 X5.9987 Y11.1736
G01 X6.0138 Y11.1454
G01 X6.0287 Y11.1204
G01 X6.0489 Y11.0899
G01 X6.0692 Y11.0623
G01 X6.0937 Y11.0324
G01 X6.1150 Y11.0090
G01 X6.1428 Y10.9814
G01 X6.1645 Y10.9619
G01 X6.1892 Y10.9416
G01 X6.2153 Y10.9219
G01 X6.2470 Y10.9007
G01 X6.2759 Y10.8833
G01 X6.3082 Y10.8661
G01 X6.3350 Y10.8534
G01 X6.3480 Y10.8480
G01 X6.3480 Y10.7574
G01 X6.3314 Y10.7495
G01 X6.2992 Y10.7322
G01 X6.2720 Y10.7158
G01 X6.2445 Y10.6975
G01 X6.2142 Y10.6749
G01 X6.1895 Y10.6546
G01 X6.1671 Y10.6344
G01 X6.1369 Y10.6042
G01 X6.1174 Y10.5825
G01 X6.0955 Y10.5558
G01 X6.0739 Y10.5266
G01 X6.0562 Y10.5000
G01 X6.0398 Y10.4728
G01 X6.0216 Y10.4388
G01 X6.0071 Y10.4077
G01 X5.9949 Y10.3782
G01 X5.9850 Y10.3508
G01 X5.9735 Y10.3133
G01 X5.9653 Y10.2806
G01 X5.9578 Y10.2422
G01 X5.9536 Y10.2134
G01 X5.9504 Y10.1815
G01 X5.9486 Y10.1463
G01 X5.9482 Y10.1280
G01 X5.9482 Y9.4280
G01 X5.9487 Y9.4071
G01 X5.9502 Y9.3770
G01 X5.9533 Y9.3452
G01 X5.9586 Y9.3093
G01 X5.9653 Y9.2754
G01 X5.9723 Y9.2471
G01 X5.9835 Y9.2096
G01 X5.9949 Y9.1778
G01 X6.0089 Y9.1440
G01 X6.0225 Y9.1154
G01 X6.0411 Y9.0810
G01 X6.0562 Y9.0560
G01 X6.0739 Y9.0294
G01 X6.0927 Y9.0038
G01 X6.1174 Y8.9735
G01 X6.1400 Y8.9485
G01 X6.1659 Y8.9226
G01 X6.1914 Y8.8997
G01 X6.2162 Y8.8795
G01 X6.2395 Y8.8620
G01 X6.2699 Y8.8416
G01 X6.2992 Y8.8238
G01 X6.3332 Y8.8056
G01 X6.3619 Y8.7921
G01 X6.3962 Y8.7780
G01 X6.3577 Y8.7620
G01 X6.3314 Y8.7495
G01 X6.3009 Y8.7332
G01 X6.2699 Y8.7144
G01 X6.2433 Y8.6966
G01 X6.2178 Y8.6778
G01 X6.1860 Y8.6516
G01 X6.1645 Y8.6320
G01 X6.1400 Y8.6075
G01 X6.1157 Y8.5806
G01 X6.0955 Y8.5558
G01 X6.0780 Y8.5325
G01 X6.0537 Y8.4961
G01 X6.0388 Y8.4711
G01 X6.0237 Y8.4429
G01 X6.0081 Y8.4101
G01 X5.9933 Y8.3739
G01 X5.9835 Y8.3464
G01 X5.9742 Y8.3158
G01 X5.9653 Y8.2806
G01 X5.9586 Y8.2467
G01 X5.9542 Y8.2179
G01 X5.9499 Y8.1744
G01 X5.9487 Y8.1489
G01 X5.9482 Y8.1280
G01 X5.9482 Y7.4280
G01 X5.9486 Y7.4097
G01 X5.9504 Y7.3745
G01 X5.9536 Y7.3426
G01 X5.9578 Y7.3138
G01 X5.9653 Y7.2754
G01 X5.9735 Y7.2427
G01 X5.9842 Y7.2077
G01 X5.9958 Y7.1755
G01 X6.0100 Y7.1417
G01 X6.0225 Y7.1154
G01 X6.0376 Y7.0872
G01 X6.0551 Y7.0577
G01 X6.0754 Y7.0273
G01 X6.0955 Y7.0002
G01 X6.1174 Y6.9735
G01 X6.1400 Y6.9485
G01 X6.1659 Y6.9226
G01 X6.1895 Y6.9014
G01 X6.2190 Y6.8773
G01 X6.2433 Y6.8594
G01 X6.2750 Y6.8383
G01 X6.3023 Y6.8221
G01 X6.3314 Y6.8065
G01 X6.3480 Y6.7986
G01 X6.3480 Y6.4202
G01 X6.3338 Y6.4129
G01 X6.3012 Y6.3932
G01 X6.2708 Y6.3710
G01 X6.2617 Y6.3637
G01 X6.2335 Y6.3380
G01 X6.2081 Y6.3102
G01 X6.1996 Y6.3000
G01 X6.1779 Y6.2705
G01 X6.1578 Y6.2375
G01 X6.1520 Y6.2267
G01 X6.1365 Y6.1935
G01 X6.1236 Y6.1582
G01 X6.1197 Y6.1455
G01 X6.1109 Y6.1100
G01 X6.1052 Y6.0728
G01 X6.1041 Y6.0631
G01 X6.1022 Y6.0220
G01 X6.1023 Y4.4174
G01 X6.1039 Y4.3844
G01 X6.1046 Y4.3757
G01 X6.1099 Y4.3395
G01 X6.1123 Y4.3280
G01 X6.1217 Y4.2916
G01 X6.1335 Y4.2581
G01 X6.1379 Y4.2472
G01 X6.1520 Y4.2173
G01 X6.1578 Y4.2065
G01 X6.1779 Y4.1735
G01 X6.1996 Y4.1440
G01 X6.2074 Y4.1345
G01 X6.2320 Y4.1075
G01 X6.2598 Y4.0821
G01 X6.2700 Y4.0736
G01 X6.2995 Y4.0519
G01 X6.3387 Y4.0284
G01 X6.3718 Y4.0126
G01 X6.3841 Y4.0075
G01 X6.4196 Y3.9951
G01 X6.4540 Y3.9863
G01 X6.4655 Y3.9839
G01 X6.5017 Y3.9786
G01 X6.5114 Y3.9778
G01 X6.5480 Y3.9762
G01 X8.1506 Y3.9762
G01 X8.1907 Y3.9782
G01 X8.2279 Y3.9835
G01 X8.2410 Y3.9861
G01 X8.2784 Y3.9957
G01 X8.3177 Y4.0097
G01 X8.3518 Y4.0256
G01 X8.3635 Y4.0318
G01 X8.3965 Y4.0519
G01 X8.4300 Y4.0767
G01 X8.4581 Y4.1018
G01 X8.4675 Y4.1112
G01 X8.4933 Y4.1400
G01 X8.5181 Y4.1735
G01 X8.5382 Y4.2065
G01 X8.5444 Y4.2182
G01 X8.5581 Y4.2472
G01 X8.5617 Y4.2561
G01 X8.5749 Y4.2455
G01 X8.6438 Y4.1946
G01 X8.6722 Y4.1758
G01 X8.7470 Y4.1310
G01 X8.7780 Y4.1146
G01 X8.8554 Y4.0780
G01 X8.8893 Y4.0640
G01 X8.9665 Y4.0364
G01 X9.0050 Y4.0246
G01 X9.0836 Y4.0049
G01 X9.1265 Y3.9964
G01 X9.2067 Y3.9845
G01 X9.2431 Y3.9809
G01 X9.3287 Y3.9766
G01 X9.3673 Y3.9766
G01 X9.4509 Y3.9807
G01 X9.4873 Y3.9843
G01 X9.5720 Y3.9968
G01 X9.6079 Y4.0039
G01 X9.6910 Y4.0246
G01 X9.7261 Y4.0352
G01 X9.8067 Y4.0640
G01 X9.8406 Y4.0780
G01 X9.9180 Y4.1146
G01 X9.9503 Y4.1318
G01 X10.0238 Y4.1758
G01 X10.0543 Y4.1961
G01 X10.1231 Y4.2471
G01 X10.1515 Y4.2702
G01 X10.2150 Y4.3277
G01 X10.2423 Y4.3550
G01 X10.2984 Y4.4170
G01 X10.3201 Y4.4433
G01 X10.3754 Y4.5178
G01 X10.3942 Y4.5462
G01 X10.4382 Y4.6197
G01 X10.4554 Y4.6520
G01 X10.4912 Y4.7276
G01 X10.5060 Y4.7633
G01 X10.5348 Y4.8439
G01 X10.5454 Y4.8790
G01 X10.5651 Y4.9576
G01 X10.5736 Y5.0005
G01 X10.5855 Y5.0807
G01 X10.5894 Y5.1207
G01 X10.5934 Y5.2027
G01 X10.5935 Y5.2367
G01 X10.5889 Y5.3294
G01 X10.5855 Y5.3633
G01 X10.5729 Y5.4480
G01 X10.5657 Y5.4839
G01 X10.5458 Y5.5635
G01 X10.5342 Y5.6020
G01 X10.5069 Y5.6783
G01 X10.4901 Y5.7188
G01 X10.4554 Y5.7920
G01 X10.4390 Y5.8230
G01 X10.3950 Y5.8965
G01 X10.3800 Y5.9193
G01 X10.3800 Y6.7986
G01 X10.3966 Y6.8065
G01 X10.4257 Y6.8221
G01 X10.4560 Y6.8402
G01 X10.4847 Y6.8594
G01 X10.5082 Y6.8767
G01 X10.5401 Y6.9027
G01 X10.5635 Y6.9240
G01 X10.5862 Y6.9466
G01 X10.6106 Y6.9735
G01 X10.6325 Y7.0002
G01 X10.6500 Y7.0235
G01 X10.6718 Y7.0560
G01 X10.6904 Y7.0872
G01 X10.7055 Y7.1154
G01 X10.7191 Y7.1440
G01 X10.7347 Y7.1821
G01 X10.7445 Y7.2096
G01 X10.7541 Y7.2412
G01 X10.7632 Y7.2779
G01 X10.7694 Y7.3093
G01 X10.7739 Y7.3391
G01 X10.7779 Y7.3791
G01 X10.7793 Y7.4071
G01 X10.7798 Y7.4244
G01 X10.7798 Y8.1280
G01 X10.7793 Y8.1489
G01 X10.7778 Y8.1790
G01 X10.7747 Y8.2108
G01 X10.7694 Y8.2467
G01 X10.7627 Y8.2806
G01 X10.7557 Y8.3089
G01 X10.7438 Y8.3483
G01 X10.7331 Y8.3782
G01 X10.7180 Y8.4143
G01 X10.7043 Y8.4429
G01 X10.6892 Y8.4711
G01 X10.6743 Y8.4961
G01 X10.6526 Y8.5287
G01 X10.6338 Y8.5542
G01 X10.6106 Y8.5825
G01 X10.5880 Y8.6075
G01 X10.5621 Y8.6334
G01 X10.5366 Y8.6563
G01 X10.5118 Y8.6765
G01 X10.4885 Y8.6940
G01 X10.4581 Y8.7144
G01 X10.4288 Y8.7322
G01 X10.3948 Y8.7504
G01 X10.3661 Y8.7639
G01 X10.3318 Y8.7780
G01 X10.3703 Y8.7940
G01 X10.3966 Y8.8065
G01 X10.4271 Y8.8228
G01 X10.4543 Y8.8391
G01 X10.4826 Y8.8579
G01 X10.5118 Y8.8795
G01 X10.5385 Y8.9014
G01 X10.5602 Y8.9209
G01 X10.5894 Y8.9499
G01 X10.6106 Y8.9735
G01 X10.6316 Y8.9990
G01 X10.6500 Y9.0235
G01 X10.6558 Y9.0320
G01 X10.7188 Y9.0320
G01 X10.7225 Y8.9925
G01 X10.7286 Y8.9518
G01 X10.7354 Y8.9184
G01 X10.7431 Y8.8873
G01 X10.7558 Y8.8455
G01 X10.7666 Y8.8153
G01 X10.7796 Y8.7839
G01 X10.7971 Y8.7466
G01 X10.8134 Y8.7161
G01 X10.8308 Y8.6868
G01 X10.8546 Y8.6513
G01 X10.8742 Y8.6248
G01 X10.8964 Y8.5976
G01 X10.9202 Y8.5712
G01 X10.9335 Y8.5572
G01 X11.4242 Y8.0664
G01 X11.4144 Y8.0554
G01 X11.3913 Y8.0270
G01 X11.3734 Y8.0027
G01 X11.3542 Y7.9740
G01 X11.3356 Y7.9428
G01 X11.3205 Y7.9146
G01 X11.3069 Y7.8860
G01 X11.2913 Y7.8479
G01 X11.2815 Y7.8204
G01 X11.2715 Y7.7873
G01 X11.2628 Y7.7521
G01 X11.2566 Y7.7207
G01 X11.2519 Y7.6894
G01 X11.2481 Y7.6509
G01 X11.2467 Y7.6229
G01 X11.2462 Y7.6020
G01 X11.2462 Y6.6520
G01 X11.2467 Y6.6301
G01 X11.2482 Y6.6010
G01 X11.2522 Y6.5621
G01 X11.2570 Y6.5308
G01 X11.2633 Y6.4994
G01 X11.2703 Y6.4711
G01 X11.2815 Y6.4336
G01 X11.2922 Y6.4037
G01 X11.3069 Y6.3680
G01 X11.3217 Y6.3371
G01 X11.3391 Y6.3050
G01 X11.3542 Y6.2800
G01 X11.3719 Y6.2534
G01 X11.3922 Y6.2258
G01 X11.4154 Y6.1975
G01 X11.4380 Y6.1725
G01 X11.4651 Y6.1456
G01 X11.4894 Y6.1237
G01 X11.5142 Y6.1035
G01 X11.5335 Y6.0890
G01 X11.5335 Y5.7203
G01 X11.5220 Y5.7116
G01 X11.4938 Y5.6883
G01 X11.4715 Y5.6680
G01 X11.4446 Y5.6409
G01 X11.4244 Y5.6185
G01 X11.4012 Y5.5902
G01 X11.3824 Y5.5647
G01 X11.3613 Y5.5330
G01 X11.3458 Y5.5071
G01 X11.3286 Y5.4748
G01 X11.3151 Y5.4461
G01 X11.3012 Y5.4123
G01 X11.2905 Y5.3824
G01 X11.2800 Y5.3474
G01 X11.2723 Y5.3166
G01 X11.2658 Y5.2842
G01 X11.2609 Y5.2514
G01 X11.2574 Y5.2165
G01 X11.2557 Y5.1849
G01 X11.2552 Y5.1650
G01 X11.2552 Y4.2640
G01 X11.2557 Y4.2431
G01 X11.2574 Y4.2105
G01 X11.2606 Y4.1786
G01 X11.2648 Y4.1498
G01 X11.2723 Y4.1114
G01 X11.2805 Y4.0787
G01 X11.2920 Y4.0412
G01 X11.3019 Y4.0138
G01 X11.3141 Y3.9843
G01 X11.3295 Y3.9514
G01 X11.3476 Y3.9178
G01 X11.3646 Y3.8899
G01 X11.3824 Y3.8633
G01 X11.3997 Y3.8398
G01 X11.4244 Y3.8095
G01 X11.4481 Y3.7834
G01 X11.4715 Y3.7600
G01 X11.4930 Y3.7404
G01 X11.5220 Y3.7164
G01 X11.5503 Y3.6954
G01 X11.5777 Y3.6770
G01 X11.5904 Y3.6693
G01 X5.8409 Y3.6693
G01 X4.4110 Y5.0992
G01 X4.4934 Y5.1333
G01 X4.4934 Y24.9034
G01 X4.5038 Y24.8666
G01 X4.5151 Y24.8329
G01 X4.5289 Y24.7973
G01 X4.5445 Y24.7627
G01 X4.5617 Y24.7285
G01 X4.5761 Y24.7030
G01 X4.5929 Y24.6757
G01 X4.6142 Y24.6443
G01 X4.6357 Y24.6156
G01 X4.6586 Y24.5878
G01 X4.6857 Y24.5581
G01 X4.7095 Y24.5344
G01 X4.7385 Y24.5080
G01 X4.7637 Y24.4872
G01 X4.7962 Y24.4628
G01 X4.8245 Y24.4437
G01 X4.8521 Y24.4266
G01 X4.8686 Y24.4172
G01 X4.8686 Y23.7845
G01 X4.8391 Y23.7581
G01 X4.8103 Y23.7294
G01 X4.7863 Y23.7029
G01 X4.7634 Y23.6751
G01 X4.7565 Y23.6663
G01 X4.7354 Y23.6374
G01 X4.7154 Y23.6074
G01 X4.6952 Y23.5731
G01 X4.6780 Y23.5408
G01 X4.6628 Y23.5085
G01 X4.6480 Y23.4728
G01 X4.6359 Y23.4392
G01 X4.6241 Y23.4003
G01 X4.6153 Y23.3657
G01 X4.6074 Y23.3258
G01 X4.6025 Y23.2935
G01 X4.5979 Y23.2480
G01 X4.5963 Y23.2169
G01 X4.5958 Y23.1945
G01 X4.5958 Y22.4930
G01 X4.5962 Y22.4722
G01 X4.5984 Y22.4314
G01 X4.6018 Y22.3975
G01 X4.6063 Y22.3667
G01 X4.6149 Y22.3223
G01 X4.6241 Y22.2857
G01 X4.6359 Y22.2468
G01 X4.6497 Y22.2089
G01 X4.6628 Y22.1775
G01 X4.6760 Y22.1493
G01 X4.6966 Y22.1102
G01 X4.7165 Y22.0769
G01 X4.7418 Y22.0394
G01 X4.7605 Y22.0145
G01 X4.7820 Y21.9881
G01 X4.8082 Y21.9588
G01 X4.8376 Y21.9293
G01 X4.8676 Y21.9023
G01 X4.9003 Y21.8758
G01 X4.9242 Y21.8582
G01 X4.9466 Y21.8430
G01 X4.9233 Y21.8273
G01 X4.8947 Y21.8059
G01 X4.8641 Y21.7807
G01 X4.8376 Y21.7567
G01 X4.8103 Y21.7294
G01 X4.7863 Y21.7029
G01 X4.7605 Y21.6715
G01 X4.7407 Y21.6449
G01 X4.7165 Y21.6091
G01 X4.6986 Y21.5793
G01 X4.6789 Y21.5426
G01 X4.6655 Y21.5145
G01 X4.6497 Y21.4771
G01 X4.6457 Y21.4666
G01 X4.6350 Y21.4363
G01 X4.6227 Y21.3954
G01 X4.6139 Y21.3592
G01 X4.6074 Y21.3258
G01 X4.6027 Y21.2950
G01 X4.5980 Y21.2500
G01 X4.5962 Y21.2138
G01 X4.5958 Y21.1930
G01 X4.5958 Y20.4925
G01 X4.5963 Y20.4691
G01 X4.5978 Y20.4390
G01 X4.6017 Y20.3985
G01 X4.6074 Y20.3602
G01 X4.6156 Y20.3194
G01 X4.6253 Y20.2813
G01 X4.6353 Y20.2487
G01 X4.6457 Y20.2194
G01 X4.6624 Y20.1784
G01 X4.6776 Y20.1461
G01 X4.6971 Y20.1093
G01 X4.7165 Y20.0769
G01 X4.7392 Y20.0432
G01 X4.7634 Y20.0109
G01 X4.7893 Y19.9797
G01 X4.8103 Y19.9566
G01 X4.8344 Y19.9325
G01 X4.8641 Y19.9053
G01 X4.8947 Y19.8801
G01 X4.9292 Y19.8547
G01 X4.9579 Y19.8355
G01 X4.9846 Y19.8194
G01 X5.0244 Y19.7979
G01 X5.0627 Y19.7800
G01 X5.0942 Y19.7670
G01 X5.1239 Y19.7562
G01 X5.1686 Y19.7425
G01 X5.2013 Y19.7343
G01 X5.2367 Y19.7272
G01 X5.2795 Y19.7207
G01 X5.3200 Y19.7168
G01 X5.3501 Y19.7153
G01 X5.3735 Y19.7148
G01 X6.2740 Y19.7148
G01 X6.2950 Y19.7152
G01 X6.3215 Y19.7164
G01 X6.3629 Y19.7200
G01 X6.3972 Y19.7247
G01 X6.4367 Y19.7321
G01 X6.4731 Y19.7409
G01 X6.5103 Y19.7517
G01 X6.5381 Y19.7611
G01 X6.5679 Y19.7726
G01 X6.6027 Y19.7878
G01 X6.6370 Y19.8048
G01 X6.6680 Y19.8221
G01 X6.7037 Y19.8444
G01 X6.7283 Y19.8613
G01 X6.7539 Y19.8806
G01 X6.7803 Y19.9022
G01 X6.8115 Y19.9304
G01 X6.8366 Y19.9555
G01 X6.8624 Y19.9838
G01 X6.8876 Y20.0146
G01 X7.7766 Y20.0146
G01 X7.7860 Y20.0023
G01 X7.8120 Y19.9710
G01 X7.8340 Y19.9469
G01 X7.8651 Y19.9162
G01 X7.8886 Y19.8950
G01 X7.9209 Y19.8686
G01 X7.9488 Y19.8480
G01 X7.9848 Y19.8241
G01 X8.0133 Y19.8071
G01 X8.0492 Y19.7880
G01 X8.0815 Y19.7728
G01 X8.1191 Y19.7573
G01 X8.1527 Y19.7453
G01 X8.1897 Y19.7341
G01 X8.2243 Y19.7253
G01 X8.2597 Y19.7182
G01 X8.2995 Y19.7121
G01 X8.3369 Y19.7083
G01 X8.3716 Y19.7064
G01 X8.3950 Y19.7058
G01 X9.3521 Y19.7058
G01 X9.3714 Y19.7063
G01 X9.4010 Y19.7078
G01 X9.4415 Y19.7117
G01 X9.4798 Y19.7174
G01 X9.5206 Y19.7256
G01 X9.5553 Y19.7343
G01 X9.5975 Y19.7474
G01 X9.6268 Y19.7580
G01 X9.6583 Y19.7710
G01 X9.6912 Y19.7862
G01 X9.7307 Y19.8071
G01 X9.7614 Y19.8254
G01 X9.7952 Y19.8480
G01 X9.8263 Y19.8711
G01 X9.8569 Y19.8963
G01 X9.8856 Y19.9225
G01 X9.9142 Y19.9514
G01 X9.9347 Y19.9741
G01 X9.9504 Y19.9931
G01 X10.5731 Y19.9931
G01 X10.5980 Y19.9937
G01 X10.6380 Y19.9959
G01 X9.8197 Y19.1776
G01 X9.7729 Y19.1706
G01 X9.7310 Y19.1623
G01 X9.6279 Y19.1364
G01 X9.5890 Y19.1247
G01 X9.4894 Y19.0892
G01 X9.4789 Y19.0852
G01 X9.4433 Y19.0703
G01 X9.3495 Y19.0259
G01 X9.3101 Y19.0048
G01 X9.2229 Y18.9526
G01 X9.1827 Y18.9259
G01 X9.1009 Y18.8653
G01 X9.0921 Y18.8584
G01 X9.0635 Y18.8348
G01 X8.9878 Y18.7662
G01 X8.9539 Y18.7325
G01 X8.8856 Y18.6571
G01 X8.8783 Y18.6487
G01 X8.8549 Y18.6199
G01 X8.7942 Y18.5382
G01 X8.7673 Y18.4982
G01 X8.7150 Y18.4110
G01 X8.7095 Y18.4012
G01 X8.6921 Y18.3685
G01 X8.6486 Y18.2765
G01 X8.6300 Y18.2320
G01 X8.5933 Y18.1290
G01 X8.5812 Y18.0886
G01 X8.5548 Y17.9825
G01 X8.5470 Y17.9426
G01 X8.5313 Y17.8360
G01 X8.5273 Y17.7940
G01 X8.5222 Y17.6863
G01 X8.5223 Y17.6457
G01 X8.5272 Y17.5441
G01 X8.5318 Y17.4960
G01 X8.5467 Y17.3954
G01 X8.5544 Y17.3555
G01 X8.5568 Y17.3446
G01 X8.5816 Y17.2459
G01 X8.5933 Y17.2070
G01 X8.6300 Y17.1040
G01 X8.6471 Y17.0627
G01 X8.6921 Y16.9675
G01 X8.7112 Y16.9316
G01 X8.7665 Y16.8391
G01 X8.7889 Y16.8052
G01 X8.8539 Y16.7173
G01 X8.8796 Y16.6858
G01 X8.9529 Y16.6047
G01 X8.9800 Y16.5772
G01 X8.9881 Y16.5695
G01 X9.0693 Y16.4963
G01 X9.0993 Y16.4719
G01 X9.1889 Y16.4058
G01 X9.2211 Y16.3845
G01 X9.3150 Y16.3284
G01 X9.3509 Y16.3094
G01 X9.4475 Y16.2639
G01 X9.4860 Y16.2480
G01 X9.5818 Y16.2137
G01 X9.5924 Y16.2102
G01 X9.6294 Y16.1992
G01 X9.7285 Y16.1743
G01 X9.7664 Y16.1666
G01 X9.7774 Y16.1647
G01 X9.8856 Y16.1489
G01 X9.9240 Y16.1453
G01 X10.0317 Y16.1402
G01 X10.0723 Y16.1403
G01 X10.1739 Y16.1452
G01 X10.1851 Y16.1460
G01 X10.2250 Y16.1502
G01 X10.3261 Y16.1652
G01 X10.3625 Y16.1724
G01 X10.3734 Y16.1748
G01 X10.4794 Y16.2016
G01 X10.5163 Y16.2130
G01 X10.6125 Y16.2475
G01 X10.6483 Y16.2621
G01 X10.6585 Y16.2666
G01 X10.7505 Y16.3101
G01 X10.7850 Y16.3284
G01 X10.8771 Y16.3834
G01 X10.8866 Y16.3894
G01 X10.9186 Y16.4110
G01 X11.0019 Y16.4729
G01 X11.0391 Y16.5036
G01 X11.1145 Y16.5719
G01 X11.1461 Y16.6035
G01 X11.2158 Y16.6804
G01 X11.2404 Y16.7101
G01 X11.2473 Y16.7189
G01 X11.3079 Y16.8007
G01 X11.3327 Y16.8378
G01 X11.3850 Y16.9250
G01 X11.3905 Y16.9348
G01 X11.4094 Y16.9708
G01 X11.4529 Y17.0627
G01 X11.4685 Y17.1002
G01 X11.5050 Y17.2017
G01 X11.5164 Y17.2386
G01 X11.5193 Y17.2494
G01 X11.5456 Y17.3555
G01 X11.5530 Y17.3934
G01 X11.5682 Y17.4960
G01 X11.5726 Y17.5405
G01 X11.5776 Y17.6421
G01 X11.5779 Y17.6533
G01 X11.5777 Y17.6919
G01 X11.5727 Y17.7940
G01 X11.5691 Y17.8324
G01 X11.5677 Y17.8435
G01 X11.5514 Y17.9516
G01 X11.5437 Y17.9895
G01 X11.5174 Y18.0940
G01 X11.5055 Y18.1329
G01 X11.4712 Y18.2286
G01 X11.4672 Y18.2391
G01 X11.4516 Y18.2761
G01 X11.4079 Y18.3685
G01 X11.3891 Y18.4039
G01 X12.2377 Y19.2526
G01 X14.5921 Y19.2528
G01 X14.6134 Y19.2534
G01 X14.6383 Y19.2548
G01 X14.6757 Y19.2586
G01 X14.7038 Y19.2629
G01 X14.7392 Y19.2700
G01 X14.7643 Y19.2762
G01 X14.8032 Y19.2880
G01 X14.8305 Y19.2977
G01 X14.8671 Y19.3130
G01 X14.8946 Y19.3262
G01 X14.9303 Y19.3456
G01 X14.9494 Y19.3572
G01 X14.9768 Y19.3755
G01 X15.0015 Y19.3935
G01 X15.0329 Y19.4193
G01 X15.0536 Y19.4380
G01 X15.0802 Y19.4646
G01 X15.0997 Y19.4861
G01 X15.1261 Y19.5183
G01 X15.1414 Y19.5392
G01 X15.1655 Y19.5757
G01 X15.1779 Y19.5967
G01 X15.1978 Y19.6344
G01 X15.2086 Y19.6580
G01 X15.2213 Y19.6885
G01 X15.2289 Y19.7095
G01 X15.2324 Y19.7201
G01 X15.2438 Y19.7586
G01 X15.2493 Y19.7808
G01 X15.2569 Y19.8197
G01 X15.2607 Y19.8453
G01 X15.2644 Y19.8828
G01 X15.2657 Y19.9071
G01 X15.2662 Y19.9295
G01 X15.2662 Y20.2315
G01 X15.2658 Y20.2520
G01 X15.2649 Y20.2726
G01 X15.2613 Y20.3116
G01 X15.2569 Y20.3419
G01 X15.2512 Y20.3725
G01 X15.2464 Y20.3935
G01 X15.2346 Y20.4354
G01 X15.5097 Y20.1603
G01 X15.5097 Y19.0142
G01 X15.5102 Y18.9919
G01 X15.5115 Y18.9651
G01 X15.5155 Y18.9236
G01 X15.5199 Y18.8931
G01 X15.5283 Y18.8513
G01 X15.5371 Y18.8170
G01 X15.5470 Y18.7844
G01 X15.5558 Y18.7597
G01 X15.5713 Y18.7215
G01 X15.5860 Y18.6899
G01 X15.6061 Y18.6523
G01 X15.6245 Y18.6220
G01 X15.6435 Y18.5937
G01 X15.6602 Y18.5710
G01 X15.6889 Y18.5359
G01 X15.7065 Y18.5165
G01 X15.7205 Y18.5017
G01 X16.9133 Y17.3089
G01 X16.9298 Y17.2931
G01 X16.9512 Y17.2739
G01 X16.9803 Y17.2501
G01 X17.0051 Y17.2316
G01 X17.0380 Y17.2096
G01 X17.0617 Y17.1952
G01 X17.0970 Y17.1760
G01 X17.1070 Y17.1710
G01 X17.1308 Y17.1599
G01 X17.1622 Y17.1468
G01 X17.1912 Y17.1362
G01 X17.2334 Y17.1231
G01 X17.2633 Y17.1155
G01 X17.3041 Y17.1073
G01 X17.3366 Y17.1025
G01 X17.3781 Y17.0985
G01 X17.4033 Y17.0972
G01 X17.4236 Y17.0967
G01 X22.2566 Y17.0967
G01 X21.4481 Y16.2881
G01 X14.4849 Y16.2881
G01 X14.4615 Y16.2876
G01 X14.4363 Y16.2863
G01 X14.3918 Y16.2820
G01 X14.3623 Y16.2775
G01 X14.3289 Y16.2709
G01 X14.2945 Y16.2625
G01 X14.2537 Y16.2501
G01 X14.2209 Y16.2382
G01 X14.1830 Y16.2222
G01 X14.1593 Y16.2109
G01 X14.1293 Y16.1949
G01 X14.0987 Y16.1769
G01 X14.0633 Y16.1532
G01 X14.0377 Y16.1341
G01 X14.0041 Y16.1062
G01 X13.9865 Y16.0903
G01 X13.9704 Y16.0748
G01 X13.0390 Y15.1434
G01 X13.0225 Y15.1261
G01 X13.0029 Y15.1044
G01 X12.9791 Y15.0753
G01 X12.9606 Y15.0505
G01 X12.9380 Y15.0168
G01 X12.9211 Y14.9886
G01 X12.9029 Y14.9545
G01 X12.8889 Y14.9248
G01 X12.8734 Y14.8872
G01 X12.8616 Y14.8538
G01 X12.8513 Y14.8193
G01 X12.8438 Y14.7894
G01 X12.8359 Y14.7495
G01 X12.8312 Y14.7164
G01 X12.8277 Y14.6805
G01 X12.8261 Y14.6492
G01 X12.8257 Y14.6289
G01 X12.8257 Y14.5204
G01 X12.1063 Y14.5204
G01 X12.0751 Y14.5412
G01 X12.0443 Y14.5598
G01 X12.0045 Y14.5813
G01 X11.9621 Y14.6012
G01 X11.9302 Y14.6143
G01 X11.8963 Y14.6266
G01 X11.8531 Y14.6399
G01 X11.8077 Y14.6511
G01 X11.7738 Y14.6578
G01 X11.7381 Y14.6632
G01 X11.6931 Y14.6679
G01 X11.6556 Y14.6698
G01 X11.6312 Y14.6704
G01 X10.8246 Y14.6704
G01 X10.8000 Y14.7004
G01 X10.7747 Y14.7284
G01 X10.7459 Y14.7571
G01 X10.7159 Y14.7840
G01 X10.6895 Y14.8055
G01 X10.6646 Y14.8242
G01 X10.6309 Y14.8470
G01 X10.5965 Y14.8679
G01 X10.5643 Y14.8852
G01 X10.5284 Y14.9024
G01 X10.4908 Y14.9180
G01 X10.4553 Y14.9307
G01 X10.4164 Y14.9425
G01 X10.3817 Y14.9511
G01 X10.3418 Y14.9590
G01 X10.3055 Y14.9643
G01 X10.2614 Y14.9684
G01 X10.2333 Y14.9697
G01 X10.2110 Y14.9702
G01 X9.3090 Y14.9702
G01 X9.2856 Y14.9696
G01 X9.2509 Y14.9677
G01 X9.2135 Y14.9639
G01 X9.1752 Y14.9581
G01 X9.1383 Y14.9507
G01 X9.1037 Y14.9419
G01 X9.0667 Y14.9307
G01 X9.0331 Y14.9187
G01 X8.9955 Y14.9032
G01 X8.9632 Y14.8880
G01 X8.9273 Y14.8689
G01 X8.9005 Y14.8530
G01 X8.8666 Y14.8306
G01 X8.8574 Y14.8242
G01 X8.8317 Y14.8049
G01 X8.7980 Y14.7770
G01 X8.7746 Y14.7557
G01 X8.7459 Y14.7269
G01 X8.7220 Y14.7004
G01 X8.6974 Y14.6704
G01 X8.2160 Y14.6704
G01 X8.2038 Y14.6883
G01 X8.1853 Y14.7134
G01 X8.1587 Y14.7461
G01 X8.1327 Y14.7749
G01 X8.1032 Y14.8042
G01 X8.0766 Y14.8282
G01 X8.0423 Y14.8560
G01 X8.0172 Y14.8745
G01 X7.9889 Y14.8935
G01 X7.9553 Y14.9139
G01 X7.9186 Y14.9336
G01 X7.8845 Y14.9497
G01 X7.8469 Y14.9652
G01 X7.8089 Y14.9786
G01 X7.7763 Y14.9884
G01 X7.7461 Y14.9961
G01 X7.7058 Y15.0044
G01 X7.6665 Y15.0104
G01 X7.6240 Y15.0146
G01 X7.5929 Y15.0162
G01 X7.5690 Y15.0167
G01 X6.6185 Y15.0167
G01 X6.5951 Y15.0162
G01 X6.5650 Y15.0147
G01 X6.5245 Y15.0108
G01 X6.4817 Y15.0043
G01 X6.4463 Y14.9972
G01 X6.4136 Y14.9890
G01 X6.3689 Y14.9753
G01 X6.3392 Y14.9645
G01 X6.3077 Y14.9515
G01 X6.2694 Y14.9336
G01 X6.2296 Y14.9121
G01 X6.2029 Y14.8960
G01 X6.1733 Y14.8763
G01 X6.1373 Y14.8495
G01 X6.1091 Y14.8262
G01 X6.0794 Y14.7990
G01 X6.0553 Y14.7749
G01 X6.0343 Y14.7518
G01 X6.0080 Y14.7202
G01 X5.9842 Y14.6883
G01 X5.9604 Y14.6529
G01 X5.9421 Y14.6222
G01 X5.9219 Y14.5840
G01 X5.9060 Y14.5498
G01 X5.8930 Y14.5183
G01 X5.8824 Y14.4890
G01 X5.8693 Y14.4468
G01 X5.8606 Y14.4121
G01 X5.8524 Y14.3713
G01 X5.8467 Y14.3330
G01 X5.8428 Y14.2925
G01 X5.8413 Y14.2624
G01 X5.8408 Y14.2390
G01 X5.8408 Y13.5635
G01 X5.8413 Y13.5391
G01 X5.8430 Y13.5065
G01 X5.8464 Y13.4721
G01 X5.8524 Y13.4307
G01 X5.8614 Y13.3864
G01 X5.8691 Y13.3562
G01 X5.8800 Y13.3202
G01 X5.8930 Y13.2837
G01 X5.9086 Y13.2461
G01 X5.9239 Y13.2139
G01 X5.9431 Y13.1780
G01 X5.9615 Y13.1474
G01 X5.9842 Y13.1137
G01 X6.0055 Y13.0850
G01 X6.0320 Y13.0528
G01 X6.0553 Y13.0271
G01 X6.0841 Y12.9984
G01 X6.1106 Y12.9745
G01 X6.1429 Y12.9481
G01 X6.1708 Y12.9275
G01 X6.2055 Y12.9044
G01 X6.2362 Y12.8861
G01 X6.2671 Y12.8696
G01 X6.2795 Y12.8635
G01 X6.2666 Y12.8572
G01 X6.2353 Y12.8404
G01 X6.1995 Y12.8187
G01 X6.1708 Y12.7995
G01 X6.1453 Y12.7807
G01 X6.1068 Y12.7492
G01 X6.0826 Y12.7272
G01 X6.0582 Y12.7028
G01 X6.0300 Y12.6719
G01 X6.0055 Y12.6420
G01 X5.9868 Y12.6171
G01 X5.9604 Y12.5779
G01 X5.9431 Y12.5490
G01 X5.9260 Y12.5172
G01 X5.9078 Y12.4790
G01 X5.8907 Y12.4371
G01 X5.8803 Y12.4078
G01 X5.8698 Y12.3733
G01 X5.8590 Y12.3302
G01 X5.8524 Y12.2963
G01 X5.8475 Y12.2640
G01 X5.8429 Y12.2185
G01 X5.8413 Y12.1879
G01 X5.8408 Y12.1691
G01 X5.8408 Y11.4885
G01 X5.8412 Y11.4667
G01 X5.8434 Y11.4269
G01 X5.8468 Y11.3930
G01 X5.8514 Y11.3617
G01 X5.8599 Y11.3178
G01 X5.8703 Y11.2768
G01 X5.8809 Y11.2423
G01 X5.8930 Y11.2087
G01 X5.9078 Y11.1730
G01 X5.9239 Y11.1389
G01 X5.9421 Y11.1048
G01 X5.9615 Y11.0724
G01 X5.9842 Y11.0387
G01 X6.0074 Y11.0076
G01 X6.0313 Y10.9786
G01 X6.0553 Y10.9521
G01 X6.0841 Y10.9234
G01 X6.1130 Y10.8975
G01 X6.1421 Y10.8737
G01 X6.1733 Y10.8507
G01 X6.2072 Y10.8283
G01 X6.2335 Y10.8126
G01 X6.2543 Y10.8014
G01 X6.2279 Y10.7855
G01 X6.1992 Y10.7663
G01 X6.1655 Y10.7415
G01 X6.1307 Y10.7127
G01 X6.1076 Y10.6917
G01 X6.0835 Y10.6676
G01 X6.0550 Y10.6364
G01 X6.0274 Y10.6025
G01 X6.0054 Y10.5724
G01 X5.9865 Y10.5441
G01 X5.9702 Y10.5170
G01 X5.9489 Y10.4776
G01 X5.9312 Y10.4397
G01 X5.9180 Y10.4078
G01 X5.9074 Y10.3785
G01 X5.8941 Y10.3353
G01 X5.8849 Y10.2987
G01 X5.8763 Y10.2543
G01 X5.8718 Y10.2235
G01 X5.8684 Y10.1891
G01 X5.8662 Y10.1483
G01 X5.8658 Y10.1280
G01 X5.8658 Y9.4280
G01 X5.8662 Y9.4072
G01 X5.8680 Y9.3710
G01 X5.8727 Y9.3260
G01 X5.8774 Y9.2952
G01 X5.8839 Y9.2618
G01 X5.8925 Y9.2266
G01 X5.9050 Y9.1847
G01 X5.9157 Y9.1544
G01 X5.9310 Y9.1167
G01 X5.9355 Y9.1065
G01 X5.9489 Y9.0784
G01 X5.9686 Y9.0417
G01 X5.9865 Y9.0119
G01 X6.0097 Y8.9773
G01 X6.0305 Y8.9495
G01 X6.0563 Y8.9181
G01 X6.0803 Y8.8916
G01 X6.1076 Y8.8643
G01 X6.1341 Y8.8403
G01 X6.1647 Y8.8151
G01 X6.1933 Y8.7937
G01 X6.2166 Y8.7780
G01 X6.1942 Y8.7628
G01 X6.1703 Y8.7452
G01 X6.1376 Y8.7187
G01 X6.1076 Y8.6917
G01 X6.0782 Y8.6622
G01 X6.0520 Y8.6329
G01 X6.0305 Y8.6065
G01 X6.0118 Y8.5816
G01 X5.9865 Y8.5441
G01 X5.9666 Y8.5108
G01 X5.9460 Y8.4717
G01 X5.9328 Y8.4435
G01 X5.9197 Y8.4121
G01 X5.9059 Y8.3742
G01 X5.8941 Y8.3353
G01 X5.8849 Y8.2987
G01 X5.8763 Y8.2543
G01 X5.8718 Y8.2235
G01 X5.8684 Y8.1896
G01 X5.8662 Y8.1488
G01 X5.8658 Y8.1280
G01 X5.8658 Y7.4280
G01 X5.8662 Y7.4072
G01 X5.8684 Y7.3664
G01 X5.8718 Y7.3325
G01 X5.8763 Y7.3017
G01 X5.8849 Y7.2573
G01 X5.8943 Y7.2197
G01 X5.9059 Y7.1818
G01 X5.9180 Y7.1482
G01 X5.9328 Y7.1125
G01 X5.9489 Y7.0784
G01 X5.9671 Y7.0443
G01 X5.9854 Y7.0136
G01 X6.0080 Y6.9798
G01 X6.0305 Y6.9495
G01 X6.0550 Y6.9196
G01 X6.0789 Y6.8931
G01 X6.1076 Y6.8643
G01 X6.1356 Y6.8390
G01 X6.1655 Y6.8145
G01 X6.1958 Y6.7920
G01 X6.2296 Y6.7694
G01 X6.2559 Y6.7537
G01 X6.2656 Y6.7482
G01 X6.2656 Y6.4682
G01 X6.2491 Y6.4575
G01 X6.2157 Y6.4326
G01 X6.2048 Y6.4234
G01 X6.1752 Y6.3962
G01 X6.1470 Y6.3656
G01 X6.1384 Y6.3555
G01 X6.1131 Y6.3217
G01 X6.1036 Y6.3073
G01 X6.0826 Y6.2719
G01 X6.0645 Y6.2344
G01 X6.0575 Y6.2180
G01 X6.0448 Y6.1826
G01 X6.0400 Y6.1665
G01 X6.0301 Y6.1260
G01 X6.0235 Y6.0834
G01 X6.0218 Y6.0672
G01 X6.0198 Y6.0220
G01 X6.0199 Y4.4144
G01 X6.0222 Y4.3712
G01 X6.0280 Y4.3300
G01 X6.0313 Y4.3125
G01 X6.0404 Y4.2760
G01 X6.0455 Y4.2595
G01 X6.0604 Y4.2189
G01 X6.0780 Y4.1812
G01 X6.0866 Y4.1650
G01 X6.1082 Y4.1294
G01 X6.1328 Y4.0957
G01 X6.1439 Y4.0818
G01 X6.1681 Y4.0551
G01 X6.1800 Y4.0432
G01 X6.2113 Y4.0150
G01 X6.2205 Y4.0077
G01 X6.2454 Y3.9892
G01 X6.2562 Y3.9817
G01 X6.2923 Y3.9598
G01 X6.3076 Y3.9518
G01 X6.3449 Y3.9344
G01 X6.3845 Y3.9199
G01 X6.4020 Y3.9144
G01 X6.4430 Y3.9043
G01 X6.4545 Y3.9022
G01 X6.4851 Y3.8977
G01 X6.4998 Y3.8960
G01 X6.5480 Y3.8938
G01 X8.1480 Y3.8938
G01 X8.1891 Y3.8955
G01 X8.2033 Y3.8967
G01 X8.2415 Y3.9022
G01 X8.2546 Y3.9046
G01 X8.2940 Y3.9144
G01 X8.3115 Y3.9199
G01 X8.3492 Y3.9336
G01 X8.3870 Y3.9511
G01 X8.4028 Y3.9593
G01 X8.4333 Y3.9776
G01 X8.4477 Y3.9871
G01 X8.4815 Y4.0124
G01 X8.4916 Y4.0210
G01 X8.5208 Y4.0478
G01 X8.5292 Y4.0566
G01 X8.5570 Y4.0877
G01 X8.5811 Y4.1198
G01 X8.5895 Y4.1321
G01 X8.6225 Y4.1097
G01 X8.6320 Y4.1037
G01 X8.7024 Y4.0616
G01 X8.7418 Y4.0405
G01 X8.8193 Y4.0039
G01 X8.8534 Y3.9896
G01 X8.8639 Y3.9855
G01 X8.9485 Y3.9556
G01 X8.9840 Y3.9449
G01 X9.0710 Y3.9232
G01 X9.1109 Y3.9154
G01 X9.1921 Y3.9033
G01 X9.2325 Y3.8991
G01 X9.2437 Y3.8982
G01 X9.3257 Y3.8943
G01 X9.3703 Y3.8943
G01 X9.4559 Y3.8985
G01 X9.4964 Y3.9023
G01 X9.5851 Y3.9154
G01 X9.6250 Y3.9232
G01 X9.7120 Y3.9449
G01 X9.7510 Y3.9566
G01 X9.8355 Y3.9868
G01 X9.8731 Y4.0022
G01 X9.9542 Y4.0405
G01 X9.9901 Y4.0596
G01 X10.0671 Y4.1056
G01 X10.1009 Y4.1281
G01 X10.1730 Y4.1815
G01 X10.2045 Y4.2072
G01 X10.2711 Y4.2673
G01 X10.2999 Y4.2960
G01 X10.3602 Y4.3624
G01 X10.3838 Y4.3910
G01 X10.4375 Y4.4629
G01 X10.4439 Y4.4720
G01 X10.4644 Y4.5029
G01 X10.5104 Y4.5799
G01 X10.5295 Y4.6158
G01 X10.5661 Y4.6933
G01 X10.5832 Y4.7345
G01 X10.6109 Y4.8118
G01 X10.6144 Y4.8225
G01 X10.6260 Y4.8614
G01 X10.6459 Y4.9411
G01 X10.6539 Y4.9809
G01 X10.6672 Y5.0696
G01 X10.6715 Y5.1141
G01 X10.6757 Y5.1997
G01 X10.6759 Y5.2367
G01 X10.6756 Y5.2479
G01 X10.6709 Y5.3375
G01 X10.6672 Y5.3744
G01 X10.6539 Y5.4631
G01 X10.6459 Y5.5029
G01 X10.6260 Y5.5826
G01 X10.6144 Y5.6215
G01 X10.6109 Y5.6322
G01 X10.5832 Y5.7095
G01 X10.5661 Y5.7507
G01 X10.5295 Y5.8282
G01 X10.5121 Y5.8609
G01 X10.5066 Y5.8707
G01 X10.4624 Y5.9442
G01 X10.4624 Y6.7482
G01 X10.4721 Y6.7537
G01 X10.4984 Y6.7694
G01 X10.5372 Y6.7955
G01 X10.5625 Y6.8145
G01 X10.5889 Y6.8360
G01 X10.6189 Y6.8629
G01 X10.6491 Y6.8931
G01 X10.6760 Y6.9231
G01 X10.6975 Y6.9495
G01 X10.7162 Y6.9744
G01 X10.7415 Y7.0119
G01 X10.7628 Y7.0479
G01 X10.7791 Y7.0784
G01 X10.7925 Y7.1065
G01 X10.8100 Y7.1482
G01 X10.8227 Y7.1837
G01 X10.8345 Y7.2226
G01 X10.8441 Y7.2618
G01 X10.8506 Y7.2952
G01 X10.8553 Y7.3260
G01 X10.8600 Y7.3710
G01 X10.8617 Y7.4041
G01 X10.8622 Y7.4280
G01 X10.8622 Y8.1331
G01 X10.8617 Y8.1524
G01 X10.8602 Y8.1820
G01 X10.8562 Y8.2235
G01 X10.8506 Y8.2608
G01 X10.8416 Y8.3051
G01 X10.8339 Y8.3353
G01 X10.8221 Y8.3742
G01 X10.8100 Y8.4078
G01 X10.7944 Y8.4454
G01 X10.7791 Y8.4776
G01 X10.7599 Y8.5135
G01 X10.7415 Y8.5441
G01 X10.7200 Y8.5762
G01 X10.6975 Y8.6065
G01 X10.6730 Y8.6364
G01 X10.6491 Y8.6629
G01 X10.6211 Y8.6910
G01 X10.5939 Y8.7157
G01 X10.5633 Y8.7409
G01 X10.5347 Y8.7623
G01 X10.5114 Y8.7780
G01 X10.5338 Y8.7932
G01 X10.5585 Y8.8114
G01 X10.5916 Y8.8383
G01 X10.6211 Y8.8650
G01 X10.6459 Y8.8898
G01 X10.6551 Y8.8997
G01 X10.6649 Y8.8609
G01 X10.6782 Y8.8177
G01 X10.6897 Y8.7857
G01 X10.7034 Y8.7523
G01 X10.7206 Y8.7155
G01 X10.7417 Y8.6755
G01 X10.7626 Y8.6406
G01 X10.7863 Y8.6051
G01 X10.8105 Y8.5725
G01 X10.8370 Y8.5403
G01 X10.8605 Y8.5143
G01 X10.8760 Y8.4981
G01 X11.3135 Y8.0605
G01 X11.3045 Y8.0481
G01 X11.2851 Y8.0189
G01 X11.2636 Y7.9830
G01 X11.2469 Y7.9516
G01 X11.2335 Y7.9235
G01 X11.2160 Y7.8818
G01 X11.2020 Y7.8424
G01 X11.1921 Y7.8093
G01 X11.1843 Y7.7786
G01 X11.1754 Y7.7348
G01 X11.1693 Y7.6929
G01 X11.1657 Y7.6544
G01 X11.1643 Y7.6259
G01 X11.1638 Y7.6025
G01 X11.1638 Y6.6520
G01 X11.1643 Y6.6281
G01 X11.1657 Y6.5996
G01 X11.1698 Y6.5565
G01 X11.1750 Y6.5212
G01 X11.1829 Y6.4813
G01 X11.1915 Y6.4466
G01 X11.2033 Y6.4077
G01 X11.2153 Y6.3741
G01 X11.2308 Y6.3365
G01 X11.2474 Y6.3015
G01 X11.2661 Y6.2665
G01 X11.2845 Y6.2359
G01 X11.3072 Y6.2022
G01 X11.3304 Y6.1711
G01 X11.3543 Y6.1421
G01 X11.3805 Y6.1134
G01 X11.4094 Y6.0848
G01 X11.4321 Y6.0643
G01 X11.4511 Y6.0486
G01 X11.4511 Y5.7600
G01 X11.4392 Y5.7500
G01 X11.4168 Y5.7298
G01 X11.3880 Y5.7011
G01 X11.3633 Y5.6739
G01 X11.3375 Y5.6425
G01 X11.3150 Y5.6122
G01 X11.2924 Y5.5784
G01 X11.2741 Y5.5477
G01 X11.2539 Y5.5095
G01 X11.2398 Y5.4795
G01 X11.2239 Y5.4410
G01 X11.2120 Y5.4073
G01 X11.1994 Y5.3649
G01 X11.1909 Y5.3302
G01 X11.1844 Y5.2968
G01 X11.1797 Y5.2660
G01 X11.1751 Y5.2220
G01 X11.1733 Y5.1884
G01 X11.1728 Y5.1640
G01 X11.1728 Y4.2635
G01 X11.1733 Y4.2401
G01 X11.1748 Y4.2100
G01 X11.1792 Y4.1655
G01 X11.1844 Y4.1312
G01 X11.1909 Y4.0978
G01 X11.2011 Y4.0567
G01 X11.2123 Y4.0197
G01 X11.2227 Y3.9904
G01 X11.2406 Y3.9466
G01 X11.2550 Y3.9162
G01 X11.2719 Y3.8843
G01 X11.2935 Y3.8479
G01 X11.3150 Y3.8158
G01 X11.3338 Y3.7903
G01 X11.3654 Y3.7517
G01 X5.8750 Y3.7517
G01 X4.4934 Y5.1333
G01 X4.5758 Y5.1675
G01 X4.5758 Y20.1719
G01 X4.5882 Y20.1422
G01 X4.6025 Y20.1120
G01 X4.6272 Y20.0656
G01 X4.6458 Y20.0345
G01 X4.6670 Y20.0026
G01 X4.6752 Y19.9909
G01 X4.6964 Y19.9626
G01 X4.7222 Y19.9312
G01 X4.7449 Y19.9059
G01 X4.7547 Y19.8956
G01 X4.7823 Y19.8683
G01 X4.8103 Y19.8429
G01 X4.8396 Y19.8186
G01 X4.8508 Y19.8099
G01 X4.8783 Y19.7896
G01 X4.9134 Y19.7662
G01 X4.9422 Y19.7487
G01 X4.9546 Y19.7417
G01 X4.9873 Y19.7243
G01 X5.0182 Y19.7096
G01 X5.0312 Y19.7038
G01 X5.0664 Y19.6894
G01 X5.1015 Y19.6768
G01 X5.1391 Y19.6653
G01 X5.1528 Y19.6615
G01 X5.1857 Y19.6534
G01 X5.2256 Y19.6454
G01 X5.2606 Y19.6400
G01 X5.2740 Y19.6384
G01 X5.3109 Y19.6348
G01 X5.3448 Y19.6330
G01 X5.3740 Y19.6323
G01 X6.2750 Y19.6323
G01 X6.2993 Y19.6329
G01 X6.3301 Y19.6343
G01 X6.3772 Y19.6387
G01 X6.4128 Y19.6438
G01 X6.4541 Y19.6516
G01 X6.4906 Y19.6602
G01 X6.5310 Y19.6718
G01 X6.5665 Y19.6837
G01 X6.6057 Y19.6990
G01 X6.6399 Y19.7142
G01 X6.6775 Y19.7330
G01 X6.7102 Y19.7513
G01 X6.7459 Y19.7735
G01 X6.7768 Y19.7947
G01 X6.8103 Y19.8201
G01 X6.8391 Y19.8440
G01 X6.8701 Y19.8724
G01 X6.8966 Y19.8989
G01 X6.9266 Y19.9322
G01 X7.7369 Y19.9322
G01 X7.7499 Y19.9168
G01 X7.7768 Y19.8875
G01 X7.8056 Y19.8589
G01 X7.8377 Y19.8301
G01 X7.8694 Y19.8043
G01 X7.8997 Y19.7818
G01 X7.9364 Y19.7572
G01 X7.9696 Y19.7372
G01 X8.0090 Y19.7160
G01 X8.0405 Y19.7009
G01 X8.0542 Y19.6948
G01 X8.0949 Y19.6783
G01 X8.1274 Y19.6669
G01 X8.1701 Y19.6540
G01 X8.2083 Y19.6445
G01 X8.2481 Y19.6365
G01 X8.2889 Y19.6303
G01 X8.3296 Y19.6262
G01 X8.3680 Y19.6240
G01 X8.3942 Y19.6234
G01 X9.3473 Y19.6233
G01 X9.3724 Y19.6239
G01 X9.4025 Y19.6253
G01 X9.4510 Y19.6298
G01 X9.4904 Y19.6355
G01 X9.5353 Y19.6444
G01 X9.5729 Y19.6537
G01 X9.6166 Y19.6669
G01 X9.6541 Y19.6802
G01 X9.6954 Y19.6972
G01 X9.7287 Y19.7128
G01 X9.7709 Y19.7352
G01 X9.8050 Y19.7555
G01 X9.8422 Y19.7803
G01 X9.8730 Y19.8030
G01 X9.9088 Y19.8322
G01 X9.9372 Y19.8579
G01 X9.9690 Y19.8894
G01 X9.9885 Y19.9107
G01 X10.4356 Y19.9107
G01 X9.7806 Y19.2551
G01 X9.7533 Y19.2508
G01 X9.7092 Y19.2418
G01 X9.6069 Y19.2161
G01 X9.5602 Y19.2021
G01 X9.4587 Y19.1658
G01 X9.4202 Y19.1501
G01 X9.4065 Y19.1440
G01 X9.3093 Y19.0979
G01 X9.2686 Y19.0760
G01 X9.1803 Y19.0231
G01 X9.1678 Y19.0152
G01 X9.1331 Y18.9917
G01 X9.0482 Y18.9287
G01 X9.0165 Y18.9030
G01 X9.0055 Y18.8935
G01 X8.9326 Y18.8274
G01 X8.9225 Y18.8178
G01 X8.8935 Y18.7886
G01 X8.8238 Y18.7117
G01 X8.7959 Y18.6782
G01 X8.7865 Y18.6662
G01 X8.7253 Y18.5836
G01 X8.7004 Y18.5466
G01 X8.6429 Y18.4509
G01 X8.6228 Y18.4139
G01 X8.6160 Y18.4005
G01 X8.5740 Y18.3115
G01 X8.5682 Y18.2985
G01 X8.5527 Y18.2607
G01 X8.5171 Y18.1611
G01 X8.5047 Y18.1211
G01 X8.5008 Y18.1069
G01 X8.4758 Y18.0070
G01 X8.4666 Y17.9617
G01 X8.4501 Y17.8511
G01 X8.4456 Y17.8066
G01 X8.4399 Y17.6949
G01 X8.4397 Y17.6487
G01 X8.4451 Y17.5370
G01 X8.4492 Y17.4925
G01 X8.4656 Y17.3803
G01 X8.4744 Y17.3349
G01 X8.5015 Y17.2264
G01 X8.5142 Y17.1836
G01 X8.5522 Y17.0767
G01 X8.5691 Y17.0354
G01 X8.6174 Y16.9328
G01 X8.6382 Y16.8933
G01 X8.6963 Y16.7959
G01 X8.7218 Y16.7573
G01 X8.7883 Y16.6674
G01 X8.8165 Y16.6327
G01 X8.8925 Y16.5486
G01 X8.9239 Y16.5168
G01 X9.0078 Y16.4405
G01 X9.0422 Y16.4120
G01 X9.1331 Y16.3443
G01 X9.1701 Y16.3192
G01 X9.2673 Y16.2608
G01 X9.3066 Y16.2395
G01 X9.4090 Y16.1908
G01 X9.4502 Y16.1735
G01 X9.5569 Y16.1351
G01 X9.5996 Y16.1219
G01 X9.7095 Y16.0941
G01 X9.7553 Y16.0848
G01 X9.8626 Y16.0687
G01 X9.8773 Y16.0669
G01 X9.9174 Y16.0632
G01 X10.0200 Y16.0581
G01 X10.0345 Y16.0577
G01 X10.0754 Y16.0579
G01 X10.1782 Y16.0629
G01 X10.1929 Y16.0640
G01 X10.2331 Y16.0681
G01 X10.3354 Y16.0833
G01 X10.3495 Y16.0857
G01 X10.3890 Y16.0938
G01 X10.4889 Y16.1188
G01 X10.5034 Y16.1228
G01 X10.5417 Y16.1346
G01 X10.6413 Y16.1702
G01 X10.6801 Y16.1860
G01 X10.6931 Y16.1918
G01 X10.7866 Y16.2360
G01 X10.8221 Y16.2548
G01 X10.8351 Y16.2622
G01 X10.9234 Y16.3151
G01 X10.9571 Y16.3374
G01 X10.9687 Y16.3456
G01 X11.0518 Y16.4073
G01 X11.0829 Y16.4326
G01 X11.0943 Y16.4424
G01 X11.1706 Y16.5115
G01 X11.1992 Y16.5399
G01 X11.2091 Y16.5502
G01 X11.2785 Y16.6269
G01 X11.3043 Y16.6580
G01 X11.3135 Y16.6698
G01 X11.3721 Y16.7489
G01 X11.3803 Y16.7605
G01 X11.4029 Y16.7946
G01 X11.4557 Y16.8827
G01 X11.4629 Y16.8953
G01 X11.4820 Y16.9314
G01 X11.5260 Y17.0245
G01 X11.5321 Y17.0382
G01 X11.5473 Y17.0753
G01 X11.5822 Y17.1727
G01 X11.5867 Y17.1865
G01 X11.5986 Y17.2266
G01 X11.6242 Y17.3290
G01 X11.6323 Y17.3685
G01 X11.6348 Y17.3833
G01 X11.6509 Y17.4933
G01 X11.6548 Y17.5354
G01 X11.6600 Y17.6388
G01 X11.6603 Y17.6530
G01 X11.6601 Y17.6949
G01 X11.6548 Y17.8006
G01 X11.6511 Y17.8407
G01 X11.6493 Y17.8554
G01 X11.6332 Y17.9627
G01 X11.6242 Y18.0070
G01 X11.5993 Y18.1067
G01 X11.5955 Y18.1206
G01 X11.5839 Y18.1582
G01 X11.5488 Y18.2566
G01 X11.5436 Y18.2699
G01 X11.5278 Y18.3076
G01 X11.4898 Y18.3881
G01 X12.2719 Y19.1702
G01 X14.5933 Y19.1704
G01 X14.6170 Y19.1710
G01 X14.6449 Y19.1726
G01 X14.6832 Y19.1765
G01 X14.7129 Y19.1808
G01 X14.7553 Y19.1891
G01 X14.7799 Y19.1951
G01 X14.7939 Y19.1989
G01 X14.8315 Y19.2105
G01 X14.8606 Y19.2210
G01 X14.9019 Y19.2383
