(G-CODE GENERATED BY FLATCAM v8.994 - www.flatcam.org - Version Date: 2020/11/7)

(Name: ADCandDAC-PTH.drl_cnc)
(Type: G-code from Geometry)
(Units: MM)

(Created on Серада, 25 лістапада 2020 at 17:53)

(This preprocessor is the default preprocessor used by FlatCAM.)
(It is made to work with MACH3 compatible motion controllers.)


(TOOLS DIAMETER: )
(Tool: 1 -> Dia: 0.8)
(Tool: 2 -> Dia: 1.0)

(FEEDRATE Z: )
(Tool: 1 -> Feedrate: 40.0)
(Tool: 2 -> Feedrate: 40.0)

(FEEDRATE RAPIDS: )
(Tool: 1 -> Feedrate Rapids: 1500)
(Tool: 2 -> Feedrate Rapids: 1500)

(Z_CUT: )
(Tool: 1 -> Z_Cut: -1.4999999999999998)
(Tool: 2 -> Z_Cut: -1.4999999999999998)

(Tools Offset: )
(Tool: 1 -> Offset Z: 0.0)
(Tool: 2 -> Offset Z: 0.0)

(Z_MOVE: )
(Tool: 1 -> Z_Move: 2)
(Tool: 2 -> Z_Move: 2)

(Z Toolchange: 15 mm)
(X,Y Toolchange: 0.0000, 0.0000 mm)
(Z Start: None mm)
(Z End: 0.5 mm)
(X,Y End: None mm)
(Steps per circle: 64)
(Preprocessor Excellon: default)

(X range:    6.9480 ...   55.4350  mm)
(Y range:    4.8220 ...   28.0500  mm)

(Spindle Speed: 10000 RPM)
G21
G90
G94

G01 F40.00

M5
G00 Z15.0000
T1
G00 X0.0000 Y0.0000                
M6
(MSG, Change to Tool Dia = 0.8000 ||| Total drills for tool T1 = 23)
M0
G00 Z15.0000

G01 F40.00
M03 S10000
G00 X10.0500 Y17.6680
G01 Z-1.5000
G01 Z0
G00 Z2.0000
G00 X8.8720 Y25.4470
G01 Z-1.5000
G01 Z0
G00 Z2.0000
G00 X8.8720 Y27.4470
G01 Z-1.5000
G01 Z0
G00 Z2.0000
G00 X25.6360 Y22.6210
G01 Z-1.5000
G01 Z0
G00 Z2.0000
G00 X25.6360 Y24.6210
G01 Z-1.5000
G01 Z0
G00 Z2.0000
G00 X27.1980 Y27.6500
G01 Z-1.5000
G01 Z0
G00 Z2.0000
G00 X52.3950 Y23.7260
G01 Z-1.5000
G01 Z0
G00 Z2.0000
G00 X54.9350 Y23.7260
G01 Z-1.5000
G01 Z0
G00 Z2.0000
G00 X49.4990 Y9.7810
G01 Z-1.5000
G01 Z0
G00 Z2.0000
G00 X42.2730 Y9.9210
G01 Z-1.5000
G01 Z0
G00 Z2.0000
G00 X37.3200 Y17.1600
G01 Z-1.5000
G01 Z0
G00 Z2.0000
G00 X37.3200 Y15.1600
G01 Z-1.5000
G01 Z0
G00 Z2.0000
G00 X37.3200 Y13.1600
G01 Z-1.5000
G01 Z0
G00 Z2.0000
G00 X37.3200 Y11.1600
G01 Z-1.5000
G01 Z0
G00 Z2.0000
G00 X36.4560 Y7.0000
G01 Z-1.5000
G01 Z0
G00 Z2.0000
G00 X34.4560 Y7.0000
G01 Z-1.5000
G01 Z0
G00 Z2.0000
G00 X32.4560 Y7.0000
G01 Z-1.5000
G01 Z0
G00 Z2.0000
G00 X28.2010 Y8.9050
G01 Z-1.5000
G01 Z0
G00 Z2.0000
G00 X24.0930 Y8.7780
G01 Z-1.5000
G01 Z0
G00 Z2.0000
G00 X22.0930 Y8.7780
G01 Z-1.5000
G01 Z0
G00 Z2.0000
G00 X17.6860 Y5.9330
G01 Z-1.5000
G01 Z0
G00 Z2.0000
G00 X9.3480 Y5.2220
G01 Z-1.5000
G01 Z0
G00 Z2.0000
G00 X7.3480 Y5.2220
G01 Z-1.5000
G01 Z0
G00 Z2.0000
M05
G00 Z0.50


