(G-CODE GENERATED BY FLATCAM v8.994 - www.flatcam.org - Version Date: 2020/11/7)

(Name: ADCandDAC-B_Cu.gbr_0.1268_iso_cnc)
(Type: G-code from Geometry)
(Units: MM)

(Created on Серада, 25 лістапада 2020 at 17:59)

(This preprocessor is the default preprocessor used by FlatCAM.)
(It is made to work with MACH3 compatible motion controllers.)

(TOOL DIAMETER: 0.1268 mm)
(Feedrate_XY: 25.0 mm/min)
(Feedrate_Z: 35.0 mm/min)
(Feedrate rapids 1500.0 mm/min)

(Z_Cut: 0.0 mm)
(Z_Move: 2.0 mm)
(Z Start: None mm)
(Z End: 15.0 mm)
(X,Y End: None mm)
(Steps per circle: 64)
(Preprocessor Geometry: default)

(X range:    4.8544 ...   54.8627  mm)
(Y range:    4.1113 ...   28.9609  mm)

(Spindle Speed: 10000.0 RPM)
G21
G90
G94

G01 F25.00

M5
G00 Z15.0000
G00 X0.0000 Y0.0000
T2
M6    
(MSG, Change to Tool Dia = 0.1268)
M0
G00 Z15.0000

M03 S10000.0
G01 F25.00
G00 X12.6033 Y9.4304
G01 F35.00
G01 Z-0.0500
G01 F25.00
G01 X17.8840 Y9.4305
G01 X17.8907 Y9.4170
G01 X17.9412 Y9.3328
G01 X17.9446 Y9.3277
G01 X18.0050 Y9.2464
G01 X18.0729 Y9.1713
G01 X18.0773 Y9.1669
G01 X18.1524 Y9.0990
G01 X18.2362 Y9.0368
G01 X18.3257 Y8.9832
G01 X18.4172 Y8.9398
G01 X18.4230 Y8.9374
G01 X18.5183 Y8.9034
G01 X18.6195 Y8.8780
G01 X18.7228 Y8.8627
G01 X18.8286 Y8.8576
G01 X18.9312 Y8.8627
G01 X19.0360 Y8.8784
G01 X19.1372 Y8.9039
G01 X19.2325 Y8.9380
G01 X19.2757 Y8.9582
G01 X19.6367 Y8.5971
G01 X19.6608 Y8.5752
G01 X19.6656 Y8.5713
G01 X19.6918 Y8.5519
G01 X19.7224 Y8.5336
G01 X19.7547 Y8.5183
G01 X19.7853 Y8.5073
G01 X19.7913 Y8.5055
G01 X19.8198 Y8.4983
G01 X19.8259 Y8.4971
G01 X19.8582 Y8.4924
G01 X19.8907 Y8.4907
G01 X31.9196 Y8.4907
G01 X31.9608 Y8.4037
G01 X32.0144 Y8.3142
G01 X32.0766 Y8.2304
G01 X32.1478 Y8.1520
G01 X32.2240 Y8.0830
G01 X32.3091 Y8.0200
G01 X32.3987 Y7.9664
G01 X32.4902 Y7.9232
G01 X32.5350 Y7.9069
G01 X32.5351 Y6.4904
G01 X32.5366 Y6.4595
G01 X32.5372 Y6.4533
G01 X32.5420 Y6.4211
G01 X32.5499 Y6.3895
G01 X32.5517 Y6.3835
G01 X32.5627 Y6.3529
G01 X32.5773 Y6.3220
G01 X32.5947 Y6.2927
G01 X32.5981 Y6.2875
G01 X32.6176 Y6.2614
G01 X32.6404 Y6.2360
G01 X33.2014 Y5.6750
G01 X33.2244 Y5.6542
G01 X33.2292 Y5.6503
G01 X33.2554 Y5.6309
G01 X33.2833 Y5.6141
G01 X33.2888 Y5.6112
G01 X33.3183 Y5.5973
G01 X33.3519 Y5.5853
G01 X33.3865 Y5.5766
G01 X33.4187 Y5.5718
G01 X33.4249 Y5.5712
G01 X33.4574 Y5.5697
G01 X42.4161 Y5.5697
G01 X42.4324 Y5.5248
G01 X42.4771 Y5.4306
G01 X42.5300 Y5.3424
G01 X42.5932 Y5.2574
G01 X42.6623 Y5.1813
G01 X42.7396 Y5.1112
G01 X42.8234 Y5.0490
G01 X42.9116 Y4.9961
G01 X43.0073 Y4.9507
G01 X43.1055 Y4.9156
G01 X43.2067 Y4.8902
G01 X43.3069 Y4.8753
G01 X43.3131 Y4.8747
G01 X43.4111 Y4.8699
G01 X43.4173 Y4.8699
G01 X43.5184 Y4.8749
G01 X43.6232 Y4.8906
G01 X43.7199 Y4.9148
G01 X43.7258 Y4.9166
G01 X43.8211 Y4.9507
G01 X43.9127 Y4.9940
G01 X43.9182 Y4.9969
G01 X44.0050 Y5.0490
G01 X44.0900 Y5.1122
G01 X44.1661 Y5.1813
G01 X44.2342 Y5.2562
G01 X44.2381 Y5.2610
G01 X44.2975 Y5.3411
G01 X44.3528 Y5.4333
G01 X44.3960 Y5.5248
G01 X44.4123 Y5.5696
G01 X45.3446 Y5.5697
G01 X45.3787 Y5.5713
G01 X45.4125 Y5.5761
G01 X45.4186 Y5.5773
G01 X45.4501 Y5.5853
G01 X45.4837 Y5.5973
G01 X45.5160 Y5.6126
G01 X45.5439 Y5.6293
G01 X45.5491 Y5.6327
G01 X45.5764 Y5.6532
G01 X45.6017 Y5.6761
G01 X51.3071 Y11.3815
G01 X51.3310 Y11.4080
G01 X51.3523 Y11.4366
G01 X51.3691 Y11.4645
G01 X51.3720 Y11.4700
G01 X51.3859 Y11.4995
G01 X51.3979 Y11.5331
G01 X51.4066 Y11.5677
G01 X51.4114 Y11.5999
G01 X51.4120 Y11.6061
G01 X51.4135 Y11.6386
G01 X51.4135 Y16.6699
G01 X51.4584 Y16.6862
G01 X51.5526 Y16.7309
G01 X51.6408 Y16.7838
G01 X51.7258 Y16.8470
G01 X51.8019 Y16.9161
G01 X51.8720 Y16.9934
G01 X51.9342 Y17.0772
G01 X51.9871 Y17.1654
G01 X52.0325 Y17.2611
G01 X52.0676 Y17.3593
G01 X52.0930 Y17.4605
G01 X52.1079 Y17.5607
G01 X52.1085 Y17.5669
G01 X52.1133 Y17.6649
G01 X52.1133 Y17.6711
G01 X52.1083 Y17.7722
G01 X52.0926 Y17.8770
G01 X52.0676 Y17.9767
G01 X52.0325 Y18.0749
G01 X51.9878 Y18.1693
G01 X51.9358 Y18.2562
G01 X51.9324 Y18.2613
G01 X51.8739 Y18.3402
G01 X51.8700 Y18.3450
G01 X51.8019 Y18.4199
G01 X51.7246 Y18.4900
G01 X51.6408 Y18.5522
G01 X51.5540 Y18.6043
G01 X51.5485 Y18.6072
G01 X51.4598 Y18.6492
G01 X51.4540 Y18.6516
G01 X51.3587 Y18.6856
G01 X51.2575 Y18.7110
G01 X51.1542 Y18.7263
G01 X51.0531 Y18.7313
G01 X51.0469 Y18.7313
G01 X50.9489 Y18.7265
G01 X50.9427 Y18.7259
G01 X50.8425 Y18.7110
G01 X50.7413 Y18.6856
G01 X50.6431 Y18.6505
G01 X50.5515 Y18.6072
G01 X50.5460 Y18.6043
G01 X50.4579 Y18.5513
G01 X50.3754 Y18.4900
G01 X50.3003 Y18.4221
G01 X50.2959 Y18.4177
G01 X50.2270 Y18.3414
G01 X50.1658 Y18.2588
G01 X50.1129 Y18.1706
G01 X50.0682 Y18.0764
G01 X50.0519 Y18.0316
G01 X48.1114 Y18.0315
G01 X38.2357 Y27.9073
G01 X38.2092 Y27.9312
G01 X38.1831 Y27.9507
G01 X38.1779 Y27.9541
G01 X38.1527 Y27.9693
G01 X38.1472 Y27.9722
G01 X38.1177 Y27.9861
G01 X38.0841 Y27.9981
G01 X38.0526 Y28.0061
G01 X38.0465 Y28.0073
G01 X38.0142 Y28.0120
G01 X37.9802 Y28.0137
G01 X34.9000 Y28.0137
G01 X34.8837 Y28.0586
G01 X34.8390 Y28.1528
G01 X34.7861 Y28.2410
G01 X34.7229 Y28.3260
G01 X34.6538 Y28.4021
G01 X34.5765 Y28.4722
G01 X34.4927 Y28.5344
G01 X34.4045 Y28.5873
G01 X34.3088 Y28.6327
G01 X34.2106 Y28.6678
G01 X34.1094 Y28.6932
G01 X34.0092 Y28.7081
G01 X34.0030 Y28.7087
G01 X33.9050 Y28.7135
G01 X33.8988 Y28.7135
G01 X33.7977 Y28.7085
G01 X33.6929 Y28.6928
G01 X33.5932 Y28.6678
G01 X33.4979 Y28.6338
G01 X33.4921 Y28.6314
G01 X33.4006 Y28.5880
G01 X33.3111 Y28.5344
G01 X33.2297 Y28.4741
G01 X33.2249 Y28.4702
G01 X33.1500 Y28.4021
G01 X33.0819 Y28.3272
G01 X33.0780 Y28.3224
G01 X33.0177 Y28.2410
G01 X32.9641 Y28.1515
G01 X32.9207 Y28.0600
G01 X32.9183 Y28.0542
G01 X32.8843 Y27.9589
G01 X32.8589 Y27.8577
G01 X32.8440 Y27.7575
G01 X32.8434 Y27.7513
G01 X32.8385 Y27.6502
G01 X32.8436 Y27.5460
G01 X32.8584 Y27.4458
G01 X32.8596 Y27.4397
G01 X32.8843 Y27.3415
G01 X32.9194 Y27.2433
G01 X32.9641 Y27.1489
G01 X33.0161 Y27.0620
G01 X33.0195 Y27.0569
G01 X33.0799 Y26.9756
G01 X33.1478 Y26.9005
G01 X33.1522 Y26.8961
G01 X33.2273 Y26.8282
G01 X33.3098 Y26.7669
G01 X33.4006 Y26.7124
G01 X33.4921 Y26.6690
G01 X33.4979 Y26.6666
G01 X33.5903 Y26.6336
G01 X33.5962 Y26.6318
G01 X33.6944 Y26.6072
G01 X33.7946 Y26.5923
G01 X33.8008 Y26.5917
G01 X33.9019 Y26.5868
G01 X34.0061 Y26.5919
G01 X34.1094 Y26.6072
G01 X34.2121 Y26.6331
G01 X34.3059 Y26.6666
G01 X34.3117 Y26.6690
G01 X34.4032 Y26.7124
G01 X34.4901 Y26.7644
G01 X34.4952 Y26.7678
G01 X34.5765 Y26.8282
G01 X34.6527 Y26.8972
G01 X34.7239 Y26.9756
G01 X34.7869 Y27.0607
G01 X34.8405 Y27.1503
G01 X34.8837 Y27.2418
G01 X34.9000 Y27.2866
G01 X37.8280 Y27.2867
G01 X47.7037 Y17.4109
G01 X47.7302 Y17.3870
G01 X47.7588 Y17.3657
G01 X47.7867 Y17.3489
G01 X47.7922 Y17.3460
G01 X47.8188 Y17.3334
G01 X47.8246 Y17.3310
G01 X47.8553 Y17.3201
G01 X47.8899 Y17.3114
G01 X47.9252 Y17.3062
G01 X47.9592 Y17.3045
G01 X50.0519 Y17.3045
G01 X50.0682 Y17.2596
G01 X50.1114 Y17.1681
G01 X50.1650 Y17.0785
G01 X50.2280 Y16.9934
G01 X50.2981 Y16.9161
G01 X50.3754 Y16.8460
G01 X50.4605 Y16.7830
G01 X50.5501 Y16.7294
G01 X50.6416 Y16.6862
G01 X50.6864 Y16.6699
G01 X50.6865 Y11.7892
G01 X45.1940 Y6.2968
G01 X44.4123 Y6.2967
G01 X44.3960 Y6.3416
G01 X44.3513 Y6.4358
G01 X44.2984 Y6.5240
G01 X44.2372 Y6.6066
G01 X44.1683 Y6.6829
G01 X44.1639 Y6.6873
G01 X44.0888 Y6.7552
G01 X44.0063 Y6.8165
G01 X43.9182 Y6.8695
G01 X43.9127 Y6.8724
G01 X43.8211 Y6.9157
G01 X43.7229 Y6.9508
G01 X43.6217 Y6.9762
G01 X43.5215 Y6.9911
G01 X43.5153 Y6.9917
G01 X43.4142 Y6.9966
G01 X43.3131 Y6.9917
G01 X43.3069 Y6.9911
G01 X43.2067 Y6.9762
G01 X43.1055 Y6.9508
G01 X43.0073 Y6.9157
G01 X42.9157 Y6.8724
G01 X42.9102 Y6.8695
G01 X42.8221 Y6.8165
G01 X42.7396 Y6.7552
G01 X42.6645 Y6.6873
G01 X42.6601 Y6.6829
G01 X42.5912 Y6.6066
G01 X42.5300 Y6.5240
G01 X42.4771 Y6.4358
G01 X42.4324 Y6.3416
G01 X42.4161 Y6.2968
G01 X33.6080 Y6.2967
G01 X33.2622 Y6.6426
G01 X33.2621 Y7.9069
G01 X33.3070 Y7.9232
G01 X33.4012 Y7.9679
G01 X33.4894 Y8.0208
G01 X33.5744 Y8.0840
G01 X33.6505 Y8.1531
G01 X33.7206 Y8.2304
G01 X33.7828 Y8.3142
G01 X33.8357 Y8.4024
G01 X33.8811 Y8.4981
G01 X33.9152 Y8.5934
G01 X33.9170 Y8.5993
G01 X33.9409 Y8.6945
G01 X33.9421 Y8.7006
G01 X33.9569 Y8.8008
G01 X33.9620 Y8.9050
G01 X33.9569 Y9.0092
G01 X33.9419 Y9.1109
G01 X33.9170 Y9.2107
G01 X33.9152 Y9.2166
G01 X33.8811 Y9.3119
G01 X33.8364 Y9.4063
G01 X33.7828 Y9.4958
G01 X33.7225 Y9.5772
G01 X33.7186 Y9.5820
G01 X33.6527 Y9.6547
G01 X33.6483 Y9.6591
G01 X33.5732 Y9.7270
G01 X33.4894 Y9.7892
G01 X33.3999 Y9.8428
G01 X33.3084 Y9.8862
G01 X33.3026 Y9.8886
G01 X33.2102 Y9.9216
G01 X33.2043 Y9.9234
G01 X33.1061 Y9.9480
G01 X33.0028 Y9.9633
G01 X32.8986 Y9.9684
G01 X32.7975 Y9.9635
G01 X32.7913 Y9.9629
G01 X32.6942 Y9.9485
G01 X32.6881 Y9.9473
G01 X32.5899 Y9.9226
G01 X32.4917 Y9.8875
G01 X32.3973 Y9.8428
G01 X32.3078 Y9.7892
G01 X32.2240 Y9.7270
G01 X32.1489 Y9.6591
G01 X32.1445 Y9.6547
G01 X32.0786 Y9.5820
G01 X32.0747 Y9.5772
G01 X32.0144 Y9.4958
G01 X31.9608 Y9.4063
G01 X31.9161 Y9.3119
G01 X31.8824 Y9.2178
G01 X20.0444 Y9.2177
G01 X19.7898 Y9.4723
G01 X19.8100 Y9.5155
G01 X19.8441 Y9.6108
G01 X19.8703 Y9.7151
G01 X19.8849 Y9.8137
G01 X19.8855 Y9.8199
G01 X19.8904 Y9.9210
G01 X19.8854 Y10.0237
G01 X19.8705 Y10.1254
G01 X19.8693 Y10.1315
G01 X19.8446 Y10.2297
G01 X19.8106 Y10.3250
G01 X19.8082 Y10.3308
G01 X19.7648 Y10.4223
G01 X19.7103 Y10.5131
G01 X19.6509 Y10.5932
G01 X19.6470 Y10.5980
G01 X19.5789 Y10.6729
G01 X19.5040 Y10.7410
G01 X19.4992 Y10.7449
G01 X19.4178 Y10.8052
G01 X19.3283 Y10.8588
G01 X19.2339 Y10.9035
G01 X19.1386 Y10.9376
G01 X19.1327 Y10.9394
G01 X19.0345 Y10.9640
G01 X18.9343 Y10.9789
G01 X18.9281 Y10.9795
G01 X18.8270 Y10.9844
G01 X18.7228 Y10.9793
G01 X18.6226 Y10.9645
G01 X18.6165 Y10.9633
G01 X18.5213 Y10.9394
G01 X18.5154 Y10.9376
G01 X18.4201 Y10.9035
G01 X18.3257 Y10.8588
G01 X18.2362 Y10.8052
G01 X18.1536 Y10.7440
G01 X18.0751 Y10.6729
G01 X18.0070 Y10.5980
G01 X18.0031 Y10.5932
G01 X17.9420 Y10.5105
G01 X17.8892 Y10.4223
G01 X17.8445 Y10.3279
G01 X17.8094 Y10.2297
G01 X17.7912 Y10.1576
G01 X12.5942 Y10.1575
G01 X12.5825 Y10.1897
G01 X12.5378 Y10.2839
G01 X12.4849 Y10.3721
G01 X12.4237 Y10.4547
G01 X12.3548 Y10.5310
G01 X12.3504 Y10.5354
G01 X12.2753 Y10.6033
G01 X12.1928 Y10.6646
G01 X12.1047 Y10.7176
G01 X12.0992 Y10.7205
G01 X12.0076 Y10.7638
G01 X11.9094 Y10.7989
G01 X11.8082 Y10.8243
G01 X11.7080 Y10.8392
G01 X11.7018 Y10.8398
G01 X11.6007 Y10.8447
G01 X11.4996 Y10.8398
G01 X11.4934 Y10.8392
G01 X11.3932 Y10.8243
G01 X11.2920 Y10.7989
G01 X11.1938 Y10.7638
G01 X11.1022 Y10.7205
G01 X11.0967 Y10.7176
G01 X11.0125 Y10.6671
G01 X11.0074 Y10.6637
G01 X10.9261 Y10.6033
G01 X10.8488 Y10.5332
G01 X10.7787 Y10.4559
G01 X10.7183 Y10.3746
G01 X10.7149 Y10.3695
G01 X10.6644 Y10.2853
G01 X10.6615 Y10.2798
G01 X10.6182 Y10.1882
G01 X10.5836 Y10.0915
G01 X10.5577 Y9.9888
G01 X10.5424 Y9.8855
G01 X10.5373 Y9.7813
G01 X10.5424 Y9.6771
G01 X10.5577 Y9.5738
G01 X10.5831 Y9.4726
G01 X10.6182 Y9.3744
G01 X10.6629 Y9.2800
G01 X10.7165 Y9.1905
G01 X10.7787 Y9.1067
G01 X10.8488 Y9.0294
G01 X10.9261 Y8.9593
G01 X11.0099 Y8.8971
G01 X11.0994 Y8.8435
G01 X11.1938 Y8.7988
G01 X11.2905 Y8.7642
G01 X11.3932 Y8.7383
G01 X11.4965 Y8.7230
G01 X11.6007 Y8.7179
G01 X11.7049 Y8.7230
G01 X11.8082 Y8.7383
G01 X11.9094 Y8.7637
G01 X12.0076 Y8.7988
G01 X12.1006 Y8.8427
G01 X12.1915 Y8.8971
G01 X12.2753 Y8.9593
G01 X12.3526 Y9.0294
G01 X12.4217 Y9.1055
G01 X12.4849 Y9.1905
G01 X12.5378 Y9.2787
G01 X12.5825 Y9.3729
G01 X12.6033 Y9.4304
G00 Z2.0000
G00 X12.6499 Y10.2400
G01 F35.00
G01 Z-0.0500
G01 F25.00
G01 X12.6112 Y10.3214
G01 X12.5534 Y10.4179
G01 X12.4864 Y10.5082
G01 X12.4109 Y10.5915
G01 X12.3276 Y10.6670
G01 X12.2373 Y10.7340
G01 X12.1408 Y10.7918
G01 X12.0392 Y10.8399
G01 X11.9333 Y10.8778
G01 X11.8242 Y10.9051
G01 X11.7130 Y10.9216
G01 X11.6007 Y10.9271
G01 X11.4884 Y10.9216
G01 X11.3772 Y10.9051
G01 X11.2681 Y10.8778
G01 X11.1622 Y10.8399
G01 X11.0606 Y10.7918
G01 X10.9641 Y10.7340
G01 X10.8738 Y10.6670
G01 X10.7905 Y10.5915
G01 X10.7150 Y10.5082
G01 X10.6480 Y10.4179
G01 X10.5902 Y10.3214
G01 X10.5421 Y10.2198
G01 X10.5042 Y10.1139
G01 X10.4769 Y10.0048
G01 X10.4604 Y9.8936
G01 X10.4549 Y9.7813
G01 X10.4604 Y9.6690
G01 X10.4769 Y9.5578
G01 X10.5042 Y9.4487
G01 X10.5421 Y9.3428
G01 X10.5902 Y9.2412
G01 X10.6442 Y9.1508
G01 X10.6521 Y9.1389
G01 X10.7150 Y9.0544
G01 X10.7905 Y8.9711
G01 X10.8684 Y8.9002
G01 X10.8794 Y8.8912
G01 X10.9641 Y8.8286
G01 X11.0606 Y8.7708
G01 X11.1557 Y8.7256
G01 X11.1689 Y8.7201
G01 X11.2681 Y8.6848
G01 X11.3702 Y8.6591
G01 X11.3842 Y8.6563
G01 X11.4884 Y8.6410
G01 X11.5935 Y8.6357
G01 X11.6079 Y8.6357
G01 X11.7059 Y8.6405
G01 X11.7201 Y8.6419
G01 X11.8242 Y8.6575
G01 X11.9333 Y8.6848
G01 X12.0325 Y8.7201
G01 X12.0457 Y8.7256
G01 X12.1408 Y8.7708
G01 X12.2373 Y8.8286
G01 X12.3220 Y8.8912
G01 X12.3330 Y8.9002
G01 X12.4109 Y8.9711
G01 X12.4864 Y9.0544
G01 X12.5534 Y9.1447
G01 X12.6077 Y9.2349
G01 X12.6144 Y9.2476
G01 X12.6564 Y9.3363
G01 X12.6613 Y9.3480
G01 X17.8360 Y9.3480
G01 X17.8705 Y9.2905
G01 X17.8763 Y9.2815
G01 X17.9369 Y9.1997
G01 X17.9436 Y9.1914
G01 X18.0168 Y9.1108
G01 X18.0974 Y9.0376
G01 X18.1057 Y9.0309
G01 X18.1846 Y8.9724
G01 X18.1965 Y8.9645
G01 X18.2869 Y8.9105
G01 X18.3820 Y8.8653
G01 X18.3952 Y8.8598
G01 X18.4944 Y8.8245
G01 X18.6035 Y8.7972
G01 X18.7147 Y8.7807
G01 X18.8270 Y8.7752
G01 X18.9393 Y8.7807
G01 X19.0505 Y8.7972
G01 X19.1596 Y8.8245
G01 X19.2578 Y8.8595
G01 X19.5785 Y8.5389
G01 X19.6055 Y8.5141
G01 X19.6165 Y8.5051
G01 X19.6460 Y8.4834
G01 X19.6773 Y8.4644
G01 X19.6900 Y8.4577
G01 X19.7231 Y8.4422
G01 X19.7643 Y8.4274
G01 X19.7998 Y8.4184
G01 X19.8138 Y8.4156
G01 X19.8430 Y8.4113
G01 X19.8537 Y8.4101
G01 X19.8938 Y8.4082
G01 X31.8674 Y8.4082
G01 X31.8849 Y8.3713
G01 X31.8898 Y8.3617
G01 X31.9421 Y8.2745
G01 X31.9479 Y8.2655
G01 X32.0129 Y8.1781
G01 X32.0834 Y8.1000
G01 X32.0909 Y8.0923
G01 X32.1717 Y8.0193
G01 X32.2620 Y7.9523
G01 X32.3585 Y7.8945
G01 X32.4526 Y7.8497
G01 X32.4527 Y6.4884
G01 X32.4545 Y6.4519
G01 X32.4557 Y6.4412
G01 X32.4612 Y6.4050
G01 X32.4699 Y6.3694
G01 X32.4729 Y6.3591
G01 X32.4852 Y6.3247
G01 X32.4895 Y6.3148
G01 X32.5036 Y6.2849
G01 X32.5088 Y6.2755
G01 X32.5240 Y6.2503
G01 X32.5319 Y6.2384
G01 X32.5539 Y6.2091
G01 X32.5808 Y6.1792
G01 X33.1446 Y5.6154
G01 X33.1717 Y5.5908
G01 X33.1801 Y5.5841
G01 X33.2096 Y5.5624
G01 X33.2409 Y5.5434
G01 X33.2536 Y5.5367
G01 X33.2867 Y5.5212
G01 X33.3279 Y5.5064
G01 X33.3704 Y5.4958
G01 X33.4066 Y5.4903
G01 X33.4208 Y5.4889
G01 X33.4574 Y5.4872
G01 X42.3589 Y5.4872
G01 X42.4037 Y5.3931
G01 X42.4615 Y5.2966
G01 X42.5285 Y5.2063
G01 X42.5990 Y5.1282
G01 X42.6092 Y5.1180
G01 X42.6819 Y5.0521
G01 X42.6929 Y5.0431
G01 X42.7776 Y4.9805
G01 X42.8741 Y4.9227
G01 X42.9757 Y4.8746
G01 X43.0816 Y4.8367
G01 X43.1907 Y4.8094
G01 X43.2948 Y4.7938
G01 X43.3090 Y4.7924
G01 X43.4070 Y4.7876
G01 X43.4214 Y4.7876
G01 X43.5265 Y4.7929
G01 X43.6377 Y4.8094
G01 X43.7468 Y4.8367
G01 X43.8460 Y4.8720
G01 X43.8592 Y4.8775
G01 X43.9543 Y4.9227
G01 X44.0447 Y4.9767
G01 X44.0566 Y4.9846
G01 X44.1411 Y5.0475
G01 X44.2244 Y5.1230
G01 X44.2953 Y5.2009
G01 X44.3043 Y5.2119
G01 X44.3628 Y5.2908
G01 X44.3707 Y5.3027
G01 X44.4247 Y5.3931
G01 X44.4695 Y5.4872
G01 X45.3446 Y5.4872
G01 X45.3883 Y5.4894
G01 X45.4316 Y5.4958
G01 X45.4672 Y5.5045
G01 X45.4809 Y5.5087
G01 X45.5153 Y5.5212
G01 X45.5548 Y5.5399
G01 X45.5863 Y5.5586
G01 X45.5982 Y5.5665
G01 X45.6219 Y5.5841
G01 X45.6303 Y5.5908
G01 X45.6599 Y5.6179
G01 X51.3653 Y11.3233
G01 X51.3947 Y11.3557
G01 X51.4208 Y11.3908
G01 X51.4398 Y11.4221
G01 X51.4465 Y11.4348
G01 X51.4620 Y11.4679
G01 X51.4768 Y11.5091
G01 X51.4858 Y11.5446
G01 X51.4886 Y11.5586
G01 X51.4938 Y11.5949
G01 X51.4959 Y11.6350
G01 X51.4960 Y16.6127
G01 X51.5901 Y16.6575
G01 X51.6866 Y16.7153
G01 X51.7769 Y16.7823
G01 X51.8550 Y16.8528
G01 X51.8652 Y16.8630
G01 X51.9311 Y16.9357
G01 X51.9401 Y16.9467
G01 X52.0027 Y17.0314
G01 X52.0605 Y17.1279
G01 X52.1086 Y17.2295
G01 X52.1465 Y17.3354
G01 X52.1738 Y17.4445
G01 X52.1894 Y17.5486
G01 X52.1908 Y17.5628
G01 X52.1956 Y17.6608
G01 X52.1956 Y17.6752
G01 X52.1903 Y17.7803
G01 X52.1738 Y17.8915
G01 X52.1465 Y18.0006
G01 X52.1112 Y18.0998
G01 X52.1057 Y18.1130
G01 X52.0637 Y18.2017
G01 X52.0570 Y18.2144
G01 X52.0027 Y18.3046
G01 X51.9357 Y18.3949
G01 X51.8602 Y18.4782
G01 X51.7823 Y18.5491
G01 X51.7713 Y18.5581
G01 X51.6924 Y18.6166
G01 X51.6805 Y18.6245
G01 X51.5901 Y18.6785
G01 X51.4885 Y18.7266
G01 X51.3826 Y18.7645
G01 X51.2805 Y18.7902
G01 X51.2665 Y18.7930
G01 X51.1694 Y18.8074
G01 X51.1552 Y18.8088
G01 X51.0500 Y18.8138
G01 X50.9448 Y18.8088
G01 X50.9306 Y18.8074
G01 X50.8265 Y18.7918
G01 X50.7174 Y18.7645
G01 X50.6182 Y18.7292
G01 X50.6050 Y18.7237
G01 X50.5163 Y18.6817
G01 X50.5036 Y18.6750
G01 X50.4134 Y18.6207
G01 X50.3287 Y18.5581
G01 X50.3177 Y18.5491
G01 X50.2450 Y18.4832
G01 X50.2348 Y18.4730
G01 X50.1643 Y18.3949
G01 X50.0973 Y18.3046
G01 X50.0395 Y18.2081
G01 X49.9947 Y18.1140
G01 X48.1455 Y18.1140
G01 X38.2939 Y27.9655
G01 X38.2615 Y27.9949
G01 X38.2322 Y28.0169
G01 X38.2203 Y28.0248
G01 X38.1951 Y28.0400
G01 X38.1857 Y28.0452
G01 X38.1493 Y28.0622
G01 X38.1115 Y28.0759
G01 X38.1012 Y28.0789
G01 X38.0726 Y28.0860
G01 X38.0586 Y28.0888
G01 X38.0223 Y28.0940
G01 X37.9822 Y28.0961
G01 X34.9572 Y28.0962
G01 X34.9124 Y28.1903
G01 X34.8546 Y28.2868
G01 X34.7876 Y28.3771
G01 X34.7171 Y28.4552
G01 X34.7069 Y28.4654
G01 X34.6342 Y28.5313
G01 X34.6232 Y28.5403
G01 X34.5385 Y28.6029
G01 X34.4420 Y28.6607
G01 X34.3404 Y28.7088
G01 X34.2345 Y28.7467
G01 X34.1254 Y28.7740
G01 X34.0213 Y28.7896
G01 X34.0071 Y28.7910
G01 X33.9091 Y28.7958
G01 X33.8947 Y28.7958
G01 X33.7896 Y28.7905
G01 X33.6784 Y28.7740
G01 X33.5693 Y28.7467
G01 X33.4701 Y28.7114
G01 X33.4569 Y28.7059
G01 X33.3618 Y28.6607
G01 X33.2653 Y28.6029
G01 X33.1806 Y28.5403
G01 X33.1696 Y28.5313
G01 X33.0917 Y28.4604
G01 X33.0208 Y28.3825
G01 X33.0118 Y28.3715
G01 X32.9492 Y28.2868
G01 X32.8914 Y28.1903
G01 X32.8462 Y28.0952
G01 X32.8407 Y28.0820
G01 X32.8054 Y27.9828
G01 X32.7781 Y27.8737
G01 X32.7625 Y27.7696
G01 X32.7611 Y27.7554
G01 X32.7561 Y27.6502
G01 X32.7616 Y27.5379
G01 X32.7769 Y27.4337
G01 X32.7797 Y27.4197
G01 X32.8054 Y27.3176
G01 X32.8433 Y27.2117
G01 X32.8914 Y27.1101
G01 X32.9454 Y27.0197
G01 X32.9533 Y27.0078
G01 X33.0162 Y26.9233
G01 X33.0867 Y26.8452
G01 X33.0969 Y26.8350
G01 X33.1750 Y26.7645
G01 X33.2624 Y26.6995
G01 X33.2714 Y26.6937
G01 X33.3618 Y26.6397
G01 X33.4634 Y26.5916
G01 X33.5693 Y26.5537
G01 X33.6714 Y26.5280
G01 X33.6854 Y26.5252
G01 X33.7825 Y26.5108
G01 X33.7967 Y26.5094
G01 X33.9019 Y26.5044
G01 X34.0071 Y26.5094
G01 X34.0213 Y26.5108
G01 X34.1254 Y26.5264
G01 X34.2345 Y26.5537
G01 X34.3404 Y26.5916
G01 X34.4420 Y26.6397
G01 X34.5385 Y26.6975
G01 X34.6232 Y26.7601
G01 X34.6342 Y26.7691
G01 X34.7121 Y26.8400
G01 X34.7830 Y26.9179
G01 X34.7920 Y26.9289
G01 X34.8505 Y27.0078
G01 X34.8584 Y27.0197
G01 X34.9124 Y27.1101
G01 X34.9572 Y27.2042
G01 X37.7939 Y27.2042
G01 X47.6455 Y17.3527
G01 X47.6779 Y17.3233
G01 X47.7130 Y17.2972
G01 X47.7443 Y17.2782
G01 X47.7570 Y17.2715
G01 X47.7868 Y17.2574
G01 X47.7968 Y17.2534
G01 X47.8313 Y17.2412
G01 X47.8738 Y17.2306
G01 X47.9171 Y17.2242
G01 X47.9536 Y17.2222
G01 X49.9947 Y17.2220
G01 X50.0395 Y17.1279
G01 X50.0973 Y17.0314
G01 X50.1643 Y16.9411
G01 X50.2398 Y16.8578
G01 X50.3231 Y16.7823
G01 X50.4134 Y16.7153
G01 X50.5099 Y16.6575
G01 X50.6040 Y16.6127
G01 X50.6040 Y11.8233
G01 X45.1599 Y6.3792
G01 X44.4695 Y6.3792
G01 X44.4247 Y6.4733
G01 X44.3707 Y6.5637
G01 X44.3628 Y6.5756
G01 X44.2999 Y6.6601
G01 X44.2244 Y6.7434
G01 X44.1465 Y6.8143
G01 X44.1355 Y6.8233
G01 X44.0508 Y6.8859
G01 X43.9543 Y6.9437
G01 X43.8592 Y6.9889
G01 X43.8460 Y6.9944
G01 X43.7468 Y7.0297
G01 X43.6377 Y7.0570
G01 X43.5336 Y7.0726
G01 X43.5194 Y7.0740
G01 X43.4142 Y7.0790
G01 X43.3090 Y7.0740
G01 X43.2948 Y7.0726
G01 X43.1907 Y7.0570
G01 X43.0816 Y7.0297
G01 X42.9824 Y6.9944
G01 X42.9692 Y6.9889
G01 X42.8741 Y6.9437
G01 X42.7776 Y6.8859
G01 X42.6929 Y6.8233
G01 X42.6819 Y6.8143
G01 X42.6040 Y6.7434
G01 X42.5285 Y6.6601
G01 X42.4656 Y6.5756
G01 X42.4577 Y6.5637
G01 X42.4037 Y6.4733
G01 X42.3589 Y6.3792
G01 X33.6421 Y6.3792
G01 X33.3446 Y6.6767
G01 X33.3446 Y7.8497
G01 X33.4387 Y7.8945
G01 X33.5352 Y7.9523
G01 X33.6255 Y8.0193
G01 X33.7036 Y8.0898
G01 X33.7138 Y8.1000
G01 X33.7797 Y8.1727
G01 X33.7887 Y8.1837
G01 X33.8513 Y8.2684
G01 X33.9091 Y8.3649
G01 X33.9572 Y8.4665
G01 X33.9928 Y8.5656
G01 X33.9970 Y8.5793
G01 X34.0208 Y8.6745
G01 X34.0236 Y8.6885
G01 X34.0389 Y8.7927
G01 X34.0444 Y8.9050
G01 X34.0389 Y9.0173
G01 X34.0231 Y9.1250
G01 X34.0208 Y9.1355
G01 X33.9970 Y9.2307
G01 X33.9928 Y9.2444
G01 X33.9572 Y9.3435
G01 X33.9091 Y9.4451
G01 X33.8513 Y9.5416
G01 X33.7887 Y9.6263
G01 X33.7797 Y9.6373
G01 X33.7138 Y9.7100
G01 X33.7036 Y9.7202
G01 X33.6255 Y9.7907
G01 X33.5352 Y9.8577
G01 X33.4387 Y9.9155
G01 X33.3436 Y9.9607
G01 X33.3304 Y9.9662
G01 X33.2380 Y9.9992
G01 X33.2243 Y10.0034
G01 X33.1221 Y10.0288
G01 X33.0145 Y10.0449
G01 X33.0038 Y10.0458
G01 X32.8986 Y10.0508
G01 X32.7934 Y10.0458
G01 X32.7792 Y10.0444
G01 X32.6821 Y10.0300
G01 X32.6681 Y10.0272
G01 X32.5660 Y10.0015
G01 X32.4601 Y9.9636
G01 X32.3585 Y9.9155
G01 X32.2650 Y9.8597
G01 X32.2562 Y9.8536
G01 X32.1773 Y9.7951
G01 X32.1663 Y9.7861
G01 X32.0884 Y9.7152
G01 X32.0175 Y9.6373
G01 X32.0106 Y9.6291
G01 X31.9459 Y9.5416
G01 X31.8898 Y9.4483
G01 X31.8849 Y9.4387
G01 X31.8414 Y9.3468
G01 X31.8374 Y9.3368
G01 X31.8243 Y9.3002
G01 X20.0785 Y9.3002
G01 X19.8885 Y9.4902
G01 X19.9235 Y9.5884
G01 X19.9492 Y9.6905
G01 X19.9520 Y9.7045
G01 X19.9664 Y9.8016
G01 X19.9678 Y9.8158
G01 X19.9728 Y9.9210
G01 X19.9673 Y10.0333
G01 X19.9520 Y10.1375
G01 X19.9492 Y10.1515
G01 X19.9235 Y10.2536
G01 X19.8882 Y10.3528
G01 X19.8827 Y10.3660
G01 X19.8375 Y10.4611
G01 X19.7835 Y10.5515
G01 X19.7777 Y10.5605
G01 X19.7171 Y10.6423
G01 X19.7081 Y10.6533
G01 X19.6372 Y10.7312
G01 X19.5593 Y10.8021
G01 X19.5483 Y10.8111
G01 X19.4636 Y10.8737
G01 X19.3671 Y10.9315
G01 X19.2655 Y10.9796
G01 X19.1664 Y11.0152
G01 X19.1527 Y11.0194
G01 X19.0505 Y11.0448
G01 X18.9464 Y11.0604
G01 X18.9322 Y11.0618
G01 X18.8270 Y11.0668
G01 X18.7147 Y11.0613
G01 X18.6105 Y11.0460
G01 X18.5965 Y11.0432
G01 X18.5013 Y11.0194
G01 X18.4876 Y11.0152
G01 X18.3885 Y10.9796
G01 X18.2869 Y10.9315
G01 X18.1904 Y10.8737
G01 X18.1057 Y10.8111
G01 X18.0947 Y10.8021
G01 X18.0220 Y10.7362
G01 X18.0118 Y10.7260
G01 X17.9413 Y10.6479
G01 X17.8743 Y10.5576
G01 X17.8165 Y10.4611
G01 X17.7713 Y10.3660
G01 X17.7658 Y10.3528
G01 X17.7328 Y10.2604
G01 X17.7295 Y10.2502
G01 X17.7269 Y10.2400
G01 X12.6499 Y10.2400
G00 Z2.0000
G00 X12.7021 Y10.3224
G01 F35.00
G01 Z-0.0500
G01 F25.00
G01 X12.6865 Y10.3553
G01 X12.6812 Y10.3652
G01 X12.6250 Y10.4590
G01 X12.6155 Y10.4728
G01 X12.5536 Y10.5561
G01 X12.5428 Y10.5690
G01 X12.4692 Y10.6498
G01 X12.4611 Y10.6575
G01 X12.3842 Y10.7271
G01 X12.3711 Y10.7376
G01 X12.2831 Y10.8025
G01 X12.2736 Y10.8085
G01 X12.1797 Y10.8645
G01 X12.0810 Y10.9115
G01 X12.0707 Y10.9160
G01 X12.0603 Y10.9201
G01 X11.9626 Y10.9550
G01 X11.9464 Y10.9596
G01 X11.8403 Y10.9859
G01 X11.7322 Y11.0023
G01 X11.7211 Y11.0036
G01 X11.7099 Y11.0044
G01 X11.6007 Y11.0095
G01 X11.4915 Y11.0044
G01 X11.4803 Y11.0036
G01 X11.4692 Y11.0023
G01 X11.3611 Y10.9859
G01 X11.3502 Y10.9835
G01 X11.2442 Y10.9567
G01 X11.1411 Y10.9201
G01 X11.1307 Y10.9160
G01 X11.1204 Y10.9115
G01 X11.0267 Y10.8671
G01 X11.0120 Y10.8590
G01 X10.9183 Y10.8025
G01 X10.8303 Y10.7376
G01 X10.8215 Y10.7307
G01 X10.8130 Y10.7234
G01 X10.7322 Y10.6498
G01 X10.6586 Y10.5690
G01 X10.6513 Y10.5605
G01 X10.6444 Y10.5517
G01 X10.5795 Y10.4637
G01 X10.5735 Y10.4542
G01 X10.5175 Y10.3603
G01 X10.4705 Y10.2616
G01 X10.4660 Y10.2513
G01 X10.4619 Y10.2409
G01 X10.4253 Y10.1378
G01 X10.4224 Y10.1270
G01 X10.3961 Y10.0209
G01 X10.3797 Y9.9128
G01 X10.3784 Y9.9017
G01 X10.3776 Y9.8905
G01 X10.3725 Y9.7813
G01 X10.3776 Y9.6721
G01 X10.3784 Y9.6609
G01 X10.3797 Y9.6498
G01 X10.3961 Y9.5417
G01 X10.3985 Y9.5308
G01 X10.4253 Y9.4248
G01 X10.4619 Y9.3217
G01 X10.4660 Y9.3113
G01 X10.4705 Y9.3010
G01 X10.5149 Y9.2073
G01 X10.5230 Y9.1926
G01 X10.5735 Y9.1084
G01 X10.5795 Y9.0989
G01 X10.5859 Y9.0898
G01 X10.6513 Y9.0021
G01 X10.7245 Y8.9209
G01 X10.7322 Y8.9128
G01 X10.7403 Y8.9051
G01 X10.8215 Y8.8319
G01 X10.9092 Y8.7665
G01 X10.9183 Y8.7601
G01 X10.9278 Y8.7541
G01 X11.0217 Y8.6981
G01 X11.1204 Y8.6511
G01 X11.1307 Y8.6466
G01 X11.1411 Y8.6425
G01 X11.2442 Y8.6059
G01 X11.3502 Y8.5791
G01 X11.3611 Y8.5767
G01 X11.3721 Y8.5747
G01 X11.4803 Y8.5590
G01 X11.5895 Y8.5533
G01 X11.6007 Y8.5531
G01 X11.6119 Y8.5533
G01 X11.7099 Y8.5582
G01 X11.7211 Y8.5590
G01 X11.7322 Y8.5603
G01 X11.8403 Y8.5767
G01 X11.8512 Y8.5791
G01 X11.9572 Y8.6059
G01 X12.0603 Y8.6425
G01 X12.0707 Y8.6466
G01 X12.0810 Y8.6511
G01 X12.1797 Y8.6981
G01 X12.1894 Y8.7036
G01 X12.2784 Y8.7570
G01 X12.2922 Y8.7665
G01 X12.3711 Y8.8250
G01 X12.3799 Y8.8319
G01 X12.3884 Y8.8392
G01 X12.4692 Y8.9128
G01 X12.4769 Y8.9209
G01 X12.5465 Y8.9978
G01 X12.5570 Y9.0109
G01 X12.6155 Y9.0898
G01 X12.6250 Y9.1036
G01 X12.6784 Y9.1926
G01 X12.6839 Y9.2023
G01 X12.7142 Y9.2656
G01 X17.7893 Y9.2656
G01 X17.8027 Y9.2433
G01 X17.8089 Y9.2340
G01 X17.8707 Y9.1506
G01 X17.8812 Y9.1375
G01 X17.9508 Y9.0606
G01 X17.9585 Y9.0525
G01 X17.9666 Y9.0448
G01 X18.0435 Y8.9752
G01 X18.0566 Y8.9647
G01 X18.1355 Y8.9062
G01 X18.1446 Y8.8998
G01 X18.1541 Y8.8938
G01 X18.2480 Y8.8378
G01 X18.2580 Y8.8328
G01 X18.3518 Y8.7885
G01 X18.3674 Y8.7822
G01 X18.4705 Y8.7456
G01 X18.4813 Y8.7427
G01 X18.5874 Y8.7164
G01 X18.6955 Y8.7000
G01 X18.7066 Y8.6987
G01 X18.7178 Y8.6979
G01 X18.8214 Y8.6928
G01 X18.8382 Y8.6930
G01 X18.9474 Y8.6987
G01 X18.9585 Y8.7000
G01 X19.0611 Y8.7153
G01 X19.0775 Y8.7188
G01 X19.1782 Y8.7441
G01 X19.1942 Y8.7492
G01 X19.2365 Y8.7643
G01 X19.5242 Y8.4767
G01 X19.5586 Y8.4457
G01 X19.5956 Y8.4180
G01 X19.6049 Y8.4118
G01 X19.6350 Y8.3937
G01 X19.6497 Y8.3856
G01 X19.6916 Y8.3660
G01 X19.7298 Y8.3521
G01 X19.7458 Y8.3470
G01 X19.7907 Y8.3360
G01 X19.8309 Y8.3297
G01 X19.8476 Y8.3279
G01 X19.8938 Y8.3258
G01 X31.8155 Y8.3258
G01 X31.8714 Y8.2321
G01 X31.8774 Y8.2226
G01 X31.9423 Y8.1346
G01 X31.9492 Y8.1258
G01 X31.9565 Y8.1173
G01 X32.0224 Y8.0446
G01 X32.0341 Y8.0326
G01 X32.1109 Y7.9629
G01 X32.1194 Y7.9556
G01 X32.1282 Y7.9487
G01 X32.2116 Y7.8869
G01 X32.2257 Y7.8778
G01 X32.3147 Y7.8245
G01 X32.3296 Y7.8168
G01 X32.3702 Y7.7976
G01 X32.3702 Y6.4920
G01 X32.3705 Y6.4808
G01 X32.3723 Y6.4458
G01 X32.3741 Y6.4291
G01 X32.3804 Y6.3889
G01 X32.3900 Y6.3494
G01 X32.3947 Y6.3333
G01 X32.4084 Y6.2950
G01 X32.4150 Y6.2796
G01 X32.4300 Y6.2479
G01 X32.4353 Y6.2380
G01 X32.4533 Y6.2079
G01 X32.4593 Y6.1984
G01 X32.4657 Y6.1893
G01 X32.4901 Y6.1568
G01 X32.5211 Y6.1224
G01 X33.0878 Y5.5557
G01 X33.1179 Y5.5284
G01 X33.1310 Y5.5179
G01 X33.1638 Y5.4939
G01 X33.1986 Y5.4727
G01 X33.2133 Y5.4646
G01 X33.2552 Y5.4450
G01 X33.2934 Y5.4311
G01 X33.3040 Y5.4276
G01 X33.3148 Y5.4246
G01 X33.3543 Y5.4150
G01 X33.3945 Y5.4087
G01 X33.4112 Y5.4069
G01 X33.4574 Y5.4048
G01 X42.3068 Y5.4048
G01 X42.3260 Y5.3642
G01 X42.3337 Y5.3493
G01 X42.3870 Y5.2603
G01 X42.3961 Y5.2462
G01 X42.4579 Y5.1628
G01 X42.4648 Y5.1540
G01 X42.4721 Y5.1455
G01 X42.5418 Y5.0687
G01 X42.5538 Y5.0570
G01 X42.6265 Y4.9911
G01 X42.6350 Y4.9838
G01 X42.6438 Y4.9769
G01 X42.7318 Y4.9120
G01 X42.8255 Y4.8555
G01 X42.8402 Y4.8474
G01 X42.9339 Y4.8030
G01 X42.9442 Y4.7985
G01 X42.9546 Y4.7944
G01 X43.0577 Y4.7578
G01 X43.0685 Y4.7549
G01 X43.1746 Y4.7286
G01 X43.2827 Y4.7122
G01 X43.2938 Y4.7109
G01 X43.3050 Y4.7101
G01 X43.4030 Y4.7052
G01 X43.4142 Y4.7050
G01 X43.4254 Y4.7052
G01 X43.5346 Y4.7109
G01 X43.5457 Y4.7122
G01 X43.6538 Y4.7286
G01 X43.6647 Y4.7310
G01 X43.7707 Y4.7578
G01 X43.8738 Y4.7944
G01 X43.8842 Y4.7985
G01 X43.8945 Y4.8030
G01 X43.9932 Y4.8500
G01 X44.0871 Y4.9060
G01 X44.0966 Y4.9120
G01 X44.1057 Y4.9184
G01 X44.1890 Y4.9803
G01 X44.2019 Y4.9911
G01 X44.2827 Y5.0647
G01 X44.3563 Y5.1455
G01 X44.3671 Y5.1584
G01 X44.4290 Y5.2417
G01 X44.4385 Y5.2555
G01 X44.4947 Y5.3493
G01 X44.5024 Y5.3642
G01 X44.5216 Y5.4048
G01 X45.3446 Y5.4048
G01 X45.3852 Y5.4065
G01 X45.3964 Y5.4074
G01 X45.4075 Y5.4087
G01 X45.4477 Y5.4150
G01 X45.4872 Y5.4246
G01 X45.5033 Y5.4293
G01 X45.5468 Y5.4450
G01 X45.5837 Y5.4622
G01 X45.5937 Y5.4672
G01 X45.6287 Y5.4879
G01 X45.6382 Y5.4939
G01 X45.6473 Y5.5003
G01 X45.6754 Y5.5212
G01 X45.6841 Y5.5284
G01 X45.7182 Y5.5596
G01 X51.4236 Y11.2650
G01 X51.4511 Y11.2949
G01 X51.4585 Y11.3034
G01 X51.4653 Y11.3122
G01 X51.4893 Y11.3450
G01 X51.5133 Y11.3846
G01 X51.5210 Y11.3995
G01 X51.5382 Y11.4364
G01 X51.5521 Y11.4746
G01 X51.5556 Y11.4852
G01 X51.5671 Y11.5300
G01 X51.5702 Y11.5466
G01 X51.5758 Y11.5868
G01 X51.5783 Y11.6330
G01 X51.5784 Y16.5606
G01 X51.6190 Y16.5798
G01 X51.6339 Y16.5875
G01 X51.7229 Y16.6408
G01 X51.7370 Y16.6499
G01 X51.8204 Y16.7117
G01 X51.8292 Y16.7186
G01 X51.8377 Y16.7259
G01 X51.9145 Y16.7956
G01 X51.9262 Y16.8076
G01 X51.9921 Y16.8803
G01 X51.9994 Y16.8888
G01 X52.0063 Y16.8976
G01 X52.0712 Y16.9856
G01 X52.1277 Y17.0793
G01 X52.1358 Y17.0940
G01 X52.1802 Y17.1877
G01 X52.1847 Y17.1980
G01 X52.1888 Y17.2084
G01 X52.2254 Y17.3115
G01 X52.2283 Y17.3223
G01 X52.2546 Y17.4284
G01 X52.2710 Y17.5365
G01 X52.2723 Y17.5476
G01 X52.2731 Y17.5588
G01 X52.2780 Y17.6568
G01 X52.2782 Y17.6680
G01 X52.2780 Y17.6792
G01 X52.2723 Y17.7884
G01 X52.2710 Y17.7995
G01 X52.2546 Y17.9076
G01 X52.2522 Y17.9185
G01 X52.2254 Y18.0245
G01 X52.1888 Y18.1276
G01 X52.1847 Y18.1380
G01 X52.1802 Y18.1483
G01 X52.1382 Y18.2370
G01 X52.1332 Y18.2470
G01 X52.1277 Y18.2567
G01 X52.0712 Y18.3504
G01 X52.0063 Y18.4384
G01 X51.9994 Y18.4472
G01 X51.9921 Y18.4557
G01 X51.9185 Y18.5365
G01 X51.8377 Y18.6101
G01 X51.8292 Y18.6174
G01 X51.8204 Y18.6243
G01 X51.7415 Y18.6828
G01 X51.7324 Y18.6892
G01 X51.7229 Y18.6952
G01 X51.6290 Y18.7512
G01 X51.5303 Y18.7982
G01 X51.5200 Y18.8027
G01 X51.5096 Y18.8068
G01 X51.4065 Y18.8434
G01 X51.3005 Y18.8702
G01 X51.2896 Y18.8726
G01 X51.2786 Y18.8746
G01 X51.1815 Y18.8890
G01 X51.1648 Y18.8908
G01 X51.0612 Y18.8960
G01 X51.0500 Y18.8962
G01 X50.9408 Y18.8911
G01 X50.9296 Y18.8903
G01 X50.9185 Y18.8890
G01 X50.8104 Y18.8726
G01 X50.7995 Y18.8702
G01 X50.6935 Y18.8434
G01 X50.5904 Y18.8068
G01 X50.5800 Y18.8027
G01 X50.5697 Y18.7982
G01 X50.4810 Y18.7562
G01 X50.4661 Y18.7485
G01 X50.3771 Y18.6952
G01 X50.3676 Y18.6892
G01 X50.2796 Y18.6243
G01 X50.2708 Y18.6174
G01 X50.2623 Y18.6101
G01 X50.1896 Y18.5442
G01 X50.1776 Y18.5325
G01 X50.1079 Y18.4557
G01 X50.1006 Y18.4472
G01 X50.0937 Y18.4384
G01 X50.0319 Y18.3550
G01 X50.0228 Y18.3409
G01 X49.9695 Y18.2519
G01 X49.9618 Y18.2370
G01 X49.9426 Y18.1964
G01 X48.1797 Y18.1964
G01 X38.3522 Y28.0238
G01 X38.3223 Y28.0513
G01 X38.3138 Y28.0587
G01 X38.2813 Y28.0831
G01 X38.2722 Y28.0895
G01 X38.2627 Y28.0955
G01 X38.2326 Y28.1135
G01 X38.2227 Y28.1188
G01 X38.1808 Y28.1384
G01 X38.1373 Y28.1541
G01 X38.1266 Y28.1574
G01 X38.0926 Y28.1660
G01 X38.0817 Y28.1684
G01 X38.0706 Y28.1704
G01 X38.0304 Y28.1760
G01 X37.9842 Y28.1785
G01 X35.0093 Y28.1786
G01 X34.9901 Y28.2192
G01 X34.9824 Y28.2341
G01 X34.9291 Y28.3231
G01 X34.9200 Y28.3372
G01 X34.8582 Y28.4206
G01 X34.8513 Y28.4294
G01 X34.8440 Y28.4379
G01 X34.7743 Y28.5147
G01 X34.7623 Y28.5264
G01 X34.6896 Y28.5923
G01 X34.6811 Y28.5996
G01 X34.6723 Y28.6065
G01 X34.5843 Y28.6714
G01 X34.4906 Y28.7279
G01 X34.4759 Y28.7360
G01 X34.3822 Y28.7804
G01 X34.3719 Y28.7849
G01 X34.3615 Y28.7890
G01 X34.2584 Y28.8256
G01 X34.2476 Y28.8285
G01 X34.1415 Y28.8548
G01 X34.0334 Y28.8712
G01 X34.0223 Y28.8725
G01 X34.0111 Y28.8733
G01 X33.9131 Y28.8782
G01 X33.9019 Y28.8784
G01 X33.8907 Y28.8782
G01 X33.7815 Y28.8725
G01 X33.7704 Y28.8712
G01 X33.6623 Y28.8548
G01 X33.6514 Y28.8524
G01 X33.5454 Y28.8256
G01 X33.4423 Y28.7890
G01 X33.4319 Y28.7849
G01 X33.4216 Y28.7804
G01 X33.3229 Y28.7334
G01 X33.2290 Y28.6774
G01 X33.2195 Y28.6714
G01 X33.1315 Y28.6065
G01 X33.1227 Y28.5996
G01 X33.1142 Y28.5923
G01 X33.0334 Y28.5187
G01 X32.9598 Y28.4379
G01 X32.9525 Y28.4294
G01 X32.9456 Y28.4206
G01 X32.8807 Y28.3326
G01 X32.8747 Y28.3231
G01 X32.8187 Y28.2292
G01 X32.7717 Y28.1305
G01 X32.7672 Y28.1202
G01 X32.7631 Y28.1098
G01 X32.7265 Y28.0067
G01 X32.7236 Y27.9959
G01 X32.6973 Y27.8898
G01 X32.6809 Y27.7817
G01 X32.6796 Y27.7706
G01 X32.6788 Y27.7594
G01 X32.6737 Y27.6502
G01 X32.6788 Y27.5410
G01 X32.6796 Y27.5298
G01 X32.6953 Y27.4216
G01 X32.6973 Y27.4106
G01 X32.6997 Y27.3997
G01 X32.7265 Y27.2937
G01 X32.7631 Y27.1906
G01 X32.7672 Y27.1802
G01 X32.7717 Y27.1699
G01 X32.8187 Y27.0712
G01 X32.8747 Y26.9773
G01 X32.8807 Y26.9678
G01 X32.8871 Y26.9587
G01 X32.9525 Y26.8710
G01 X33.0257 Y26.7898
G01 X33.0334 Y26.7817
G01 X33.0415 Y26.7740
G01 X33.1227 Y26.7008
G01 X33.2104 Y26.6354
G01 X33.2195 Y26.6290
G01 X33.2290 Y26.6230
G01 X33.3229 Y26.5670
G01 X33.4216 Y26.5200
G01 X33.4319 Y26.5155
G01 X33.4423 Y26.5114
G01 X33.5347 Y26.4784
G01 X33.5454 Y26.4748
G01 X33.5562 Y26.4719
G01 X33.6623 Y26.4456
G01 X33.7704 Y26.4292
G01 X33.7815 Y26.4279
G01 X33.7927 Y26.4271
G01 X33.9019 Y26.4220
G01 X34.0111 Y26.4271
G01 X34.0223 Y26.4279
G01 X34.1305 Y26.4436
G01 X34.1415 Y26.4456
G01 X34.1524 Y26.4480
G01 X34.2584 Y26.4748
G01 X34.3615 Y26.5114
G01 X34.3719 Y26.5155
G01 X34.3822 Y26.5200
G01 X34.4809 Y26.5670
G01 X34.5748 Y26.6230
G01 X34.5889 Y26.6321
G01 X34.6723 Y26.6939
G01 X34.6811 Y26.7008
G01 X34.6896 Y26.7081
G01 X34.7704 Y26.7817
G01 X34.7781 Y26.7898
G01 X34.8477 Y26.8667
G01 X34.8582 Y26.8798
G01 X34.9167 Y26.9587
G01 X34.9262 Y26.9725
G01 X34.9824 Y27.0663
G01 X34.9901 Y27.0812
G01 X35.0093 Y27.1218
G01 X37.7597 Y27.1218
G01 X47.5872 Y17.2944
G01 X47.6171 Y17.2669
G01 X47.6256 Y17.2595
G01 X47.6344 Y17.2527
G01 X47.6672 Y17.2287
G01 X47.7020 Y17.2075
G01 X47.7167 Y17.1994
G01 X47.7586 Y17.1798
G01 X47.7968 Y17.1659
G01 X47.8074 Y17.1624
G01 X47.8468 Y17.1522
G01 X47.8632 Y17.1487
G01 X47.8979 Y17.1435
G01 X47.9090 Y17.1422
G01 X47.9202 Y17.1413
G01 X47.9608 Y17.1396
G01 X49.9426 Y17.1396
G01 X49.9618 Y17.0990
G01 X49.9695 Y17.0841
G01 X50.0228 Y16.9951
G01 X50.0319 Y16.9810
G01 X50.0937 Y16.8976
G01 X50.1006 Y16.8888
G01 X50.1079 Y16.8803
G01 X50.1815 Y16.7995
G01 X50.2623 Y16.7259
G01 X50.2708 Y16.7186
G01 X50.2796 Y16.7117
G01 X50.3630 Y16.6499
G01 X50.3771 Y16.6408
G01 X50.4661 Y16.5875
G01 X50.4810 Y16.5798
G01 X50.5216 Y16.5606
G01 X50.5216 Y11.8575
G01 X45.1257 Y6.4616
G01 X44.5216 Y6.4616
G01 X44.5024 Y6.5022
G01 X44.4947 Y6.5171
G01 X44.4385 Y6.6109
G01 X44.4290 Y6.6247
G01 X44.3705 Y6.7036
G01 X44.3600 Y6.7167
G01 X44.2904 Y6.7936
G01 X44.2827 Y6.8017
G01 X44.2019 Y6.8753
G01 X44.1934 Y6.8826
G01 X44.1846 Y6.8895
G01 X44.1057 Y6.9480
G01 X44.0919 Y6.9575
G01 X44.0029 Y7.0109
G01 X43.9932 Y7.0164
G01 X43.8945 Y7.0634
G01 X43.8842 Y7.0679
G01 X43.8738 Y7.0720
G01 X43.7707 Y7.1086
G01 X43.7599 Y7.1115
G01 X43.6538 Y7.1378
G01 X43.5457 Y7.1542
G01 X43.5346 Y7.1555
G01 X43.5234 Y7.1563
G01 X43.4142 Y7.1614
G01 X43.3050 Y7.1563
G01 X43.2938 Y7.1555
G01 X43.2827 Y7.1542
G01 X43.1746 Y7.1378
G01 X43.1637 Y7.1354
G01 X43.0577 Y7.1086
G01 X42.9546 Y7.0720
G01 X42.9442 Y7.0679
G01 X42.9339 Y7.0634
G01 X42.8352 Y7.0164
G01 X42.8255 Y7.0109
G01 X42.7365 Y6.9575
G01 X42.7227 Y6.9480
G01 X42.6438 Y6.8895
G01 X42.6350 Y6.8826
G01 X42.6265 Y6.8753
G01 X42.5457 Y6.8017
G01 X42.5380 Y6.7936
G01 X42.4684 Y6.7167
G01 X42.4579 Y6.7036
G01 X42.3994 Y6.6247
G01 X42.3899 Y6.6109
G01 X42.3337 Y6.5171
G01 X42.3260 Y6.5022
G01 X42.3068 Y6.4616
G01 X33.6763 Y6.4616
G01 X33.4270 Y6.7109
G01 X33.4270 Y7.7976
G01 X33.4676 Y7.8168
G01 X33.4825 Y7.8245
G01 X33.5715 Y7.8778
G01 X33.5856 Y7.8869
G01 X33.6690 Y7.9487
G01 X33.6778 Y7.9556
G01 X33.6863 Y7.9629
G01 X33.7631 Y8.0326
G01 X33.7748 Y8.0446
G01 X33.8407 Y8.1173
G01 X33.8480 Y8.1258
G01 X33.8549 Y8.1346
G01 X33.9198 Y8.2226
G01 X33.9763 Y8.3163
G01 X33.9844 Y8.3310
G01 X34.0288 Y8.4247
G01 X34.0333 Y8.4350
G01 X34.0374 Y8.4454
G01 X34.0740 Y8.5485
G01 X34.0769 Y8.5593
G01 X34.1032 Y8.6654
G01 X34.1196 Y8.7735
G01 X34.1209 Y8.7846
G01 X34.1217 Y8.7958
G01 X34.1266 Y8.8938
G01 X34.1268 Y8.9050
G01 X34.1266 Y8.9162
G01 X34.1209 Y9.0254
G01 X34.1196 Y9.0365
G01 X34.1043 Y9.1391
G01 X34.1008 Y9.1555
G01 X34.0769 Y9.2507
G01 X34.0740 Y9.2615
G01 X34.0704 Y9.2722
G01 X34.0333 Y9.3750
G01 X34.0288 Y9.3853
G01 X33.9818 Y9.4840
G01 X33.9258 Y9.5779
G01 X33.9198 Y9.5874
G01 X33.8549 Y9.6754
G01 X33.8480 Y9.6842
G01 X33.8407 Y9.6927
G01 X33.7748 Y9.7654
G01 X33.7671 Y9.7735
G01 X33.7590 Y9.7812
G01 X33.6778 Y9.8544
G01 X33.6690 Y9.8613
G01 X33.5810 Y9.9262
G01 X33.5715 Y9.9322
G01 X33.4776 Y9.9882
G01 X33.3789 Y10.0352
G01 X33.3686 Y10.0397
G01 X33.3582 Y10.0438
G01 X33.2658 Y10.0768
G01 X33.2551 Y10.0804
G01 X33.2443 Y10.0833
G01 X33.1382 Y10.1096
G01 X33.1272 Y10.1116
G01 X33.0246 Y10.1267
G01 X33.0078 Y10.1281
G01 X32.9098 Y10.1330
G01 X32.8986 Y10.1332
G01 X32.8874 Y10.1330
G01 X32.7782 Y10.1273
G01 X32.7671 Y10.1260
G01 X32.6590 Y10.1096
G01 X32.6481 Y10.1072
G01 X32.5421 Y10.0804
G01 X32.4390 Y10.0438
G01 X32.4286 Y10.0397
G01 X32.4183 Y10.0352
G01 X32.3296 Y9.9932
G01 X32.3196 Y9.9882
G01 X32.3099 Y9.9827
G01 X32.2162 Y9.9262
G01 X32.1282 Y9.8613
G01 X32.1194 Y9.8544
G01 X32.1109 Y9.8471
G01 X32.0301 Y9.7735
G01 X31.9565 Y9.6927
G01 X31.9492 Y9.6842
G01 X31.9423 Y9.6754
G01 X31.8838 Y9.5965
G01 X31.8774 Y9.5874
G01 X31.8714 Y9.5779
G01 X31.8154 Y9.4840
G01 X31.8104 Y9.4740
G01 X31.7672 Y9.3826
G01 X20.1127 Y9.3826
G01 X19.9837 Y9.5115
G01 X19.9988 Y9.5538
G01 X20.0039 Y9.5698
G01 X20.0305 Y9.6759
G01 X20.0336 Y9.6924
G01 X20.0487 Y9.7950
G01 X20.0501 Y9.8118
G01 X20.0552 Y9.9210
G01 X20.0501 Y10.0302
G01 X20.0487 Y10.0470
G01 X20.0336 Y10.1496
G01 X20.0316 Y10.1606
G01 X20.0292 Y10.1715
G01 X20.0024 Y10.2775
G01 X19.9658 Y10.3806
G01 X19.9617 Y10.3910
G01 X19.9572 Y10.4013
G01 X19.9102 Y10.5000
G01 X19.8542 Y10.5939
G01 X19.8482 Y10.6034
G01 X19.8418 Y10.6125
G01 X19.7833 Y10.6914
G01 X19.7764 Y10.7002
G01 X19.7691 Y10.7087
G01 X19.6955 Y10.7895
G01 X19.6147 Y10.8631
G01 X19.6062 Y10.8704
G01 X19.5974 Y10.8773
G01 X19.5094 Y10.9422
G01 X19.4999 Y10.9482
G01 X19.4060 Y11.0042
G01 X19.3073 Y11.0512
G01 X19.2970 Y11.0557
G01 X19.1942 Y11.0928
G01 X19.1835 Y11.0964
G01 X19.1727 Y11.0993
G01 X19.0666 Y11.1256
G01 X18.9585 Y11.1420
G01 X18.9474 Y11.1433
G01 X18.9362 Y11.1441
G01 X18.8270 Y11.1492
G01 X18.7178 Y11.1441
G01 X18.7066 Y11.1433
G01 X18.6955 Y11.1420
G01 X18.5874 Y11.1256
G01 X18.5765 Y11.1232
G01 X18.4705 Y11.0964
G01 X18.3674 Y11.0598
G01 X18.3570 Y11.0557
G01 X18.2580 Y11.0092
G01 X18.2480 Y11.0042
G01 X18.2383 Y10.9987
G01 X18.1541 Y10.9482
G01 X18.1400 Y10.9391
G01 X18.0566 Y10.8773
G01 X18.0478 Y10.8704
G01 X17.9666 Y10.7972
G01 X17.9585 Y10.7895
G01 X17.9508 Y10.7814
G01 X17.8849 Y10.7087
G01 X17.8741 Y10.6958
G01 X17.8122 Y10.6125
G01 X17.8058 Y10.6034
G01 X17.7998 Y10.5939
G01 X17.7465 Y10.5049
G01 X17.7388 Y10.4900
G01 X17.6945 Y10.3962
G01 X17.6882 Y10.3806
G01 X17.6674 Y10.3224
G01 X12.7021 Y10.3224
G00 Z2.0000
G00 X12.7535 Y10.4048
G01 F35.00
G01 Z-0.0500
G01 F25.00
G01 X12.6986 Y10.4966
G01 X12.6905 Y10.5095
G01 X12.6817 Y10.5219
G01 X12.6232 Y10.6008
G01 X12.6139 Y10.6128
G01 X12.6039 Y10.6243
G01 X12.5380 Y10.6970
G01 X12.5275 Y10.7081
G01 X12.5164 Y10.7186
G01 X12.4437 Y10.7845
G01 X12.4322 Y10.7945
G01 X12.4202 Y10.8038
G01 X12.3413 Y10.8623
G01 X12.3289 Y10.8711
G01 X12.3160 Y10.8792
G01 X12.2318 Y10.9297
G01 X12.2185 Y10.9372
G01 X12.2049 Y10.9441
G01 X12.1162 Y10.9860
G01 X12.1023 Y10.9922
G01 X12.0880 Y10.9977
G01 X11.9956 Y11.0307
G01 X11.9812 Y11.0355
G01 X11.9665 Y11.0396
G01 X11.8713 Y11.0634
G01 X11.8564 Y11.0668
G01 X11.8414 Y11.0694
G01 X11.7443 Y11.0838
G01 X11.7292 Y11.0856
G01 X11.7140 Y11.0868
G01 X11.6159 Y11.0916
G01 X11.6007 Y11.0920
G01 X11.5855 Y11.0916
G01 X11.4874 Y11.0868
G01 X11.4722 Y11.0856
G01 X11.4571 Y11.0838
G01 X11.3600 Y11.0694
G01 X11.3450 Y11.0668
G01 X11.3301 Y11.0634
G01 X11.2349 Y11.0396
G01 X11.2202 Y11.0355
G01 X11.2058 Y11.0307
G01 X11.1134 Y10.9977
G01 X11.0991 Y10.9922
G01 X11.0852 Y10.9860
G01 X10.9965 Y10.9441
G01 X10.9829 Y10.9372
G01 X10.9696 Y10.9297
G01 X10.8854 Y10.8792
G01 X10.8725 Y10.8711
G01 X10.8601 Y10.8623
G01 X10.7812 Y10.8038
G01 X10.7692 Y10.7945
G01 X10.7577 Y10.7845
G01 X10.6850 Y10.7186
G01 X10.6739 Y10.7081
G01 X10.6634 Y10.6970
G01 X10.5975 Y10.6243
G01 X10.5875 Y10.6128
G01 X10.5782 Y10.6008
G01 X10.5197 Y10.5219
G01 X10.5109 Y10.5095
G01 X10.5028 Y10.4966
G01 X10.4523 Y10.4124
G01 X10.4448 Y10.3991
G01 X10.4379 Y10.3855
G01 X10.3960 Y10.2968
G01 X10.3898 Y10.2829
G01 X10.3843 Y10.2686
G01 X10.3513 Y10.1762
G01 X10.3465 Y10.1618
G01 X10.3424 Y10.1471
G01 X10.3186 Y10.0519
G01 X10.3152 Y10.0370
G01 X10.3126 Y10.0220
G01 X10.2982 Y9.9249
G01 X10.2964 Y9.9098
G01 X10.2952 Y9.8946
G01 X10.2904 Y9.7965
G01 X10.2900 Y9.7813
G01 X10.2904 Y9.7661
G01 X10.2952 Y9.6680
G01 X10.2964 Y9.6528
G01 X10.2982 Y9.6377
G01 X10.3126 Y9.5406
G01 X10.3152 Y9.5256
G01 X10.3186 Y9.5107
G01 X10.3424 Y9.4155
G01 X10.3465 Y9.4008
G01 X10.3513 Y9.3864
G01 X10.3843 Y9.2940
G01 X10.3898 Y9.2797
G01 X10.3960 Y9.2658
G01 X10.4379 Y9.1771
G01 X10.4448 Y9.1635
G01 X10.4523 Y9.1502
G01 X10.5028 Y9.0660
G01 X10.5109 Y9.0531
G01 X10.5197 Y9.0407
G01 X10.5782 Y8.9618
G01 X10.5875 Y8.9498
G01 X10.5975 Y8.9383
G01 X10.6634 Y8.8656
G01 X10.6739 Y8.8545
G01 X10.6850 Y8.8440
G01 X10.7577 Y8.7781
G01 X10.7692 Y8.7681
G01 X10.7812 Y8.7588
G01 X10.8601 Y8.7003
G01 X10.8725 Y8.6915
G01 X10.8854 Y8.6834
G01 X10.9696 Y8.6329
G01 X10.9829 Y8.6254
G01 X10.9965 Y8.6185
G01 X11.0852 Y8.5766
G01 X11.0991 Y8.5704
G01 X11.1134 Y8.5649
G01 X11.2058 Y8.5319
G01 X11.2202 Y8.5271
G01 X11.2349 Y8.5230
G01 X11.3301 Y8.4992
G01 X11.3450 Y8.4958
G01 X11.3600 Y8.4932
G01 X11.4571 Y8.4788
G01 X11.4722 Y8.4770
G01 X11.4874 Y8.4758
G01 X11.5855 Y8.4710
G01 X11.6007 Y8.4706
G01 X11.6159 Y8.4710
G01 X11.7140 Y8.4758
G01 X11.7292 Y8.4770
G01 X11.7443 Y8.4788
G01 X11.8414 Y8.4932
G01 X11.8564 Y8.4958
G01 X11.8713 Y8.4992
G01 X11.9665 Y8.5230
G01 X11.9812 Y8.5271
G01 X11.9956 Y8.5319
G01 X12.0880 Y8.5649
G01 X12.1023 Y8.5704
G01 X12.1162 Y8.5766
G01 X12.2049 Y8.6185
G01 X12.2185 Y8.6254
G01 X12.2318 Y8.6329
G01 X12.3160 Y8.6834
G01 X12.3289 Y8.6915
G01 X12.3413 Y8.7003
G01 X12.4202 Y8.7588
G01 X12.4322 Y8.7681
G01 X12.4437 Y8.7781
G01 X12.5164 Y8.8440
G01 X12.5275 Y8.8545
G01 X12.5380 Y8.8656
G01 X12.6039 Y8.9383
G01 X12.6139 Y8.9498
G01 X12.6232 Y8.9618
G01 X12.6817 Y9.0407
G01 X12.6905 Y9.0531
G01 X12.6986 Y9.0660
G01 X12.7491 Y9.1502
G01 X12.7566 Y9.1635
G01 X12.7651 Y9.1805
G01 X17.7440 Y9.1831
G01 X17.8045 Y9.1015
G01 X17.8138 Y9.0895
G01 X17.8238 Y9.0780
G01 X17.8897 Y9.0053
G01 X17.9002 Y8.9942
G01 X17.9113 Y8.9837
G01 X17.9840 Y8.9178
G01 X17.9955 Y8.9078
G01 X18.0075 Y8.8985
G01 X18.0864 Y8.8400
G01 X18.0988 Y8.8312
G01 X18.1117 Y8.8231
G01 X18.1959 Y8.7726
G01 X18.2092 Y8.7651
G01 X18.2228 Y8.7582
G01 X18.3184 Y8.7131
G01 X18.3397 Y8.7046
G01 X18.4321 Y8.6716
G01 X18.4465 Y8.6668
G01 X18.4612 Y8.6627
G01 X18.5564 Y8.6389
G01 X18.5713 Y8.6355
G01 X18.5863 Y8.6329
G01 X18.6834 Y8.6185
G01 X18.6985 Y8.6167
G01 X18.7137 Y8.6155
G01 X18.8118 Y8.6107
G01 X18.8270 Y8.6103
G01 X18.8422 Y8.6107
G01 X18.9403 Y8.6155
G01 X18.9555 Y8.6167
G01 X18.9706 Y8.6185
G01 X19.0677 Y8.6329
G01 X19.0827 Y8.6355
G01 X19.0976 Y8.6389
G01 X19.1928 Y8.6627
G01 X19.2150 Y8.6692
G01 X19.4673 Y8.4170
G01 X19.4948 Y8.3920
G01 X19.5063 Y8.3820
G01 X19.5183 Y8.3727
G01 X19.5545 Y8.3463
G01 X19.5673 Y8.3382
G01 X19.5992 Y8.3192
G01 X19.6195 Y8.3087
G01 X19.6601 Y8.2899
G01 X19.7020 Y8.2745
G01 X19.7238 Y8.2676
G01 X19.7598 Y8.2585
G01 X19.7746 Y8.2551
G01 X19.8188 Y8.2482
G01 X19.8415 Y8.2457
G01 X19.8786 Y8.2438
G01 X19.8938 Y8.2434
G01 X31.7685 Y8.2434
G01 X31.8007 Y8.1897
G01 X31.8088 Y8.1768
G01 X31.8176 Y8.1644
G01 X31.8807 Y8.0795
G01 X31.8954 Y8.0620
G01 X31.9613 Y7.9893
G01 X31.9773 Y7.9729
G01 X32.0556 Y7.9018
G01 X32.0671 Y7.8918
G01 X32.0791 Y7.8825
G01 X32.1580 Y7.8240
G01 X32.1704 Y7.8152
G01 X32.1833 Y7.8071
G01 X32.2675 Y7.7566
G01 X32.2878 Y7.7455
G01 X32.2878 Y6.4920
G01 X32.2882 Y6.4768
G01 X32.2901 Y6.4397
G01 X32.2926 Y6.4170
G01 X32.2995 Y6.3728
G01 X32.3100 Y6.3294
G01 X32.3164 Y6.3074
G01 X32.3315 Y6.2653
G01 X32.3405 Y6.2443
G01 X32.3599 Y6.2041
G01 X32.3674 Y6.1908
G01 X32.3866 Y6.1590
G01 X32.3995 Y6.1402
G01 X32.4264 Y6.1045
G01 X32.4364 Y6.0930
G01 X32.4614 Y6.0655
G01 X33.0309 Y5.4960
G01 X33.0641 Y5.4659
G01 X33.0819 Y5.4517
G01 X33.1181 Y5.4253
G01 X33.1562 Y5.4020
G01 X33.1762 Y5.3910
G01 X33.2166 Y5.3719
G01 X33.2379 Y5.3634
G01 X33.2801 Y5.3487
G01 X33.2948 Y5.3446
G01 X33.3382 Y5.3341
G01 X33.3824 Y5.3272
G01 X33.4051 Y5.3247
G01 X33.4422 Y5.3228
G01 X33.4574 Y5.3224
G01 X42.2547 Y5.3224
G01 X42.2658 Y5.3021
G01 X42.3163 Y5.2179
G01 X42.3244 Y5.2050
G01 X42.3332 Y5.1926
G01 X42.3917 Y5.1137
G01 X42.4010 Y5.1017
G01 X42.4110 Y5.0902
G01 X42.4769 Y5.0175
G01 X42.4874 Y5.0064
G01 X42.4985 Y4.9959
G01 X42.5712 Y4.9300
G01 X42.5827 Y4.9200
G01 X42.5947 Y4.9107
G01 X42.6736 Y4.8522
G01 X42.6860 Y4.8434
G01 X42.6989 Y4.8353
G01 X42.7831 Y4.7848
G01 X42.7964 Y4.7773
G01 X42.8100 Y4.7704
G01 X42.8987 Y4.7285
G01 X42.9126 Y4.7223
G01 X42.9269 Y4.7168
G01 X43.0193 Y4.6838
G01 X43.0337 Y4.6790
G01 X43.0484 Y4.6749
G01 X43.1436 Y4.6511
G01 X43.1585 Y4.6477
G01 X43.1735 Y4.6451
G01 X43.2706 Y4.6307
G01 X43.2857 Y4.6289
G01 X43.3009 Y4.6277
G01 X43.3990 Y4.6229
G01 X43.4142 Y4.6225
G01 X43.4294 Y4.6229
G01 X43.5275 Y4.6277
G01 X43.5427 Y4.6289
G01 X43.5578 Y4.6307
G01 X43.6549 Y4.6451
G01 X43.6699 Y4.6477
G01 X43.6848 Y4.6511
G01 X43.7800 Y4.6749
G01 X43.7947 Y4.6790
G01 X43.8091 Y4.6838
G01 X43.9015 Y4.7168
G01 X43.9158 Y4.7223
G01 X43.9297 Y4.7285
G01 X44.0184 Y4.7704
G01 X44.0320 Y4.7773
G01 X44.0453 Y4.7848
G01 X44.1295 Y4.8353
G01 X44.1424 Y4.8434
G01 X44.1548 Y4.8522
G01 X44.2337 Y4.9107
G01 X44.2457 Y4.9200
G01 X44.2572 Y4.9300
G01 X44.3299 Y4.9959
G01 X44.3410 Y5.0064
G01 X44.3515 Y5.0175
G01 X44.4174 Y5.0902
G01 X44.4274 Y5.1017
G01 X44.4367 Y5.1137
G01 X44.4952 Y5.1926
G01 X44.5040 Y5.2050
G01 X44.5121 Y5.2179
G01 X44.5626 Y5.3021
G01 X44.5737 Y5.3224
G01 X45.3446 Y5.3224
G01 X45.3893 Y5.3242
G01 X45.4120 Y5.3262
G01 X45.4487 Y5.3315
G01 X45.4638 Y5.3341
G01 X45.4786 Y5.3375
G01 X45.5146 Y5.3466
G01 X45.5364 Y5.3535
G01 X45.5713 Y5.3661
G01 X45.5854 Y5.3719
G01 X45.6189 Y5.3877
G01 X45.6325 Y5.3945
G01 X45.6458 Y5.4020
G01 X45.6776 Y5.4212
G01 X45.6902 Y5.4296
G01 X45.7201 Y5.4517
G01 X45.7379 Y5.4659
G01 X45.7655 Y5.4908
G01 X45.7765 Y5.5013
G01 X51.4819 Y11.2067
G01 X51.5122 Y11.2396
G01 X51.5222 Y11.2511
G01 X51.5315 Y11.2631
G01 X51.5579 Y11.2993
G01 X51.5660 Y11.3121
G01 X51.5850 Y11.3440
G01 X51.5955 Y11.3643
G01 X51.6143 Y11.4049
G01 X51.6297 Y11.4468
G01 X51.6345 Y11.4613
G01 X51.6386 Y11.4760
G01 X51.6475 Y11.5120
G01 X51.6517 Y11.5345
G01 X51.6579 Y11.5787
G01 X51.6590 Y11.5939
G01 X51.6607 Y11.6310
G01 X51.6608 Y16.5085
G01 X51.6811 Y16.5196
G01 X51.7653 Y16.5701
G01 X51.7782 Y16.5782
G01 X51.7906 Y16.5870
G01 X51.8695 Y16.6455
G01 X51.8815 Y16.6548
G01 X51.8930 Y16.6648
G01 X51.9657 Y16.7307
G01 X51.9768 Y16.7412
G01 X51.9873 Y16.7523
G01 X52.0532 Y16.8250
G01 X52.0632 Y16.8365
G01 X52.0725 Y16.8485
G01 X52.1310 Y16.9274
G01 X52.1398 Y16.9398
G01 X52.1479 Y16.9527
G01 X52.1984 Y17.0369
G01 X52.2059 Y17.0502
G01 X52.2128 Y17.0638
G01 X52.2547 Y17.1525
G01 X52.2609 Y17.1664
G01 X52.2664 Y17.1807
G01 X52.2994 Y17.2731
G01 X52.3042 Y17.2875
G01 X52.3083 Y17.3022
G01 X52.3321 Y17.3974
G01 X52.3355 Y17.4123
G01 X52.3381 Y17.4273
G01 X52.3525 Y17.5244
G01 X52.3543 Y17.5395
G01 X52.3555 Y17.5547
G01 X52.3603 Y17.6528
G01 X52.3607 Y17.6680
G01 X52.3603 Y17.6832
G01 X52.3555 Y17.7813
G01 X52.3543 Y17.7965
G01 X52.3525 Y17.8116
G01 X52.3381 Y17.9087
G01 X52.3355 Y17.9237
G01 X52.3321 Y17.9386
G01 X52.3083 Y18.0338
G01 X52.3042 Y18.0485
G01 X52.2994 Y18.0629
G01 X52.2664 Y18.1553
G01 X52.2609 Y18.1696
G01 X52.2547 Y18.1835
G01 X52.2128 Y18.2722
G01 X52.2059 Y18.2858
G01 X52.1984 Y18.2991
G01 X52.1479 Y18.3833
G01 X52.1398 Y18.3962
G01 X52.1310 Y18.4086
G01 X52.0725 Y18.4875
G01 X52.0632 Y18.4995
G01 X52.0532 Y18.5110
G01 X51.9873 Y18.5837
G01 X51.9768 Y18.5948
G01 X51.9657 Y18.6053
G01 X51.8930 Y18.6712
G01 X51.8815 Y18.6812
G01 X51.8695 Y18.6905
G01 X51.7906 Y18.7490
G01 X51.7782 Y18.7578
G01 X51.7653 Y18.7659
G01 X51.6811 Y18.8164
G01 X51.6678 Y18.8239
G01 X51.6542 Y18.8308
G01 X51.5655 Y18.8727
G01 X51.5516 Y18.8789
G01 X51.5373 Y18.8844
G01 X51.4449 Y18.9174
G01 X51.4305 Y18.9222
G01 X51.4158 Y18.9263
G01 X51.3206 Y18.9501
G01 X51.3057 Y18.9535
G01 X51.2907 Y18.9561
G01 X51.1936 Y18.9705
G01 X51.1785 Y18.9723
G01 X51.1633 Y18.9735
G01 X51.0652 Y18.9783
G01 X51.0500 Y18.9787
G01 X51.0348 Y18.9783
G01 X50.9367 Y18.9735
G01 X50.9215 Y18.9723
G01 X50.9064 Y18.9705
G01 X50.8093 Y18.9561
G01 X50.7943 Y18.9535
G01 X50.7794 Y18.9501
G01 X50.6842 Y18.9263
G01 X50.6695 Y18.9222
G01 X50.6551 Y18.9174
G01 X50.5627 Y18.8844
G01 X50.5484 Y18.8789
G01 X50.5345 Y18.8727
G01 X50.4458 Y18.8308
G01 X50.4322 Y18.8239
G01 X50.4189 Y18.8164
G01 X50.3347 Y18.7659
G01 X50.3218 Y18.7578
G01 X50.3094 Y18.7490
G01 X50.2305 Y18.6905
G01 X50.2185 Y18.6812
G01 X50.2070 Y18.6712
G01 X50.1343 Y18.6053
G01 X50.1232 Y18.5948
G01 X50.1127 Y18.5837
G01 X50.0468 Y18.5110
G01 X50.0368 Y18.4995
G01 X50.0275 Y18.4875
G01 X49.9690 Y18.4086
G01 X49.9602 Y18.3962
G01 X49.9521 Y18.3833
G01 X49.9016 Y18.2991
G01 X49.8905 Y18.2788
G01 X48.2138 Y18.2788
G01 X38.4105 Y28.0821
G01 X38.3776 Y28.1124
G01 X38.3661 Y28.1224
G01 X38.3304 Y28.1493
G01 X38.3179 Y28.1581
G01 X38.3051 Y28.1662
G01 X38.2732 Y28.1852
G01 X38.2598 Y28.1924
G01 X38.2263 Y28.2083
G01 X38.2123 Y28.2145
G01 X38.1981 Y28.2200
G01 X38.1632 Y28.2324
G01 X38.1412 Y28.2388
G01 X38.1052 Y28.2477
G01 X38.0903 Y28.2507
G01 X38.0536 Y28.2562
G01 X38.0385 Y28.2581
G01 X38.0233 Y28.2592
G01 X37.9862 Y28.2609
G01 X35.0614 Y28.2610
G01 X35.0503 Y28.2813
G01 X34.9998 Y28.3655
G01 X34.9917 Y28.3784
G01 X34.9829 Y28.3908
G01 X34.9244 Y28.4697
G01 X34.9151 Y28.4817
G01 X34.9051 Y28.4932
G01 X34.8392 Y28.5659
G01 X34.8287 Y28.5770
G01 X34.8176 Y28.5875
G01 X34.7449 Y28.6534
G01 X34.7334 Y28.6634
G01 X34.7214 Y28.6727
G01 X34.6425 Y28.7312
G01 X34.6301 Y28.7400
G01 X34.6172 Y28.7481
G01 X34.5330 Y28.7986
G01 X34.5197 Y28.8061
G01 X34.5061 Y28.8130
G01 X34.4174 Y28.8549
G01 X34.4035 Y28.8611
G01 X34.3892 Y28.8666
G01 X34.2968 Y28.8996
G01 X34.2824 Y28.9044
G01 X34.2677 Y28.9085
G01 X34.1725 Y28.9323
G01 X34.1576 Y28.9357
G01 X34.1426 Y28.9383
G01 X34.0455 Y28.9527
G01 X34.0304 Y28.9545
G01 X34.0152 Y28.9557
G01 X33.9171 Y28.9605
G01 X33.9019 Y28.9609
G01 X33.8867 Y28.9605
G01 X33.7886 Y28.9557
G01 X33.7734 Y28.9545
G01 X33.7583 Y28.9527
G01 X33.6612 Y28.9383
G01 X33.6462 Y28.9357
G01 X33.6313 Y28.9323
G01 X33.5361 Y28.9085
G01 X33.5214 Y28.9044
G01 X33.5070 Y28.8996
G01 X33.4146 Y28.8666
G01 X33.4003 Y28.8611
G01 X33.3864 Y28.8549
G01 X33.2977 Y28.8130
G01 X33.2841 Y28.8061
G01 X33.2708 Y28.7986
G01 X33.1866 Y28.7481
G01 X33.1737 Y28.7400
G01 X33.1613 Y28.7312
G01 X33.0824 Y28.6727
G01 X33.0704 Y28.6634
G01 X33.0589 Y28.6534
G01 X32.9862 Y28.5875
G01 X32.9751 Y28.5770
G01 X32.9646 Y28.5659
G01 X32.8987 Y28.4932
G01 X32.8887 Y28.4817
G01 X32.8794 Y28.4697
G01 X32.8209 Y28.3908
G01 X32.8121 Y28.3784
G01 X32.8040 Y28.3655
G01 X32.7535 Y28.2813
G01 X32.7460 Y28.2680
G01 X32.7391 Y28.2544
G01 X32.6972 Y28.1657
G01 X32.6910 Y28.1518
G01 X32.6855 Y28.1375
G01 X32.6525 Y28.0451
G01 X32.6477 Y28.0307
G01 X32.6436 Y28.0160
G01 X32.6198 Y27.9208
G01 X32.6164 Y27.9059
G01 X32.6138 Y27.8909
G01 X32.5994 Y27.7938
G01 X32.5976 Y27.7787
G01 X32.5964 Y27.7635
G01 X32.5916 Y27.6654
G01 X32.5912 Y27.6502
G01 X32.5916 Y27.6350
G01 X32.5964 Y27.5369
G01 X32.5976 Y27.5217
G01 X32.5994 Y27.5066
G01 X32.6138 Y27.4095
G01 X32.6164 Y27.3945
G01 X32.6198 Y27.3796
G01 X32.6436 Y27.2844
G01 X32.6477 Y27.2697
G01 X32.6525 Y27.2553
G01 X32.6855 Y27.1629
G01 X32.6910 Y27.1486
G01 X32.6972 Y27.1347
G01 X32.7391 Y27.0460
G01 X32.7460 Y27.0324
G01 X32.7535 Y27.0191
G01 X32.8040 Y26.9349
G01 X32.8121 Y26.9220
G01 X32.8209 Y26.9096
G01 X32.8794 Y26.8307
G01 X32.8887 Y26.8187
G01 X32.8987 Y26.8072
G01 X32.9646 Y26.7345
G01 X32.9751 Y26.7234
G01 X32.9862 Y26.7129
G01 X33.0589 Y26.6470
G01 X33.0704 Y26.6370
G01 X33.0824 Y26.6277
G01 X33.1613 Y26.5692
G01 X33.1737 Y26.5604
G01 X33.1866 Y26.5523
G01 X33.2708 Y26.5018
G01 X33.2841 Y26.4943
G01 X33.2977 Y26.4874
G01 X33.3864 Y26.4455
G01 X33.4003 Y26.4393
G01 X33.4146 Y26.4338
G01 X33.5070 Y26.4008
G01 X33.5214 Y26.3960
G01 X33.5361 Y26.3919
G01 X33.6313 Y26.3681
G01 X33.6462 Y26.3647
G01 X33.6612 Y26.3621
G01 X33.7583 Y26.3477
G01 X33.7734 Y26.3459
G01 X33.7886 Y26.3447
G01 X33.8867 Y26.3399
G01 X33.9019 Y26.3395
G01 X33.9171 Y26.3399
G01 X34.0152 Y26.3447
G01 X34.0304 Y26.3459
G01 X34.0455 Y26.3477
G01 X34.1426 Y26.3621
G01 X34.1576 Y26.3647
G01 X34.1725 Y26.3681
G01 X34.2677 Y26.3919
G01 X34.2824 Y26.3960
G01 X34.2968 Y26.4008
G01 X34.3892 Y26.4338
G01 X34.4035 Y26.4393
G01 X34.4174 Y26.4455
G01 X34.5061 Y26.4874
G01 X34.5197 Y26.4943
G01 X34.5330 Y26.5018
G01 X34.6172 Y26.5523
G01 X34.6301 Y26.5604
G01 X34.6425 Y26.5692
G01 X34.7214 Y26.6277
G01 X34.7334 Y26.6370
G01 X34.7449 Y26.6470
G01 X34.8176 Y26.7129
G01 X34.8287 Y26.7234
G01 X34.8392 Y26.7345
G01 X34.9051 Y26.8072
G01 X34.9151 Y26.8187
G01 X34.9244 Y26.8307
G01 X34.9829 Y26.9096
G01 X34.9917 Y26.9220
G01 X34.9998 Y26.9349
G01 X35.0503 Y27.0191
G01 X35.0614 Y27.0394
G01 X37.7256 Y27.0394
G01 X47.5289 Y17.2361
G01 X47.5618 Y17.2058
G01 X47.5733 Y17.1958
G01 X47.5853 Y17.1865
G01 X47.6215 Y17.1601
G01 X47.6596 Y17.1368
G01 X47.6729 Y17.1293
G01 X47.6865 Y17.1225
G01 X47.7200 Y17.1067
G01 X47.7341 Y17.1009
G01 X47.7690 Y17.0883
G01 X47.7835 Y17.0835
G01 X47.7982 Y17.0794
G01 X47.8342 Y17.0705
G01 X47.8491 Y17.0675
G01 X47.8858 Y17.0620
G01 X47.9009 Y17.0601
G01 X47.9161 Y17.0590
G01 X47.9608 Y17.0572
G01 X49.8905 Y17.0572
G01 X49.9016 Y17.0369
G01 X49.9521 Y16.9527
G01 X49.9602 Y16.9398
G01 X49.9690 Y16.9274
G01 X50.0275 Y16.8485
G01 X50.0368 Y16.8365
G01 X50.0468 Y16.8250
G01 X50.1127 Y16.7523
G01 X50.1232 Y16.7412
G01 X50.1343 Y16.7307
G01 X50.2070 Y16.6648
G01 X50.2185 Y16.6548
G01 X50.2305 Y16.6455
G01 X50.3094 Y16.5870
G01 X50.3218 Y16.5782
G01 X50.3347 Y16.5701
G01 X50.4189 Y16.5196
G01 X50.4392 Y16.5085
G01 X50.4392 Y11.8916
G01 X45.0916 Y6.5440
G01 X44.5737 Y6.5440
G01 X44.5626 Y6.5643
G01 X44.5121 Y6.6485
G01 X44.5040 Y6.6614
G01 X44.4952 Y6.6738
G01 X44.4367 Y6.7527
G01 X44.4274 Y6.7647
G01 X44.4174 Y6.7762
G01 X44.3515 Y6.8489
G01 X44.3410 Y6.8600
G01 X44.3299 Y6.8705
G01 X44.2572 Y6.9364
G01 X44.2457 Y6.9464
G01 X44.2337 Y6.9557
G01 X44.1548 Y7.0142
G01 X44.1424 Y7.0230
G01 X44.1295 Y7.0311
G01 X44.0453 Y7.0816
G01 X44.0320 Y7.0891
G01 X44.0184 Y7.0960
G01 X43.9297 Y7.1379
G01 X43.9158 Y7.1441
G01 X43.9015 Y7.1496
G01 X43.8091 Y7.1826
G01 X43.7947 Y7.1874
G01 X43.7800 Y7.1915
G01 X43.6848 Y7.2153
G01 X43.6699 Y7.2187
G01 X43.6549 Y7.2213
G01 X43.5578 Y7.2357
G01 X43.5427 Y7.2375
G01 X43.5275 Y7.2387
G01 X43.4294 Y7.2435
G01 X43.4142 Y7.2439
G01 X43.3990 Y7.2435
G01 X43.3009 Y7.2387
G01 X43.2857 Y7.2375
G01 X43.2706 Y7.2357
G01 X43.1735 Y7.2213
G01 X43.1585 Y7.2187
G01 X43.1436 Y7.2153
G01 X43.0484 Y7.1915
G01 X43.0337 Y7.1874
G01 X43.0193 Y7.1826
G01 X42.9269 Y7.1496
G01 X42.9126 Y7.1441
G01 X42.8987 Y7.1379
G01 X42.8100 Y7.0960
G01 X42.7964 Y7.0891
G01 X42.7831 Y7.0816
G01 X42.6989 Y7.0311
G01 X42.6860 Y7.0230
G01 X42.6736 Y7.0142
G01 X42.5947 Y6.9557
G01 X42.5827 Y6.9464
G01 X42.5712 Y6.9364
G01 X42.4985 Y6.8705
G01 X42.4874 Y6.8600
G01 X42.4769 Y6.8489
G01 X42.4110 Y6.7762
G01 X42.4010 Y6.7647
G01 X42.3917 Y6.7527
G01 X42.3332 Y6.6738
G01 X42.3244 Y6.6614
G01 X42.3163 Y6.6485
G01 X42.2658 Y6.5643
G01 X42.2547 Y6.5440
G01 X33.7104 Y6.5440
G01 X33.5094 Y6.7450
G01 X33.5094 Y7.7455
G01 X33.5297 Y7.7566
G01 X33.6139 Y7.8071
G01 X33.6268 Y7.8152
G01 X33.6392 Y7.8240
G01 X33.7181 Y7.8825
G01 X33.7301 Y7.8918
G01 X33.7416 Y7.9018
G01 X33.8143 Y7.9677
G01 X33.8254 Y7.9782
G01 X33.8359 Y7.9893
G01 X33.9018 Y8.0620
G01 X33.9118 Y8.0735
G01 X33.9211 Y8.0855
G01 X33.9796 Y8.1644
G01 X33.9884 Y8.1768
G01 X33.9965 Y8.1897
G01 X34.0470 Y8.2739
G01 X34.0545 Y8.2872
G01 X34.0614 Y8.3008
G01 X34.1033 Y8.3895
G01 X34.1095 Y8.4034
G01 X34.1150 Y8.4177
G01 X34.1480 Y8.5101
G01 X34.1528 Y8.5245
G01 X34.1569 Y8.5392
G01 X34.1807 Y8.6344
G01 X34.1841 Y8.6493
G01 X34.1867 Y8.6643
G01 X34.2011 Y8.7614
G01 X34.2029 Y8.7765
G01 X34.2041 Y8.7917
G01 X34.2089 Y8.8898
G01 X34.2093 Y8.9050
G01 X34.2089 Y8.9202
G01 X34.2041 Y9.0183
G01 X34.2029 Y9.0335
G01 X34.2011 Y9.0486
G01 X34.1855 Y9.1532
G01 X34.1807 Y9.1756
G01 X34.1569 Y9.2708
G01 X34.1528 Y9.2855
G01 X34.1480 Y9.2999
G01 X34.1150 Y9.3923
G01 X34.1095 Y9.4066
G01 X34.1033 Y9.4205
G01 X34.0614 Y9.5092
G01 X34.0545 Y9.5228
G01 X34.0470 Y9.5361
G01 X33.9965 Y9.6203
G01 X33.9884 Y9.6332
G01 X33.9796 Y9.6456
G01 X33.9211 Y9.7245
G01 X33.9118 Y9.7365
G01 X33.9018 Y9.7480
G01 X33.8359 Y9.8207
G01 X33.8254 Y9.8318
G01 X33.8143 Y9.8423
G01 X33.7416 Y9.9082
G01 X33.7301 Y9.9182
G01 X33.7181 Y9.9275
G01 X33.6392 Y9.9860
G01 X33.6268 Y9.9948
G01 X33.6139 Y10.0029
G01 X33.5297 Y10.0534
G01 X33.5164 Y10.0609
G01 X33.5028 Y10.0678
G01 X33.4141 Y10.1097
G01 X33.4002 Y10.1159
G01 X33.3859 Y10.1214
G01 X33.2935 Y10.1544
G01 X33.2791 Y10.1592
G01 X33.2644 Y10.1633
G01 X33.1692 Y10.1871
G01 X33.1543 Y10.1905
G01 X33.1393 Y10.1931
G01 X33.0346 Y10.2085
G01 X33.0119 Y10.2105
G01 X32.9138 Y10.2153
G01 X32.8986 Y10.2157
G01 X32.8834 Y10.2153
G01 X32.7853 Y10.2105
G01 X32.7701 Y10.2093
G01 X32.7550 Y10.2075
G01 X32.6579 Y10.1931
G01 X32.6429 Y10.1905
G01 X32.6280 Y10.1871
G01 X32.5328 Y10.1633
G01 X32.5181 Y10.1592
G01 X32.5037 Y10.1544
G01 X32.4113 Y10.1214
G01 X32.3970 Y10.1159
G01 X32.3831 Y10.1097
G01 X32.2944 Y10.0678
G01 X32.2741 Y10.0572
G01 X32.1833 Y10.0029
G01 X32.1704 Y9.9948
G01 X32.1580 Y9.9860
G01 X32.0791 Y9.9275
G01 X32.0671 Y9.9182
G01 X32.0556 Y9.9082
G01 X31.9829 Y9.8423
G01 X31.9665 Y9.8263
G01 X31.8954 Y9.7480
G01 X31.8854 Y9.7365
G01 X31.8761 Y9.7245
G01 X31.8131 Y9.6395
G01 X31.8007 Y9.6203
G01 X31.7464 Y9.5295
G01 X31.7358 Y9.5092
G01 X31.7149 Y9.4650
G01 X20.1468 Y9.4650
G01 X20.0788 Y9.5330
G01 X20.0853 Y9.5552
G01 X20.1091 Y9.6504
G01 X20.1125 Y9.6653
G01 X20.1151 Y9.6803
G01 X20.1295 Y9.7774
G01 X20.1313 Y9.7925
G01 X20.1325 Y9.8077
G01 X20.1373 Y9.9058
G01 X20.1377 Y9.9210
G01 X20.1373 Y9.9362
G01 X20.1325 Y10.0343
G01 X20.1313 Y10.0495
G01 X20.1295 Y10.0646
G01 X20.1151 Y10.1617
G01 X20.1109 Y10.1842
G01 X20.0853 Y10.2868
G01 X20.0812 Y10.3015
G01 X20.0764 Y10.3159
G01 X20.0434 Y10.4083
G01 X20.0379 Y10.4226
G01 X20.0317 Y10.4365
G01 X19.9898 Y10.5252
G01 X19.9829 Y10.5388
G01 X19.9754 Y10.5521
G01 X19.9249 Y10.6363
G01 X19.9168 Y10.6492
G01 X19.9080 Y10.6616
G01 X19.8495 Y10.7405
G01 X19.8402 Y10.7525
G01 X19.8302 Y10.7640
G01 X19.7643 Y10.8367
G01 X19.7538 Y10.8478
G01 X19.7427 Y10.8583
G01 X19.6700 Y10.9242
G01 X19.6585 Y10.9342
G01 X19.6465 Y10.9435
G01 X19.5676 Y11.0020
G01 X19.5552 Y11.0108
G01 X19.5423 Y11.0189
G01 X19.4581 Y11.0694
G01 X19.4448 Y11.0769
G01 X19.4312 Y11.0838
G01 X19.3425 Y11.1257
G01 X19.3286 Y11.1319
G01 X19.3143 Y11.1374
G01 X19.2219 Y11.1704
G01 X19.2075 Y11.1752
G01 X19.1928 Y11.1793
G01 X19.0976 Y11.2031
G01 X19.0827 Y11.2065
G01 X19.0677 Y11.2091
G01 X18.9706 Y11.2235
G01 X18.9555 Y11.2253
G01 X18.9403 Y11.2265
G01 X18.8422 Y11.2313
G01 X18.8270 Y11.2317
G01 X18.8118 Y11.2313
G01 X18.7137 Y11.2265
G01 X18.6985 Y11.2253
G01 X18.6834 Y11.2235
G01 X18.5863 Y11.2091
G01 X18.5713 Y11.2065
G01 X18.5564 Y11.2031
G01 X18.4612 Y11.1793
G01 X18.4465 Y11.1752
G01 X18.4321 Y11.1704
G01 X18.3397 Y11.1374
G01 X18.3254 Y11.1319
G01 X18.3115 Y11.1257
G01 X18.2228 Y11.0838
G01 X18.2092 Y11.0769
G01 X18.1959 Y11.0694
G01 X18.1117 Y11.0189
G01 X18.0988 Y11.0108
G01 X18.0864 Y11.0020
G01 X18.0075 Y10.9435
G01 X17.9955 Y10.9342
G01 X17.9840 Y10.9242
G01 X17.9113 Y10.8583
G01 X17.9002 Y10.8478
G01 X17.8897 Y10.8367
G01 X17.8238 Y10.7640
G01 X17.8138 Y10.7525
G01 X17.8045 Y10.7405
G01 X17.7460 Y10.6616
G01 X17.7372 Y10.6492
G01 X17.7291 Y10.6363
G01 X17.6786 Y10.5521
G01 X17.6711 Y10.5388
G01 X17.6642 Y10.5252
G01 X17.6223 Y10.4365
G01 X17.6161 Y10.4226
G01 X17.6094 Y10.4048
G01 X12.7535 Y10.4048
G00 Z2.0000
G00 X23.7648 Y10.0497
G01 F35.00
G01 Z-0.0500
G01 F25.00
G01 X23.7800 Y10.0493
G01 X23.7952 Y10.0497
G01 X23.8737 Y10.0536
G01 X23.8889 Y10.0547
G01 X23.9040 Y10.0566
G01 X23.9892 Y10.0693
G01 X24.0116 Y10.0740
G01 X24.0877 Y10.0931
G01 X24.1024 Y10.0972
G01 X24.1169 Y10.1019
G01 X24.1908 Y10.1284
G01 X24.2120 Y10.1369
G01 X24.2899 Y10.1736
G01 X24.3036 Y10.1805
G01 X24.3168 Y10.1880
G01 X24.3842 Y10.2284
G01 X24.4033 Y10.2408
G01 X24.4726 Y10.2921
G01 X24.4846 Y10.3014
G01 X24.4961 Y10.3114
G01 X24.5543 Y10.3641
G01 X24.5654 Y10.3746
G01 X24.5759 Y10.3857
G01 X24.6286 Y10.4439
G01 X24.6386 Y10.4554
G01 X24.6479 Y10.4674
G01 X24.6947 Y10.5305
G01 X24.7035 Y10.5430
G01 X24.7116 Y10.5558
G01 X24.7520 Y10.6232
G01 X24.7595 Y10.6364
G01 X24.7664 Y10.6501
G01 X24.7999 Y10.7210
G01 X24.8061 Y10.7350
G01 X24.8116 Y10.7492
G01 X24.8381 Y10.8231
G01 X24.8428 Y10.8376
G01 X24.8469 Y10.8523
G01 X24.8660 Y10.9284
G01 X24.8693 Y10.9433
G01 X24.8719 Y10.9583
G01 X24.8834 Y11.0360
G01 X24.8853 Y11.0511
G01 X24.8864 Y11.0663
G01 X24.8903 Y11.1448
G01 X24.8907 Y11.1600
G01 X24.8903 Y11.1752
G01 X24.8864 Y11.2537
G01 X24.8853 Y11.2689
G01 X24.8834 Y11.2840
G01 X24.8719 Y11.3617
G01 X24.8693 Y11.3767
G01 X24.8660 Y11.3916
G01 X24.8469 Y11.4677
G01 X24.8428 Y11.4824
G01 X24.8381 Y11.4969
G01 X24.8116 Y11.5708
G01 X24.8061 Y11.5850
G01 X24.7999 Y11.5990
G01 X24.7664 Y11.6699
G01 X24.7558 Y11.6902
G01 X24.7116 Y11.7642
G01 X24.7035 Y11.7770
G01 X24.6947 Y11.7895
G01 X24.6479 Y11.8526
G01 X24.6386 Y11.8646
G01 X24.6286 Y11.8761
G01 X24.5759 Y11.9343
G01 X24.5599 Y11.9507
G01 X24.4961 Y12.0086
G01 X24.4846 Y12.0186
G01 X24.4726 Y12.0279
G01 X24.4033 Y12.0792
G01 X24.3842 Y12.0916
G01 X24.3102 Y12.1358
G01 X24.2968 Y12.1430
G01 X24.2611 Y12.1600
G01 X24.2968 Y12.1770
G01 X24.3102 Y12.1842
G01 X24.3907 Y12.2324
G01 X24.4095 Y12.2453
G01 X24.4726 Y12.2921
G01 X24.4904 Y12.3064
G01 X24.5543 Y12.3641
G01 X24.5654 Y12.3746
G01 X24.5759 Y12.3857
G01 X24.6286 Y12.4439
G01 X24.6386 Y12.4554
G01 X24.6479 Y12.4674
G01 X24.6992 Y12.5367
G01 X24.7116 Y12.5558
G01 X24.7520 Y12.6232
G01 X24.7595 Y12.6364
G01 X24.7664 Y12.6501
G01 X24.7999 Y12.7210
G01 X24.8061 Y12.7350
G01 X24.8116 Y12.7492
G01 X24.8381 Y12.8231
G01 X24.8428 Y12.8376
G01 X24.8469 Y12.8523
G01 X24.8660 Y12.9284
G01 X24.8693 Y12.9433
G01 X24.8719 Y12.9583
G01 X24.8834 Y13.0360
G01 X24.8853 Y13.0511
G01 X24.8864 Y13.0663
G01 X24.8903 Y13.1448
G01 X24.8907 Y13.1600
G01 X24.8903 Y13.1752
G01 X24.8864 Y13.2537
G01 X24.8853 Y13.2689
G01 X24.8834 Y13.2840
G01 X24.8719 Y13.3617
G01 X24.8693 Y13.3767
G01 X24.8660 Y13.3916
G01 X24.8469 Y13.4677
G01 X24.8428 Y13.4824
G01 X24.8381 Y13.4969
G01 X24.8116 Y13.5708
G01 X24.8061 Y13.5850
G01 X24.7999 Y13.5990
G01 X24.7664 Y13.6699
G01 X24.7558 Y13.6902
G01 X24.7116 Y13.7642
G01 X24.7035 Y13.7770
G01 X24.6947 Y13.7895
G01 X24.6479 Y13.8526
G01 X24.6386 Y13.8646
G01 X24.6286 Y13.8761
G01 X24.5759 Y13.9343
G01 X24.5599 Y13.9507
G01 X24.4961 Y14.0086
G01 X24.4846 Y14.0186
G01 X24.4726 Y14.0279
G01 X24.4033 Y14.0792
G01 X24.3842 Y14.0916
G01 X24.3102 Y14.1358
G01 X24.2968 Y14.1430
G01 X24.2611 Y14.1600
G01 X24.2968 Y14.1770
G01 X24.3102 Y14.1842
G01 X24.3907 Y14.2324
G01 X24.4095 Y14.2453
G01 X24.4726 Y14.2921
G01 X24.4904 Y14.3064
G01 X24.5543 Y14.3641
G01 X24.5654 Y14.3746
G01 X24.5759 Y14.3857
G01 X24.6286 Y14.4439
G01 X24.6386 Y14.4554
G01 X24.6479 Y14.4674
G01 X24.6992 Y14.5367
G01 X24.7116 Y14.5558
G01 X24.7520 Y14.6232
G01 X24.7595 Y14.6364
G01 X24.7664 Y14.6501
G01 X24.7999 Y14.7210
G01 X24.8061 Y14.7350
G01 X24.8116 Y14.7492
G01 X24.8381 Y14.8231
G01 X24.8428 Y14.8376
G01 X24.8469 Y14.8523
G01 X24.8660 Y14.9284
G01 X24.8693 Y14.9433
G01 X24.8719 Y14.9583
G01 X24.8834 Y15.0360
G01 X24.8860 Y15.0587
G01 X24.8903 Y15.1448
G01 X24.8907 Y15.1600
G01 X24.8903 Y15.1752
G01 X24.8864 Y15.2537
G01 X24.8853 Y15.2689
G01 X24.8834 Y15.2840
G01 X24.8719 Y15.3617
G01 X24.8693 Y15.3767
G01 X24.8660 Y15.3916
G01 X24.8469 Y15.4677
G01 X24.8428 Y15.4824
G01 X24.8381 Y15.4969
G01 X24.8116 Y15.5708
G01 X24.8031 Y15.5920
G01 X24.7664 Y15.6699
G01 X24.7595 Y15.6836
G01 X24.7520 Y15.6968
G01 X24.7116 Y15.7642
G01 X24.7035 Y15.7770
G01 X24.6947 Y15.7895
G01 X24.6433 Y15.8586
G01 X24.6286 Y15.8761
G01 X24.5759 Y15.9343
G01 X24.5599 Y15.9507
G01 X24.4904 Y16.0136
G01 X24.4786 Y16.0233
G01 X24.4437 Y16.0493
G01 X24.5876 Y16.0494
G01 X24.6104 Y16.0508
G01 X24.6256 Y16.0527
G01 X24.6406 Y16.0553
G01 X24.6555 Y16.0587
G01 X24.6702 Y16.0627
G01 X24.6847 Y16.0675
G01 X24.6989 Y16.0730
G01 X24.7128 Y16.0792
G01 X24.7264 Y16.0860
G01 X24.7462 Y16.0975
G01 X24.7589 Y16.1060
G01 X24.7771 Y16.1199
G01 X24.7942 Y16.1350
G01 X24.8050 Y16.1458
G01 X24.8152 Y16.1571
G01 X24.8295 Y16.1749
G01 X24.8383 Y16.1874
G01 X24.8465 Y16.2003
G01 X24.8575 Y16.2203
G01 X24.8640 Y16.2341
G01 X24.8698 Y16.2482
G01 X24.8773 Y16.2698
G01 X24.8813 Y16.2845
G01 X24.8847 Y16.2994
G01 X24.8873 Y16.3144
G01 X24.8898 Y16.3371
G01 X24.8907 Y16.3600
G01 X24.8907 Y17.9600
G01 X24.8898 Y17.9829
G01 X24.8873 Y18.0056
G01 X24.8831 Y18.0281
G01 X24.8794 Y18.0429
G01 X24.8750 Y18.0574
G01 X24.8670 Y18.0789
G01 X24.8575 Y18.0997
G01 X24.8465 Y18.1197
G01 X24.8383 Y18.1326
G01 X24.8295 Y18.1451
G01 X24.8152 Y18.1629
G01 X24.8050 Y18.1742
G01 X24.7942 Y18.1850
G01 X24.7771 Y18.2001
G01 X24.7651 Y18.2095
G01 X24.7526 Y18.2183
G01 X24.7397 Y18.2265
G01 X24.7264 Y18.2340
G01 X24.7059 Y18.2440
G01 X24.6918 Y18.2498
G01 X24.6774 Y18.2550
G01 X24.6555 Y18.2613
G01 X24.6331 Y18.2661
G01 X24.6104 Y18.2692
G01 X24.5952 Y18.2703
G01 X24.5800 Y18.2707
G01 X22.9800 Y18.2707
G01 X22.9571 Y18.2698
G01 X22.9344 Y18.2673
G01 X22.9119 Y18.2631
G01 X22.8898 Y18.2573
G01 X22.8753 Y18.2525
G01 X22.8611 Y18.2470
G01 X22.8403 Y18.2375
G01 X22.8269 Y18.2303
G01 X22.8138 Y18.2225
G01 X22.7949 Y18.2095
G01 X22.7829 Y18.2001
G01 X22.7714 Y18.1902
G01 X22.7550 Y18.1742
G01 X22.7399 Y18.1571
G01 X22.7305 Y18.1451
G01 X22.7217 Y18.1326
G01 X22.7097 Y18.1131
G01 X22.6992 Y18.0928
G01 X22.6930 Y18.0789
G01 X22.6875 Y18.0647
G01 X22.6806 Y18.0429
G01 X22.6769 Y18.0281
G01 X22.6739 Y18.0131
G01 X22.6708 Y17.9904
G01 X22.6697 Y17.9752
G01 X22.6693 Y17.9600
G01 X22.6693 Y16.3600
G01 X22.6697 Y16.3448
G01 X22.6708 Y16.3296
G01 X22.6739 Y16.3069
G01 X22.6769 Y16.2919
G01 X22.6806 Y16.2771
G01 X22.6850 Y16.2626
G01 X22.6902 Y16.2482
G01 X22.6960 Y16.2341
G01 X22.7060 Y16.2136
G01 X22.7135 Y16.2003
G01 X22.7217 Y16.1874
G01 X22.7305 Y16.1749
G01 X22.7399 Y16.1629
G01 X22.7498 Y16.1514
G01 X22.7603 Y16.1403
G01 X22.7714 Y16.1298
G01 X22.7829 Y16.1199
G01 X22.7949 Y16.1105
G01 X22.8074 Y16.1017
G01 X22.8269 Y16.0897
G01 X22.8403 Y16.0825
G01 X22.8541 Y16.0760
G01 X22.8682 Y16.0702
G01 X22.8826 Y16.0650
G01 X22.9045 Y16.0587
G01 X22.9194 Y16.0553
G01 X22.9344 Y16.0527
G01 X22.9571 Y16.0502
G01 X22.9724 Y16.0494
G01 X23.1163 Y16.0493
G01 X23.0814 Y16.0233
G01 X23.0696 Y16.0136
G01 X23.0001 Y15.9507
G01 X22.9841 Y15.9343
G01 X22.9314 Y15.8761
G01 X22.9167 Y15.8586
G01 X22.8653 Y15.7895
G01 X22.8565 Y15.7770
G01 X22.8484 Y15.7642
G01 X22.8080 Y15.6968
G01 X22.8005 Y15.6836
G01 X22.7936 Y15.6699
G01 X22.7601 Y15.5990
G01 X22.7511 Y15.5780
G01 X22.7219 Y15.4969
G01 X22.7172 Y15.4824
G01 X22.7131 Y15.4677
G01 X22.6940 Y15.3916
G01 X22.6907 Y15.3767
G01 X22.6881 Y15.3617
G01 X22.6766 Y15.2840
G01 X22.6747 Y15.2689
G01 X22.6736 Y15.2537
G01 X22.6697 Y15.1752
G01 X22.6693 Y15.1600
G01 X22.6697 Y15.1448
G01 X22.6736 Y15.0663
G01 X22.6747 Y15.0511
G01 X22.6766 Y15.0360
G01 X22.6893 Y14.9508
G01 X22.6940 Y14.9284
G01 X22.7131 Y14.8523
G01 X22.7172 Y14.8376
G01 X22.7219 Y14.8231
G01 X22.7484 Y14.7492
G01 X22.7539 Y14.7350
G01 X22.7601 Y14.7210
G01 X22.7936 Y14.6501
G01 X22.8005 Y14.6364
G01 X22.8080 Y14.6232
G01 X22.8484 Y14.5558
G01 X22.8565 Y14.5430
G01 X22.8653 Y14.5305
G01 X22.9167 Y14.4614
G01 X22.9314 Y14.4439
G01 X22.9841 Y14.3857
G01 X22.9946 Y14.3746
G01 X23.0057 Y14.3641
G01 X23.0639 Y14.3114
G01 X23.0814 Y14.2967
G01 X23.1505 Y14.2453
G01 X23.1693 Y14.2324
G01 X23.2498 Y14.1842
G01 X23.2632 Y14.1770
G01 X23.2989 Y14.1600
G01 X23.2632 Y14.1430
G01 X23.2498 Y14.1358
G01 X23.1693 Y14.0876
G01 X23.1505 Y14.0747
G01 X23.0814 Y14.0233
G01 X23.0639 Y14.0086
G01 X23.0057 Y13.9559
G01 X22.9946 Y13.9454
G01 X22.9841 Y13.9343
G01 X22.9314 Y13.8761
G01 X22.9167 Y13.8586
G01 X22.8653 Y13.7895
G01 X22.8565 Y13.7770
G01 X22.8484 Y13.7642
G01 X22.8080 Y13.6968
G01 X22.8005 Y13.6836
G01 X22.7936 Y13.6699
G01 X22.7601 Y13.5990
G01 X22.7539 Y13.5850
G01 X22.7484 Y13.5708
G01 X22.7219 Y13.4969
G01 X22.7172 Y13.4824
G01 X22.7131 Y13.4677
G01 X22.6940 Y13.3916
G01 X22.6907 Y13.3767
G01 X22.6881 Y13.3617
G01 X22.6766 Y13.2840
G01 X22.6747 Y13.2689
G01 X22.6736 Y13.2537
G01 X22.6697 Y13.1752
G01 X22.6693 Y13.1600
G01 X22.6697 Y13.1448
G01 X22.6740 Y13.0587
G01 X22.6766 Y13.0360
G01 X22.6881 Y12.9583
G01 X22.6907 Y12.9433
G01 X22.6940 Y12.9284
G01 X22.7131 Y12.8523
G01 X22.7172 Y12.8376
G01 X22.7219 Y12.8231
G01 X22.7484 Y12.7492
G01 X22.7539 Y12.7350
G01 X22.7601 Y12.7210
G01 X22.7970 Y12.6432
G01 X22.8080 Y12.6232
G01 X22.8484 Y12.5558
G01 X22.8565 Y12.5430
G01 X22.8653 Y12.5305
G01 X22.9121 Y12.4674
G01 X22.9214 Y12.4554
G01 X22.9314 Y12.4439
G01 X22.9841 Y12.3857
G01 X23.0001 Y12.3693
G01 X23.0639 Y12.3114
G01 X23.0754 Y12.3014
G01 X23.0874 Y12.2921
G01 X23.1567 Y12.2408
G01 X23.1758 Y12.2284
G01 X23.2498 Y12.1842
G01 X23.2632 Y12.1770
G01 X23.2989 Y12.1600
G01 X23.2632 Y12.1430
G01 X23.2498 Y12.1358
G01 X23.1758 Y12.0916
G01 X23.1567 Y12.0792
G01 X23.0874 Y12.0279
G01 X23.0754 Y12.0186
G01 X23.0639 Y12.0086
G01 X23.0001 Y11.9507
G01 X22.9841 Y11.9343
G01 X22.9314 Y11.8761
G01 X22.9214 Y11.8646
G01 X22.9121 Y11.8526
G01 X22.8653 Y11.7895
G01 X22.8565 Y11.7770
G01 X22.8484 Y11.7642
G01 X22.8042 Y11.6902
G01 X22.7936 Y11.6699
G01 X22.7601 Y11.5990
G01 X22.7539 Y11.5850
G01 X22.7484 Y11.5708
G01 X22.7219 Y11.4969
G01 X22.7172 Y11.4824
G01 X22.7131 Y11.4677
G01 X22.6940 Y11.3916
G01 X22.6907 Y11.3767
G01 X22.6881 Y11.3617
G01 X22.6766 Y11.2840
G01 X22.6747 Y11.2689
G01 X22.6736 Y11.2537
G01 X22.6697 Y11.1752
G01 X22.6693 Y11.1600
G01 X22.6697 Y11.1448
G01 X22.6740 Y11.0587
G01 X22.6766 Y11.0360
G01 X22.6881 Y10.9583
G01 X22.6907 Y10.9433
G01 X22.6940 Y10.9284
G01 X22.7131 Y10.8523
G01 X22.7172 Y10.8376
G01 X22.7219 Y10.8231
G01 X22.7484 Y10.7492
G01 X22.7539 Y10.7350
G01 X22.7601 Y10.7210
G01 X22.7936 Y10.6501
G01 X22.8005 Y10.6364
G01 X22.8080 Y10.6232
G01 X22.8484 Y10.5558
G01 X22.8565 Y10.5430
G01 X22.8653 Y10.5305
G01 X22.9121 Y10.4674
G01 X22.9214 Y10.4554
G01 X22.9314 Y10.4439
G01 X22.9841 Y10.3857
G01 X22.9946 Y10.3746
G01 X23.0057 Y10.3641
G01 X23.0639 Y10.3114
G01 X23.0754 Y10.3014
G01 X23.0874 Y10.2921
G01 X23.1567 Y10.2408
G01 X23.1758 Y10.2284
G01 X23.2432 Y10.1880
G01 X23.2564 Y10.1805
G01 X23.2701 Y10.1736
G01 X23.3410 Y10.1401
G01 X23.3620 Y10.1311
G01 X23.4431 Y10.1019
G01 X23.4576 Y10.0972
G01 X23.4723 Y10.0931
G01 X23.5484 Y10.0740
G01 X23.5633 Y10.0707
G01 X23.5783 Y10.0681
G01 X23.6560 Y10.0566
G01 X23.6711 Y10.0547
G01 X23.6863 Y10.0536
G01 X23.7648 Y10.0497
G00 Z2.0000
G00 X23.7688 Y10.1320
G01 F35.00
G01 Z-0.0500
G01 F25.00
G01 X23.7800 Y10.1318
G01 X23.7912 Y10.1320
G01 X23.8808 Y10.1367
G01 X23.9696 Y10.1496
G01 X23.9806 Y10.1515
G01 X24.0677 Y10.1730
G01 X24.0785 Y10.1760
G01 X24.1630 Y10.2060
G01 X24.1735 Y10.2100
G01 X24.1837 Y10.2146
G01 X24.2547 Y10.2481
G01 X24.2647 Y10.2532
G01 X24.2745 Y10.2587
G01 X24.3513 Y10.3050
G01 X24.4235 Y10.3583
G01 X24.4323 Y10.3652
G01 X24.4408 Y10.3725
G01 X24.5071 Y10.4329
G01 X24.5675 Y10.4992
G01 X24.5748 Y10.5077
G01 X24.5817 Y10.5165
G01 X24.6350 Y10.5887
G01 X24.6813 Y10.6655
G01 X24.6868 Y10.6753
G01 X24.6919 Y10.6853
G01 X24.7300 Y10.7665
G01 X24.7605 Y10.8509
G01 X24.7640 Y10.8615
G01 X24.7670 Y10.8723
G01 X24.7885 Y10.9594
G01 X24.7904 Y10.9704
G01 X24.8033 Y11.0592
G01 X24.8080 Y11.1488
G01 X24.8082 Y11.1600
G01 X24.8080 Y11.1712
G01 X24.8033 Y11.2608
G01 X24.7904 Y11.3496
G01 X24.7885 Y11.3606
G01 X24.7670 Y11.4477
G01 X24.7640 Y11.4585
G01 X24.7605 Y11.4691
G01 X24.7340 Y11.5430
G01 X24.7300 Y11.5535
G01 X24.7254 Y11.5637
G01 X24.6868 Y11.6447
G01 X24.6409 Y11.7218
G01 X24.6318 Y11.7359
G01 X24.5817 Y11.8035
G01 X24.5748 Y11.8123
G01 X24.5675 Y11.8208
G01 X24.5071 Y11.8871
G01 X24.4408 Y11.9475
G01 X24.4323 Y11.9548
G01 X24.4235 Y11.9617
G01 X24.3559 Y12.0118
G01 X24.3418 Y12.0209
G01 X24.2647 Y12.0668
G01 X24.2547 Y12.0719
G01 X24.1786 Y12.1078
G01 X24.1630 Y12.1140
G01 X24.0838 Y12.1423
G01 X24.0677 Y12.1470
G01 X24.0156 Y12.1600
G01 X24.0677 Y12.1730
G01 X24.0838 Y12.1777
G01 X24.1630 Y12.2060
G01 X24.1786 Y12.2122
G01 X24.2547 Y12.2481
G01 X24.2647 Y12.2532
G01 X24.2745 Y12.2587
G01 X24.3466 Y12.3020
G01 X24.3604 Y12.3115
G01 X24.4235 Y12.3583
G01 X24.4323 Y12.3652
G01 X24.4408 Y12.3725
G01 X24.5071 Y12.4329
G01 X24.5148 Y12.4410
G01 X24.5712 Y12.5034
G01 X24.5817 Y12.5165
G01 X24.6285 Y12.5796
G01 X24.6350 Y12.5887
G01 X24.6409 Y12.5982
G01 X24.6868 Y12.6753
G01 X24.6919 Y12.6853
G01 X24.7300 Y12.7665
G01 X24.7605 Y12.8509
G01 X24.7640 Y12.8615
G01 X24.7670 Y12.8723
G01 X24.7885 Y12.9594
G01 X24.7904 Y12.9704
G01 X24.8033 Y13.0592
G01 X24.8080 Y13.1488
G01 X24.8082 Y13.1600
G01 X24.8080 Y13.1712
G01 X24.8033 Y13.2608
G01 X24.7904 Y13.3496
G01 X24.7885 Y13.3606
G01 X24.7670 Y13.4477
G01 X24.7640 Y13.4585
G01 X24.7605 Y13.4691
G01 X24.7340 Y13.5430
G01 X24.7300 Y13.5535
G01 X24.7254 Y13.5637
G01 X24.6868 Y13.6447
G01 X24.6409 Y13.7218
G01 X24.6318 Y13.7359
G01 X24.5817 Y13.8035
G01 X24.5748 Y13.8123
G01 X24.5675 Y13.8208
G01 X24.5071 Y13.8871
G01 X24.4408 Y13.9475
G01 X24.4323 Y13.9548
G01 X24.4235 Y13.9617
G01 X24.3559 Y14.0118
G01 X24.3418 Y14.0209
G01 X24.2647 Y14.0668
G01 X24.2547 Y14.0719
G01 X24.1786 Y14.1078
G01 X24.1630 Y14.1140
G01 X24.0838 Y14.1423
G01 X24.0677 Y14.1470
G01 X24.0156 Y14.1600
G01 X24.0677 Y14.1730
G01 X24.0838 Y14.1777
G01 X24.1630 Y14.2060
G01 X24.1735 Y14.2100
G01 X24.2547 Y14.2481
G01 X24.2647 Y14.2532
G01 X24.3418 Y14.2991
G01 X24.3513 Y14.3050
G01 X24.3604 Y14.3115
G01 X24.4235 Y14.3583
G01 X24.4323 Y14.3652
G01 X24.4408 Y14.3725
G01 X24.5071 Y14.4329
G01 X24.5675 Y14.4992
G01 X24.5748 Y14.5077
G01 X24.5817 Y14.5165
G01 X24.6285 Y14.5796
G01 X24.6350 Y14.5887
G01 X24.6409 Y14.5982
G01 X24.6868 Y14.6753
G01 X24.6919 Y14.6853
G01 X24.7300 Y14.7665
G01 X24.7605 Y14.8509
G01 X24.7640 Y14.8615
G01 X24.7670 Y14.8723
G01 X24.7885 Y14.9594
G01 X24.8019 Y15.0481
G01 X24.8033 Y15.0592
G01 X24.8041 Y15.0704
G01 X24.8080 Y15.1488
G01 X24.8082 Y15.1600
G01 X24.8080 Y15.1712
G01 X24.8033 Y15.2608
G01 X24.7904 Y15.3496
G01 X24.7885 Y15.3606
G01 X24.7860 Y15.3715
G01 X24.7640 Y15.4585
G01 X24.7605 Y15.4691
G01 X24.7300 Y15.5535
G01 X24.6919 Y15.6347
G01 X24.6868 Y15.6447
G01 X24.6813 Y15.6545
G01 X24.6380 Y15.7266
G01 X24.6285 Y15.7404
G01 X24.5817 Y15.8035
G01 X24.5748 Y15.8123
G01 X24.5675 Y15.8208
G01 X24.5071 Y15.8871
G01 X24.4408 Y15.9475
G01 X24.4279 Y15.9583
G01 X24.3604 Y16.0085
G01 X24.3513 Y16.0150
G01 X24.3418 Y16.0209
G01 X24.2696 Y16.0641
G01 X24.2547 Y16.0719
G01 X24.1786 Y16.1078
G01 X24.1630 Y16.1140
G01 X24.1134 Y16.1318
G01 X24.5856 Y16.1318
G01 X24.6024 Y16.1329
G01 X24.6135 Y16.1342
G01 X24.6245 Y16.1361
G01 X24.6355 Y16.1386
G01 X24.6516 Y16.1433
G01 X24.6621 Y16.1471
G01 X24.6776 Y16.1537
G01 X24.6925 Y16.1614
G01 X24.7068 Y16.1702
G01 X24.7204 Y16.1801
G01 X24.7333 Y16.1909
G01 X24.7414 Y16.1986
G01 X24.7528 Y16.2109
G01 X24.7599 Y16.2196
G01 X24.7698 Y16.2332
G01 X24.7786 Y16.2475
G01 X24.7863 Y16.2624
G01 X24.7909 Y16.2727
G01 X24.7967 Y16.2884
G01 X24.8014 Y16.3045
G01 X24.8039 Y16.3155
G01 X24.8065 Y16.3321
G01 X24.8080 Y16.3488
G01 X24.8082 Y16.3600
G01 X24.8082 Y17.9600
G01 X24.8080 Y17.9712
G01 X24.8071 Y17.9824
G01 X24.8049 Y17.9990
G01 X24.8027 Y18.0100
G01 X24.8000 Y18.0209
G01 X24.7967 Y18.0316
G01 X24.7929 Y18.0421
G01 X24.7863 Y18.0576
G01 X24.7813 Y18.0676
G01 X24.7758 Y18.0773
G01 X24.7666 Y18.0914
G01 X24.7564 Y18.1048
G01 X24.7491 Y18.1133
G01 X24.7414 Y18.1214
G01 X24.7333 Y18.1291
G01 X24.7248 Y18.1364
G01 X24.7114 Y18.1466
G01 X24.7021 Y18.1528
G01 X24.6925 Y18.1586
G01 X24.6776 Y18.1663
G01 X24.6673 Y18.1709
G01 X24.6569 Y18.1749
G01 X24.6409 Y18.1800
G01 X24.6300 Y18.1827
G01 X24.6190 Y18.1849
G01 X24.6024 Y18.1871
G01 X24.5912 Y18.1880
G01 X24.5800 Y18.1882
G01 X22.9800 Y18.1882
G01 X22.9688 Y18.1880
G01 X22.9576 Y18.1871
G01 X22.9465 Y18.1858
G01 X22.9355 Y18.1839
G01 X22.9191 Y18.1800
G01 X22.9031 Y18.1749
G01 X22.8927 Y18.1709
G01 X22.8824 Y18.1663
G01 X22.8724 Y18.1613
G01 X22.8627 Y18.1558
G01 X22.8486 Y18.1466
G01 X22.8396 Y18.1399
G01 X22.8309 Y18.1328
G01 X22.8186 Y18.1214
G01 X22.8109 Y18.1133
G01 X22.8036 Y18.1048
G01 X22.7934 Y18.0914
G01 X22.7872 Y18.0821
G01 X22.7814 Y18.0725
G01 X22.7737 Y18.0576
G01 X22.7671 Y18.0421
G01 X22.7633 Y18.0316
G01 X22.7600 Y18.0209
G01 X22.7561 Y18.0045
G01 X22.7542 Y17.9935
G01 X22.7529 Y17.9824
G01 X22.7520 Y17.9712
G01 X22.7518 Y17.9600
G01 X22.7518 Y16.3600
G01 X22.7520 Y16.3488
G01 X22.7529 Y16.3376
G01 X22.7542 Y16.3265
G01 X22.7561 Y16.3155
G01 X22.7600 Y16.2991
G01 X22.7633 Y16.2884
G01 X22.7671 Y16.2779
G01 X22.7737 Y16.2624
G01 X22.7787 Y16.2524
G01 X22.7842 Y16.2427
G01 X22.7934 Y16.2286
G01 X22.8001 Y16.2196
G01 X22.8109 Y16.2067
G01 X22.8226 Y16.1947
G01 X22.8309 Y16.1872
G01 X22.8396 Y16.1801
G01 X22.8532 Y16.1702
G01 X22.8675 Y16.1614
G01 X22.8774 Y16.1561
G01 X22.8927 Y16.1491
G01 X22.9031 Y16.1451
G01 X22.9191 Y16.1400
G01 X22.9300 Y16.1373
G01 X22.9410 Y16.1351
G01 X22.9521 Y16.1335
G01 X22.9688 Y16.1320
G01 X22.9800 Y16.1318
G01 X23.4466 Y16.1318
G01 X23.3970 Y16.1140
G01 X23.3814 Y16.1078
G01 X23.3053 Y16.0719
G01 X23.2904 Y16.0641
G01 X23.2182 Y16.0209
G01 X23.2087 Y16.0150
G01 X23.1365 Y15.9617
G01 X23.1234 Y15.9512
G01 X23.0610 Y15.8948
G01 X23.0529 Y15.8871
G01 X22.9925 Y15.8208
G01 X22.9852 Y15.8123
G01 X22.9783 Y15.8035
G01 X22.9250 Y15.7313
G01 X22.9191 Y15.7218
G01 X22.8759 Y15.6496
G01 X22.8681 Y15.6347
G01 X22.8300 Y15.5535
G01 X22.7995 Y15.4691
G01 X22.7960 Y15.4585
G01 X22.7930 Y15.4477
G01 X22.7740 Y15.3715
G01 X22.7715 Y15.3606
G01 X22.7696 Y15.3496
G01 X22.7567 Y15.2608
G01 X22.7520 Y15.1712
G01 X22.7518 Y15.1600
G01 X22.7520 Y15.1488
G01 X22.7567 Y15.0592
G01 X22.7696 Y14.9704
G01 X22.7715 Y14.9594
G01 X22.7930 Y14.8723
G01 X22.7960 Y14.8615
G01 X22.7995 Y14.8509
G01 X22.8300 Y14.7665
G01 X22.8681 Y14.6853
G01 X22.8732 Y14.6753
G01 X22.9191 Y14.5982
G01 X22.9250 Y14.5887
G01 X22.9315 Y14.5796
G01 X22.9852 Y14.5077
G01 X22.9925 Y14.4992
G01 X23.0490 Y14.4369
G01 X23.0610 Y14.4252
G01 X23.1192 Y14.3725
G01 X23.1277 Y14.3652
G01 X23.1365 Y14.3583
G01 X23.2087 Y14.3050
G01 X23.2182 Y14.2991
G01 X23.2904 Y14.2559
G01 X23.3053 Y14.2481
G01 X23.3763 Y14.2146
G01 X23.3917 Y14.2080
G01 X23.4709 Y14.1795
G01 X23.4815 Y14.1760
G01 X23.5444 Y14.1600
G01 X23.4815 Y14.1440
G01 X23.4709 Y14.1405
G01 X23.3917 Y14.1120
G01 X23.3763 Y14.1054
G01 X23.3053 Y14.0719
G01 X23.2904 Y14.0641
G01 X23.2182 Y14.0209
G01 X23.2087 Y14.0150
G01 X23.1365 Y13.9617
G01 X23.1277 Y13.9548
G01 X23.1192 Y13.9475
G01 X23.0569 Y13.8910
G01 X23.0452 Y13.8790
G01 X22.9925 Y13.8208
G01 X22.9852 Y13.8123
G01 X22.9783 Y13.8035
G01 X22.9250 Y13.7313
G01 X22.8787 Y13.6545
G01 X22.8732 Y13.6447
G01 X22.8681 Y13.6347
G01 X22.8300 Y13.5535
G01 X22.7995 Y13.4691
G01 X22.7960 Y13.4585
G01 X22.7930 Y13.4477
G01 X22.7715 Y13.3606
G01 X22.7696 Y13.3496
G01 X22.7567 Y13.2608
G01 X22.7520 Y13.1712
G01 X22.7518 Y13.1600
G01 X22.7520 Y13.1488
G01 X22.7567 Y13.0592
G01 X22.7696 Y12.9704
G01 X22.7715 Y12.9594
G01 X22.7930 Y12.8723
G01 X22.7960 Y12.8615
G01 X22.7995 Y12.8509
G01 X22.8300 Y12.7665
G01 X22.8681 Y12.6853
G01 X22.8732 Y12.6753
G01 X22.8787 Y12.6655
G01 X22.9250 Y12.5887
G01 X22.9783 Y12.5165
G01 X22.9852 Y12.5077
G01 X22.9925 Y12.4992
G01 X23.0529 Y12.4329
G01 X23.1192 Y12.3725
G01 X23.1277 Y12.3652
G01 X23.1365 Y12.3583
G01 X23.2087 Y12.3050
G01 X23.2855 Y12.2587
G01 X23.2953 Y12.2532
G01 X23.3053 Y12.2481
G01 X23.3763 Y12.2146
G01 X23.3865 Y12.2100
G01 X23.3970 Y12.2060
G01 X23.4815 Y12.1760
G01 X23.5444 Y12.1600
G01 X23.4923 Y12.1470
G01 X23.4762 Y12.1423
G01 X23.3970 Y12.1140
G01 X23.3814 Y12.1078
G01 X23.3053 Y12.0719
G01 X23.2953 Y12.0668
G01 X23.2182 Y12.0209
G01 X23.2041 Y12.0118
G01 X23.1365 Y11.9617
G01 X23.1277 Y11.9548
G01 X23.1192 Y11.9475
G01 X23.0529 Y11.8871
G01 X22.9925 Y11.8208
G01 X22.9852 Y11.8123
G01 X22.9783 Y11.8035
G01 X22.9282 Y11.7359
G01 X22.9191 Y11.7218
G01 X22.8732 Y11.6447
G01 X22.8346 Y11.5637
G01 X22.8300 Y11.5535
G01 X22.8260 Y11.5430
G01 X22.7995 Y11.4691
G01 X22.7960 Y11.4585
G01 X22.7930 Y11.4477
G01 X22.7715 Y11.3606
G01 X22.7696 Y11.3496
G01 X22.7567 Y11.2608
G01 X22.7520 Y11.1712
G01 X22.7518 Y11.1600
G01 X22.7559 Y11.0704
G01 X22.7573 Y11.0536
G01 X22.7696 Y10.9704
G01 X22.7715 Y10.9594
G01 X22.7930 Y10.8723
G01 X22.7960 Y10.8615
G01 X22.7995 Y10.8509
G01 X22.8300 Y10.7665
G01 X22.8681 Y10.6853
G01 X22.8732 Y10.6753
G01 X22.8787 Y10.6655
G01 X22.9250 Y10.5887
G01 X22.9783 Y10.5165
G01 X22.9852 Y10.5077
G01 X22.9925 Y10.4992
G01 X23.0452 Y10.4410
G01 X23.0529 Y10.4329
G01 X23.0610 Y10.4252
G01 X23.1277 Y10.3652
G01 X23.1365 Y10.3583
G01 X23.2087 Y10.3050
G01 X23.2855 Y10.2587
G01 X23.2953 Y10.2532
G01 X23.3053 Y10.2481
G01 X23.3865 Y10.2100
G01 X23.4709 Y10.1795
G01 X23.4815 Y10.1760
G01 X23.4923 Y10.1730
G01 X23.5794 Y10.1515
G01 X23.5904 Y10.1496
G01 X23.6792 Y10.1367
G01 X23.7688 Y10.1320
G00 Z2.0000
G00 X23.7728 Y10.2144
G01 F35.00
G01 Z-0.0500
G01 F25.00
G01 X23.7872 Y10.2144
G01 X23.8727 Y10.2187
G01 X23.9645 Y10.2324
G01 X24.0546 Y10.2549
G01 X24.1419 Y10.2862
G01 X24.2259 Y10.3259
G01 X24.3055 Y10.3736
G01 X24.3800 Y10.4289
G01 X24.4488 Y10.4912
G01 X24.5111 Y10.5600
G01 X24.5664 Y10.6345
G01 X24.6141 Y10.7141
G01 X24.6538 Y10.7981
G01 X24.6851 Y10.8854
G01 X24.7076 Y10.9755
G01 X24.7213 Y11.0673
G01 X24.7258 Y11.1600
G01 X24.7213 Y11.2527
G01 X24.7076 Y11.3445
G01 X24.6851 Y11.4346
G01 X24.6538 Y11.5219
G01 X24.6141 Y11.6059
G01 X24.5664 Y11.6855
G01 X24.5111 Y11.7600
G01 X24.4488 Y11.8288
G01 X24.3800 Y11.8911
G01 X24.3055 Y11.9464
G01 X24.2259 Y11.9941
G01 X24.1419 Y12.0338
G01 X24.0546 Y12.0651
G01 X23.9645 Y12.0876
G01 X23.8727 Y12.1013
G01 X23.7800 Y12.1058
G01 X23.6873 Y12.1013
G01 X23.5955 Y12.0876
G01 X23.5054 Y12.0651
G01 X23.4181 Y12.0338
G01 X23.3341 Y11.9941
G01 X23.2545 Y11.9464
G01 X23.1800 Y11.8911
G01 X23.1112 Y11.8288
G01 X23.0489 Y11.7600
G01 X22.9936 Y11.6855
G01 X22.9459 Y11.6059
G01 X22.9062 Y11.5219
G01 X22.8749 Y11.4346
G01 X22.8524 Y11.3445
G01 X22.8387 Y11.2527
G01 X22.8342 Y11.1600
G01 X22.8387 Y11.0673
G01 X22.8524 Y10.9755
G01 X22.8749 Y10.8854
G01 X22.9062 Y10.7981
G01 X22.9459 Y10.7141
G01 X22.9936 Y10.6345
G01 X23.0489 Y10.5600
G01 X23.1112 Y10.4912
G01 X23.1800 Y10.4289
G01 X23.2545 Y10.3736
G01 X23.3341 Y10.3259
G01 X23.4181 Y10.2862
G01 X23.5054 Y10.2549
G01 X23.5955 Y10.2324
G01 X23.6873 Y10.2187
G01 X23.7728 Y10.2144
G00 Z2.0000
G00 X23.7769 Y10.2967
G01 F35.00
G01 Z-0.0500
G01 F25.00
G01 X23.7831 Y10.2967
G01 X23.8646 Y10.3008
G01 X23.9484 Y10.3132
G01 X24.0306 Y10.3338
G01 X24.1104 Y10.3623
G01 X24.1870 Y10.3985
G01 X24.2597 Y10.4421
G01 X24.3277 Y10.4926
G01 X24.3905 Y10.5495
G01 X24.4474 Y10.6123
G01 X24.4979 Y10.6803
G01 X24.5415 Y10.7530
G01 X24.5777 Y10.8296
G01 X24.6062 Y10.9094
G01 X24.6268 Y10.9916
G01 X24.6392 Y11.0754
G01 X24.6434 Y11.1600
G01 X24.6392 Y11.2446
G01 X24.6268 Y11.3284
G01 X24.6062 Y11.4106
G01 X24.5777 Y11.4904
G01 X24.5415 Y11.5670
G01 X24.4979 Y11.6397
G01 X24.4474 Y11.7077
G01 X24.3905 Y11.7705
G01 X24.3277 Y11.8274
G01 X24.2597 Y11.8779
G01 X24.1870 Y11.9215
G01 X24.1104 Y11.9577
G01 X24.0306 Y11.9862
G01 X23.9484 Y12.0068
G01 X23.8646 Y12.0192
G01 X23.7800 Y12.0234
G01 X23.6954 Y12.0192
G01 X23.6116 Y12.0068
G01 X23.5294 Y11.9862
G01 X23.4496 Y11.9577
G01 X23.3730 Y11.9215
G01 X23.3003 Y11.8779
G01 X23.2323 Y11.8274
G01 X23.1695 Y11.7705
G01 X23.1126 Y11.7077
G01 X23.0621 Y11.6397
G01 X23.0185 Y11.5670
G01 X22.9823 Y11.4904
G01 X22.9538 Y11.4106
G01 X22.9332 Y11.3284
G01 X22.9208 Y11.2446
G01 X22.9166 Y11.1600
G01 X22.9208 Y11.0754
G01 X22.9332 Y10.9916
G01 X22.9538 Y10.9094
G01 X22.9823 Y10.8296
G01 X23.0185 Y10.7530
G01 X23.0621 Y10.6803
G01 X23.1126 Y10.6123
G01 X23.1695 Y10.5495
G01 X23.2323 Y10.4926
G01 X23.3003 Y10.4421
G01 X23.3730 Y10.3985
G01 X23.4496 Y10.3623
G01 X23.5294 Y10.3338
G01 X23.6116 Y10.3132
G01 X23.6954 Y10.3008
G01 X23.7769 Y10.2967
G00 Z2.0000
G00 X23.7728 Y12.2144
G01 F35.00
G01 Z-0.0500
G01 F25.00
G01 X23.7872 Y12.2144
G01 X23.8727 Y12.2187
G01 X23.9645 Y12.2324
G01 X24.0546 Y12.2549
G01 X24.1419 Y12.2862
G01 X24.2259 Y12.3259
G01 X24.3055 Y12.3736
G01 X24.3800 Y12.4289
G01 X24.4488 Y12.4912
G01 X24.5111 Y12.5600
G01 X24.5664 Y12.6345
G01 X24.6141 Y12.7141
G01 X24.6538 Y12.7981
G01 X24.6851 Y12.8854
G01 X24.7076 Y12.9755
G01 X24.7213 Y13.0673
G01 X24.7258 Y13.1600
G01 X24.7213 Y13.2527
G01 X24.7076 Y13.3445
G01 X24.6851 Y13.4346
G01 X24.6538 Y13.5219
G01 X24.6141 Y13.6059
G01 X24.5664 Y13.6855
G01 X24.5111 Y13.7600
G01 X24.4488 Y13.8288
G01 X24.3800 Y13.8911
G01 X24.3055 Y13.9464
G01 X24.2259 Y13.9941
G01 X24.1419 Y14.0338
G01 X24.0546 Y14.0651
G01 X23.9645 Y14.0876
G01 X23.8727 Y14.1013
G01 X23.7800 Y14.1058
G01 X23.6873 Y14.1013
G01 X23.5955 Y14.0876
G01 X23.5054 Y14.0651
G01 X23.4181 Y14.0338
G01 X23.3341 Y13.9941
G01 X23.2545 Y13.9464
G01 X23.1800 Y13.8911
G01 X23.1112 Y13.8288
G01 X23.0489 Y13.7600
G01 X22.9936 Y13.6855
G01 X22.9459 Y13.6059
G01 X22.9062 Y13.5219
G01 X22.8749 Y13.4346
G01 X22.8524 Y13.3445
G01 X22.8387 Y13.2527
G01 X22.8342 Y13.1600
G01 X22.8387 Y13.0673
G01 X22.8524 Y12.9755
G01 X22.8749 Y12.8854
G01 X22.9062 Y12.7981
G01 X22.9459 Y12.7141
G01 X22.9936 Y12.6345
G01 X23.0489 Y12.5600
G01 X23.1112 Y12.4912
G01 X23.1800 Y12.4289
G01 X23.2545 Y12.3736
G01 X23.3341 Y12.3259
G01 X23.4181 Y12.2862
G01 X23.5054 Y12.2549
G01 X23.5955 Y12.2324
G01 X23.6873 Y12.2187
G01 X23.7728 Y12.2144
G00 Z2.0000
G00 X23.7769 Y12.2967
G01 F35.00
G01 Z-0.0500
G01 F25.00
G01 X23.7831 Y12.2967
G01 X23.8646 Y12.3008
G01 X23.9484 Y12.3132
G01 X24.0306 Y12.3338
G01 X24.1104 Y12.3623
G01 X24.1870 Y12.3985
G01 X24.2597 Y12.4421
G01 X24.3277 Y12.4926
G01 X24.3905 Y12.5495
G01 X24.4474 Y12.6123
G01 X24.4979 Y12.6803
G01 X24.5415 Y12.7530
G01 X24.5777 Y12.8296
G01 X24.6062 Y12.9094
G01 X24.6268 Y12.9916
G01 X24.6392 Y13.0754
G01 X24.6434 Y13.1600
G01 X24.6392 Y13.2446
G01 X24.6268 Y13.3284
G01 X24.6062 Y13.4106
G01 X24.5777 Y13.4904
G01 X24.5415 Y13.5670
G01 X24.4979 Y13.6397
G01 X24.4474 Y13.7077
G01 X24.3905 Y13.7705
G01 X24.3277 Y13.8274
G01 X24.2597 Y13.8779
G01 X24.1870 Y13.9215
G01 X24.1104 Y13.9577
G01 X24.0306 Y13.9862
G01 X23.9484 Y14.0068
G01 X23.8646 Y14.0192
G01 X23.7800 Y14.0234
G01 X23.6954 Y14.0192
G01 X23.6116 Y14.0068
G01 X23.5294 Y13.9862
G01 X23.4496 Y13.9577
G01 X23.3730 Y13.9215
G01 X23.3003 Y13.8779
G01 X23.2323 Y13.8274
G01 X23.1695 Y13.7705
G01 X23.1126 Y13.7077
G01 X23.0621 Y13.6397
G01 X23.0185 Y13.5670
G01 X22.9823 Y13.4904
G01 X22.9538 Y13.4106
G01 X22.9332 Y13.3284
G01 X22.9208 Y13.2446
G01 X22.9166 Y13.1600
G01 X22.9208 Y13.0754
G01 X22.9332 Y12.9916
G01 X22.9538 Y12.9094
G01 X22.9823 Y12.8296
G01 X23.0185 Y12.7530
G01 X23.0621 Y12.6803
G01 X23.1126 Y12.6123
G01 X23.1695 Y12.5495
G01 X23.2323 Y12.4926
G01 X23.3003 Y12.4421
G01 X23.3730 Y12.3985
G01 X23.4496 Y12.3623
G01 X23.5294 Y12.3338
G01 X23.6116 Y12.3132
G01 X23.6954 Y12.3008
G01 X23.7769 Y12.2967
G00 Z2.0000
G00 X23.7728 Y14.2144
G01 F35.00
G01 Z-0.0500
G01 F25.00
G01 X23.7872 Y14.2144
G01 X23.8727 Y14.2187
G01 X23.9645 Y14.2324
G01 X24.0546 Y14.2549
G01 X24.1419 Y14.2862
G01 X24.2259 Y14.3259
G01 X24.3055 Y14.3736
G01 X24.3800 Y14.4289
G01 X24.4488 Y14.4912
G01 X24.5111 Y14.5600
G01 X24.5664 Y14.6345
G01 X24.6141 Y14.7141
G01 X24.6538 Y14.7981
G01 X24.6851 Y14.8854
G01 X24.7076 Y14.9755
G01 X24.7213 Y15.0673
G01 X24.7258 Y15.1600
G01 X24.7213 Y15.2527
G01 X24.7076 Y15.3445
G01 X24.6851 Y15.4346
G01 X24.6538 Y15.5219
G01 X24.6141 Y15.6059
G01 X24.5664 Y15.6855
G01 X24.5111 Y15.7600
G01 X24.4488 Y15.8288
G01 X24.3800 Y15.8911
G01 X24.3055 Y15.9464
G01 X24.2259 Y15.9941
G01 X24.1419 Y16.0338
G01 X24.0546 Y16.0651
G01 X23.9645 Y16.0876
G01 X23.8727 Y16.1013
G01 X23.7800 Y16.1058
G01 X23.6873 Y16.1013
G01 X23.5955 Y16.0876
G01 X23.5054 Y16.0651
G01 X23.4181 Y16.0338
G01 X23.3341 Y15.9941
G01 X23.2545 Y15.9464
G01 X23.1800 Y15.8911
G01 X23.1112 Y15.8288
G01 X23.0489 Y15.7600
G01 X22.9936 Y15.6855
G01 X22.9459 Y15.6059
G01 X22.9062 Y15.5219
G01 X22.8749 Y15.4346
G01 X22.8524 Y15.3445
G01 X22.8387 Y15.2527
G01 X22.8342 Y15.1600
G01 X22.8387 Y15.0673
G01 X22.8524 Y14.9755
G01 X22.8749 Y14.8854
G01 X22.9062 Y14.7981
G01 X22.9459 Y14.7141
G01 X22.9936 Y14.6345
G01 X23.0489 Y14.5600
G01 X23.1112 Y14.4912
G01 X23.1800 Y14.4289
G01 X23.2545 Y14.3736
G01 X23.3341 Y14.3259
G01 X23.4181 Y14.2862
G01 X23.5054 Y14.2549
G01 X23.5955 Y14.2324
G01 X23.6873 Y14.2187
G01 X23.7728 Y14.2144
G00 Z2.0000
G00 X23.7769 Y14.2967
G01 F35.00
G01 Z-0.0500
G01 F25.00
G01 X23.7831 Y14.2967
G01 X23.8646 Y14.3008
G01 X23.9484 Y14.3132
G01 X24.0306 Y14.3338
G01 X24.1104 Y14.3623
G01 X24.1870 Y14.3985
G01 X24.2597 Y14.4421
G01 X24.3277 Y14.4926
G01 X24.3905 Y14.5495
G01 X24.4474 Y14.6123
G01 X24.4979 Y14.6803
G01 X24.5415 Y14.7530
G01 X24.5777 Y14.8296
G01 X24.6062 Y14.9094
G01 X24.6268 Y14.9916
G01 X24.6392 Y15.0754
G01 X24.6434 Y15.1600
G01 X24.6392 Y15.2446
G01 X24.6268 Y15.3284
G01 X24.6062 Y15.4106
G01 X24.5777 Y15.4904
G01 X24.5415 Y15.5670
G01 X24.4979 Y15.6397
G01 X24.4474 Y15.7077
G01 X24.3905 Y15.7705
G01 X24.3277 Y15.8274
G01 X24.2597 Y15.8779
G01 X24.1870 Y15.9215
G01 X24.1104 Y15.9577
G01 X24.0306 Y15.9862
G01 X23.9484 Y16.0068
G01 X23.8646 Y16.0192
G01 X23.7800 Y16.0234
G01 X23.6954 Y16.0192
G01 X23.6116 Y16.0068
G01 X23.5294 Y15.9862
G01 X23.4496 Y15.9577
G01 X23.3730 Y15.9215
G01 X23.3003 Y15.8779
G01 X23.2323 Y15.8274
G01 X23.1695 Y15.7705
G01 X23.1126 Y15.7077
G01 X23.0621 Y15.6397
G01 X23.0185 Y15.5670
G01 X22.9823 Y15.4904
G01 X22.9538 Y15.4106
G01 X22.9332 Y15.3284
G01 X22.9208 Y15.2446
G01 X22.9166 Y15.1600
G01 X22.9208 Y15.0754
G01 X22.9332 Y14.9916
G01 X22.9538 Y14.9094
G01 X22.9823 Y14.8296
G01 X23.0185 Y14.7530
G01 X23.0621 Y14.6803
G01 X23.1126 Y14.6123
G01 X23.1695 Y14.5495
G01 X23.2323 Y14.4926
G01 X23.3003 Y14.4421
G01 X23.3730 Y14.3985
G01 X23.4496 Y14.3623
G01 X23.5294 Y14.3338
G01 X23.6116 Y14.3132
G01 X23.6954 Y14.3008
G01 X23.7769 Y14.2967
G00 Z2.0000
G00 X24.5800 Y16.2142
G01 F35.00
G01 Z-0.0500
G01 F25.00
G01 X24.5943 Y16.2149
G01 X24.6084 Y16.2170
G01 X24.6189 Y16.2195
G01 X24.6325 Y16.2240
G01 X24.6456 Y16.2298
G01 X24.6580 Y16.2368
G01 X24.6697 Y16.2450
G01 X24.6805 Y16.2544
G01 X24.6904 Y16.2648
G01 X24.6992 Y16.2760
G01 X24.7069 Y16.2881
G01 X24.7133 Y16.3009
G01 X24.7173 Y16.3109
G01 X24.7214 Y16.3246
G01 X24.7242 Y16.3386
G01 X24.7256 Y16.3528
G01 X24.7258 Y17.9636
G01 X24.7251 Y17.9743
G01 X24.7230 Y17.9884
G01 X24.7195 Y18.0023
G01 X24.7147 Y18.0158
G01 X24.7102 Y18.0256
G01 X24.7032 Y18.0380
G01 X24.6950 Y18.0497
G01 X24.6880 Y18.0579
G01 X24.6779 Y18.0680
G01 X24.6669 Y18.0771
G01 X24.6580 Y18.0832
G01 X24.6519 Y18.0869
G01 X24.6391 Y18.0933
G01 X24.6257 Y18.0985
G01 X24.6119 Y18.1023
G01 X24.6049 Y18.1037
G01 X24.5943 Y18.1051
G01 X24.5800 Y18.1058
G01 X22.9764 Y18.1058
G01 X22.9622 Y18.1047
G01 X22.9481 Y18.1023
G01 X22.9377 Y18.0995
G01 X22.9242 Y18.0947
G01 X22.9113 Y18.0886
G01 X22.9020 Y18.0832
G01 X22.8931 Y18.0771
G01 X22.8821 Y18.0680
G01 X22.8720 Y18.0579
G01 X22.8673 Y18.0525
G01 X22.8608 Y18.0440
G01 X22.8531 Y18.0319
G01 X22.8467 Y18.0191
G01 X22.8415 Y18.0057
G01 X22.8377 Y17.9919
G01 X22.8358 Y17.9814
G01 X22.8349 Y17.9743
G01 X22.8342 Y17.9600
G01 X22.8342 Y16.3564
G01 X22.8349 Y16.3457
G01 X22.8370 Y16.3316
G01 X22.8395 Y16.3211
G01 X22.8440 Y16.3075
G01 X22.8498 Y16.2944
G01 X22.8568 Y16.2820
G01 X22.8629 Y16.2731
G01 X22.8720 Y16.2621
G01 X22.8821 Y16.2520
G01 X22.8931 Y16.2429
G01 X22.9050 Y16.2349
G01 X22.9177 Y16.2282
G01 X22.9309 Y16.2227
G01 X22.9446 Y16.2186
G01 X22.9586 Y16.2158
G01 X22.9657 Y16.2149
G01 X22.9764 Y16.2142
G01 X24.5800 Y16.2142
G00 Z2.0000
G00 X24.5800 Y16.2966
G01 F35.00
G01 Z-0.0500
G01 F25.00
G01 X24.5862 Y16.2969
G01 X24.5924 Y16.2978
G01 X24.5984 Y16.2993
G01 X24.6043 Y16.3014
G01 X24.6099 Y16.3041
G01 X24.6152 Y16.3073
G01 X24.6202 Y16.3110
G01 X24.6248 Y16.3152
G01 X24.6318 Y16.3235
G01 X24.6352 Y16.3288
G01 X24.6380 Y16.3343
G01 X24.6402 Y16.3401
G01 X24.6419 Y16.3461
G01 X24.6429 Y16.3522
G01 X24.6434 Y16.3584
G01 X24.6434 Y17.9600
G01 X24.6431 Y17.9662
G01 X24.6422 Y17.9724
G01 X24.6392 Y17.9828
G01 X24.6366 Y17.9885
G01 X24.6336 Y17.9939
G01 X24.6300 Y17.9990
G01 X24.6259 Y18.0037
G01 X24.6202 Y18.0090
G01 X24.6152 Y18.0127
G01 X24.6099 Y18.0159
G01 X24.6043 Y18.0186
G01 X24.5984 Y18.0207
G01 X24.5924 Y18.0222
G01 X24.5862 Y18.0231
G01 X24.5800 Y18.0234
G01 X22.9800 Y18.0234
G01 X22.9738 Y18.0231
G01 X22.9676 Y18.0222
G01 X22.9616 Y18.0207
G01 X22.9557 Y18.0186
G01 X22.9461 Y18.0136
G01 X22.9410 Y18.0100
G01 X22.9363 Y18.0059
G01 X22.9310 Y18.0002
G01 X22.9273 Y17.9952
G01 X22.9241 Y17.9899
G01 X22.9214 Y17.9843
G01 X22.9193 Y17.9784
G01 X22.9178 Y17.9724
G01 X22.9169 Y17.9662
G01 X22.9166 Y17.9600
G01 X22.9166 Y16.3600
G01 X22.9169 Y16.3538
G01 X22.9178 Y16.3476
G01 X22.9193 Y16.3416
G01 X22.9214 Y16.3357
G01 X22.9264 Y16.3261
G01 X22.9300 Y16.3210
G01 X22.9341 Y16.3163
G01 X22.9398 Y16.3110
G01 X22.9448 Y16.3073
G01 X22.9501 Y16.3041
G01 X22.9557 Y16.3014
G01 X22.9616 Y16.2993
G01 X22.9676 Y16.2978
G01 X22.9738 Y16.2969
G01 X22.9800 Y16.2966
G01 X24.5800 Y16.2966
G00 Z2.0000
G00 X25.4436 Y6.1366
G01 F35.00
G01 Z-0.0500
G01 F25.00
G01 X25.4498 Y6.1369
G01 X25.4560 Y6.1378
G01 X25.4620 Y6.1393
G01 X25.4679 Y6.1414
G01 X25.4735 Y6.1441
G01 X25.4788 Y6.1473
G01 X25.4838 Y6.1510
G01 X25.4884 Y6.1552
G01 X25.4954 Y6.1635
G01 X25.4988 Y6.1688
G01 X25.5016 Y6.1743
G01 X25.5038 Y6.1801
G01 X25.5055 Y6.1861
G01 X25.5065 Y6.1922
G01 X25.5070 Y6.1984
G01 X25.5070 Y7.8000
G01 X25.5067 Y7.8062
G01 X25.5058 Y7.8124
G01 X25.5028 Y7.8228
G01 X25.5002 Y7.8285
G01 X25.4972 Y7.8339
G01 X25.4936 Y7.8390
G01 X25.4895 Y7.8437
G01 X25.4850 Y7.8480
G01 X25.4801 Y7.8518
G01 X25.4748 Y7.8552
G01 X25.4693 Y7.8580
G01 X25.4635 Y7.8602
G01 X25.4575 Y7.8619
G01 X25.4514 Y7.8629
G01 X25.4436 Y7.8634
G01 X23.8436 Y7.8634
G01 X23.8374 Y7.8631
G01 X23.8312 Y7.8622
G01 X23.8208 Y7.8592
G01 X23.8151 Y7.8566
G01 X23.8097 Y7.8536
G01 X23.8046 Y7.8500
G01 X23.7999 Y7.8459
G01 X23.7946 Y7.8402
G01 X23.7909 Y7.8352
G01 X23.7877 Y7.8299
G01 X23.7850 Y7.8243
G01 X23.7829 Y7.8184
G01 X23.7814 Y7.8124
G01 X23.7805 Y7.8062
G01 X23.7802 Y7.8000
G01 X23.7802 Y6.2000
G01 X23.7805 Y6.1938
G01 X23.7814 Y6.1876
G01 X23.7829 Y6.1816
G01 X23.7850 Y6.1757
G01 X23.7900 Y6.1661
G01 X23.7936 Y6.1610
G01 X23.7977 Y6.1563
G01 X23.8022 Y6.1520
G01 X23.8071 Y6.1482
G01 X23.8137 Y6.1441
G01 X23.8193 Y6.1414
G01 X23.8252 Y6.1393
G01 X23.8312 Y6.1378
G01 X23.8374 Y6.1369
G01 X23.8436 Y6.1366
G01 X25.4436 Y6.1366
G00 Z2.0000
G00 X25.4436 Y6.0542
G01 F35.00
G01 Z-0.0500
G01 F25.00
G01 X25.4579 Y6.0549
G01 X25.4720 Y6.0570
G01 X25.4859 Y6.0605
G01 X25.4994 Y6.0653
G01 X25.5123 Y6.0714
G01 X25.5216 Y6.0768
G01 X25.5333 Y6.0850
G01 X25.5441 Y6.0944
G01 X25.5540 Y6.1048
G01 X25.5628 Y6.1160
G01 X25.5705 Y6.1281
G01 X25.5769 Y6.1409
G01 X25.5809 Y6.1509
G01 X25.5850 Y6.1646
G01 X25.5878 Y6.1786
G01 X25.5892 Y6.1928
G01 X25.5894 Y7.8036
G01 X25.5887 Y7.8143
G01 X25.5866 Y7.8284
G01 X25.5831 Y7.8423
G01 X25.5783 Y7.8558
G01 X25.5738 Y7.8656
G01 X25.5668 Y7.8780
G01 X25.5586 Y7.8897
G01 X25.5516 Y7.8979
G01 X25.5441 Y7.9056
G01 X25.5388 Y7.9104
G01 X25.5276 Y7.9192
G01 X25.5155 Y7.9269
G01 X25.5027 Y7.9333
G01 X25.4893 Y7.9385
G01 X25.4825 Y7.9405
G01 X25.4720 Y7.9430
G01 X25.4579 Y7.9451
G01 X25.4436 Y7.9458
G01 X23.8400 Y7.9458
G01 X23.8293 Y7.9451
G01 X23.8152 Y7.9430
G01 X23.8013 Y7.9395
G01 X23.7911 Y7.9360
G01 X23.7780 Y7.9302
G01 X23.7686 Y7.9251
G01 X23.7567 Y7.9171
G01 X23.7457 Y7.9080
G01 X23.7356 Y7.8979
G01 X23.7265 Y7.8869
G01 X23.7185 Y7.8750
G01 X23.7134 Y7.8656
G01 X23.7103 Y7.8591
G01 X23.7051 Y7.8457
G01 X23.7013 Y7.8319
G01 X23.6989 Y7.8178
G01 X23.6982 Y7.8107
G01 X23.6978 Y7.8000
G01 X23.6978 Y6.1964
G01 X23.6989 Y6.1822
G01 X23.7013 Y6.1681
G01 X23.7041 Y6.1577
G01 X23.7089 Y6.1442
G01 X23.7150 Y6.1313
G01 X23.7204 Y6.1220
G01 X23.7265 Y6.1131
G01 X23.7356 Y6.1021
G01 X23.7457 Y6.0920
G01 X23.7567 Y6.0829
G01 X23.7686 Y6.0749
G01 X23.7813 Y6.0682
G01 X23.7945 Y6.0627
G01 X23.8082 Y6.0586
G01 X23.8187 Y6.0563
G01 X23.8258 Y6.0553
G01 X23.8400 Y6.0542
G01 X25.4436 Y6.0542
G00 Z2.0000
G00 X26.6364 Y6.0544
G01 F35.00
G01 Z-0.0500
G01 F25.00
G01 X26.6508 Y6.0544
G01 X26.7363 Y6.0587
G01 X26.8281 Y6.0724
G01 X26.9182 Y6.0949
G01 X27.0055 Y6.1262
G01 X27.0895 Y6.1659
G01 X27.1691 Y6.2136
G01 X27.2436 Y6.2689
G01 X27.3124 Y6.3312
G01 X27.3747 Y6.4000
G01 X27.4300 Y6.4745
G01 X27.4777 Y6.5541
G01 X27.5174 Y6.6381
G01 X27.5487 Y6.7254
G01 X27.5712 Y6.8155
G01 X27.5849 Y6.9073
G01 X27.5894 Y7.0000
G01 X27.5849 Y7.0927
G01 X27.5712 Y7.1845
G01 X27.5487 Y7.2746
G01 X27.5174 Y7.3619
G01 X27.4777 Y7.4459
G01 X27.4300 Y7.5255
G01 X27.3747 Y7.6000
G01 X27.3124 Y7.6688
G01 X27.2436 Y7.7311
G01 X27.1691 Y7.7864
G01 X27.0895 Y7.8341
G01 X27.0055 Y7.8738
G01 X26.9182 Y7.9051
G01 X26.8281 Y7.9276
G01 X26.7363 Y7.9413
G01 X26.6436 Y7.9458
G01 X26.5509 Y7.9413
G01 X26.4591 Y7.9276
G01 X26.3690 Y7.9051
G01 X26.2817 Y7.8738
G01 X26.1977 Y7.8341
G01 X26.1181 Y7.7864
G01 X26.0436 Y7.7311
G01 X25.9748 Y7.6688
G01 X25.9125 Y7.6000
G01 X25.8572 Y7.5255
G01 X25.8095 Y7.4459
G01 X25.7698 Y7.3619
G01 X25.7385 Y7.2746
G01 X25.7160 Y7.1845
G01 X25.7023 Y7.0927
G01 X25.6978 Y7.0000
G01 X25.7023 Y6.9073
G01 X25.7160 Y6.8155
G01 X25.7385 Y6.7254
G01 X25.7698 Y6.6381
G01 X25.8095 Y6.5541
G01 X25.8572 Y6.4745
G01 X25.9125 Y6.4000
G01 X25.9748 Y6.3312
G01 X26.0436 Y6.2689
G01 X26.1181 Y6.2136
G01 X26.1977 Y6.1659
G01 X26.2817 Y6.1262
G01 X26.3690 Y6.0949
G01 X26.4591 Y6.0724
G01 X26.5509 Y6.0587
G01 X26.6364 Y6.0544
G00 Z2.0000
G00 X26.6405 Y6.1367
G01 F35.00
G01 Z-0.0500
G01 F25.00
G01 X26.6467 Y6.1367
G01 X26.7282 Y6.1408
G01 X26.8120 Y6.1532
G01 X26.8942 Y6.1738
G01 X26.9740 Y6.2023
G01 X27.0506 Y6.2385
G01 X27.1233 Y6.2821
G01 X27.1913 Y6.3326
G01 X27.2541 Y6.3895
G01 X27.3110 Y6.4523
G01 X27.3615 Y6.5203
G01 X27.4051 Y6.5930
G01 X27.4413 Y6.6696
G01 X27.4698 Y6.7494
G01 X27.4904 Y6.8316
G01 X27.5028 Y6.9154
G01 X27.5070 Y7.0000
G01 X27.5028 Y7.0846
G01 X27.4904 Y7.1684
G01 X27.4698 Y7.2506
G01 X27.4413 Y7.3304
G01 X27.4051 Y7.4070
G01 X27.3615 Y7.4797
G01 X27.3110 Y7.5477
G01 X27.2541 Y7.6105
G01 X27.1913 Y7.6674
G01 X27.1233 Y7.7179
G01 X27.0506 Y7.7615
G01 X26.9740 Y7.7977
G01 X26.8942 Y7.8262
G01 X26.8120 Y7.8468
G01 X26.7282 Y7.8592
G01 X26.6436 Y7.8634
G01 X26.5590 Y7.8592
G01 X26.4752 Y7.8468
G01 X26.3930 Y7.8262
G01 X26.3132 Y7.7977
G01 X26.2366 Y7.7615
G01 X26.1639 Y7.7179
G01 X26.0959 Y7.6674
G01 X26.0331 Y7.6105
G01 X25.9762 Y7.5477
G01 X25.9257 Y7.4797
G01 X25.8821 Y7.4070
G01 X25.8459 Y7.3304
G01 X25.8174 Y7.2506
G01 X25.7968 Y7.1684
G01 X25.7844 Y7.0846
G01 X25.7802 Y7.0000
G01 X25.7844 Y6.9154
G01 X25.7968 Y6.8316
G01 X25.8174 Y6.7494
G01 X25.8459 Y6.6696
G01 X25.8821 Y6.5930
G01 X25.9257 Y6.5203
G01 X25.9762 Y6.4523
G01 X26.0331 Y6.3895
G01 X26.0959 Y6.3326
G01 X26.1639 Y6.2821
G01 X26.2366 Y6.2385
G01 X26.3132 Y6.2023
G01 X26.3930 Y6.1738
G01 X26.4752 Y6.1532
G01 X26.5590 Y6.1408
G01 X26.6405 Y6.1367
G00 Z2.0000
G00 X28.6364 Y6.0544
G01 F35.00
G01 Z-0.0500
G01 F25.00
G01 X28.6508 Y6.0544
G01 X28.7363 Y6.0587
G01 X28.8281 Y6.0724
G01 X28.9182 Y6.0949
G01 X29.0055 Y6.1262
G01 X29.0895 Y6.1659
G01 X29.1691 Y6.2136
G01 X29.2436 Y6.2689
G01 X29.3124 Y6.3312
G01 X29.3747 Y6.4000
G01 X29.4300 Y6.4745
G01 X29.4777 Y6.5541
G01 X29.5174 Y6.6381
G01 X29.5487 Y6.7254
G01 X29.5712 Y6.8155
G01 X29.5849 Y6.9073
G01 X29.5894 Y7.0000
G01 X29.5849 Y7.0927
G01 X29.5712 Y7.1845
G01 X29.5487 Y7.2746
G01 X29.5174 Y7.3619
G01 X29.4777 Y7.4459
G01 X29.4300 Y7.5255
G01 X29.3747 Y7.6000
G01 X29.3124 Y7.6688
