(G-CODE GENERATED BY FLATCAM v8.994 - www.flatcam.org - Version Date: 2020/11/7)

(Name: ADCandDAC-PTH.drl_mill_cnc)
(Type: G-code from Geometry)
(Units: MM)

(Created on Серада, 25 лістапада 2020 at 17:52)

(This preprocessor is the default preprocessor used by FlatCAM.)
(It is made to work with MACH3 compatible motion controllers.)

(TOOL DIAMETER: 0.8 mm)
(Feedrate_XY: 80.0 mm/min)
(Feedrate_Z: 40.0 mm/min)
(Feedrate rapids 1500.0 mm/min)

(Z_Cut: -1.4999999999999991 mm)
(Z_Move: 2.0 mm)
(Z Start: None mm)
(Z End: 15.0 mm)
(X,Y End: None mm)
(Steps per circle: 64)
(Preprocessor Geometry: default)

(X range:   52.2950 ...   55.0350  mm)
(Y range:   23.6260 ...   23.8260  mm)

(Spindle Speed: 10000.0 RPM)
G21
G90
G94

G01 F80.00

M5
G00 Z15.0000
G00 X0.0000 Y0.0000
T1
M6    
(MSG, Change to Tool Dia = 0.8000)
M0
G00 Z15.0000

M03 S10000.0
G01 F80.00
G00 X52.4950 Y23.7260
G01 F40.00
G01 Z-1.5000
G01 F80.00
G01 X52.4945 Y23.7162
G01 X52.4931 Y23.7065
G01 X52.4907 Y23.6970
G01 X52.4874 Y23.6877
G01 X52.4832 Y23.6789
G01 X52.4781 Y23.6704
G01 X52.4723 Y23.6626
G01 X52.4657 Y23.6553
G01 X52.4584 Y23.6487
G01 X52.4506 Y23.6429
G01 X52.4421 Y23.6378
G01 X52.4333 Y23.6336
G01 X52.4240 Y23.6303
G01 X52.4145 Y23.6279
G01 X52.4048 Y23.6265
G01 X52.3950 Y23.6260
G01 X52.3852 Y23.6265
G01 X52.3755 Y23.6279
G01 X52.3660 Y23.6303
G01 X52.3567 Y23.6336
G01 X52.3479 Y23.6378
G01 X52.3394 Y23.6429
G01 X52.3316 Y23.6487
G01 X52.3243 Y23.6553
G01 X52.3177 Y23.6626
G01 X52.3119 Y23.6704
G01 X52.3068 Y23.6789
G01 X52.3026 Y23.6877
G01 X52.2993 Y23.6970
G01 X52.2969 Y23.7065
G01 X52.2955 Y23.7162
G01 X52.2950 Y23.7260
G01 X52.2955 Y23.7358
G01 X52.2969 Y23.7455
G01 X52.2993 Y23.7550
G01 X52.3026 Y23.7643
G01 X52.3068 Y23.7731
G01 X52.3119 Y23.7816
G01 X52.3177 Y23.7894
G01 X52.3243 Y23.7967
G01 X52.3316 Y23.8033
G01 X52.3394 Y23.8091
G01 X52.3479 Y23.8142
G01 X52.3567 Y23.8184
G01 X52.3660 Y23.8217
G01 X52.3755 Y23.8241
G01 X52.3852 Y23.8255
G01 X52.3950 Y23.8260
G01 X52.4048 Y23.8255
G01 X52.4145 Y23.8241
G01 X52.4240 Y23.8217
G01 X52.4333 Y23.8184
G01 X52.4421 Y23.8142
G01 X52.4506 Y23.8091
G01 X52.4584 Y23.8033
G01 X52.4657 Y23.7967
G01 X52.4723 Y23.7894
G01 X52.4781 Y23.7816
G01 X52.4832 Y23.7731
G01 X52.4874 Y23.7643
G01 X52.4907 Y23.7550
G01 X52.4931 Y23.7455
G01 X52.4945 Y23.7358
G01 X52.4950 Y23.7260
G00 Z2.0000
G00 X55.0350 Y23.7260
G01 F40.00
G01 Z-1.5000
G01 F80.00
G01 X55.0345 Y23.7162
G01 X55.0331 Y23.7065
G01 X55.0307 Y23.6970
G01 X55.0274 Y23.6877
G01 X55.0232 Y23.6789
G01 X55.0181 Y23.6704
G01 X55.0123 Y23.6626
G01 X55.0057 Y23.6553
G01 X54.9984 Y23.6487
G01 X54.9906 Y23.6429
G01 X54.9821 Y23.6378
G01 X54.9733 Y23.6336
G01 X54.9640 Y23.6303
G01 X54.9545 Y23.6279
G01 X54.9448 Y23.6265
G01 X54.9350 Y23.6260
G01 X54.9252 Y23.6265
G01 X54.9155 Y23.6279
G01 X54.9060 Y23.6303
G01 X54.8967 Y23.6336
G01 X54.8879 Y23.6378
G01 X54.8794 Y23.6429
G01 X54.8716 Y23.6487
G01 X54.8643 Y23.6553
G01 X54.8577 Y23.6626
G01 X54.8519 Y23.6704
G01 X54.8468 Y23.6789
G01 X54.8426 Y23.6877
G01 X54.8393 Y23.6970
G01 X54.8369 Y23.7065
G01 X54.8355 Y23.7162
G01 X54.8350 Y23.7260
G01 X54.8355 Y23.7358
G01 X54.8369 Y23.7455
G01 X54.8393 Y23.7550
G01 X54.8426 Y23.7643
G01 X54.8468 Y23.7731
G01 X54.8519 Y23.7816
G01 X54.8577 Y23.7894
G01 X54.8643 Y23.7967
G01 X54.8716 Y23.8033
G01 X54.8794 Y23.8091
G01 X54.8879 Y23.8142
G01 X54.8967 Y23.8184
G01 X54.9060 Y23.8217
G01 X54.9155 Y23.8241
G01 X54.9252 Y23.8255
G01 X54.9350 Y23.8260
G01 X54.9448 Y23.8255
G01 X54.9545 Y23.8241
G01 X54.9640 Y23.8217
G01 X54.9733 Y23.8184
G01 X54.9821 Y23.8142
G01 X54.9906 Y23.8091
G01 X54.9984 Y23.8033
G01 X55.0057 Y23.7967
G01 X55.0123 Y23.7894
G01 X55.0181 Y23.7816
G01 X55.0232 Y23.7731
G01 X55.0274 Y23.7643
G01 X55.0307 Y23.7550
G01 X55.0331 Y23.7455
G01 X55.0345 Y23.7358
G01 X55.0350 Y23.7260
G00 Z2.0000
M05
G00 Z2.0000
G00 Z15.00


