(G-CODE GENERATED BY FLATCAM v8.994 - www.flatcam.org - Version Date: 2020/11/7)

(Name: ADCandDAC-Edge_Cuts.gbr_cutout_cnc)
(Type: G-code from Geometry)
(Units: MM)

(Created on Аўторак, 24 лістапада 2020 at 18:26)

(This preprocessor is the default preprocessor used by FlatCAM.)
(It is made to work with MACH3 compatible motion controllers.)

(TOOL DIAMETER: 1.5 mm)
(Feedrate_XY: 20.0 mm/min)
(Feedrate_Z: 40.0 mm/min)
(Feedrate rapids 1000.0 mm/min)

(Z_Cut: -1.5 mm)
(DepthPerCut: 0.2 mm <=>8 passes)
(Z_Move: 2.0 mm)
(Z Start: None mm)
(Z End: 15.0 mm)
(X,Y End: None mm)
(Steps per circle: 64)
(Preprocessor Geometry: default)

(X range:    0.7750 ...   60.3250  mm)
(Y range:    0.7250 ...   32.2750  mm)

(Spindle Speed: 10000.0 RPM)
G21
G90
G94

G01 F20.00

M5
G00 Z15.0000
G00 X0.0000 Y0.0000
T1
M6    
(MSG, Change to Tool Dia = 1.5000)
M0
G00 Z15.0000

M03 S10000.0
G01 F20.00
G00 X0.7750 Y15.6000
G01 F40.00
G01 Z-0.2000
G01 F20.00
G01 X0.7750 Y1.5000
G01 X0.7759 Y1.4632
G01 X0.7832 Y1.3875
G01 X0.7985 Y1.3105
G01 X0.8199 Y1.2401
G01 X0.8489 Y1.1698
G01 X0.8859 Y1.1005
G01 X0.9268 Y1.0393
G01 X0.9750 Y0.9805
G01 X1.0286 Y0.9266
G01 X1.0893 Y0.8768
G01 X1.1526 Y0.8346
G01 X1.2175 Y0.7999
G01 X1.2901 Y0.7699
G01 X1.3629 Y0.7479
G01 X1.4375 Y0.7332
G01 X1.5107 Y0.7260
G01 X1.5500 Y0.7250
G01 X29.6500 Y0.7250
G00 X29.6500 Y0.7250
G01 F40.00
G01 Z-0.4000
G01 F20.00
G01 X1.5500 Y0.7250
G01 X1.5107 Y0.7260
G01 X1.4375 Y0.7332
G01 X1.3629 Y0.7479
G01 X1.2901 Y0.7699
G01 X1.2175 Y0.7999
G01 X1.1526 Y0.8346
G01 X1.0893 Y0.8768
G01 X1.0286 Y0.9266
G01 X0.9750 Y0.9805
G01 X0.9268 Y1.0393
G01 X0.8859 Y1.1005
G01 X0.8489 Y1.1698
G01 X0.8199 Y1.2401
G01 X0.7985 Y1.3105
G01 X0.7832 Y1.3875
G01 X0.7759 Y1.4632
G01 X0.7750 Y1.5000
G01 X0.7750 Y15.6000
G00 X0.7750 Y15.6000
G01 F40.00
G01 Z-0.6000
G01 F20.00
G01 X0.7750 Y1.5000
G01 X0.7759 Y1.4632
G01 X0.7832 Y1.3875
G01 X0.7985 Y1.3105
G01 X0.8199 Y1.2401
G01 X0.8489 Y1.1698
G01 X0.8859 Y1.1005
G01 X0.9268 Y1.0393
G01 X0.9750 Y0.9805
G01 X1.0286 Y0.9266
G01 X1.0893 Y0.8768
G01 X1.1526 Y0.8346
G01 X1.2175 Y0.7999
G01 X1.2901 Y0.7699
G01 X1.3629 Y0.7479
G01 X1.4375 Y0.7332
G01 X1.5107 Y0.7260
G01 X1.5500 Y0.7250
G01 X29.6500 Y0.7250
G00 X29.6500 Y0.7250
G01 F40.00
G01 Z-0.8000
G01 F20.00
G01 X1.5500 Y0.7250
G01 X1.5107 Y0.7260
G01 X1.4375 Y0.7332
G01 X1.3629 Y0.7479
G01 X1.2901 Y0.7699
G01 X1.2175 Y0.7999
G01 X1.1526 Y0.8346
G01 X1.0893 Y0.8768
G01 X1.0286 Y0.9266
G01 X0.9750 Y0.9805
G01 X0.9268 Y1.0393
G01 X0.8859 Y1.1005
G01 X0.8489 Y1.1698
G01 X0.8199 Y1.2401
G01 X0.7985 Y1.3105
G01 X0.7832 Y1.3875
G01 X0.7759 Y1.4632
G01 X0.7750 Y1.5000
G01 X0.7750 Y15.6000
G00 X0.7750 Y15.6000
G01 F40.00
G01 Z-1.0000
G01 F20.00
G01 X0.7750 Y1.5000
G01 X0.7759 Y1.4632
G01 X0.7832 Y1.3875
G01 X0.7985 Y1.3105
G01 X0.8199 Y1.2401
G01 X0.8489 Y1.1698
G01 X0.8859 Y1.1005
G01 X0.9268 Y1.0393
G01 X0.9750 Y0.9805
G01 X1.0286 Y0.9266
G01 X1.0893 Y0.8768
G01 X1.1526 Y0.8346
G01 X1.2175 Y0.7999
G01 X1.2901 Y0.7699
G01 X1.3629 Y0.7479
G01 X1.4375 Y0.7332
G01 X1.5107 Y0.7260
G01 X1.5500 Y0.7250
G01 X29.6500 Y0.7250
G00 X29.6500 Y0.7250
G01 F40.00
G01 Z-1.2000
G01 F20.00
G01 X1.5500 Y0.7250
G01 X1.5107 Y0.7260
G01 X1.4375 Y0.7332
G01 X1.3629 Y0.7479
G01 X1.2901 Y0.7699
G01 X1.2175 Y0.7999
G01 X1.1526 Y0.8346
G01 X1.0893 Y0.8768
G01 X1.0286 Y0.9266
G01 X0.9750 Y0.9805
G01 X0.9268 Y1.0393
G01 X0.8859 Y1.1005
G01 X0.8489 Y1.1698
G01 X0.8199 Y1.2401
G01 X0.7985 Y1.3105
G01 X0.7832 Y1.3875
G01 X0.7759 Y1.4632
G01 X0.7750 Y1.5000
G01 X0.7750 Y15.6000
G00 X0.7750 Y15.6000
G01 F40.00
G01 Z-1.4000
G01 F20.00
G01 X0.7750 Y1.5000
G01 X0.7759 Y1.4632
G01 X0.7832 Y1.3875
G01 X0.7985 Y1.3105
G01 X0.8199 Y1.2401
G01 X0.8489 Y1.1698
G01 X0.8859 Y1.1005
G01 X0.9268 Y1.0393
G01 X0.9750 Y0.9805
G01 X1.0286 Y0.9266
G01 X1.0893 Y0.8768
G01 X1.1526 Y0.8346
G01 X1.2175 Y0.7999
G01 X1.2901 Y0.7699
G01 X1.3629 Y0.7479
G01 X1.4375 Y0.7332
G01 X1.5107 Y0.7260
G01 X1.5500 Y0.7250
G01 X29.6500 Y0.7250
G00 X29.6500 Y0.7250
G01 F40.00
G01 Z-1.5000
G01 F20.00
G01 X1.5500 Y0.7250
G01 X1.5107 Y0.7260
G01 X1.4375 Y0.7332
G01 X1.3629 Y0.7479
G01 X1.2901 Y0.7699
G01 X1.2175 Y0.7999
G01 X1.1526 Y0.8346
G01 X1.0893 Y0.8768
G01 X1.0286 Y0.9266
G01 X0.9750 Y0.9805
G01 X0.9268 Y1.0393
G01 X0.8859 Y1.1005
G01 X0.8489 Y1.1698
G01 X0.8199 Y1.2401
G01 X0.7985 Y1.3105
G01 X0.7832 Y1.3875
G01 X0.7759 Y1.4632
G01 X0.7750 Y1.5000
G01 X0.7750 Y15.6000
G00 Z2.0000
G00 X0.7750 Y17.4000
G01 F40.00
G01 Z-0.2000
G01 F20.00
G01 X0.7750 Y31.5000
G01 X0.7759 Y31.5368
G01 X0.7836 Y31.6149
G01 X0.7985 Y31.6895
G01 X0.8199 Y31.7599
G01 X0.8499 Y31.8325
G01 X0.8859 Y31.8995
G01 X0.9268 Y31.9607
G01 X0.9750 Y32.0195
G01 X1.0305 Y32.0750
G01 X1.0874 Y32.1217
G01 X1.1505 Y32.1641
G01 X1.2175 Y32.2001
G01 X1.2901 Y32.2301
G01 X1.3629 Y32.2521
G01 X1.4375 Y32.2668
G01 X1.5107 Y32.2740
G01 X1.5500 Y32.2750
G01 X29.6500 Y32.2750
G00 X29.6500 Y32.2750
G01 F40.00
G01 Z-0.4000
G01 F20.00
G01 X1.5500 Y32.2750
G01 X1.5107 Y32.2740
G01 X1.4375 Y32.2668
G01 X1.3629 Y32.2521
G01 X1.2901 Y32.2301
G01 X1.2175 Y32.2001
G01 X1.1505 Y32.1641
G01 X1.0874 Y32.1217
G01 X1.0305 Y32.0750
G01 X0.9750 Y32.0195
G01 X0.9268 Y31.9607
G01 X0.8859 Y31.8995
G01 X0.8499 Y31.8325
G01 X0.8199 Y31.7599
G01 X0.7985 Y31.6895
G01 X0.7836 Y31.6149
G01 X0.7759 Y31.5368
G01 X0.7750 Y31.5000
G01 X0.7750 Y17.4000
G00 X0.7750 Y17.4000
G01 F40.00
G01 Z-0.6000
G01 F20.00
G01 X0.7750 Y31.5000
G01 X0.7759 Y31.5368
G01 X0.7836 Y31.6149
G01 X0.7985 Y31.6895
G01 X0.8199 Y31.7599
G01 X0.8499 Y31.8325
G01 X0.8859 Y31.8995
G01 X0.9268 Y31.9607
G01 X0.9750 Y32.0195
G01 X1.0305 Y32.0750
G01 X1.0874 Y32.1217
G01 X1.1505 Y32.1641
G01 X1.2175 Y32.2001
G01 X1.2901 Y32.2301
G01 X1.3629 Y32.2521
G01 X1.4375 Y32.2668
G01 X1.5107 Y32.2740
G01 X1.5500 Y32.2750
G01 X29.6500 Y32.2750
G00 X29.6500 Y32.2750
G01 F40.00
G01 Z-0.8000
G01 F20.00
G01 X1.5500 Y32.2750
G01 X1.5107 Y32.2740
G01 X1.4375 Y32.2668
G01 X1.3629 Y32.2521
G01 X1.2901 Y32.2301
G01 X1.2175 Y32.2001
G01 X1.1505 Y32.1641
G01 X1.0874 Y32.1217
G01 X1.0305 Y32.0750
G01 X0.9750 Y32.0195
G01 X0.9268 Y31.9607
G01 X0.8859 Y31.8995
G01 X0.8499 Y31.8325
G01 X0.8199 Y31.7599
G01 X0.7985 Y31.6895
G01 X0.7836 Y31.6149
G01 X0.7759 Y31.5368
G01 X0.7750 Y31.5000
G01 X0.7750 Y17.4000
G00 X0.7750 Y17.4000
G01 F40.00
G01 Z-1.0000
G01 F20.00
G01 X0.7750 Y31.5000
G01 X0.7759 Y31.5368
G01 X0.7836 Y31.6149
G01 X0.7985 Y31.6895
G01 X0.8199 Y31.7599
G01 X0.8499 Y31.8325
G01 X0.8859 Y31.8995
G01 X0.9268 Y31.9607
G01 X0.9750 Y32.0195
G01 X1.0305 Y32.0750
G01 X1.0874 Y32.1217
G01 X1.1505 Y32.1641
G01 X1.2175 Y32.2001
G01 X1.2901 Y32.2301
G01 X1.3629 Y32.2521
G01 X1.4375 Y32.2668
G01 X1.5107 Y32.2740
G01 X1.5500 Y32.2750
G01 X29.6500 Y32.2750
G00 X29.6500 Y32.2750
G01 F40.00
G01 Z-1.2000
G01 F20.00
G01 X1.5500 Y32.2750
G01 X1.5107 Y32.2740
G01 X1.4375 Y32.2668
G01 X1.3629 Y32.2521
G01 X1.2901 Y32.2301
G01 X1.2175 Y32.2001
G01 X1.1505 Y32.1641
G01 X1.0874 Y32.1217
G01 X1.0305 Y32.0750
G01 X0.9750 Y32.0195
G01 X0.9268 Y31.9607
G01 X0.8859 Y31.8995
G01 X0.8499 Y31.8325
G01 X0.8199 Y31.7599
G01 X0.7985 Y31.6895
G01 X0.7836 Y31.6149
G01 X0.7759 Y31.5368
G01 X0.7750 Y31.5000
G01 X0.7750 Y17.4000
G00 X0.7750 Y17.4000
G01 F40.00
G01 Z-1.4000
G01 F20.00
G01 X0.7750 Y31.5000
G01 X0.7759 Y31.5368
G01 X0.7836 Y31.6149
G01 X0.7985 Y31.6895
G01 X0.8199 Y31.7599
G01 X0.8499 Y31.8325
G01 X0.8859 Y31.8995
G01 X0.9268 Y31.9607
G01 X0.9750 Y32.0195
G01 X1.0305 Y32.0750
G01 X1.0874 Y32.1217
G01 X1.1505 Y32.1641
G01 X1.2175 Y32.2001
G01 X1.2901 Y32.2301
G01 X1.3629 Y32.2521
G01 X1.4375 Y32.2668
G01 X1.5107 Y32.2740
G01 X1.5500 Y32.2750
G01 X29.6500 Y32.2750
G00 X29.6500 Y32.2750
G01 F40.00
G01 Z-1.5000
G01 F20.00
G01 X1.5500 Y32.2750
G01 X1.5107 Y32.2740
G01 X1.4375 Y32.2668
G01 X1.3629 Y32.2521
G01 X1.2901 Y32.2301
G01 X1.2175 Y32.2001
G01 X1.1505 Y32.1641
G01 X1.0874 Y32.1217
G01 X1.0305 Y32.0750
G01 X0.9750 Y32.0195
G01 X0.9268 Y31.9607
G01 X0.8859 Y31.8995
G01 X0.8499 Y31.8325
G01 X0.8199 Y31.7599
G01 X0.7985 Y31.6895
G01 X0.7836 Y31.6149
G01 X0.7759 Y31.5368
G01 X0.7750 Y31.5000
G01 X0.7750 Y17.4000
G00 Z2.0000
G00 X31.4500 Y32.2750
G01 F40.00
G01 Z-0.2000
G01 F20.00
G01 X59.5500 Y32.2750
G01 X59.5893 Y32.2740
G01 X59.6625 Y32.2668
G01 X59.7371 Y32.2521
G01 X59.8122 Y32.2293
G01 X59.8825 Y32.2001
G01 X59.9495 Y32.1641
G01 X60.0107 Y32.1232
G01 X60.0714 Y32.0734
G01 X60.1234 Y32.0214
G01 X60.1717 Y31.9626
G01 X60.2141 Y31.8995
G01 X60.2511 Y31.8302
G01 X60.2801 Y31.7599
G01 X60.3015 Y31.6895
G01 X60.3168 Y31.6125
G01 X60.3241 Y31.5368
G01 X60.3250 Y31.5000
G01 X60.3250 Y17.4000
G00 X60.3250 Y17.4000
G01 F40.00
G01 Z-0.4000
G01 F20.00
G01 X60.3250 Y31.5000
G01 X60.3241 Y31.5368
G01 X60.3168 Y31.6125
G01 X60.3015 Y31.6895
G01 X60.2801 Y31.7599
G01 X60.2511 Y31.8302
G01 X60.2141 Y31.8995
G01 X60.1717 Y31.9626
G01 X60.1234 Y32.0214
G01 X60.0714 Y32.0734
G01 X60.0107 Y32.1232
G01 X59.9495 Y32.1641
G01 X59.8825 Y32.2001
G01 X59.8122 Y32.2293
G01 X59.7371 Y32.2521
G01 X59.6625 Y32.2668
G01 X59.5893 Y32.2740
G01 X59.5500 Y32.2750
G01 X31.4500 Y32.2750
G00 X31.4500 Y32.2750
G01 F40.00
G01 Z-0.6000
G01 F20.00
G01 X59.5500 Y32.2750
G01 X59.5893 Y32.2740
G01 X59.6625 Y32.2668
G01 X59.7371 Y32.2521
G01 X59.8122 Y32.2293
G01 X59.8825 Y32.2001
G01 X59.9495 Y32.1641
G01 X60.0107 Y32.1232
G01 X60.0714 Y32.0734
G01 X60.1234 Y32.0214
G01 X60.1717 Y31.9626
G01 X60.2141 Y31.8995
G01 X60.2511 Y31.8302
G01 X60.2801 Y31.7599
G01 X60.3015 Y31.6895
G01 X60.3168 Y31.6125
G01 X60.3241 Y31.5368
G01 X60.3250 Y31.5000
G01 X60.3250 Y17.4000
G00 X60.3250 Y17.4000
G01 F40.00
G01 Z-0.8000
G01 F20.00
G01 X60.3250 Y31.5000
G01 X60.3241 Y31.5368
G01 X60.3168 Y31.6125
G01 X60.3015 Y31.6895
G01 X60.2801 Y31.7599
G01 X60.2511 Y31.8302
G01 X60.2141 Y31.8995
G01 X60.1717 Y31.9626
G01 X60.1234 Y32.0214
G01 X60.0714 Y32.0734
G01 X60.0107 Y32.1232
G01 X59.9495 Y32.1641
G01 X59.8825 Y32.2001
G01 X59.8122 Y32.2293
G01 X59.7371 Y32.2521
G01 X59.6625 Y32.2668
G01 X59.5893 Y32.2740
G01 X59.5500 Y32.2750
G01 X31.4500 Y32.2750
G00 X31.4500 Y32.2750
G01 F40.00
G01 Z-1.0000
G01 F20.00
G01 X59.5500 Y32.2750
G01 X59.5893 Y32.2740
G01 X59.6625 Y32.2668
G01 X59.7371 Y32.2521
G01 X59.8122 Y32.2293
G01 X59.8825 Y32.2001
G01 X59.9495 Y32.1641
G01 X60.0107 Y32.1232
G01 X60.0714 Y32.0734
G01 X60.1234 Y32.0214
G01 X60.1717 Y31.9626
G01 X60.2141 Y31.8995
G01 X60.2511 Y31.8302
G01 X60.2801 Y31.7599
G01 X60.3015 Y31.6895
G01 X60.3168 Y31.6125
G01 X60.3241 Y31.5368
G01 X60.3250 Y31.5000
G01 X60.3250 Y17.4000
G00 X60.3250 Y17.4000
G01 F40.00
G01 Z-1.2000
G01 F20.00
G01 X60.3250 Y31.5000
G01 X60.3241 Y31.5368
G01 X60.3168 Y31.6125
G01 X60.3015 Y31.6895
G01 X60.2801 Y31.7599
G01 X60.2511 Y31.8302
G01 X60.2141 Y31.8995
G01 X60.1717 Y31.9626
G01 X60.1234 Y32.0214
G01 X60.0714 Y32.0734
G01 X60.0107 Y32.1232
G01 X59.9495 Y32.1641
G01 X59.8825 Y32.2001
G01 X59.8122 Y32.2293
G01 X59.7371 Y32.2521
G01 X59.6625 Y32.2668
G01 X59.5893 Y32.2740
G01 X59.5500 Y32.2750
G01 X31.4500 Y32.2750
G00 X31.4500 Y32.2750
G01 F40.00
G01 Z-1.4000
G01 F20.00
G01 X59.5500 Y32.2750
G01 X59.5893 Y32.2740
G01 X59.6625 Y32.2668
G01 X59.7371 Y32.2521
G01 X59.8122 Y32.2293
G01 X59.8825 Y32.2001
G01 X59.9495 Y32.1641
G01 X60.0107 Y32.1232
G01 X60.0714 Y32.0734
G01 X60.1234 Y32.0214
G01 X60.1717 Y31.9626
G01 X60.2141 Y31.8995
G01 X60.2511 Y31.8302
G01 X60.2801 Y31.7599
G01 X60.3015 Y31.6895
G01 X60.3168 Y31.6125
G01 X60.3241 Y31.5368
G01 X60.3250 Y31.5000
G01 X60.3250 Y17.4000
G00 X60.3250 Y17.4000
G01 F40.00
G01 Z-1.5000
G01 F20.00
G01 X60.3250 Y31.5000
G01 X60.3241 Y31.5368
G01 X60.3168 Y31.6125
G01 X60.3015 Y31.6895
G01 X60.2801 Y31.7599
G01 X60.2511 Y31.8302
G01 X60.2141 Y31.8995
G01 X60.1717 Y31.9626
G01 X60.1234 Y32.0214
G01 X60.0714 Y32.0734
G01 X60.0107 Y32.1232
G01 X59.9495 Y32.1641
G01 X59.8825 Y32.2001
G01 X59.8122 Y32.2293
G01 X59.7371 Y32.2521
G01 X59.6625 Y32.2668
G01 X59.5893 Y32.2740
G01 X59.5500 Y32.2750
G01 X31.4500 Y32.2750
G00 Z2.0000
G00 X60.3250 Y15.6000
G01 F40.00
G01 Z-0.2000
G01 F20.00
G01 X60.3250 Y1.5000
G01 X60.3241 Y1.4632
G01 X60.3164 Y1.3851
G01 X60.3015 Y1.3105
G01 X60.2801 Y1.2401
G01 X60.2501 Y1.1675
G01 X60.2141 Y1.1005
G01 X60.1732 Y1.0393
G01 X60.1250 Y0.9805
G01 X60.0695 Y0.9250
G01 X60.0107 Y0.8768
G01 X59.9495 Y0.8359
G01 X59.8825 Y0.7999
G01 X59.8122 Y0.7707
G01 X59.7371 Y0.7479
G01 X59.6625 Y0.7332
G01 X59.5893 Y0.7260
G01 X59.5500 Y0.7250
G01 X31.4500 Y0.7250
G00 X31.4500 Y0.7250
G01 F40.00
G01 Z-0.4000
G01 F20.00
G01 X59.5500 Y0.7250
G01 X59.5893 Y0.7260
G01 X59.6625 Y0.7332
G01 X59.7371 Y0.7479
G01 X59.8122 Y0.7707
G01 X59.8825 Y0.7999
G01 X59.9495 Y0.8359
G01 X60.0107 Y0.8768
G01 X60.0695 Y0.9250
G01 X60.1250 Y0.9805
G01 X60.1732 Y1.0393
G01 X60.2141 Y1.1005
G01 X60.2501 Y1.1675
G01 X60.2801 Y1.2401
G01 X60.3015 Y1.3105
G01 X60.3164 Y1.3851
G01 X60.3241 Y1.4632
G01 X60.3250 Y1.5000
G01 X60.3250 Y15.6000
G00 X60.3250 Y15.6000
G01 F40.00
G01 Z-0.6000
G01 F20.00
G01 X60.3250 Y1.5000
G01 X60.3241 Y1.4632
G01 X60.3164 Y1.3851
G01 X60.3015 Y1.3105
G01 X60.2801 Y1.2401
G01 X60.2501 Y1.1675
G01 X60.2141 Y1.1005
G01 X60.1732 Y1.0393
G01 X60.1250 Y0.9805
G01 X60.0695 Y0.9250
G01 X60.0107 Y0.8768
G01 X59.9495 Y0.8359
G01 X59.8825 Y0.7999
G01 X59.8122 Y0.7707
G01 X59.7371 Y0.7479
G01 X59.6625 Y0.7332
G01 X59.5893 Y0.7260
G01 X59.5500 Y0.7250
G01 X31.4500 Y0.7250
G00 X31.4500 Y0.7250
G01 F40.00
G01 Z-0.8000
G01 F20.00
G01 X59.5500 Y0.7250
G01 X59.5893 Y0.7260
G01 X59.6625 Y0.7332
G01 X59.7371 Y0.7479
G01 X59.8122 Y0.7707
G01 X59.8825 Y0.7999
G01 X59.9495 Y0.8359
G01 X60.0107 Y0.8768
G01 X60.0695 Y0.9250
G01 X60.1250 Y0.9805
G01 X60.1732 Y1.0393
G01 X60.2141 Y1.1005
G01 X60.2501 Y1.1675
G01 X60.2801 Y1.2401
G01 X60.3015 Y1.3105
G01 X60.3164 Y1.3851
G01 X60.3241 Y1.4632
G01 X60.3250 Y1.5000
G01 X60.3250 Y15.6000
G00 X60.3250 Y15.6000
G01 F40.00
G01 Z-1.0000
G01 F20.00
G01 X60.3250 Y1.5000
G01 X60.3241 Y1.4632
G01 X60.3164 Y1.3851
G01 X60.3015 Y1.3105
G01 X60.2801 Y1.2401
G01 X60.2501 Y1.1675
G01 X60.2141 Y1.1005
G01 X60.1732 Y1.0393
G01 X60.1250 Y0.9805
G01 X60.0695 Y0.9250
G01 X60.0107 Y0.8768
G01 X59.9495 Y0.8359
G01 X59.8825 Y0.7999
G01 X59.8122 Y0.7707
G01 X59.7371 Y0.7479
G01 X59.6625 Y0.7332
G01 X59.5893 Y0.7260
G01 X59.5500 Y0.7250
G01 X31.4500 Y0.7250
G00 X31.4500 Y0.7250
G01 F40.00
G01 Z-1.2000
G01 F20.00
G01 X59.5500 Y0.7250
G01 X59.5893 Y0.7260
G01 X59.6625 Y0.7332
G01 X59.7371 Y0.7479
G01 X59.8122 Y0.7707
G01 X59.8825 Y0.7999
G01 X59.9495 Y0.8359
G01 X60.0107 Y0.8768
G01 X60.0695 Y0.9250
G01 X60.1250 Y0.9805
G01 X60.1732 Y1.0393
G01 X60.2141 Y1.1005
G01 X60.2501 Y1.1675
G01 X60.2801 Y1.2401
G01 X60.3015 Y1.3105
G01 X60.3164 Y1.3851
G01 X60.3241 Y1.4632
G01 X60.3250 Y1.5000
G01 X60.3250 Y15.6000
G00 X60.3250 Y15.6000
G01 F40.00
G01 Z-1.4000
G01 F20.00
G01 X60.3250 Y1.5000
G01 X60.3241 Y1.4632
G01 X60.3164 Y1.3851
G01 X60.3015 Y1.3105
G01 X60.2801 Y1.2401
G01 X60.2501 Y1.1675
G01 X60.2141 Y1.1005
G01 X60.1732 Y1.0393
G01 X60.1250 Y0.9805
G01 X60.0695 Y0.9250
G01 X60.0107 Y0.8768
G01 X59.9495 Y0.8359
G01 X59.8825 Y0.7999
G01 X59.8122 Y0.7707
G01 X59.7371 Y0.7479
G01 X59.6625 Y0.7332
G01 X59.5893 Y0.7260
G01 X59.5500 Y0.7250
G01 X31.4500 Y0.7250
G00 X31.4500 Y0.7250
G01 F40.00
G01 Z-1.5000
G01 F20.00
G01 X59.5500 Y0.7250
G01 X59.5893 Y0.7260
G01 X59.6625 Y0.7332
G01 X59.7371 Y0.7479
G01 X59.8122 Y0.7707
G01 X59.8825 Y0.7999
G01 X59.9495 Y0.8359
G01 X60.0107 Y0.8768
G01 X60.0695 Y0.9250
G01 X60.1250 Y0.9805
G01 X60.1732 Y1.0393
G01 X60.2141 Y1.1005
G01 X60.2501 Y1.1675
G01 X60.2801 Y1.2401
G01 X60.3015 Y1.3105
G01 X60.3164 Y1.3851
G01 X60.3241 Y1.4632
G01 X60.3250 Y1.5000
G01 X60.3250 Y15.6000
G00 Z2.0000
M05
G00 Z2.0000
G00 Z15.00


