(G-CODE GENERATED BY FLATCAM v8.994 - www.flatcam.org - Version Date: 2020/11/7)

(Name: ADCandDAC-F_Cu.gbr_iso_combined_cnc)
(Type: G-code from Geometry)
(Units: MM)

(Created on Аўторак, 24 лістапада 2020 at 12:08)

(This preprocessor is the default preprocessor used by FlatCAM.)
(It is made to work with MACH3 compatible motion controllers.)

(TOOL DIAMETER: 0.1536 mm)
(Feedrate_XY: 35.0 mm/min)
(Feedrate_Z: 40.0 mm/min)
(Feedrate rapids 1500.0 mm/min)

(Z_Cut: -0.1 mm)
(Z_Move: 2.0 mm)
(Z Start: None mm)
(Z End: 10.0 mm)
(X,Y End: None mm)
(Steps per circle: 64)
(Preprocessor Geometry: default)

(X range:    3.0884 ...   58.3944  mm)
(Y range:    2.3467 ...   30.5636  mm)

(Spindle Speed: 10000.0 RPM)
G21
G90
G94

G01 F35.00

M5
G00 Z15.0000
G00 X0.0000 Y0.0000
T2
M6    
(MSG, Change to Tool Dia = 0.1536)
M0
G00 Z15.0000

M03 S10000.0
G01 F35.00
G00 X4.0419 Y4.9463
G01 F40.00
G01 Z-0.1000
G01 F35.00
G01 X5.6880 Y3.3003
G01 X13.9676 Y3.3002
G01 X13.9527 Y3.3317
G01 X13.9403 Y3.3666
G01 X13.9313 Y3.4025
G01 X13.9257 Y3.4409
G01 X13.9241 Y3.4760
G01 X13.9241 Y3.9384
G01 X13.9152 Y3.9392
G01 X13.8910 Y3.9428
G01 X13.8836 Y3.9443
G01 X13.8561 Y3.9513
G01 X13.8259 Y3.9621
G01 X13.7969 Y3.9758
G01 X13.7726 Y3.9903
G01 X13.7664 Y3.9944
G01 X13.7467 Y4.0091
G01 X13.7408 Y4.0138
G01 X13.7199 Y4.0329
G01 X13.6984 Y4.0567
G01 X13.6793 Y4.0824
G01 X13.6646 Y4.1067
G01 X13.6611 Y4.1133
G01 X13.6506 Y4.1355
G01 X13.6477 Y4.1425
G01 X13.6383 Y4.1691
G01 X13.6301 Y4.2021
G01 X13.6258 Y4.2320
G01 X13.6242 Y4.2640
G01 X13.6242 Y5.1640
G01 X13.6258 Y5.1960
G01 X13.6305 Y5.2278
G01 X13.6383 Y5.2589
G01 X13.6491 Y5.2891
G01 X13.6628 Y5.3181
G01 X13.6793 Y5.3456
G01 X13.6984 Y5.3713
G01 X13.7173 Y5.3924
G01 X13.7226 Y5.3977
G01 X13.7437 Y5.4166
G01 X13.7694 Y5.4357
G01 X13.7969 Y5.4522
G01 X13.8225 Y5.4644
G01 X13.8295 Y5.4673
G01 X13.8561 Y5.4767
G01 X13.8836 Y5.4837
G01 X13.8910 Y5.4852
G01 X13.9208 Y5.4894
G01 X13.9491 Y5.4908
G01 X13.9775 Y5.4908
G01 X13.9776 Y6.3278
G01 X13.9532 Y6.3315
G01 X13.9221 Y6.3393
G01 X13.8919 Y6.3501
G01 X13.8663 Y6.3621
G01 X13.8597 Y6.3656
G01 X13.8386 Y6.3783
G01 X13.8324 Y6.3824
G01 X13.8097 Y6.3994
G01 X13.7859 Y6.4209
G01 X13.7644 Y6.4447
G01 X13.7474 Y6.4674
G01 X13.7433 Y6.4736
G01 X13.7306 Y6.4947
G01 X13.7271 Y6.5013
G01 X13.7151 Y6.5269
G01 X13.7043 Y6.5571
G01 X13.6965 Y6.5882
G01 X13.6922 Y6.6162
G01 X13.6915 Y6.6237
G01 X13.6902 Y6.6520
G01 X13.6902 Y7.6020
G01 X13.6918 Y7.6340
G01 X13.6965 Y7.6658
G01 X13.7043 Y7.6969
G01 X13.7137 Y7.7235
G01 X13.7166 Y7.7305
G01 X13.7288 Y7.7561
G01 X13.7433 Y7.7804
G01 X13.7474 Y7.7866
G01 X13.7621 Y7.8063
G01 X13.7668 Y7.8122
G01 X13.7859 Y7.8331
G01 X13.8097 Y7.8546
G01 X13.8354 Y7.8737
G01 X13.8629 Y7.8902
G01 X13.8919 Y7.9039
G01 X13.9221 Y7.9147
G01 X13.9532 Y7.9225
G01 X13.9775 Y7.9262
G01 X13.9776 Y8.2194
G01 X13.2875 Y8.9095
G01 X13.2626 Y8.9369
G01 X13.2395 Y8.9682
G01 X13.2234 Y8.9950
G01 X13.2199 Y9.0017
G01 X13.2057 Y9.0317
G01 X13.1945 Y9.0630
G01 X13.1923 Y9.0702
G01 X13.1843 Y9.1025
G01 X13.1791 Y9.1372
G01 X13.1771 Y9.1760
G01 X13.1771 Y9.5052
G01 X12.7290 Y9.5052
G01 X12.7049 Y9.5065
G01 X12.6848 Y9.5096
G01 X12.6632 Y9.5150
G01 X12.6422 Y9.5225
G01 X12.6221 Y9.5320
G01 X12.6030 Y9.5434
G01 X12.5851 Y9.5567
G01 X12.5686 Y9.5716
G01 X12.5537 Y9.5881
G01 X12.5404 Y9.6060
G01 X12.5308 Y9.6218
G01 X12.5273 Y9.6285
G01 X12.5195 Y9.6452
G01 X12.5120 Y9.6662
G01 X12.5074 Y9.6841
G01 X12.5059 Y9.6915
G01 X12.5033 Y9.7098
G01 X12.5022 Y9.7320
G01 X12.5022 Y10.0320
G01 X12.5030 Y10.0505
G01 X12.5035 Y10.0561
G01 X12.5059 Y10.0725
G01 X12.5074 Y10.0799
G01 X12.5120 Y10.0978
G01 X12.5202 Y10.1205
G01 X12.5290 Y10.1389
G01 X12.5404 Y10.1580
G01 X12.5537 Y10.1759
G01 X12.5673 Y10.1910
G01 X12.5851 Y10.2073
G01 X12.5999 Y10.2184
G01 X12.6046 Y10.2216
G01 X12.6188 Y10.2302
G01 X12.6255 Y10.2337
G01 X12.6422 Y10.2415
G01 X12.6632 Y10.2490
G01 X12.6848 Y10.2544
G01 X12.7049 Y10.2575
G01 X12.7290 Y10.2588
G01 X14.3809 Y10.2588
G01 X14.4012 Y10.2577
G01 X14.4195 Y10.2551
G01 X14.4269 Y10.2536
G01 X14.4466 Y10.2485
G01 X14.4658 Y10.2415
G01 X14.4842 Y10.2329
G01 X14.5018 Y10.2226
G01 X14.5081 Y10.2184
G01 X14.5229 Y10.2073
G01 X14.5394 Y10.1924
G01 X14.5543 Y10.1759
G01 X14.5654 Y10.1611
G01 X14.5696 Y10.1548
G01 X14.5799 Y10.1372
G01 X14.5885 Y10.1188
G01 X14.5955 Y10.0996
G01 X14.6006 Y10.0799
G01 X14.6021 Y10.0725
G01 X14.6047 Y10.0542
G01 X14.6058 Y10.0339
G01 X14.6058 Y9.7301
G01 X14.6045 Y9.7079
G01 X14.6018 Y9.6896
G01 X14.6006 Y9.6841
G01 X14.5960 Y9.6662
G01 X14.5899 Y9.6487
G01 X14.5878 Y9.6435
G01 X14.5807 Y9.6285
G01 X14.5772 Y9.6218
G01 X14.5676 Y9.6060
G01 X14.5543 Y9.5881
G01 X14.5394 Y9.5716
G01 X14.5257 Y9.5591
G01 X14.5199 Y9.5544
G01 X14.5066 Y9.5445
G01 X14.5018 Y9.5414
G01 X14.4859 Y9.5320
G01 X14.4692 Y9.5240
G01 X14.4623 Y9.5211
G01 X14.4448 Y9.5150
G01 X14.4232 Y9.5096
G01 X14.4012 Y9.5063
G01 X14.3790 Y9.5052
G01 X13.9310 Y9.5052
G01 X13.9309 Y9.3321
G01 X14.6210 Y8.6420
G01 X14.6459 Y8.6146
G01 X14.6690 Y8.5833
G01 X14.6851 Y8.5565
G01 X14.6886 Y8.5498
G01 X14.7028 Y8.5198
G01 X14.7140 Y8.4885
G01 X14.7162 Y8.4813
G01 X14.7242 Y8.4490
G01 X14.7296 Y8.4124
G01 X14.7314 Y8.3755
G01 X14.7314 Y7.9262
G01 X14.7558 Y7.9225
G01 X14.7869 Y7.9147
G01 X14.8171 Y7.9039
G01 X14.8427 Y7.8919
G01 X14.8493 Y7.8884
G01 X14.8704 Y7.8757
G01 X14.8766 Y7.8716
G01 X14.8993 Y7.8546
G01 X14.9217 Y7.8344
G01 X14.9422 Y7.8122
G01 X14.9469 Y7.8063
G01 X14.9637 Y7.7836
G01 X14.9802 Y7.7561
G01 X14.9939 Y7.7271
G01 X15.0035 Y7.7004
G01 X15.0057 Y7.6932
G01 X15.0117 Y7.6694
G01 X15.0132 Y7.6620
G01 X15.0172 Y7.6340
G01 X15.0188 Y7.6020
G01 X15.0188 Y6.6520
G01 X15.0172 Y6.6200
G01 X15.0125 Y6.5882
G01 X15.0047 Y6.5571
G01 X14.9953 Y6.5305
G01 X14.9924 Y6.5235
G01 X14.9802 Y6.4979
G01 X14.9637 Y6.4704
G01 X14.9469 Y6.4477
G01 X14.9422 Y6.4418
G01 X14.9257 Y6.4236
G01 X14.9204 Y6.4183
G01 X14.8993 Y6.3994
G01 X14.8766 Y6.3824
G01 X14.8704 Y6.3783
G01 X14.8493 Y6.3656
G01 X14.8427 Y6.3621
G01 X14.8171 Y6.3501
G01 X14.7869 Y6.3393
G01 X14.7558 Y6.3315
G01 X14.7315 Y6.3278
G01 X14.7314 Y5.4804
G01 X14.7477 Y5.4762
G01 X14.7778 Y5.4652
G01 X14.8051 Y5.4522
G01 X14.8310 Y5.4368
G01 X14.8553 Y5.4189
G01 X14.8612 Y5.4142
G01 X14.8821 Y5.3951
G01 X14.9048 Y5.3698
G01 X14.9227 Y5.3456
G01 X14.9392 Y5.3181
G01 X14.9529 Y5.2891
G01 X14.9625 Y5.2624
G01 X14.9647 Y5.2552
G01 X14.9707 Y5.2314
G01 X14.9722 Y5.2240
G01 X14.9762 Y5.1960
G01 X14.9778 Y5.1659
G01 X14.9778 Y4.2640
G01 X14.9762 Y4.2320
G01 X14.9722 Y4.2040
G01 X14.9707 Y4.1966
G01 X14.9637 Y4.1691
G01 X14.9529 Y4.1389
G01 X14.9392 Y4.1099
G01 X14.9247 Y4.0856
G01 X14.9206 Y4.0794
G01 X14.9059 Y4.0597
G01 X14.9012 Y4.0538
G01 X14.8821 Y4.0329
G01 X14.8598 Y4.0126
G01 X14.8356 Y3.9944
G01 X14.8294 Y3.9903
G01 X14.8051 Y3.9758
G01 X14.7761 Y3.9621
G01 X14.7459 Y3.9513
G01 X14.7184 Y3.9443
G01 X14.7110 Y3.9428
G01 X14.6868 Y3.9392
G01 X14.6780 Y3.9384
G01 X14.6779 Y3.4906
G01 X14.7828 Y3.3858
G01 X14.7998 Y3.3671
G01 X14.8151 Y3.3469
G01 X14.8193 Y3.3407
G01 X14.8312 Y3.3205
G01 X14.8409 Y3.3003
G01 X54.1565 Y3.3002
G01 X57.4408 Y6.5846
G01 X57.4409 Y9.0741
G01 X56.5763 Y9.0742
G01 X56.5763 Y9.0242
G01 X56.5750 Y8.9978
G01 X56.5743 Y8.9903
G01 X56.5700 Y8.9623
G01 X56.5632 Y8.9349
G01 X56.5610 Y8.9277
G01 X56.5507 Y8.8993
G01 X56.5377 Y8.8720
G01 X56.5232 Y8.8477
G01 X56.5191 Y8.8415
G01 X56.5021 Y8.8188
G01 X56.4806 Y8.7950
G01 X56.4597 Y8.7759
G01 X56.4538 Y8.7712
G01 X56.4295 Y8.7533
G01 X56.4068 Y8.7397
G01 X56.4002 Y8.7362
G01 X56.3746 Y8.7242
G01 X56.3479 Y8.7146
G01 X56.3407 Y8.7124
G01 X56.3133 Y8.7056
G01 X56.2834 Y8.7011
G01 X56.2495 Y8.6993
G01 X55.9889 Y8.6993
G01 X55.9889 Y8.2216
G01 X55.9878 Y8.1982
G01 X55.9871 Y8.1907
G01 X55.9836 Y8.1676
G01 X55.9770 Y8.1412
G01 X55.9678 Y8.1156
G01 X55.9553 Y8.0894
G01 X55.9422 Y8.0678
G01 X55.9284 Y8.0489
G01 X55.9236 Y8.0431
G01 X55.9078 Y8.0258
G01 X55.1867 Y7.3048
G01 X55.2158 Y7.2943
G01 X55.2414 Y7.2823
G01 X55.2480 Y7.2788
G01 X55.2723 Y7.2641
G01 X55.2980 Y7.2450
G01 X55.3191 Y7.2261
G01 X55.3244 Y7.2208
G01 X55.3433 Y7.1997
G01 X55.3624 Y7.1740
G01 X55.3771 Y7.1497
G01 X55.3806 Y7.1431
G01 X55.3926 Y7.1175
G01 X55.4022 Y7.0908
G01 X55.4044 Y7.0836
G01 X55.4112 Y7.0562
G01 X55.4159 Y7.0244
G01 X55.4175 Y6.9924
G01 X55.4175 Y6.0424
G01 X55.4162 Y6.0141
G01 X55.4155 Y6.0066
G01 X55.4119 Y5.9824
G01 X55.4104 Y5.9750
G01 X55.4034 Y5.9475
G01 X55.3926 Y5.9173
G01 X55.3806 Y5.8917
G01 X55.3771 Y5.8851
G01 X55.3624 Y5.8608
G01 X55.3433 Y5.8351
G01 X55.3218 Y5.8113
G01 X55.2980 Y5.7898
G01 X55.2723 Y5.7707
G01 X55.2448 Y5.7542
G01 X55.2158 Y5.7405
G01 X55.1856 Y5.7297
G01 X55.1545 Y5.7219
G01 X55.1246 Y5.7174
G01 X55.0907 Y5.7156
G01 X54.4157 Y5.7156
G01 X54.3818 Y5.7174
G01 X54.3519 Y5.7219
G01 X54.3245 Y5.7287
G01 X54.3173 Y5.7309
G01 X54.2942 Y5.7391
G01 X54.2872 Y5.7420
G01 X54.2616 Y5.7542
G01 X54.2341 Y5.7707
G01 X54.2084 Y5.7898
G01 X54.1873 Y5.8087
G01 X54.1820 Y5.8140
G01 X54.1655 Y5.8322
G01 X54.1608 Y5.8381
G01 X54.1440 Y5.8608
G01 X54.1275 Y5.8883
G01 X54.1138 Y5.9173
G01 X54.1042 Y5.9440
G01 X54.1020 Y5.9512
G01 X54.0948 Y5.9805
G01 X54.0905 Y6.0104
G01 X54.0889 Y6.0424
G01 X54.0889 Y6.9943
G01 X54.0902 Y7.0207
G01 X54.0909 Y7.0282
G01 X54.0952 Y7.0562
G01 X54.1020 Y7.0836
G01 X54.1042 Y7.0908
G01 X54.1138 Y7.1175
G01 X54.1284 Y7.1481
G01 X54.1440 Y7.1740
G01 X54.1608 Y7.1967
G01 X54.1655 Y7.2026
G01 X54.1846 Y7.2235
G01 X54.2084 Y7.2450
G01 X54.2311 Y7.2620
G01 X54.2373 Y7.2661
G01 X54.2584 Y7.2788
G01 X54.2650 Y7.2823
G01 X54.2906 Y7.2943
G01 X54.3173 Y7.3039
G01 X54.3245 Y7.3061
G01 X54.3538 Y7.3133
G01 X54.3837 Y7.3176
G01 X54.4119 Y7.3191
G01 X54.4821 Y7.3192
G01 X54.4882 Y7.3432
G01 X54.4960 Y7.3652
G01 X54.4989 Y7.3722
G01 X54.5090 Y7.3933
G01 X54.5209 Y7.4135
G01 X54.5251 Y7.4197
G01 X54.5392 Y7.4385
G01 X54.5561 Y7.4572
G01 X55.4351 Y8.3363
G01 X55.4351 Y8.6993
G01 X55.1745 Y8.6993
G01 X55.1443 Y8.7007
G01 X55.1145 Y8.7049
G01 X55.1071 Y8.7064
G01 X55.0796 Y8.7134
G01 X55.0494 Y8.7242
G01 X55.0204 Y8.7379
G01 X54.9961 Y8.7524
G01 X54.9899 Y8.7565
G01 X54.9672 Y8.7735
G01 X54.9461 Y8.7924
G01 X54.9408 Y8.7977
G01 X54.9243 Y8.8159
G01 X54.9196 Y8.8218
G01 X54.9028 Y8.8445
G01 X54.8863 Y8.8720
G01 X54.8726 Y8.9010
G01 X54.8618 Y8.9312
G01 X54.8548 Y8.9587
G01 X54.8533 Y8.9661
G01 X54.8493 Y8.9941
G01 X54.8477 Y9.0242
G01 X54.8477 Y9.8761
G01 X54.8490 Y9.9044
G01 X54.8497 Y9.9119
G01 X54.8533 Y9.9361
G01 X54.8548 Y9.9435
G01 X54.8618 Y9.9710
G01 X54.8726 Y10.0012
G01 X54.8863 Y10.0302
G01 X54.9008 Y10.0545
G01 X54.9049 Y10.0607
G01 X54.9231 Y10.0849
G01 X54.9434 Y10.1072
G01 X54.9672 Y10.1287
G01 X54.9929 Y10.1478
G01 X55.0204 Y10.1643
G01 X55.0494 Y10.1780
G01 X55.0796 Y10.1888
G01 X55.1107 Y10.1966
G01 X55.1443 Y10.2015
G01 X55.1745 Y10.2029
G01 X56.2495 Y10.2029
G01 X56.2815 Y10.2013
G01 X56.3133 Y10.1966
G01 X56.3444 Y10.1888
G01 X56.3746 Y10.1780
G01 X56.4036 Y10.1643
G01 X56.4311 Y10.1478
G01 X56.4568 Y10.1287
G01 X56.4806 Y10.1072
G01 X56.5033 Y10.0819
G01 X56.5212 Y10.0577
G01 X56.5377 Y10.0302
G01 X56.5514 Y10.0012
G01 X56.5628 Y9.9692
G01 X56.5700 Y9.9399
G01 X56.5747 Y9.9081
G01 X56.5763 Y9.8780
G01 X56.5763 Y9.8281
G01 X57.4408 Y9.8280
G01 X57.4409 Y16.0083
G01 X51.7509 Y16.0084
G01 X51.0447 Y15.3021
G01 X51.0446 Y14.4422
G01 X51.0431 Y14.4090
G01 X51.0424 Y14.4015
G01 X51.0374 Y14.3687
G01 X51.0294 Y14.3364
G01 X51.0272 Y14.3292
G01 X51.0160 Y14.2979
G01 X51.0018 Y14.2679
G01 X50.9983 Y14.2612
G01 X50.9811 Y14.2328
G01 X50.9591 Y14.2031
G01 X50.9342 Y14.1757
G01 X49.7150 Y12.9565
G01 X49.6905 Y12.9341
G01 X49.6847 Y12.9293
G01 X49.6579 Y12.9096
G01 X49.6262 Y12.8906
G01 X49.5928 Y12.8747
G01 X49.5615 Y12.8635
G01 X49.5543 Y12.8613
G01 X49.5220 Y12.8533
G01 X49.4892 Y12.8483
G01 X49.4817 Y12.8476
G01 X49.4504 Y12.8461
G01 X46.0801 Y12.8462
G01 X46.0616 Y12.8471
G01 X46.0560 Y12.8478
G01 X46.0378 Y12.8506
G01 X46.0198 Y12.8550
G01 X46.0126 Y12.8571
G01 X45.9952 Y12.8635
G01 X45.9734 Y12.8739
G01 X45.9576 Y12.8834
G01 X45.9529 Y12.8866
G01 X45.9381 Y12.8977
G01 X45.9230 Y12.9113
G01 X45.9067 Y12.9291
G01 X45.8956 Y12.9439
G01 X45.8914 Y12.9502
G01 X45.8829 Y12.9644
G01 X45.8803 Y12.9695
G01 X45.8725 Y12.9862
G01 X45.8661 Y13.0036
G01 X45.8640 Y13.0108
G01 X45.8596 Y13.0288
G01 X45.8561 Y13.0526
G01 X45.8552 Y13.0730
G01 X45.8552 Y13.3730
G01 X45.8562 Y13.3939
G01 X45.8585 Y13.4112
G01 X45.8598 Y13.4181
G01 X45.8639 Y13.4351
G01 X45.8699 Y13.4533
G01 X45.8775 Y13.4709
G01 X45.8806 Y13.4772
G01 X45.8892 Y13.4924
G01 X45.9010 Y13.5097
G01 X45.9144 Y13.5258
G01 X45.9266 Y13.5382
G01 X45.9425 Y13.5518
G01 X45.9482 Y13.5561
G01 X45.9626 Y13.5658
G01 X45.9809 Y13.5760
G01 X45.9968 Y13.5831
G01 X46.0034 Y13.5857
G01 X46.0199 Y13.5911
G01 X46.0403 Y13.5959
G01 X46.0611 Y13.5988
G01 X46.0820 Y13.5998
G01 X49.2924 Y13.5999
G01 X50.2907 Y14.5983
G01 X50.2908 Y15.4620
G01 X50.2923 Y15.4914
G01 X50.2930 Y15.4989
G01 X50.2980 Y15.5317
G01 X50.3060 Y15.5640
G01 X50.3082 Y15.5712
G01 X50.3194 Y15.6025
G01 X50.3344 Y15.6342
G01 X50.3523 Y15.6644
G01 X50.3564 Y15.6707
G01 X50.3763 Y15.6973
G01 X50.4012 Y15.7247
G01 X51.3310 Y16.6544
G01 X51.3557 Y16.6767
G01 X51.3854 Y16.6987
G01 X51.4171 Y16.7177
G01 X51.4471 Y16.7320
G01 X51.4541 Y16.7349
G01 X51.4818 Y16.7448
G01 X51.4890 Y16.7470
G01 X51.5213 Y16.7550
G01 X51.5597 Y16.7606
G01 X51.5948 Y16.7622
G01 X52.7168 Y16.7622
G01 X52.2173 Y17.2618
G01 X52.1924 Y17.2892
G01 X52.1725 Y17.3158
G01 X52.1684 Y17.3221
G01 X52.1514 Y17.3506
G01 X52.1355 Y17.3840
G01 X52.1243 Y17.4153
G01 X52.1221 Y17.4225
G01 X52.1141 Y17.4548
G01 X52.1087 Y17.4914
G01 X52.1069 Y17.5283
G01 X52.1069 Y22.6892
G01 X52.0805 Y22.6960
G01 X51.9811 Y22.7318
G01 X51.8873 Y22.7762
G01 X51.7982 Y22.8295
G01 X51.7148 Y22.8912
G01 X51.7089 Y22.8960
G01 X51.6335 Y22.9645
G01 X51.5625 Y23.0428
G01 X51.4996 Y23.1277
G01 X51.4471 Y23.2150
G01 X51.4436 Y23.2217
G01 X51.4001 Y23.3138
G01 X51.3645 Y23.4133
G01 X51.3396 Y23.5121
G01 X51.3381 Y23.5195
G01 X51.3231 Y23.6222
G01 X51.3181 Y23.7259
G01 X51.3230 Y23.8277
G01 X51.3237 Y23.8352
G01 X51.3381 Y23.9323
G01 X51.3396 Y23.9397
G01 X51.3645 Y24.0385
G01 X51.4001 Y24.1380
G01 X51.4452 Y24.2335
G01 X51.4985 Y24.3226
G01 X51.5625 Y24.4090
G01 X51.6309 Y24.4846
G01 X51.6362 Y24.4899
G01 X51.7133 Y24.5595
G01 X51.7967 Y24.6212
G01 X51.8856 Y24.6746
G01 X51.9811 Y24.7200
G01 X52.0179 Y24.7334
G01 X52.0180 Y25.3224
G01 X51.3140 Y26.0263
G01 X48.9668 Y26.0264
G01 X48.9631 Y26.0020
G01 X48.9553 Y25.9709
G01 X48.9445 Y25.9407
G01 X48.9325 Y25.9151
G01 X48.9290 Y25.9085
G01 X48.9163 Y25.8874
G01 X48.9122 Y25.8812
G01 X48.8952 Y25.8585
G01 X48.8763 Y25.8374
G01 X48.8710 Y25.8321
G01 X48.8528 Y25.8156
G01 X48.8469 Y25.8109
G01 X48.8242 Y25.7941
G01 X48.7967 Y25.7776
G01 X48.7711 Y25.7654
G01 X48.7641 Y25.7625
G01 X48.7375 Y25.7531
G01 X48.7082 Y25.7457
G01 X48.6746 Y25.7406
G01 X48.6426 Y25.7390
G01 X47.6926 Y25.7390
G01 X47.6606 Y25.7406
G01 X47.6288 Y25.7453
G01 X47.5977 Y25.7531
G01 X47.5711 Y25.7625
G01 X47.5641 Y25.7654
G01 X47.5385 Y25.7776
G01 X47.5142 Y25.7921
G01 X47.5080 Y25.7962
G01 X47.4883 Y25.8109
G01 X47.4824 Y25.8156
G01 X47.4615 Y25.8347
G01 X47.4400 Y25.8585
G01 X47.4209 Y25.8842
G01 X47.4044 Y25.9117
G01 X47.3907 Y25.9407
G01 X47.3799 Y25.9709
G01 X47.3721 Y26.0020
G01 X47.3684 Y26.0263
G01 X46.6808 Y26.0264
G01 X46.6771 Y26.0020
G01 X46.6693 Y25.9709
G01 X46.6585 Y25.9407
G01 X46.6465 Y25.9151
G01 X46.6430 Y25.9085
G01 X46.6303 Y25.8874
G01 X46.6262 Y25.8812
G01 X46.6092 Y25.8585
G01 X46.5903 Y25.8374
G01 X46.5850 Y25.8321
G01 X46.5668 Y25.8156
G01 X46.5609 Y25.8109
G01 X46.5382 Y25.7941
G01 X46.5107 Y25.7776
G01 X46.4851 Y25.7654
G01 X46.4781 Y25.7625
G01 X46.4515 Y25.7531
G01 X46.4222 Y25.7457
G01 X46.3886 Y25.7406
G01 X46.3566 Y25.7390
G01 X45.4066 Y25.7390
G01 X45.3746 Y25.7406
G01 X45.3428 Y25.7453
G01 X45.3117 Y25.7531
G01 X45.2851 Y25.7625
G01 X45.2781 Y25.7654
G01 X45.2525 Y25.7776
G01 X45.2282 Y25.7921
G01 X45.2220 Y25.7962
G01 X45.2023 Y25.8109
G01 X45.1964 Y25.8156
G01 X45.1755 Y25.8347
G01 X45.1540 Y25.8585
G01 X45.1349 Y25.8842
G01 X45.1184 Y25.9117
G01 X45.1047 Y25.9407
G01 X45.0939 Y25.9709
G01 X45.0861 Y26.0020
G01 X45.0824 Y26.0263
G01 X41.3727 Y26.0264
G01 X40.6815 Y25.3351
G01 X40.6814 Y20.2807
G01 X41.4559 Y19.5062
G01 X45.7942 Y19.5062
G01 X45.7942 Y19.5603
G01 X45.6442 Y19.5603
G01 X45.6141 Y19.5619
G01 X45.5842 Y19.5662
G01 X45.5512 Y19.5744
G01 X45.5210 Y19.5852
G01 X45.4920 Y19.5989
G01 X45.4661 Y19.6143
G01 X45.4388 Y19.6345
G01 X45.4177 Y19.6534
G01 X45.4124 Y19.6587
G01 X45.3959 Y19.6769
G01 X45.3912 Y19.6828
G01 X45.3744 Y19.7055
G01 X45.3579 Y19.7330
G01 X45.3442 Y19.7620
G01 X45.3339 Y19.7904
G01 X45.3264 Y19.8197
G01 X45.3249 Y19.8271
G01 X45.3209 Y19.8551
G01 X45.3193 Y19.8852
G01 X45.3194 Y20.5659
G01 X45.3209 Y20.5941
G01 X45.3249 Y20.6221
G01 X45.3264 Y20.6295
G01 X45.3334 Y20.6570
G01 X45.3428 Y20.6836
G01 X45.3457 Y20.6906
G01 X45.3579 Y20.7162
G01 X45.3724 Y20.7405
G01 X45.3765 Y20.7467
G01 X45.3935 Y20.7694
G01 X45.4150 Y20.7932
G01 X45.4388 Y20.8147
G01 X45.4615 Y20.8317
G01 X45.4677 Y20.8358
G01 X45.4920 Y20.8503
G01 X45.5176 Y20.8625
G01 X45.5246 Y20.8654
G01 X45.5477 Y20.8736
G01 X45.5549 Y20.8758
G01 X45.5823 Y20.8826
G01 X45.6122 Y20.8871
G01 X45.6461 Y20.8889
G01 X46.5961 Y20.8889
G01 X46.6281 Y20.8873
G01 X46.6599 Y20.8826
G01 X46.6873 Y20.8758
G01 X46.6945 Y20.8736
G01 X46.7212 Y20.8640
G01 X46.7502 Y20.8503
G01 X46.7745 Y20.8358
G01 X46.7807 Y20.8317
G01 X46.8034 Y20.8147
G01 X46.8272 Y20.7932
G01 X46.8463 Y20.7723
G01 X46.8510 Y20.7664
G01 X46.8678 Y20.7437
G01 X46.8843 Y20.7162
G01 X46.8965 Y20.6906
G01 X46.8994 Y20.6836
G01 X46.9094 Y20.6552
G01 X46.9166 Y20.6259
G01 X46.9209 Y20.5979
G01 X46.9216 Y20.5904
G01 X46.9229 Y20.5640
G01 X46.9229 Y19.8871
G01 X46.9211 Y19.8532
G01 X46.9166 Y19.8233
G01 X46.9088 Y19.7922
G01 X46.8980 Y19.7620
G01 X46.8860 Y19.7364
G01 X46.8825 Y19.7298
G01 X46.8698 Y19.7087
G01 X46.8657 Y19.7025
G01 X46.8487 Y19.6798
G01 X46.8298 Y19.6587
G01 X46.8245 Y19.6534
G01 X46.8034 Y19.6345
G01 X46.7807 Y19.6175
G01 X46.7745 Y19.6134
G01 X46.7502 Y19.5989
G01 X46.7212 Y19.5852
G01 X46.6910 Y19.5744
G01 X46.6580 Y19.5662
G01 X46.6281 Y19.5619
G01 X46.5980 Y19.5603
G01 X46.4480 Y19.5603
G01 X46.4480 Y19.5062
G01 X47.9601 Y19.5062
G01 X47.9602 Y19.7690
G01 X47.9617 Y19.7972
G01 X47.9657 Y19.8252
G01 X47.9672 Y19.8326
G01 X47.9732 Y19.8564
G01 X47.9754 Y19.8636
G01 X47.9850 Y19.8903
G01 X47.9970 Y19.9159
G01 X48.0005 Y19.9225
G01 X48.0152 Y19.9468
G01 X48.0320 Y19.9695
G01 X48.0367 Y19.9754
G01 X48.0532 Y19.9936
G01 X48.0585 Y19.9989
G01 X48.0796 Y20.0178
G01 X48.1053 Y20.0369
G01 X48.1328 Y20.0534
G01 X48.1601 Y20.0664
G01 X48.1920 Y20.0779
G01 X48.2231 Y20.0857
G01 X48.2549 Y20.0904
G01 X48.2850 Y20.0920
G01 X49.1387 Y20.0920
G01 X49.1635 Y20.0909
G01 X49.1706 Y20.0902
G01 X49.1970 Y20.0864
G01 X49.2246 Y20.0800
G01 X49.2516 Y20.0711
G01 X49.2582 Y20.0686
G01 X49.2826 Y20.0577
G01 X49.3089 Y20.0431
G01 X49.3310 Y20.0281
G01 X49.3366 Y20.0238
G01 X49.3571 Y20.0067
G01 X49.3784 Y19.9854
G01 X49.3955 Y19.9649
G01 X49.3998 Y19.9593
G01 X49.4148 Y19.9372
G01 X49.4294 Y19.9109
G01 X49.4416 Y19.8833
G01 X49.4502 Y19.8580
G01 X49.4521 Y19.8512
G01 X49.4584 Y19.8235
G01 X49.4623 Y19.7954
G01 X49.4637 Y19.7652
G01 X49.4637 Y18.6883
G01 X49.4621 Y18.6582
G01 X49.4581 Y18.6302
G01 X49.4566 Y18.6228
G01 X49.4506 Y18.5990
G01 X49.4484 Y18.5918
G01 X49.4388 Y18.5651
G01 X49.4251 Y18.5361
G01 X49.4086 Y18.5086
G01 X49.3918 Y18.4859
G01 X49.3871 Y18.4800
G01 X49.3706 Y18.4618
G01 X49.3653 Y18.4565
G01 X49.3442 Y18.4376
G01 X49.3185 Y18.4185
G01 X49.2910 Y18.4020
G01 X49.2654 Y18.3898
G01 X49.2584 Y18.3869
G01 X49.2300 Y18.3769
G01 X49.2007 Y18.3697
G01 X49.1727 Y18.3654
G01 X49.1652 Y18.3647
G01 X49.1388 Y18.3634
G01 X48.2850 Y18.3634
G01 X48.2586 Y18.3647
G01 X48.2511 Y18.3654
G01 X48.2231 Y18.3697
G01 X48.1957 Y18.3765
G01 X48.1885 Y18.3787
G01 X48.1618 Y18.3883
G01 X48.1328 Y18.4020
G01 X48.1053 Y18.4185
G01 X48.0826 Y18.4353
G01 X48.0767 Y18.4400
G01 X48.0558 Y18.4591
G01 X48.0367 Y18.4800
G01 X48.0320 Y18.4859
G01 X48.0152 Y18.5086
G01 X47.9987 Y18.5361
G01 X47.9850 Y18.5651
G01 X47.9742 Y18.5953
G01 X47.9672 Y18.6228
G01 X47.9657 Y18.6302
G01 X47.9617 Y18.6582
G01 X47.9601 Y18.6883
G01 X47.9601 Y18.8524
G01 X41.3205 Y18.8524
G01 X41.2866 Y18.8542
G01 X41.2567 Y18.8587
G01 X41.2292 Y18.8654
G01 X41.2220 Y18.8676
G01 X41.1954 Y18.8773
G01 X41.1664 Y18.8910
G01 X41.1421 Y18.9055
G01 X41.1358 Y18.9096
G01 X41.1117 Y18.9278
G01 X41.0893 Y18.9481
G01 X40.2056 Y19.8318
G01 X40.1933 Y19.8352
G01 X40.1585 Y19.8478
G01 X40.1268 Y19.8629
G01 X40.0935 Y19.8829
G01 X40.0654 Y19.9039
G01 X40.0380 Y19.9288
G01 X40.0131 Y19.9562
G01 X39.9932 Y19.9828
G01 X39.9891 Y19.9891
G01 X39.9721 Y20.0176
G01 X39.9578 Y20.0476
G01 X39.9549 Y20.0546
G01 X39.9438 Y20.0859
G01 X39.9356 Y20.1181
G01 X39.9341 Y20.1255
G01 X39.9294 Y20.1584
G01 X39.9276 Y20.1953
G01 X39.9276 Y20.7327
G01 X32.1619 Y20.7328
G01 X32.1269 Y20.7346
G01 X32.0903 Y20.7400
G01 X32.0544 Y20.7490
G01 X32.0195 Y20.7614
G01 X31.9861 Y20.7773
G01 X31.9544 Y20.7963
G01 X31.9247 Y20.8183
G01 X31.8986 Y20.8418
G01 X31.1569 Y21.5835
G01 X31.1334 Y21.6096
G01 X31.1114 Y21.6393
G01 X31.0924 Y21.6710
G01 X31.0765 Y21.7044
G01 X31.0641 Y21.7393
G01 X31.0551 Y21.7752
G01 X31.0497 Y21.8118
G01 X31.0479 Y21.8468
G01 X31.0479 Y22.8852
G01 X30.8873 Y22.8852
G01 X30.8534 Y22.8870
G01 X30.8235 Y22.8915
G01 X30.7924 Y22.8993
G01 X30.7622 Y22.9101
G01 X30.7332 Y22.9238
G01 X30.7057 Y22.9403
G01 X30.6830 Y22.9571
G01 X30.6771 Y22.9618
G01 X30.6562 Y22.9809
G01 X30.6371 Y23.0018
G01 X30.6324 Y23.0077
G01 X30.6177 Y23.0274
G01 X30.6136 Y23.0336
G01 X30.5991 Y23.0579
G01 X30.5854 Y23.0869
G01 X30.5746 Y23.1171
G01 X30.5668 Y23.1482
G01 X30.5621 Y23.1800
G01 X30.5605 Y23.2120
G01 X30.5605 Y24.0639
G01 X30.5621 Y24.0940
G01 X30.5668 Y24.1258
G01 X30.5746 Y24.1569
G01 X30.5847 Y24.1853
G01 X30.5991 Y24.2161
G01 X30.6156 Y24.2436
G01 X30.6347 Y24.2693
G01 X30.6562 Y24.2931
G01 X30.6800 Y24.3146
G01 X30.7057 Y24.3337
G01 X30.7332 Y24.3502
G01 X30.7622 Y24.3639
G01 X30.7924 Y24.3747
G01 X30.8199 Y24.3817
G01 X30.8273 Y24.3832
G01 X30.8571 Y24.3874
G01 X30.8873 Y24.3888
G01 X31.0605 Y24.3888
G01 X31.0606 Y26.7460
G01 X30.9000 Y26.7460
G01 X30.8681 Y26.7476
G01 X30.8399 Y26.7516
G01 X30.8106 Y26.7585
G01 X30.7819 Y26.7681
G01 X30.7575 Y26.7788
G01 X30.7512 Y26.7819
G01 X30.7280 Y26.7949
G01 X30.7031 Y26.8120
G01 X30.6798 Y26.8313
G01 X30.6585 Y26.8526
G01 X30.6392 Y26.8759
G01 X30.6221 Y26.9008
G01 X30.6075 Y26.9271
G01 X30.5959 Y26.9531
G01 X30.5857 Y26.9834
G01 X30.5788 Y27.0127
G01 X30.5746 Y27.0426
G01 X30.5732 Y27.0710
G01 X30.5732 Y27.9228
G01 X30.5748 Y27.9548
G01 X30.5795 Y27.9866
G01 X30.5863 Y28.0140
G01 X30.5885 Y28.0212
G01 X30.5967 Y28.0443
G01 X30.5996 Y28.0513
G01 X30.6118 Y28.0769
G01 X30.6263 Y28.1012
G01 X30.6304 Y28.1074
G01 X30.6474 Y28.1301
G01 X30.6689 Y28.1539
G01 X30.6927 Y28.1754
G01 X30.7154 Y28.1924
G01 X30.7216 Y28.1965
G01 X30.7459 Y28.2110
G01 X30.7749 Y28.2247
G01 X30.8051 Y28.2355
G01 X30.8326 Y28.2425
G01 X30.8400 Y28.2440
G01 X30.8680 Y28.2480
G01 X30.8981 Y28.2496
G01 X31.0605 Y28.2496
G01 X31.0606 Y28.7538
G01 X30.2043 Y29.6100
G01 X22.4570 Y29.6101
G01 X22.4569 Y27.3493
G01 X22.5588 Y27.3492
G01 X22.5870 Y27.3477
G01 X22.6188 Y27.3430
G01 X22.6499 Y27.3352
G01 X22.6801 Y27.3244
G01 X22.7091 Y27.3107
G01 X22.7366 Y27.2942
G01 X22.7623 Y27.2751
G01 X22.7861 Y27.2536
G01 X22.8076 Y27.2298
G01 X22.8246 Y27.2071
G01 X22.8287 Y27.2009
G01 X22.8432 Y27.1766
G01 X22.8554 Y27.1510
G01 X22.8583 Y27.1440
G01 X22.8665 Y27.1209
G01 X22.8687 Y27.1137
G01 X22.8755 Y27.0863
G01 X22.8792 Y27.0620
G01 X23.5735 Y27.0619
G01 X23.6067 Y27.0604
G01 X23.6142 Y27.0597
G01 X23.6471 Y27.0547
G01 X23.6829 Y27.0457
G01 X23.7178 Y27.0333
G01 X23.7478 Y27.0191
G01 X23.7545 Y27.0156
G01 X23.7829 Y26.9984
G01 X23.8097 Y26.9787
G01 X23.8155 Y26.9739
G01 X23.8401 Y26.9515
G01 X24.7479 Y26.0437
G01 X24.7639 Y26.0262
G01 X25.3435 Y25.4466
G01 X25.3833 Y25.4606
G01 X25.4631 Y25.4806
G01 X25.5482 Y25.4934
G01 X25.6360 Y25.4978
G01 X25.7201 Y25.4937
G01 X25.8071 Y25.4810
G01 X25.8905 Y25.4600
G01 X25.9715 Y25.4311
G01 X26.0476 Y25.3951
G01 X26.1231 Y25.3500
G01 X26.1922 Y25.2988
G01 X26.2560 Y25.2410
G01 X26.3138 Y25.1772
G01 X26.3650 Y25.1081
G01 X26.4093 Y25.0343
G01 X26.4461 Y24.9565
G01 X26.4739 Y24.8791
G01 X26.4763 Y24.8710
G01 X26.9380 Y24.8709
G01 X26.9731 Y24.8693
G01 X26.9970 Y24.8660
G01 X27.0191 Y24.8691
G01 X27.0522 Y24.8709
G01 X27.0598 Y24.8709
G01 X27.0892 Y24.8694
G01 X27.0967 Y24.8687
G01 X27.1295 Y24.8637
G01 X27.1654 Y24.8547
G01 X27.2003 Y24.8423
G01 X27.2337 Y24.8264
G01 X27.2654 Y24.8074
G01 X27.2922 Y24.7877
G01 X27.2980 Y24.7829
G01 X27.3225 Y24.7605
G01 X27.9613 Y24.1218
G01 X27.9823 Y24.0986
G01 X27.9871 Y24.0928
G01 X28.0068 Y24.0660
G01 X28.0240 Y24.0376
G01 X28.0275 Y24.0309
G01 X28.0417 Y24.0009
G01 X28.0529 Y23.9696
G01 X28.0551 Y23.9624
G01 X28.0631 Y23.9301
G01 X28.0681 Y23.8973
G01 X28.0688 Y23.8898
G01 X28.0703 Y23.8585
G01 X28.0703 Y21.0127
G01 X29.5855 Y19.4975
G01 X29.6104 Y19.4701
G01 X29.6324 Y19.4404
G01 X29.6514 Y19.4087
G01 X29.6665 Y19.3770
G01 X29.6797 Y19.3404
G01 X29.6887 Y19.3045
G01 X29.6941 Y19.2679
G01 X29.6959 Y19.2329
G01 X29.6959 Y17.4519
G01 X33.4440 Y17.4521
G01 X33.4673 Y17.4511
G01 X33.4730 Y17.4506
G01 X33.4943 Y17.4475
G01 X33.5017 Y17.4460
G01 X33.5243 Y17.4402
G01 X33.5499 Y17.4311
G01 X33.5745 Y17.4194
G01 X33.5946 Y17.4075
G01 X33.6009 Y17.4033
G01 X33.6182 Y17.3905
G01 X33.6225 Y17.3868
G01 X33.6398 Y17.3710
G01 X33.6580 Y17.3509
G01 X33.6742 Y17.3291
G01 X33.6863 Y17.3090
G01 X33.6890 Y17.3041
G01 X33.6983 Y17.2847
G01 X33.7011 Y17.2777
G01 X33.7089 Y17.2556
G01 X33.7151 Y17.2311
G01 X33.7195 Y17.2024
G01 X33.7209 Y17.1752
G01 X33.7195 Y17.1481
G01 X33.7155 Y17.1212
G01 X33.7089 Y17.0949
G01 X33.6998 Y17.0693
G01 X33.6882 Y17.0447
G01 X33.6762 Y17.0246
G01 X33.6720 Y17.0183
G01 X33.6580 Y16.9996
G01 X33.6424 Y16.9822
G01 X33.6384 Y16.9781
G01 X33.6225 Y16.9637
G01 X33.6167 Y16.9589
G01 X33.5994 Y16.9461
G01 X33.5778 Y16.9329
G01 X33.5711 Y16.9293
G01 X33.5499 Y16.9194
G01 X33.5243 Y16.9103
G01 X33.4980 Y16.9037
G01 X33.4692 Y16.8995
G01 X33.4440 Y16.8983
G01 X29.6960 Y16.8981
G01 X29.6959 Y13.5024
G01 X29.6941 Y13.4655
G01 X29.6887 Y13.4289
G01 X29.6797 Y13.3930
G01 X29.6686 Y13.3617
G01 X29.6657 Y13.3547
G01 X29.6514 Y13.3247
G01 X29.6324 Y13.2930
G01 X29.6104 Y13.2633
G01 X29.5855 Y13.2359
G01 X26.6480 Y10.2983
G01 X26.6479 Y7.1561
G01 X28.0019 Y5.8022
G01 X33.9127 Y5.8021
G01 X34.0794 Y5.9689
G01 X34.0795 Y6.2094
G01 X34.0414 Y6.2276
G01 X33.9709 Y6.2699
G01 X33.8987 Y6.3234
G01 X33.8364 Y6.3800
G01 X33.7811 Y6.4409
G01 X33.7763 Y6.4467
G01 X33.7263 Y6.5145
G01 X33.6831 Y6.5867
G01 X33.6479 Y6.6610
G01 X33.6450 Y6.6680
G01 X33.6174 Y6.7455
G01 X33.5964 Y6.8289
G01 X33.5843 Y6.9103
G01 X33.5835 Y6.9178
G01 X33.5797 Y6.9962
G01 X33.5797 Y7.0038
G01 X33.5838 Y7.0859
G01 X33.5958 Y7.1673
G01 X33.5973 Y7.1747
G01 X33.6174 Y7.2545
G01 X33.6450 Y7.3320
G01 X33.6479 Y7.3390
G01 X33.6831 Y7.4133
G01 X33.7263 Y7.4855
G01 X33.7763 Y7.5533
G01 X33.7811 Y7.5591
G01 X33.8364 Y7.6200
G01 X33.8987 Y7.6766
G01 X33.9709 Y7.7301
G01 X34.0414 Y7.7724
G01 X34.0794 Y7.7906
G01 X34.0795 Y10.0038
G01 X34.0810 Y10.0370
G01 X34.0817 Y10.0445
G01 X34.0867 Y10.0773
G01 X34.0947 Y10.1096
G01 X34.0969 Y10.1168
G01 X34.1081 Y10.1481
G01 X34.1223 Y10.1781
G01 X34.1258 Y10.1848
G01 X34.1430 Y10.2132
G01 X34.1627 Y10.2400
G01 X34.1675 Y10.2458
G01 X34.1885 Y10.2690
G01 X35.3461 Y11.4265
G01 X35.3735 Y11.4514
G01 X35.4032 Y11.4734
G01 X35.4242 Y11.4861
G01 X35.4366 Y11.4933
G01 X35.4683 Y11.5083
G01 X35.5032 Y11.5207
G01 X35.5354 Y11.5289
G01 X35.5428 Y11.5304
G01 X35.5775 Y11.5353
G01 X35.6126 Y11.5369
G01 X36.5294 Y11.5369
G01 X36.5476 Y11.5750
G01 X36.5899 Y11.6455
G01 X36.6434 Y11.7177
G01 X36.7000 Y11.7800
G01 X36.7609 Y11.8353
G01 X36.7667 Y11.8401
G01 X36.8345 Y11.8901
G01 X36.9067 Y11.9333
G01 X36.9810 Y11.9685
G01 X36.9880 Y11.9714
G01 X37.0655 Y11.9990
G01 X37.1453 Y12.0191
G01 X37.1527 Y12.0206
G01 X37.2341 Y12.0326
G01 X37.3181 Y12.0368
G01 X37.4022 Y12.0329
G01 X37.4097 Y12.0321
G01 X37.4911 Y12.0200
G01 X37.5745 Y11.9990
G01 X37.6520 Y11.9714
G01 X37.6590 Y11.9685
G01 X37.7333 Y11.9333
G01 X37.8055 Y11.8901
G01 X37.8733 Y11.8401
G01 X37.8791 Y11.8353
G01 X37.9400 Y11.7800
G01 X37.9966 Y11.7177
G01 X38.0501 Y11.6455
G01 X38.0924 Y11.5750
G01 X38.1106 Y11.5370
G01 X38.4029 Y11.5369
G01 X40.3568 Y13.4909
G01 X40.3800 Y13.5119
G01 X40.3858 Y13.5167
G01 X40.4126 Y13.5364
G01 X40.4410 Y13.5536
G01 X40.4477 Y13.5571
G01 X40.4777 Y13.5713
G01 X40.5090 Y13.5825
G01 X40.5162 Y13.5847
G01 X40.5485 Y13.5927
G01 X40.5813 Y13.5977
G01 X40.5888 Y13.5984
G01 X40.6220 Y13.5999
G01 X42.7820 Y13.5998
G01 X42.8024 Y13.5989
G01 X42.8225 Y13.5961
G01 X42.8299 Y13.5946
G01 X42.8478 Y13.5900
G01 X42.8688 Y13.5825
G01 X42.8889 Y13.5730
G01 X42.9048 Y13.5636
G01 X42.9096 Y13.5605
G01 X42.9229 Y13.5506
G01 X42.9287 Y13.5459
G01 X42.9424 Y13.5334
G01 X42.9573 Y13.5169
G01 X42.9706 Y13.4990
G01 X42.9802 Y13.4832
G01 X42.9837 Y13.4765
G01 X42.9922 Y13.4580
G01 X42.9990 Y13.4388
G01 X43.0041 Y13.4191
G01 X43.0077 Y13.3952
G01 X43.0088 Y13.3749
G01 X43.0088 Y13.0730
G01 X43.0080 Y13.0545
G01 X43.0072 Y13.0470
G01 X43.0044 Y13.0288
G01 X42.9996 Y13.0090
G01 X42.9915 Y12.9862
G01 X42.9837 Y12.9695
G01 X42.9802 Y12.9628
G01 X42.9706 Y12.9470
G01 X42.9596 Y12.9321
G01 X42.9549 Y12.9263
G01 X42.9424 Y12.9126
G01 X42.9287 Y12.9001
G01 X42.9229 Y12.8954
G01 X42.9080 Y12.8844
G01 X42.8922 Y12.8748
G01 X42.8855 Y12.8713
G01 X42.8688 Y12.8635
G01 X42.8514 Y12.8571
G01 X42.8442 Y12.8550
G01 X42.8262 Y12.8506
G01 X42.8080 Y12.8478
G01 X42.8005 Y12.8470
G01 X42.7820 Y12.8462
G01 X40.7781 Y12.8461
G01 X38.8255 Y10.8935
G01 X38.7967 Y10.8674
G01 X38.7684 Y10.8466
G01 X38.7400 Y10.8294
G01 X38.7333 Y10.8259
G01 X38.7033 Y10.8117
G01 X38.6720 Y10.8005
G01 X38.6648 Y10.7983
G01 X38.6325 Y10.7903
G01 X38.5978 Y10.7851
G01 X38.5590 Y10.7831
G01 X38.1106 Y10.7831
G01 X38.0924 Y10.7450
G01 X38.0480 Y10.6713
G01 X37.9978 Y10.6038
G01 X37.9386 Y10.5387
G01 X37.8762 Y10.4822
G01 X37.8071 Y10.4310
G01 X37.7333 Y10.3867
G01 X37.6590 Y10.3515
G01 X37.6520 Y10.3486
G01 X37.5745 Y10.3210
G01 X37.4911 Y10.3000
G01 X37.4059 Y10.2874
G01 X37.3200 Y10.2832
G01 X37.2341 Y10.2874
G01 X37.1489 Y10.3000
G01 X37.0655 Y10.3210
G01 X36.9862 Y10.3492
G01 X36.9067 Y10.3867
G01 X36.8329 Y10.4310
G01 X36.7638 Y10.4822
G01 X36.7014 Y10.5387
G01 X36.6422 Y10.6038
G01 X36.5920 Y10.6713
G01 X36.5476 Y10.7450
G01 X36.5294 Y10.7830
G01 X35.7687 Y10.7831
G01 X34.8334 Y9.8477
G01 X34.8333 Y7.7906
G01 X34.8714 Y7.7724
G01 X34.9451 Y7.7280
G01 X35.0126 Y7.6778
G01 X35.0750 Y7.6213
G01 X35.1317 Y7.5591
G01 X35.1365 Y7.5533
G01 X35.1854 Y7.4871
G01 X35.2288 Y7.4150
G01 X35.2649 Y7.3390
G01 X35.2678 Y7.3320
G01 X35.2954 Y7.2545
G01 X35.3164 Y7.1711
G01 X35.3290 Y7.0859
G01 X35.3331 Y7.0038
G01 X35.3331 Y6.9962
G01 X35.3288 Y6.9122
G01 X35.3170 Y6.8327
G01 X35.3155 Y6.8253
G01 X35.2954 Y6.7455
G01 X35.2678 Y6.6680
G01 X35.2649 Y6.6610
G01 X35.2297 Y6.5867
G01 X35.1844 Y6.5113
G01 X35.1365 Y6.4467
G01 X35.1317 Y6.4409
G01 X35.0764 Y6.3800
G01 X35.0141 Y6.3234
G01 X34.9419 Y6.2699
G01 X34.8714 Y6.2276
G01 X34.8334 Y6.2094
G01 X34.8333 Y5.8128
G01 X34.8317 Y5.7777
G01 X34.8261 Y5.7393
G01 X34.8171 Y5.7034
G01 X34.8047 Y5.6685
G01 X34.7905 Y5.6385
G01 X34.7870 Y5.6318
G01 X34.7698 Y5.6034
G01 X34.7501 Y5.5766
G01 X34.7453 Y5.5708
G01 X34.7243 Y5.5476
G01 X34.3353 Y5.1587
G01 X34.3108 Y5.1363
G01 X34.3050 Y5.1315
G01 X34.2782 Y5.1118
G01 X34.2465 Y5.0928
G01 X34.2165 Y5.0785
G01 X34.2095 Y5.0756
G01 X34.1782 Y5.0645
G01 X34.1460 Y5.0563
G01 X34.1386 Y5.0548
G01 X34.1057 Y5.0501
G01 X34.0688 Y5.0483
G01 X27.8458 Y5.0483
G01 X27.8126 Y5.0498
G01 X27.8051 Y5.0505
G01 X27.7723 Y5.0555
G01 X27.7400 Y5.0635
G01 X27.7328 Y5.0657
G01 X27.7015 Y5.0769
G01 X27.6715 Y5.0911
G01 X27.6648 Y5.0946
G01 X27.6364 Y5.1118
G01 X27.6096 Y5.1315
G01 X27.6038 Y5.1363
G01 X27.5793 Y5.1587
G01 X26.0045 Y6.7335
G01 X25.9821 Y6.7580
G01 X25.9773 Y6.7638
G01 X25.9576 Y6.7906
G01 X25.9395 Y6.8207
G01 X25.9227 Y6.8557
G01 X25.9115 Y6.8870
G01 X25.9093 Y6.8942
G01 X25.9013 Y6.9265
G01 X25.8963 Y6.9593
G01 X25.8956 Y6.9668
G01 X25.8941 Y6.9981
G01 X25.8941 Y8.4010
G01 X24.8833 Y8.4011
G01 X24.8651 Y8.3630
G01 X24.8207 Y8.2893
G01 X24.7705 Y8.2218
G01 X24.7140 Y8.1594
G01 X24.6518 Y8.1027
G01 X24.6460 Y8.0979
G01 X24.5798 Y8.0490
G01 X24.5077 Y8.0056
G01 X24.4317 Y7.9695
G01 X24.4247 Y7.9666
G01 X24.3472 Y7.9390
G01 X24.2638 Y7.9180
G01 X24.1786 Y7.9054
G01 X24.0965 Y7.9013
G01 X24.0889 Y7.9013
G01 X24.0105 Y7.9051
G01 X24.0030 Y7.9059
G01 X23.9216 Y7.9180
G01 X23.8382 Y7.9390
G01 X23.7572 Y7.9679
G01 X23.6794 Y8.0047
G01 X23.6056 Y8.0490
G01 X23.5365 Y8.1002
G01 X23.4727 Y8.1580
G01 X23.4174 Y8.2189
G01 X23.4126 Y8.2247
G01 X23.3637 Y8.2909
G01 X23.3213 Y8.3614
G01 X23.3177 Y8.3680
G01 X23.2842 Y8.4390
G01 X23.2813 Y8.4460
G01 X23.2537 Y8.5235
G01 X23.2327 Y8.6069
G01 X23.2201 Y8.6921
G01 X23.2159 Y8.7761
G01 X23.2201 Y8.8639
G01 X23.2327 Y8.9491
G01 X23.2537 Y9.0325
G01 X23.2813 Y9.1100
G01 X23.2842 Y9.1170
G01 X23.3194 Y9.1913
G01 X23.3617 Y9.2619
G01 X23.3658 Y9.2682
G01 X23.4126 Y9.3313
G01 X23.4174 Y9.3371
G01 X23.4727 Y9.3980
G01 X23.5365 Y9.4558
G01 X23.6056 Y9.5070
G01 X23.6794 Y9.5513
G01 X23.7572 Y9.5881
G01 X23.8382 Y9.6170
G01 X23.9216 Y9.6380
G01 X24.0030 Y9.6501
G01 X24.0105 Y9.6509
G01 X24.0889 Y9.6547
G01 X24.0965 Y9.6547
G01 X24.1786 Y9.6506
G01 X24.2638 Y9.6380
G01 X24.3472 Y9.6170
G01 X24.4247 Y9.5894
G01 X24.4317 Y9.5865
G01 X24.5077 Y9.5504
G01 X24.5798 Y9.5070
G01 X24.6460 Y9.4581
G01 X24.6518 Y9.4533
G01 X24.7140 Y9.3966
G01 X24.7705 Y9.3342
G01 X24.8207 Y9.2667
G01 X24.8651 Y9.1930
G01 X24.8833 Y9.1550
G01 X25.8940 Y9.1549
G01 X25.8941 Y10.4582
G01 X25.8959 Y10.4913
G01 X25.9006 Y10.5242
G01 X25.9021 Y10.5316
G01 X25.9103 Y10.5638
G01 X25.9227 Y10.5987
G01 X25.9369 Y10.6287
G01 X25.9404 Y10.6354
G01 X25.9576 Y10.6638
G01 X25.9796 Y10.6935
G01 X26.0045 Y10.7209
G01 X28.9420 Y13.6585
G01 X28.9421 Y14.2981
G01 X25.5032 Y14.2981
G01 X25.4798 Y14.2992
G01 X25.4742 Y14.2996
G01 X25.4529 Y14.3028
G01 X25.4455 Y14.3042
G01 X25.4228 Y14.3100
G01 X25.3972 Y14.3192
G01 X25.3727 Y14.3308
G01 X25.3525 Y14.3427
G01 X25.3463 Y14.3469
G01 X25.3290 Y14.3598
G01 X25.3247 Y14.3634
G01 X25.3074 Y14.3792
G01 X25.2892 Y14.3993
G01 X25.2730 Y14.4212
G01 X25.2609 Y14.4412
G01 X25.2573 Y14.4478
G01 X25.2481 Y14.4673
G01 X25.2460 Y14.4726
G01 X25.2382 Y14.4946
G01 X25.2313 Y14.5228
G01 X25.2276 Y14.5479
G01 X25.2263 Y14.5750
G01 X25.2276 Y14.6021
G01 X25.2310 Y14.6253
G01 X25.2324 Y14.6327
G01 X25.2377 Y14.6536
G01 X25.2394 Y14.6590
G01 X25.2474 Y14.6810
G01 X25.2573 Y14.7022
G01 X25.2609 Y14.7088
G01 X25.2719 Y14.7273
G01 X25.2868 Y14.7477
G01 X25.2916 Y14.7535
G01 X25.3074 Y14.7708
G01 X25.3275 Y14.7890
G01 X25.3494 Y14.8052
G01 X25.3727 Y14.8192
G01 X25.3972 Y14.8308
G01 X25.4228 Y14.8400
G01 X25.4492 Y14.8466
G01 X25.4761 Y14.8506
G01 X25.5032 Y14.8519
G01 X28.9420 Y14.8519
G01 X28.9421 Y19.0749
G01 X27.4255 Y20.5914
G01 X27.4020 Y20.6175
G01 X27.3821 Y20.6441
G01 X27.3780 Y20.6504
G01 X27.3610 Y20.6789
G01 X27.3467 Y20.7089
G01 X27.3438 Y20.7159
G01 X27.3339 Y20.7436
G01 X27.3317 Y20.7508
G01 X27.3245 Y20.7794
G01 X27.3230 Y20.7868
G01 X27.3183 Y20.8197
G01 X27.3165 Y20.8566
G01 X27.3165 Y23.7005
G01 X26.8999 Y24.1170
G01 X26.3527 Y24.1171
G01 X26.3138 Y24.0648
G01 X26.2586 Y24.0037
G01 X26.2533 Y23.9984
G01 X26.1951 Y23.9457
G01 X26.1893 Y23.9409
G01 X26.1231 Y23.8920
G01 X26.0526 Y23.8496
G01 X26.0460 Y23.8460
G01 X25.9715 Y23.8109
G01 X25.8905 Y23.7820
G01 X25.8071 Y23.7610
G01 X25.7238 Y23.7486
G01 X25.6360 Y23.7442
G01 X25.5538 Y23.7481
G01 X25.5463 Y23.7489
G01 X25.4687 Y23.7604
G01 X25.4613 Y23.7619
G01 X25.3815 Y23.7820
G01 X25.3005 Y23.8109
G01 X25.2227 Y23.8477
G01 X25.1489 Y23.8920
G01 X25.0798 Y23.9432
G01 X25.0187 Y23.9984
G01 X25.0134 Y24.0037
G01 X24.9607 Y24.0619
G01 X24.9559 Y24.0677
G01 X24.9070 Y24.1339
G01 X24.8627 Y24.2077
G01 X24.8259 Y24.2855
G01 X24.7975 Y24.3647
G01 X24.7760 Y24.4499
G01 X24.7639 Y24.5313
G01 X24.7631 Y24.5388
G01 X24.7592 Y24.6229
G01 X24.7634 Y24.7069
G01 X24.7757 Y24.7902
G01 X24.7964 Y24.8737
G01 X24.8104 Y24.9135
G01 X24.2148 Y25.5091
G01 X24.1987 Y25.5267
G01 X23.4174 Y26.3080
G01 X22.8792 Y26.3081
G01 X22.8755 Y26.2837
G01 X22.8677 Y26.2526
G01 X22.8569 Y26.2224
G01 X22.8449 Y26.1968
G01 X22.8414 Y26.1902
G01 X22.8287 Y26.1691
G01 X22.8246 Y26.1629
G01 X22.8076 Y26.1402
G01 X22.7874 Y26.1178
G01 X22.7652 Y26.0973
G01 X22.7593 Y26.0926
G01 X22.7366 Y26.0758
G01 X22.7091 Y26.0593
G01 X22.6801 Y26.0456
G01 X22.6534 Y26.0360
G01 X22.6462 Y26.0338
G01 X22.6224 Y26.0278
G01 X22.6150 Y26.0263
G01 X22.5870 Y26.0223
G01 X22.5550 Y26.0207
G01 X21.6050 Y26.0207
G01 X21.5730 Y26.0223
G01 X21.5412 Y26.0270
G01 X21.5101 Y26.0348
G01 X21.4835 Y26.0442
G01 X21.4765 Y26.0471
G01 X21.4543 Y26.0576
G01 X21.4477 Y26.0611
G01 X21.4234 Y26.0758
G01 X21.4007 Y26.0926
G01 X21.3948 Y26.0973
G01 X21.3739 Y26.1164
G01 X21.3524 Y26.1402
G01 X21.3333 Y26.1659
G01 X21.3168 Y26.1934
G01 X21.3031 Y26.2224
G01 X21.2923 Y26.2526
G01 X21.2845 Y26.2837
G01 X21.2808 Y26.3080
G01 X19.5798 Y26.3081
G01 X19.5798 Y26.1990
G01 X19.5784 Y26.1688
G01 X19.5735 Y26.1352
G01 X19.5652 Y26.1023
G01 X19.5549 Y26.0739
G01 X19.5429 Y26.0483
G01 X19.5394 Y26.0417
G01 X19.5247 Y26.0174
G01 X19.5079 Y25.9947
G01 X19.5032 Y25.9888
G01 X19.4841 Y25.9679
G01 X19.4632 Y25.9488
G01 X19.4573 Y25.9441
G01 X19.4346 Y25.9273
G01 X19.4103 Y25.9126
G01 X19.4037 Y25.9091
G01 X19.3781 Y25.8971
G01 X19.3514 Y25.8875
G01 X19.3442 Y25.8853
G01 X19.3168 Y25.8785
G01 X19.2850 Y25.8738
G01 X19.2549 Y25.8722
G01 X19.0900 Y25.8722
G01 X19.0899 Y24.2678
G01 X19.5380 Y24.2678
G01 X19.5621 Y24.2665
G01 X19.5822 Y24.2634
G01 X19.6038 Y24.2580
G01 X19.6248 Y24.2505
G01 X19.6415 Y24.2427
G01 X19.6482 Y24.2392
G01 X19.6624 Y24.2306
G01 X19.6671 Y24.2274
G01 X19.6819 Y24.2163
G01 X19.6997 Y24.2000
G01 X19.7133 Y24.1849
G01 X19.7266 Y24.1670
G01 X19.7380 Y24.1479
G01 X19.7475 Y24.1278
G01 X19.7550 Y24.1068
G01 X19.7604 Y24.0852
G01 X19.7637 Y24.0632
G01 X19.7647 Y24.0448
G01 X19.7648 Y23.7410
G01 X19.7637 Y23.7188
G01 X19.7611 Y23.7005
G01 X19.7596 Y23.6931
G01 X19.7550 Y23.6752
G01 X19.7489 Y23.6577
G01 X19.7460 Y23.6508
G01 X19.7380 Y23.6341
G01 X19.7266 Y23.6150
G01 X19.7156 Y23.6001
G01 X19.7109 Y23.5943
G01 X19.6984 Y23.5806
G01 X19.6847 Y23.5681
G01 X19.6789 Y23.5634
G01 X19.6640 Y23.5524
G01 X19.6449 Y23.5410
G01 X19.6248 Y23.5315
G01 X19.6074 Y23.5251
G01 X19.6002 Y23.5230
G01 X19.5822 Y23.5186
G01 X19.5640 Y23.5158
G01 X19.5584 Y23.5151
G01 X19.5399 Y23.5142
G01 X17.8845 Y23.5143
G01 X17.8653 Y23.5154
G01 X17.8429 Y23.5188
G01 X17.8259 Y23.5229
G01 X17.8094 Y23.5283
G01 X17.7901 Y23.5365
G01 X17.7701 Y23.5473
G01 X17.7528 Y23.5590
G01 X17.7352 Y23.5734
G01 X17.7216 Y23.5869
G01 X17.7070 Y23.6043
G01 X17.6952 Y23.6216
G01 X17.6850 Y23.6399
G01 X17.6765 Y23.6591
G01 X17.6699 Y23.6789
G01 X17.6651 Y23.6993
G01 X17.6622 Y23.7201
G01 X17.6612 Y23.7410
G01 X17.6612 Y24.0410
G01 X17.6625 Y24.0651
G01 X17.6656 Y24.0852
G01 X17.6700 Y24.1032
G01 X17.6721 Y24.1104
G01 X17.6792 Y24.1295
G01 X17.6880 Y24.1479
G01 X17.6984 Y24.1654
G01 X17.7104 Y24.1819
G01 X17.7151 Y24.1877
G01 X17.7276 Y24.2014
G01 X17.7441 Y24.2163
G01 X17.7620 Y24.2296
G01 X17.7811 Y24.2410
G01 X17.8012 Y24.2505
G01 X17.8222 Y24.2580
G01 X17.8438 Y24.2634
G01 X17.8639 Y24.2665
G01 X17.8880 Y24.2678
G01 X18.3360 Y24.2678
G01 X18.3361 Y25.8722
G01 X18.3011 Y25.8722
G01 X18.2710 Y25.8738
G01 X18.2392 Y25.8785
G01 X18.2081 Y25.8863
G01 X18.1779 Y25.8971
G01 X18.1489 Y25.9108
G01 X18.1214 Y25.9273
G01 X18.0957 Y25.9464
G01 X18.0719 Y25.9679
G01 X18.0504 Y25.9917
G01 X18.0313 Y26.0174
G01 X18.0148 Y26.0449
G01 X18.0011 Y26.0739
G01 X17.9903 Y26.1041
G01 X17.9825 Y26.1352
G01 X17.9788 Y26.1595
G01 X17.2649 Y26.1596
G01 X17.2629 Y26.1462
G01 X17.2558 Y26.1169
G01 X17.2467 Y26.0899
G01 X17.2337 Y26.0608
G01 X17.2199 Y26.0360
G01 X17.2028 Y26.0111
G01 X17.1835 Y25.9878
G01 X17.1635 Y25.9677
G01 X17.1389 Y25.9472
G01 X17.1170 Y25.9321
G01 X17.1110 Y25.9284
G01 X17.0908 Y25.9171
G01 X17.0845 Y25.9140
G01 X17.0601 Y25.9033
G01 X17.0314 Y25.8937
G01 X17.0021 Y25.8868
G01 X16.9739 Y25.8828
G01 X16.9420 Y25.8812
G01 X16.0401 Y25.8812
G01 X16.0100 Y25.8828
G01 X15.9820 Y25.8868
G01 X15.9746 Y25.8883
G01 X15.9508 Y25.8943
G01 X15.9436 Y25.8965
G01 X15.9169 Y25.9061
G01 X15.8913 Y25.9181
G01 X15.8847 Y25.9216
G01 X15.8604 Y25.9363
G01 X15.8377 Y25.9531
G01 X15.8318 Y25.9578
G01 X15.8109 Y25.9769
G01 X15.7918 Y25.9978
G01 X15.7871 Y26.0037
G01 X15.7703 Y26.0264
G01 X15.7556 Y26.0507
G01 X15.7521 Y26.0573
G01 X15.7401 Y26.0829
G01 X15.7305 Y26.1096
G01 X15.7283 Y26.1168
G01 X15.7215 Y26.1442
G01 X15.7168 Y26.1760
G01 X15.7152 Y26.2080
G01 X15.7152 Y26.9080
G01 X15.7165 Y26.9363
G01 X15.7172 Y26.9438
G01 X15.7215 Y26.9718
G01 X15.7283 Y26.9992
G01 X15.7305 Y27.0064
G01 X15.7401 Y27.0331
G01 X15.7521 Y27.0587
G01 X15.7556 Y27.0653
G01 X15.7703 Y27.0896
G01 X15.7894 Y27.1153
G01 X15.8109 Y27.1391
G01 X15.8347 Y27.1606
G01 X15.8574 Y27.1776
G01 X15.8636 Y27.1817
G01 X15.8879 Y27.1962
G01 X15.9135 Y27.2084
G01 X15.9205 Y27.2113
G01 X15.9436 Y27.2195
G01 X15.9508 Y27.2217
G01 X15.9782 Y27.2285
G01 X16.0081 Y27.2330
G01 X16.0420 Y27.2348
G01 X16.9420 Y27.2348
G01 X16.9759 Y27.2330
G01 X17.0058 Y27.2285
G01 X17.0369 Y27.2207
G01 X17.0671 Y27.2099
G01 X17.0927 Y27.1979
G01 X17.0993 Y27.1944
G01 X17.1236 Y27.1797
G01 X17.1463 Y27.1629
G01 X17.1522 Y27.1582
G01 X17.1704 Y27.1417
G01 X17.1757 Y27.1364
G01 X17.1946 Y27.1153
G01 X17.2137 Y27.0896
G01 X17.2302 Y27.0621
G01 X17.2439 Y27.0331
G01 X17.2547 Y27.0029
G01 X17.2625 Y26.9718
G01 X17.2672 Y26.9400
G01 X17.2686 Y26.9135
G01 X17.9788 Y26.9134
G01 X17.9825 Y26.9378
G01 X17.9903 Y26.9689
G01 X18.0011 Y26.9991
G01 X18.0148 Y27.0281
G01 X18.0313 Y27.0556
G01 X18.0504 Y27.0813
G01 X18.0719 Y27.1051
G01 X18.0928 Y27.1242
G01 X18.0987 Y27.1289
G01 X18.1214 Y27.1457
G01 X18.1457 Y27.1604
G01 X18.1523 Y27.1639
G01 X18.1745 Y27.1744
G01 X18.1815 Y27.1773
G01 X18.2081 Y27.1867
G01 X18.2392 Y27.1945
G01 X18.2710 Y27.1992
G01 X18.2992 Y27.2007
G01 X19.2530 Y27.2008
G01 X19.2869 Y27.1990
G01 X19.3168 Y27.1945
G01 X19.3479 Y27.1867
G01 X19.3781 Y27.1759
G01 X19.4037 Y27.1639
G01 X19.4103 Y27.1604
G01 X19.4346 Y27.1457
G01 X19.4573 Y27.1289
G01 X19.4632 Y27.1242
G01 X19.4814 Y27.1077
G01 X19.4867 Y27.1024
G01 X19.5056 Y27.0813
G01 X19.5201 Y27.0620
G01 X21.2808 Y27.0619
G01 X21.2845 Y27.0863
G01 X21.2913 Y27.1137
G01 X21.2935 Y27.1209
G01 X21.3017 Y27.1440
G01 X21.3046 Y27.1510
G01 X21.3168 Y27.1766
G01 X21.3313 Y27.2009
G01 X21.3354 Y27.2071
G01 X21.3524 Y27.2298
G01 X21.3739 Y27.2536
G01 X21.3977 Y27.2751
G01 X21.4234 Y27.2942
G01 X21.4509 Y27.3107
G01 X21.4799 Y27.3244
G01 X21.5101 Y27.3352
G01 X21.5412 Y27.3430
G01 X21.5730 Y27.3477
G01 X21.6012 Y27.3492
G01 X21.7030 Y27.3493
G01 X21.7031 Y29.6100
G01 X5.4721 Y29.6101
G01 X4.0420 Y28.1799
G01 X4.0419 Y4.9463
G00 Z2.0000
G00 X6.5480 Y4.3452
G01 F40.00
G01 Z-0.1000
G01 F35.00
G01 X8.1499 Y4.3452
G01 X8.1611 Y4.3463
G01 X8.1667 Y4.3475
G01 X8.1739 Y4.3497
G01 X8.1842 Y4.3543
G01 X8.1907 Y4.3581
G01 X8.1952 Y4.3615
G01 X8.2010 Y4.3664
G01 X8.2049 Y4.3704
G01 X8.2119 Y4.3793
G01 X8.2148 Y4.3841
G01 X8.2182 Y4.3909
G01 X8.2220 Y4.4015
G01 X8.2242 Y4.4126
G01 X8.2248 Y4.4220
G01 X8.2248 Y6.0220
G01 X8.2242 Y6.0314
G01 X8.2229 Y6.0388
G01 X8.2209 Y6.0461
G01 X8.2182 Y6.0531
G01 X8.2129 Y6.0631
G01 X8.2062 Y6.0722
G01 X8.1982 Y6.0802
G01 X8.1907 Y6.0859
G01 X8.1825 Y6.0906
G01 X8.1721 Y6.0949
G01 X8.1611 Y6.0977
G01 X8.1518 Y6.0987
G01 X7.4709 Y6.0988
G01 X7.4710 Y7.1012
G01 X7.5459 Y7.1012
G01 X7.5742 Y7.1026
G01 X7.6078 Y7.1075
G01 X7.6352 Y7.1143
G01 X7.6424 Y7.1165
G01 X7.6691 Y7.1261
G01 X7.6981 Y7.1398
G01 X7.7256 Y7.1563
G01 X7.7483 Y7.1731
G01 X7.7542 Y7.1778
G01 X7.7751 Y7.1969
G01 X7.7966 Y7.2207
G01 X7.8157 Y7.2464
G01 X7.8322 Y7.2739
G01 X7.8459 Y7.3029
G01 X7.8567 Y7.3331
G01 X7.8645 Y7.3642
G01 X7.8694 Y7.3978
G01 X7.8708 Y7.4280
G01 X7.8708 Y8.1280
G01 X7.8692 Y8.1600
G01 X7.8641 Y8.1936
G01 X7.8567 Y8.2229
G01 X7.8473 Y8.2495
G01 X7.8444 Y8.2565
G01 X7.8322 Y8.2821
G01 X7.8177 Y8.3064
G01 X7.8136 Y8.3126
G01 X7.7966 Y8.3353
G01 X7.7777 Y8.3564
G01 X7.7724 Y8.3617
G01 X7.7513 Y8.3806
G01 X7.7286 Y8.3976
G01 X7.7224 Y8.4017
G01 X7.6981 Y8.4162
G01 X7.6725 Y8.4284
G01 X7.6655 Y8.4313
G01 X7.6371 Y8.4413
G01 X7.6078 Y8.4485
G01 X7.5798 Y8.4528
G01 X7.5723 Y8.4535
G01 X7.5440 Y8.4548
G01 X6.6440 Y8.4548
G01 X6.6120 Y8.4532
G01 X6.5821 Y8.4489
G01 X6.5528 Y8.4417
G01 X6.5456 Y8.4395
G01 X6.5189 Y8.4299
G01 X6.4899 Y8.4162
G01 X6.4656 Y8.4017
G01 X6.4594 Y8.3976
G01 X6.4367 Y8.3806
G01 X6.4156 Y8.3617
G01 X6.4103 Y8.3564
G01 X6.3914 Y8.3353
G01 X6.3744 Y8.3126
G01 X6.3703 Y8.3064
G01 X6.3558 Y8.2821
G01 X6.3436 Y8.2565
G01 X6.3407 Y8.2495
G01 X6.3307 Y8.2211
G01 X6.3235 Y8.1918
G01 X6.3192 Y8.1638
G01 X6.3185 Y8.1563
G01 X6.3172 Y8.1299
G01 X6.3172 Y7.4280
G01 X6.3188 Y7.3960
G01 X6.3228 Y7.3680
G01 X6.3243 Y7.3606
G01 X6.3303 Y7.3368
G01 X6.3325 Y7.3296
G01 X6.3421 Y7.3029
G01 X6.3558 Y7.2739
G01 X6.3723 Y7.2464
G01 X6.3914 Y7.2207
G01 X6.4129 Y7.1969
G01 X6.4367 Y7.1754
G01 X6.4624 Y7.1563
G01 X6.4867 Y7.1416
G01 X6.4933 Y7.1381
G01 X6.5155 Y7.1276
G01 X6.5225 Y7.1247
G01 X6.5491 Y7.1153
G01 X6.5821 Y7.1071
G01 X6.6120 Y7.1028
G01 X6.6402 Y7.1013
G01 X6.7171 Y7.1012
G01 X6.7170 Y6.0988
G01 X6.5461 Y6.0988
G01 X6.5349 Y6.0977
G01 X6.5257 Y6.0955
G01 X6.5204 Y6.0937
G01 X6.5135 Y6.0906
G01 X6.5038 Y6.0848
G01 X6.4950 Y6.0776
G01 X6.4875 Y6.0692
G01 X6.4812 Y6.0599
G01 X6.4763 Y6.0496
G01 X6.4740 Y6.0425
G01 X6.4727 Y6.0370
G01 X6.4713 Y6.0258
G01 X6.4713 Y4.4182
G01 X6.4720 Y4.4107
G01 X6.4735 Y4.4033
G01 X6.4757 Y4.3961
G01 X6.4786 Y4.3892
G01 X6.4821 Y4.3825
G01 X6.4863 Y4.3763
G01 X6.4898 Y4.3718
G01 X6.4950 Y4.3664
G01 X6.5008 Y4.3615
G01 X6.5069 Y4.3571
G01 X6.5135 Y4.3534
G01 X6.5204 Y4.3503
G01 X6.5275 Y4.3480
G01 X6.5349 Y4.3463
G01 X6.5424 Y4.3454
G01 X6.5480 Y4.3452
G00 Z2.0000
G00 X6.5480 Y4.2454
G01 F40.00
G01 Z-0.1000
G01 F35.00
G01 X8.1480 Y4.2454
G01 X8.1610 Y4.2458
G01 X8.1739 Y4.2473
G01 X8.1867 Y4.2497
G01 X8.1993 Y4.2530
G01 X8.2116 Y4.2572
G01 X8.2274 Y4.2642
G01 X8.2388 Y4.2705
G01 X8.2497 Y4.2776
G01 X8.2601 Y4.2855
G01 X8.2729 Y4.2971
G01 X8.2818 Y4.3066
G01 X8.2899 Y4.3168
G01 X8.2972 Y4.3275
G01 X8.3058 Y4.3426
G01 X8.3112 Y4.3544
G01 X8.3157 Y4.3666
G01 X8.3193 Y4.3791
G01 X8.3212 Y4.3875
G01 X8.3233 Y4.4004
G01 X8.3242 Y4.4090
G01 X8.3246 Y4.4220
G01 X8.3246 Y6.0220
G01 X8.3238 Y6.0393
G01 X8.3212 Y6.0565
G01 X8.3170 Y6.0733
G01 X8.3112 Y6.0896
G01 X8.3058 Y6.1014
G01 X8.3017 Y6.1091
G01 X8.2972 Y6.1165
G01 X8.2899 Y6.1272
G01 X8.2818 Y6.1374
G01 X8.2729 Y6.1469
G01 X8.2666 Y6.1529
G01 X8.2567 Y6.1613
G01 X8.2497 Y6.1664
G01 X8.2388 Y6.1735
G01 X8.2274 Y6.1798
G01 X8.2196 Y6.1835
G01 X8.2075 Y6.1883
G01 X8.1951 Y6.1922
G01 X8.1867 Y6.1943
G01 X8.1739 Y6.1967
G01 X8.1610 Y6.1982
G01 X8.1480 Y6.1986
G01 X7.5708 Y6.1986
G01 X7.5708 Y7.0025
G01 X7.5901 Y7.0039
G01 X7.6187 Y7.0081
G01 X7.6315 Y7.0105
G01 X7.6678 Y7.0197
G01 X7.6992 Y7.0307
G01 X7.7113 Y7.0355
G01 X7.7451 Y7.0517
G01 X7.7810 Y7.0733
G01 X7.8147 Y7.0982
G01 X7.8394 Y7.1203
G01 X7.8487 Y7.1294
G01 X7.8738 Y7.1573
G01 X7.8987 Y7.1910
G01 X7.9203 Y7.2269
G01 X7.9382 Y7.2647
G01 X7.9523 Y7.3042
G01 X7.9624 Y7.3448
G01 X7.9686 Y7.3862
G01 X7.9704 Y7.4193
G01 X7.9706 Y8.1323
G01 X7.9690 Y8.1655
G01 X7.9675 Y8.1784
G01 X7.9624 Y8.2112
G01 X7.9535 Y8.2477
G01 X7.9495 Y8.2601
G01 X7.9382 Y8.2913
G01 X7.9223 Y8.3253
G01 X7.9160 Y8.3367
G01 X7.8987 Y8.3650
G01 X7.8791 Y8.3918
G01 X7.8710 Y8.4020
G01 X7.8457 Y8.4297
G01 X7.8180 Y8.4550
G01 X7.8078 Y8.4631
G01 X7.7810 Y8.4827
G01 X7.7527 Y8.5000
G01 X7.7413 Y8.5063
G01 X7.7073 Y8.5222
G01 X7.6720 Y8.5350
G01 X7.6595 Y8.5386
G01 X7.6272 Y8.5464
G01 X7.5944 Y8.5515
G01 X7.5815 Y8.5530
G01 X7.5440 Y8.5546
G01 X6.6440 Y8.5546
G01 X6.6022 Y8.5526
G01 X6.5608 Y8.5464
G01 X6.5243 Y8.5375
G01 X6.5119 Y8.5335
G01 X6.4807 Y8.5222
G01 X6.4429 Y8.5043
G01 X6.4106 Y8.4851
G01 X6.3999 Y8.4777
G01 X6.3733 Y8.4578
G01 X6.3486 Y8.4357
G01 X6.3393 Y8.4266
G01 X6.3142 Y8.3987
G01 X6.2917 Y8.3686
G01 X6.2846 Y8.3577
G01 X6.2677 Y8.3291
G01 X6.2515 Y8.2953
G01 X6.2482 Y8.2872
G01 X6.2385 Y8.2601
G01 X6.2334 Y8.2435
G01 X6.2256 Y8.2112
G01 X6.2205 Y8.1784
G01 X6.2190 Y8.1655
G01 X6.2174 Y8.1323
G01 X6.2174 Y7.4280
G01 X6.2190 Y7.3905
G01 X6.2205 Y7.3776
G01 X6.2256 Y7.3448
G01 X6.2357 Y7.3042
G01 X6.2482 Y7.2688
G01 X6.2533 Y7.2568
G01 X6.2677 Y7.2269
G01 X6.2893 Y7.1910
G01 X6.3142 Y7.1573
G01 X6.3363 Y7.1326
G01 X6.3486 Y7.1203
G01 X6.3700 Y7.1010
G01 X6.3767 Y7.0955
G01 X6.4070 Y7.0733
G01 X6.4353 Y7.0560
G01 X6.4506 Y7.0478
G01 X6.4767 Y7.0355
G01 X6.4848 Y7.0322
G01 X6.5202 Y7.0197
G01 X6.5565 Y7.0105
G01 X6.5693 Y7.0081
G01 X6.5979 Y7.0039
G01 X6.6172 Y7.0025
G01 X6.6172 Y6.1986
G01 X6.5437 Y6.1986
G01 X6.5307 Y6.1978
G01 X6.5135 Y6.1952
G01 X6.4967 Y6.1910
G01 X6.4804 Y6.1852
G01 X6.4725 Y6.1817
G01 X6.4609 Y6.1757
G01 X6.4463 Y6.1664
G01 X6.4393 Y6.1613
G01 X6.4294 Y6.1529
G01 X6.4231 Y6.1469
G01 X6.4142 Y6.1374
G01 X6.4087 Y6.1307
G01 X6.4011 Y6.1201
G01 X6.3922 Y6.1053
G01 X6.3865 Y6.0936
G01 X6.3832 Y6.0856
G01 X6.3803 Y6.0774
G01 X6.3767 Y6.0649
G01 X6.3733 Y6.0479
G01 X6.3718 Y6.0350
G01 X6.3714 Y6.0263
G01 X6.3714 Y4.4220
G01 X6.3722 Y4.4047
G01 X6.3740 Y4.3918
G01 X6.3778 Y4.3749
G01 X6.3832 Y4.3584
G01 X6.3902 Y4.3426
G01 X6.3965 Y4.3312
G01 X6.4061 Y4.3168
G01 X6.4171 Y4.3034
G01 X6.4294 Y4.2911
G01 X6.4393 Y4.2827
G01 X6.4535 Y4.2728
G01 X6.4686 Y4.2642
G01 X6.4844 Y4.2572
G01 X6.4967 Y4.2530
G01 X6.5135 Y4.2488
G01 X6.5307 Y4.2462
G01 X6.5480 Y4.2454
G00 Z2.0000
G00 X6.5174 Y6.2968
G01 F40.00
G01 Z-0.1000
G01 F35.00
G01 X6.5074 Y6.2955
G01 X6.4941 Y6.2932
G01 X6.4808 Y6.2902
G01 X6.4677 Y6.2866
G01 X6.4549 Y6.2823
G01 X6.4422 Y6.2774
G01 X6.4237 Y6.2690
G01 X6.4117 Y6.2626
G01 X6.4001 Y6.2556
G01 X6.3833 Y6.2441
G01 X6.3674 Y6.2314
G01 X6.3574 Y6.2222
G01 X6.3478 Y6.2126
G01 X6.3343 Y6.1974
G01 X6.3259 Y6.1867
G01 X6.3181 Y6.1756
G01 X6.3074 Y6.1583
G01 X6.3010 Y6.1463
G01 X6.2952 Y6.1340
G01 X6.2900 Y6.1215
G01 X6.2855 Y6.1087
G01 X6.2798 Y6.0892
G01 X6.2768 Y6.0759
G01 X6.2745 Y6.0626
G01 X6.2729 Y6.0491
G01 X6.2719 Y6.0356
G01 X6.2715 Y6.0220
G01 X6.2715 Y4.4220
G01 X6.2723 Y4.4017
G01 X6.2745 Y4.3814
G01 X6.2768 Y4.3681
G01 X6.2798 Y4.3548
G01 X6.2855 Y4.3353
G01 X6.2926 Y4.3162
G01 X6.2981 Y4.3038
G01 X6.3042 Y4.2917
G01 X6.3144 Y4.2741
G01 X6.3220 Y4.2628
G01 X6.3300 Y4.2519
G01 X6.3386 Y4.2414
G01 X6.3525 Y4.2265
G01 X6.3674 Y4.2126
G01 X6.3779 Y4.2040
G01 X6.3944 Y4.1921
G01 X6.4059 Y4.1849
G01 X6.4237 Y4.1750
G01 X6.4422 Y4.1666
G01 X6.4549 Y4.1617
G01 X6.4743 Y4.1555
G01 X6.4941 Y4.1508
G01 X6.5074 Y4.1485
G01 X6.5209 Y4.1469
G01 X6.5412 Y4.1456
G01 X8.1480 Y4.1455
G01 X8.1683 Y4.1463
G01 X8.1818 Y4.1476
G01 X8.1953 Y4.1496
G01 X8.2152 Y4.1538
G01 X8.2283 Y4.1574
G01 X8.2411 Y4.1617
G01 X8.2538 Y4.1666
G01 X8.2723 Y4.1750
G01 X8.2901 Y4.1849
G01 X8.3016 Y4.1921
G01 X8.3181 Y4.2040
G01 X8.3286 Y4.2126
G01 X8.3435 Y4.2265
G01 X8.3529 Y4.2363
G01 X8.3617 Y4.2466
G01 X8.3701 Y4.2573
G01 X8.3779 Y4.2684
G01 X8.3886 Y4.2857
G01 X8.3950 Y4.2977
G01 X8.4034 Y4.3162
G01 X8.4105 Y4.3353
G01 X8.4145 Y4.3483
G01 X8.4178 Y4.3614
G01 X8.4204 Y4.3747
G01 X8.4224 Y4.3882
G01 X8.4241 Y4.4084
G01 X8.4245 Y4.4220
G01 X8.4245 Y4.6708
G01 X8.4457 Y4.6354
G01 X8.4568 Y4.6183
G01 X8.5075 Y4.5498
G01 X8.5202 Y4.5339
G01 X8.5775 Y4.4706
G01 X8.5868 Y4.4608
G01 X8.5966 Y4.4515
G01 X8.6548 Y4.3987
G01 X8.6704 Y4.3856
G01 X8.7388 Y4.3348
G01 X8.7499 Y4.3269
G01 X8.7614 Y4.3197
G01 X8.8287 Y4.2793
G01 X8.8406 Y4.2726
G01 X8.8527 Y4.2665
G01 X8.9236 Y4.2330
G01 X8.9360 Y4.2275
G01 X8.9487 Y4.2226
G01 X9.0226 Y4.1961
G01 X9.0420 Y4.1900
G01 X9.1247 Y4.1692
G01 X9.1380 Y4.1662
G01 X9.1514 Y4.1639
G01 X9.2290 Y4.1524
G01 X9.2425 Y4.1507
G01 X9.2560 Y4.1497
G01 X9.3344 Y4.1459
G01 X9.3480 Y4.1455
G01 X9.3616 Y4.1459
G01 X9.4400 Y4.1497
G01 X9.4535 Y4.1507
G01 X9.4670 Y4.1524
G01 X9.5446 Y4.1639
G01 X9.5580 Y4.1662
G01 X9.5713 Y4.1692
G01 X9.6474 Y4.1883
G01 X9.6605 Y4.1919
G01 X9.6734 Y4.1961
G01 X9.7473 Y4.2226
G01 X9.7600 Y4.2275
G01 X9.7724 Y4.2330
G01 X9.8494 Y4.2695
G01 X9.8673 Y4.2793
G01 X9.9346 Y4.3197
G01 X9.9461 Y4.3269
G01 X9.9572 Y4.3348
G01 X10.0202 Y4.3815
G01 X10.0309 Y4.3899
G01 X10.0412 Y4.3987
G01 X10.1043 Y4.4561
G01 X10.1185 Y4.4706
G01 X10.1713 Y4.5288
G01 X10.1801 Y4.5391
G01 X10.1885 Y4.5498
G01 X10.2352 Y4.6128
G01 X10.2431 Y4.6239
G01 X10.2503 Y4.6354
G01 X10.2907 Y4.7027
G01 X10.2974 Y4.7146
G01 X10.3035 Y4.7267
G01 X10.3370 Y4.7976
G01 X10.3425 Y4.8100
G01 X10.3474 Y4.8227
G01 X10.3739 Y4.8966
G01 X10.3781 Y4.9095
G01 X10.3817 Y4.9226
G01 X10.4008 Y4.9987
G01 X10.4050 Y5.0187
G01 X10.4176 Y5.1030
G01 X10.4193 Y5.1165
G01 X10.4203 Y5.1300
G01 X10.4241 Y5.2084
G01 X10.4245 Y5.2220
G01 X10.4241 Y5.2356
G01 X10.4203 Y5.3140
G01 X10.4193 Y5.3275
G01 X10.4176 Y5.3410
G01 X10.4061 Y5.4186
G01 X10.4024 Y5.4386
G01 X10.3817 Y5.5214
G01 X10.3781 Y5.5345
G01 X10.3739 Y5.5474
G01 X10.3474 Y5.6213
G01 X10.3399 Y5.6402
G01 X10.3035 Y5.7173
G01 X10.2941 Y5.7354
G01 X10.2468 Y5.8144
G01 X10.2352 Y5.8312
G01 X10.2106 Y5.8643
G01 X10.2106 Y6.9173
G01 X10.2303 Y6.9223
G01 X10.2433 Y6.9262
G01 X10.2792 Y6.9391
G01 X10.2979 Y6.9471
G01 X10.3262 Y6.9606
G01 X10.3381 Y6.9670
G01 X10.3650 Y6.9830
G01 X10.3765 Y6.9902
G01 X10.3876 Y6.9981
G01 X10.4127 Y7.0168
G01 X10.4232 Y7.0254
G01 X10.4464 Y7.0464
G01 X10.4610 Y7.0606
G01 X10.4821 Y7.0837
G01 X10.4910 Y7.0940
G01 X10.5139 Y7.1244
G01 X10.5255 Y7.1412
G01 X10.5416 Y7.1680
G01 X10.5483 Y7.1798
G01 X10.5544 Y7.1919
G01 X10.5677 Y7.2203
G01 X10.5753 Y7.2392
G01 X10.5878 Y7.2752
G01 X10.5914 Y7.2882
G01 X10.5990 Y7.3186
G01 X10.6016 Y7.3320
G01 X10.6072 Y7.3697
G01 X10.6085 Y7.3832
G01 X10.6104 Y7.4212
G01 X10.6105 Y8.1280
G01 X10.6101 Y8.1416
G01 X10.6085 Y8.1728
G01 X10.6063 Y8.1931
G01 X10.6004 Y8.2307
G01 X10.5914 Y8.2678
G01 X10.5858 Y8.2873
G01 X10.5729 Y8.3232
G01 X10.5677 Y8.3357
G01 X10.5514 Y8.3702
G01 X10.5416 Y8.3880
G01 X10.5218 Y8.4205
G01 X10.5139 Y8.4316
G01 X10.4952 Y8.4567
G01 X10.4821 Y8.4723
G01 X10.4563 Y8.5003
G01 X10.4283 Y8.5261
G01 X10.4127 Y8.5392
G01 X10.3876 Y8.5579
G01 X10.3765 Y8.5658
G01 X10.3650 Y8.5730
G01 X10.3381 Y8.5890
G01 X10.3201 Y8.5984
G01 X10.2855 Y8.6144
G01 X10.2728 Y8.6193
G01 X10.2433 Y8.6298
G01 X10.2238 Y8.6354
G01 X10.1867 Y8.6444
G01 X10.1733 Y8.6467
G01 X10.1423 Y8.6512
G01 X10.1221 Y8.6529
G01 X10.0840 Y8.6545
G01 X9.1840 Y8.6545
G01 X9.1704 Y8.6541
G01 X9.1392 Y8.6525
G01 X9.1189 Y8.6503
G01 X9.0880 Y8.6456
G01 X9.0746 Y8.6430
G01 X9.0377 Y8.6337
G01 X9.0247 Y8.6298
G01 X8.9888 Y8.6169
G01 X8.9763 Y8.6117
G01 X8.9418 Y8.5954
G01 X8.9299 Y8.5890
G01 X8.9030 Y8.5730
G01 X8.8915 Y8.5658
G01 X8.8804 Y8.5579
G01 X8.8500 Y8.5350
G01 X8.8216 Y8.5096
G01 X8.8117 Y8.5003
G01 X8.8024 Y8.4904
G01 X8.7770 Y8.4620
G01 X8.7687 Y8.4513
G01 X8.7501 Y8.4261
G01 X8.7390 Y8.4090
G01 X8.7197 Y8.3762
G01 X8.7031 Y8.3419
G01 X8.6976 Y8.3295
G01 X8.6927 Y8.3168
G01 X8.6822 Y8.2873
G01 X8.6766 Y8.2678
G01 X8.6676 Y8.2307
G01 X8.6653 Y8.2173
G01 X8.6601 Y8.1796
G01 X8.6579 Y8.1416
G01 X8.6575 Y8.1280
G01 X8.6575 Y7.4280
G01 X8.6591 Y7.3899
G01 X8.6608 Y7.3697
G01 X8.6653 Y7.3387
G01 X8.6676 Y7.3253
G01 X8.6706 Y7.3120
G01 X8.6783 Y7.2817
G01 X8.6844 Y7.2623
G01 X8.6951 Y7.2328
G01 X8.7003 Y7.2203
G01 X8.7136 Y7.1919
G01 X8.7197 Y7.1798
G01 X8.7264 Y7.1680
G01 X8.7425 Y7.1412
G01 X8.7541 Y7.1244
G01 X8.7728 Y7.0993
G01 X8.7814 Y7.0888
G01 X8.8024 Y7.0656
G01 X8.8117 Y7.0557
G01 X8.8216 Y7.0464
G01 X8.8448 Y7.0254
G01 X8.8607 Y7.0127
G01 X8.8859 Y6.9941
G01 X8.8972 Y6.9865
G01 X8.9240 Y6.9704
G01 X8.9358 Y6.9637
G01 X8.9479 Y6.9576
G01 X8.9763 Y6.9443
G01 X8.9888 Y6.9391
G01 X9.0247 Y6.9262
G01 X9.0377 Y6.9223
G01 X9.0574 Y6.9173
G01 X9.0574 Y6.2579
G01 X9.0420 Y6.2540
G01 X9.0290 Y6.2501
G01 X8.9423 Y6.2191
G01 X8.9236 Y6.2110
G01 X8.8466 Y6.1745
G01 X8.8287 Y6.1647
G01 X8.7614 Y6.1243
G01 X8.7499 Y6.1171
G01 X8.7388 Y6.1092
G01 X8.6704 Y6.0584
G01 X8.6548 Y6.0453
G01 X8.5966 Y5.9925
G01 X8.5868 Y5.9832
G01 X8.5775 Y5.9734
G01 X8.5202 Y5.9101
G01 X8.5075 Y5.8942
G01 X8.4568 Y5.8257
G01 X8.4457 Y5.8086
G01 X8.4245 Y5.7732
G01 X8.4244 Y6.0288
G01 X8.4237 Y6.0423
G01 X8.4224 Y6.0558
G01 X8.4192 Y6.0759
G01 X8.4162 Y6.0892
G01 X8.4126 Y6.1023
G01 X8.4083 Y6.1151
G01 X8.4034 Y6.1278
G01 X8.3979 Y6.1402
G01 X8.3886 Y6.1583
G01 X8.3816 Y6.1699
G01 X8.3740 Y6.1812
G01 X8.3660 Y6.1921
G01 X8.3574 Y6.2026
G01 X8.3435 Y6.2175
G01 X8.3286 Y6.2314
G01 X8.3181 Y6.2400
G01 X8.3072 Y6.2480
G01 X8.2959 Y6.2556
G01 X8.2783 Y6.2658
G01 X8.2600 Y6.2748
G01 X8.2411 Y6.2823
G01 X8.2283 Y6.2866
G01 X8.2086 Y6.2918
G01 X8.1886 Y6.2955
G01 X8.1683 Y6.2977
G01 X8.1480 Y6.2985
G01 X7.6706 Y6.2985
G01 X7.6706 Y6.9173
G01 X7.6903 Y6.9223
G01 X7.7033 Y6.9262
G01 X7.7328 Y6.9367
G01 X7.7455 Y6.9416
G01 X7.7579 Y6.9471
G01 X7.7922 Y6.9637
G01 X7.8250 Y6.9830
G01 X7.8365 Y6.9902
G01 X7.8476 Y6.9981
G01 X7.8727 Y7.0168
G01 X7.8832 Y7.0254
G01 X7.9064 Y7.0464
G01 X7.9163 Y7.0557
G01 X7.9421 Y7.0837
G01 X7.9510 Y7.0940
G01 X7.9593 Y7.1047
G01 X7.9779 Y7.1299
G01 X7.9855 Y7.1412
G01 X8.0016 Y7.1680
G01 X8.0083 Y7.1798
G01 X8.0144 Y7.1919
G01 X8.0277 Y7.2203
G01 X8.0353 Y7.2392
G01 X8.0458 Y7.2687
G01 X8.0497 Y7.2817
G01 X8.0574 Y7.3120
G01 X8.0604 Y7.3253
G01 X8.0663 Y7.3629
G01 X8.0685 Y7.3832
G01 X8.0701 Y7.4144
G01 X8.0705 Y7.4280
G01 X8.0705 Y8.1280
G01 X8.0701 Y8.1416
G01 X8.0685 Y8.1728
G01 X8.0672 Y8.1863
G01 X8.0627 Y8.2173
G01 X8.0590 Y8.2374
G01 X8.0514 Y8.2678
G01 X8.0478 Y8.2808
G01 X8.0353 Y8.3168
G01 X8.0277 Y8.3357
G01 X8.0144 Y8.3641
G01 X8.0083 Y8.3762
G01 X7.9890 Y8.4090
G01 X7.9779 Y8.4261
G01 X7.9552 Y8.4567
G01 X7.9466 Y8.4672
G01 X7.9210 Y8.4954
G01 X7.9064 Y8.5096
G01 X7.8780 Y8.5350
G01 X7.8476 Y8.5579
G01 X7.8308 Y8.5695
G01 X7.8040 Y8.5856
G01 X7.7862 Y8.5954
G01 X7.7517 Y8.6117
G01 X7.7392 Y8.6169
G01 X7.7033 Y8.6298
G01 X7.6838 Y8.6354
G01 X7.6467 Y8.6444
G01 X7.6333 Y8.6467
G01 X7.5956 Y8.6519
G01 X7.5576 Y8.6541
G01 X7.5440 Y8.6545
G01 X6.6440 Y8.6545
G01 X6.6304 Y8.6541
G01 X6.5992 Y8.6525
G01 X6.5789 Y8.6503
G01 X6.5413 Y8.6444
G01 X6.5042 Y8.6354
G01 X6.4847 Y8.6298
G01 X6.4488 Y8.6169
G01 X6.4363 Y8.6117
G01 X6.4018 Y8.5954
G01 X6.3840 Y8.5856
G01 X6.3515 Y8.5658
G01 X6.3404 Y8.5579
G01 X6.3100 Y8.5350
G01 X6.2816 Y8.5096
G01 X6.2717 Y8.5003
G01 X6.2459 Y8.4723
G01 X6.2328 Y8.4567
G01 X6.2101 Y8.4261
G01 X6.1990 Y8.4090
G01 X6.1797 Y8.3762
G01 X6.1631 Y8.3419
G01 X6.1551 Y8.3232
G01 X6.1422 Y8.2873
G01 X6.1383 Y8.2743
G01 X6.1290 Y8.2374
G01 X6.1253 Y8.2173
G01 X6.1201 Y8.1796
G01 X6.1179 Y8.1416
G01 X6.1175 Y8.1280
G01 X6.1175 Y7.4280
G01 X6.1191 Y7.3899
G01 X6.1201 Y7.3764
G01 X6.1217 Y7.3629
G01 X6.1264 Y7.3320
G01 X6.1290 Y7.3186
G01 X6.1366 Y7.2882
G01 X6.1402 Y7.2752
G01 X6.1527 Y7.2392
G01 X6.1576 Y7.2265
G01 X6.1631 Y7.2141
G01 X6.1797 Y7.1798
G01 X6.1990 Y7.1470
G01 X6.2062 Y7.1355
G01 X6.2141 Y7.1244
G01 X6.2328 Y7.0993
G01 X6.2414 Y7.0888
G01 X6.2624 Y7.0656
G01 X6.2717 Y7.0557
G01 X6.2816 Y7.0464
G01 X6.3048 Y7.0254
G01 X6.3153 Y7.0168
G01 X6.3404 Y6.9981
G01 X6.3572 Y6.9865
G01 X6.3840 Y6.9704
G01 X6.3958 Y6.9637
G01 X6.4079 Y6.9576
G01 X6.4363 Y6.9443
G01 X6.4488 Y6.9391
G01 X6.4847 Y6.9262
G01 X6.4977 Y6.9223
G01 X6.5174 Y6.9173
G01 X6.5174 Y6.2968
G00 Z2.0000
G00 X9.1572 Y6.1798
G01 F40.00
G01 Z-0.1000
G01 F35.00
G01 X9.0645 Y6.1566
G01 X8.9743 Y6.1243
G01 X8.8876 Y6.0833
G01 X8.8054 Y6.0340
G01 X8.7284 Y5.9770
G01 X8.6574 Y5.9126
G01 X8.5930 Y5.8416
G01 X8.5360 Y5.7646
G01 X8.4867 Y5.6824
G01 X8.4457 Y5.5957
G01 X8.4134 Y5.5055
G01 X8.3901 Y5.4125
G01 X8.3761 Y5.3177
G01 X8.3714 Y5.2220
G01 X8.3761 Y5.1263
G01 X8.3901 Y5.0315
G01 X8.4134 Y4.9385
G01 X8.4457 Y4.8483
G01 X8.4867 Y4.7616
G01 X8.5360 Y4.6794
G01 X8.5930 Y4.6024
G01 X8.6574 Y4.5314
G01 X8.7284 Y4.4670
G01 X8.8054 Y4.4100
G01 X8.8876 Y4.3607
G01 X8.9743 Y4.3197
G01 X9.0645 Y4.2874
G01 X9.1575 Y4.2641
G01 X9.2523 Y4.2501
G01 X9.3480 Y4.2454
G01 X9.4437 Y4.2501
G01 X9.5385 Y4.2641
G01 X9.6315 Y4.2874
G01 X9.7137 Y4.3166
G01 X9.7297 Y4.3232
G01 X9.8084 Y4.3607
G01 X9.8833 Y4.4053
G01 X9.8977 Y4.4149
G01 X9.9676 Y4.4670
G01 X10.0386 Y4.5314
G01 X10.1030 Y4.6024
G01 X10.1551 Y4.6723
G01 X10.1647 Y4.6867
G01 X10.2093 Y4.7616
G01 X10.2503 Y4.8483
G01 X10.2799 Y4.9303
G01 X10.2849 Y4.9469
G01 X10.3040 Y5.0230
G01 X10.3067 Y5.0357
G01 X10.3199 Y5.1263
G01 X10.3246 Y5.2220
G01 X10.3199 Y5.3177
G01 X10.3074 Y5.4040
G01 X10.3040 Y5.4210
G01 X10.2826 Y5.5055
G01 X10.2534 Y5.5877
G01 X10.2468 Y5.6037
G01 X10.2132 Y5.6746
G01 X10.2050 Y5.6899
G01 X10.1600 Y5.7646
G01 X10.1108 Y5.8314
G01 X10.1108 Y7.0025
G01 X10.1301 Y7.0039
G01 X10.1587 Y7.0081
G01 X10.1715 Y7.0105
G01 X10.2078 Y7.0197
G01 X10.2432 Y7.0322
G01 X10.2513 Y7.0355
G01 X10.2774 Y7.0478
G01 X10.2927 Y7.0560
G01 X10.3210 Y7.0733
G01 X10.3513 Y7.0955
G01 X10.3580 Y7.1010
G01 X10.3794 Y7.1203
G01 X10.3917 Y7.1326
G01 X10.4138 Y7.1573
G01 X10.4363 Y7.1874
G01 X10.4434 Y7.1983
G01 X10.4582 Y7.2231
G01 X10.4623 Y7.2307
G01 X10.4782 Y7.2647
G01 X10.4895 Y7.2959
G01 X10.4946 Y7.3125
G01 X10.5015 Y7.3405
G01 X10.5032 Y7.3490
G01 X10.5086 Y7.3862
G01 X10.5106 Y7.4237
G01 X10.5106 Y8.1280
G01 X10.5090 Y8.1655
G01 X10.5075 Y8.1784
G01 X10.5024 Y8.2112
G01 X10.4923 Y8.2518
G01 X10.4798 Y8.2872
G01 X10.4747 Y8.2992
G01 X10.4603 Y8.3291
G01 X10.4434 Y8.3577
G01 X10.4363 Y8.3686
G01 X10.4138 Y8.3987
G01 X10.3887 Y8.4266
G01 X10.3794 Y8.4357
G01 X10.3547 Y8.4578
G01 X10.3246 Y8.4803
G01 X10.3174 Y8.4851
G01 X10.2927 Y8.5000
G01 X10.2774 Y8.5082
G01 X10.2473 Y8.5222
G01 X10.2161 Y8.5335
G01 X10.2037 Y8.5375
G01 X10.1757 Y8.5445
G01 X10.1630 Y8.5472
G01 X10.1301 Y8.5521
G01 X10.1215 Y8.5530
G01 X10.0927 Y8.5544
G01 X9.1840 Y8.5546
G01 X9.1508 Y8.5532
G01 X9.1379 Y8.5521
G01 X9.1050 Y8.5472
G01 X9.0923 Y8.5445
G01 X9.0602 Y8.5363
G01 X9.0288 Y8.5253
G01 X9.0167 Y8.5205
G01 X8.9829 Y8.5043
G01 X8.9543 Y8.4874
G01 X8.9434 Y8.4803
G01 X8.9133 Y8.4578
G01 X8.8886 Y8.4357
G01 X8.8793 Y8.4266
G01 X8.8570 Y8.4020
G01 X8.8489 Y8.3918
G01 X8.8293 Y8.3650
G01 X8.8098 Y8.3329
G01 X8.8038 Y8.3214
G01 X8.7915 Y8.2953
G01 X8.7867 Y8.2832
G01 X8.7757 Y8.2518
G01 X8.7675 Y8.2197
G01 X8.7648 Y8.2070
G01 X8.7599 Y8.1741
G01 X8.7590 Y8.1655
G01 X8.7576 Y8.1367
G01 X8.7574 Y7.4280
G01 X8.7594 Y7.3862
G01 X8.7648 Y7.3490
G01 X8.7675 Y7.3363
G01 X8.7745 Y7.3083
G01 X8.7770 Y7.3000
G01 X8.7867 Y7.2728
G01 X8.7915 Y7.2607
G01 X8.8038 Y7.2346
G01 X8.8120 Y7.2193
G01 X8.8293 Y7.1910
G01 X8.8542 Y7.1573
G01 X8.8823 Y7.1263
G01 X8.9100 Y7.1010
G01 X8.9167 Y7.0955
G01 X8.9399 Y7.0783
G01 X8.9543 Y7.0686
G01 X8.9791 Y7.0538
G01 X8.9867 Y7.0497
G01 X9.0128 Y7.0373
G01 X9.0248 Y7.0322
G01 X9.0602 Y7.0197
G01 X9.0965 Y7.0105
G01 X9.1093 Y7.0081
G01 X9.1379 Y7.0039
G01 X9.1572 Y7.0025
G01 X9.1572 Y6.1798
G00 Z2.0000
G00 X9.2570 Y6.0939
G01 F40.00
G01 Z-0.1000
G01 F35.00
G01 X9.1769 Y6.0820
G01 X9.0935 Y6.0610
G01 X9.0125 Y6.0321
G01 X8.9347 Y5.9953
G01 X8.8609 Y5.9510
G01 X8.7918 Y5.8998
G01 X8.7280 Y5.8420
G01 X8.6702 Y5.7782
G01 X8.6190 Y5.7091
G01 X8.5747 Y5.6353
G01 X8.5379 Y5.5575
G01 X8.5090 Y5.4765
G01 X8.4880 Y5.3931
G01 X8.4754 Y5.3079
G01 X8.4712 Y5.2220
G01 X8.4754 Y5.1361
G01 X8.4880 Y5.0509
G01 X8.5090 Y4.9675
G01 X8.5379 Y4.8865
G01 X8.5747 Y4.8087
G01 X8.6190 Y4.7349
G01 X8.6702 Y4.6658
G01 X8.7280 Y4.6020
G01 X8.7918 Y4.5442
G01 X8.8609 Y4.4930
G01 X8.9347 Y4.4487
G01 X9.0125 Y4.4119
G01 X9.0935 Y4.3830
G01 X9.1769 Y4.3620
G01 X9.2621 Y4.3494
G01 X9.3480 Y4.3452
G01 X9.4339 Y4.3494
G01 X9.5191 Y4.3620
G01 X9.5989 Y4.3819
G01 X9.6061 Y4.3841
G01 X9.6800 Y4.4106
G01 X9.6870 Y4.4135
G01 X9.7613 Y4.4487
G01 X9.8351 Y4.4930
G01 X9.9042 Y4.5442
G01 X9.9653 Y4.5994
G01 X9.9706 Y4.6047
G01 X10.0233 Y4.6629
G01 X10.0281 Y4.6687
G01 X10.0770 Y4.7349
G01 X10.1213 Y4.8087
G01 X10.1565 Y4.8830
G01 X10.1594 Y4.8900
G01 X10.1870 Y4.9675
G01 X10.2080 Y5.0509
G01 X10.2206 Y5.1361
G01 X10.2247 Y5.2182
G01 X10.2247 Y5.2258
G01 X10.2206 Y5.3079
G01 X10.2086 Y5.3893
G01 X10.2071 Y5.3967
G01 X10.1876 Y5.4747
G01 X10.1581 Y5.5575
G01 X10.1204 Y5.6370
G01 X10.0760 Y5.7107
G01 X10.0270 Y5.7768
G01 X10.0109 Y5.7947
G01 X10.0110 Y7.1012
G01 X10.0859 Y7.1012
G01 X10.1142 Y7.1026
G01 X10.1478 Y7.1075
G01 X10.1771 Y7.1147
G01 X10.2091 Y7.1261
G01 X10.2381 Y7.1398
G01 X10.2656 Y7.1563
G01 X10.2913 Y7.1754
G01 X10.3151 Y7.1969
G01 X10.3342 Y7.2178
G01 X10.3389 Y7.2237
G01 X10.3536 Y7.2434
G01 X10.3577 Y7.2496
G01 X10.3722 Y7.2739
G01 X10.3844 Y7.2995
G01 X10.3873 Y7.3065
G01 X10.3967 Y7.3331
G01 X10.4045 Y7.3642
G01 X10.4092 Y7.3960
G01 X10.4108 Y7.4280
G01 X10.4108 Y8.1280
G01 X10.4092 Y8.1600
G01 X10.4045 Y8.1918
G01 X10.3967 Y8.2229
G01 X10.3873 Y8.2495
G01 X10.3844 Y8.2565
G01 X10.3722 Y8.2821
G01 X10.3577 Y8.3064
G01 X10.3536 Y8.3126
G01 X10.3366 Y8.3353
G01 X10.3151 Y8.3591
G01 X10.2942 Y8.3782
G01 X10.2883 Y8.3829
G01 X10.2656 Y8.3997
G01 X10.2413 Y8.4144
G01 X10.2347 Y8.4179
G01 X10.2091 Y8.4299
G01 X10.1789 Y8.4407
G01 X10.1478 Y8.4485
G01 X10.1160 Y8.4532
G01 X10.0859 Y8.4548
G01 X9.1840 Y8.4548
G01 X9.1501 Y8.4530
G01 X9.1202 Y8.4485
G01 X9.0928 Y8.4417
G01 X9.0856 Y8.4395
G01 X9.0589 Y8.4299
G01 X9.0333 Y8.4179
G01 X9.0267 Y8.4144
G01 X9.0024 Y8.3997
G01 X8.9797 Y8.3829
G01 X8.9738 Y8.3782
G01 X8.9529 Y8.3591
G01 X8.9338 Y8.3382
G01 X8.9291 Y8.3323
G01 X8.9123 Y8.3096
G01 X8.8976 Y8.2853
G01 X8.8941 Y8.2787
G01 X8.8821 Y8.2531
G01 X8.8713 Y8.2229
G01 X8.8635 Y8.1918
G01 X8.8588 Y8.1600
G01 X8.8572 Y8.1280
G01 X8.8572 Y7.4261
G01 X8.8588 Y7.3960
G01 X8.8628 Y7.3680
G01 X8.8643 Y7.3606
G01 X8.8718 Y7.3313
G01 X8.8821 Y7.3029
G01 X8.8958 Y7.2739
G01 X8.9123 Y7.2464
G01 X8.9314 Y7.2207
G01 X8.9529 Y7.1969
G01 X8.9767 Y7.1754
G01 X9.0024 Y7.1563
G01 X9.0267 Y7.1416
G01 X9.0333 Y7.1381
G01 X9.0555 Y7.1276
G01 X9.0625 Y7.1247
G01 X9.0891 Y7.1153
G01 X9.1221 Y7.1071
G01 X9.1520 Y7.1028
G01 X9.1802 Y7.1013
G01 X9.2571 Y7.1012
G01 X9.2570 Y6.0939
G00 Z2.0000
G00 X10.0976 Y8.9019
G01 F40.00
G01 Z-0.1000
G01 F35.00
G01 X10.1356 Y8.9041
G01 X10.1733 Y8.9093
G01 X10.1934 Y8.9130
G01 X10.2238 Y8.9206
G01 X10.2368 Y8.9242
G01 X10.2497 Y8.9284
G01 X10.2792 Y8.9391
G01 X10.2979 Y8.9471
G01 X10.3322 Y8.9637
G01 X10.3440 Y8.9704
G01 X10.3708 Y8.9865
G01 X10.3876 Y8.9981
G01 X10.4127 Y9.0168
G01 X10.4232 Y9.0254
G01 X10.4464 Y9.0464
G01 X10.4563 Y9.0557
G01 X10.4656 Y9.0656
G01 X10.4866 Y9.0888
G01 X10.4952 Y9.0993
G01 X10.5139 Y9.1244
G01 X10.5255 Y9.1412
G01 X10.5450 Y9.1739
G01 X10.5514 Y9.1858
G01 X10.5589 Y9.2014
G01 X10.8862 Y9.2014
G01 X10.8862 Y9.0828
G01 X10.8879 Y9.0398
G01 X10.8889 Y9.0263
G01 X10.8906 Y9.0128
G01 X10.8960 Y8.9770
G01 X10.8987 Y8.9637
G01 X10.9074 Y8.9285
G01 X10.9110 Y8.9154
G01 X10.9153 Y8.9025
G01 X10.9301 Y8.8621
G01 X10.9415 Y8.8371
G01 X10.9543 Y8.8110
G01 X10.9761 Y8.7739
G01 X10.9872 Y8.7568
G01 X11.0087 Y8.7277
G01 X11.0171 Y8.7170
G01 X11.0259 Y8.7067
G01 X11.0551 Y8.6751
G01 X11.6748 Y8.0553
G01 X11.6495 Y8.0398
G01 X11.6384 Y8.0319
G01 X11.6133 Y8.0132
G01 X11.5977 Y8.0001
G01 X11.5697 Y7.9743
G01 X11.5604 Y7.9644
G01 X11.5394 Y7.9412
G01 X11.5267 Y7.9253
G01 X11.5042 Y7.8945
G01 X11.4844 Y7.8620
G01 X11.4746 Y7.8442
G01 X11.4611 Y7.8159
G01 X11.4556 Y7.8035
G01 X11.4424 Y7.7677
G01 X11.4363 Y7.7483
G01 X11.4270 Y7.7113
G01 X11.4233 Y7.6913
G01 X11.4181 Y7.6536
G01 X11.4159 Y7.6156
G01 X11.4155 Y7.6020
G01 X11.4155 Y6.6520
G01 X11.4159 Y6.6384
G01 X11.4181 Y6.6004
G01 X11.4197 Y6.5869
G01 X11.4256 Y6.5493
G01 X11.4346 Y6.5122
G01 X11.4402 Y6.4927
G01 X11.4531 Y6.4568
G01 X11.4611 Y6.4381
G01 X11.4746 Y6.4098
G01 X11.4844 Y6.3920
G01 X11.5042 Y6.3595
G01 X11.5267 Y6.3287
G01 X11.5394 Y6.3128
G01 X11.5650 Y6.2846
G01 X11.5796 Y6.2704
G01 X11.6080 Y6.2450
G01 X11.6384 Y6.2221
G01 X11.6495 Y6.2142
G01 X11.6820 Y6.1944
G01 X11.6938 Y6.1877
G01 X11.7029 Y6.1831
G01 X11.7029 Y5.6283
G01 X11.6700 Y5.6090
G01 X11.6529 Y5.5979
G01 X11.6223 Y5.5752
G01 X11.6067 Y5.5621
G01 X11.5787 Y5.5363
G01 X11.5529 Y5.5083
G01 X11.5398 Y5.4927
G01 X11.5211 Y5.4676
G01 X11.5132 Y5.4565
G01 X11.4934 Y5.4240
G01 X11.4836 Y5.4062
G01 X11.4673 Y5.3717
G01 X11.4597 Y5.3528
G01 X11.4472 Y5.3168
G01 X11.4376 Y5.2800
G01 X11.4334 Y5.2600
G01 X11.4287 Y5.2291
G01 X11.4271 Y5.2156
G01 X11.4249 Y5.1776
G01 X11.4245 Y5.1640
G01 X11.4245 Y4.2640
G01 X11.4261 Y4.2259
G01 X11.4278 Y4.2057
G01 X11.4334 Y4.1680
G01 X11.4360 Y4.1546
G01 X11.4453 Y4.1177
G01 X11.4514 Y4.0983
G01 X11.4646 Y4.0625
G01 X11.4806 Y4.0279
G01 X11.4867 Y4.0158
G01 X11.5060 Y3.9830
G01 X11.5171 Y3.9659
G01 X11.5398 Y3.9353
G01 X11.5529 Y3.9197
G01 X11.5787 Y3.8917
G01 X11.6067 Y3.8659
G01 X11.6223 Y3.8528
G01 X11.6529 Y3.8301
G01 X11.6700 Y3.8190
G01 X11.7028 Y3.7997
G01 X11.7371 Y3.7831
G01 X11.7495 Y3.7776
G01 X11.7853 Y3.7644
G01 X11.8047 Y3.7583
G01 X11.8416 Y3.7490
G01 X11.8617 Y3.7453
G01 X11.8994 Y3.7401
G01 X11.9374 Y3.7379
G01 X11.9510 Y3.7375
G01 X12.6510 Y3.7375
G01 X12.6891 Y3.7391
G01 X12.7093 Y3.7408
G01 X12.7470 Y3.7464
G01 X12.7604 Y3.7490
G01 X12.7973 Y3.7583
G01 X12.8167 Y3.7644
G01 X12.8525 Y3.7776
G01 X12.8649 Y3.7831
G01 X12.8992 Y3.7997
G01 X12.9110 Y3.8064
G01 X12.9378 Y3.8225
G01 X12.9546 Y3.8341
G01 X12.9850 Y3.8570
G01 X13.0134 Y3.8824
G01 X13.0280 Y3.8966
G01 X13.0536 Y3.9248
G01 X13.0663 Y3.9407
G01 X13.0888 Y3.9715
G01 X13.0960 Y3.9830
G01 X13.1120 Y4.0099
G01 X13.1214 Y4.0279
G01 X13.1374 Y4.0625
G01 X13.1506 Y4.0983
G01 X13.1567 Y4.1177
G01 X13.1644 Y4.1480
G01 X13.1674 Y4.1613
G01 X13.1733 Y4.1989
G01 X13.1755 Y4.2192
G01 X13.1771 Y4.2504
G01 X13.1775 Y4.2640
G01 X13.1775 Y5.1640
G01 X13.1771 Y5.1776
G01 X13.1749 Y5.2156
G01 X13.1697 Y5.2533
G01 X13.1660 Y5.2734
G01 X13.1567 Y5.3103
G01 X13.1506 Y5.3297
G01 X13.1374 Y5.3655
G01 X13.1214 Y5.4001
G01 X13.1120 Y5.4181
G01 X13.0925 Y5.4508
G01 X13.0809 Y5.4676
G01 X13.0580 Y5.4980
G01 X13.0326 Y5.5264
G01 X13.0184 Y5.5410
G01 X12.9902 Y5.5666
G01 X12.9743 Y5.5793
G01 X12.9435 Y5.6018
G01 X12.9110 Y5.6216
G01 X12.8932 Y5.6314
G01 X12.8561 Y5.6488
G01 X12.8561 Y6.1831
G01 X12.8652 Y6.1877
G01 X12.8770 Y6.1944
G01 X12.9095 Y6.2142
G01 X12.9403 Y6.2367
G01 X12.9562 Y6.2494
G01 X12.9844 Y6.2750
G01 X12.9986 Y6.2896
G01 X13.0240 Y6.3180
G01 X13.0323 Y6.3287
G01 X13.0509 Y6.3539
G01 X13.0620 Y6.3710
G01 X13.0813 Y6.4038
G01 X13.0979 Y6.4381
G01 X13.1059 Y6.4568
G01 X13.1188 Y6.4927
G01 X13.1244 Y6.5122
G01 X13.1334 Y6.5493
G01 X13.1393 Y6.5869
G01 X13.1415 Y6.6072
G01 X13.1431 Y6.6384
G01 X13.1435 Y6.6520
G01 X13.1435 Y7.6020
G01 X13.1419 Y7.6401
G01 X13.1402 Y7.6603
G01 X13.1357 Y7.6913
G01 X13.1334 Y7.7047
G01 X13.1244 Y7.7418
G01 X13.1188 Y7.7613
G01 X13.1059 Y7.7972
G01 X13.0979 Y7.8159
G01 X13.0813 Y7.8502
G01 X13.0620 Y7.8830
G01 X13.0509 Y7.9001
G01 X13.0323 Y7.9253
G01 X13.0240 Y7.9360
G01 X12.9986 Y7.9644
G01 X12.9844 Y7.9790
G01 X12.9562 Y8.0046
G01 X12.9403 Y8.0173
G01 X12.9095 Y8.0398
G01 X12.8770 Y8.0596
G01 X12.8652 Y8.0663
G01 X12.8561 Y8.0709
G01 X12.8560 Y8.2729
G01 X12.8544 Y8.3091
G01 X12.8534 Y8.3226
G01 X12.8517 Y8.3361
G01 X12.8451 Y8.3786
G01 X12.8349 Y8.4204
G01 X12.8313 Y8.4335
G01 X12.8270 Y8.4464
G01 X12.8122 Y8.4868
G01 X12.8008 Y8.5118
G01 X12.7880 Y8.5379
G01 X12.7662 Y8.5750
G01 X12.7590 Y8.5865
G01 X12.7511 Y8.5976
G01 X12.7252 Y8.6319
G01 X12.7164 Y8.6422
G01 X12.6872 Y8.6738
G01 X12.0394 Y9.3216
G01 X12.0394 Y10.3172
G01 X12.2976 Y10.5754
G01 X14.3858 Y10.5756
G01 X14.4140 Y10.5770
G01 X14.4275 Y10.5783
G01 X14.4555 Y10.5825
G01 X14.4688 Y10.5851
G01 X14.4963 Y10.5920
G01 X14.5093 Y10.5959
G01 X14.5359 Y10.6055
G01 X14.5484 Y10.6107
G01 X14.5740 Y10.6228
G01 X14.5918 Y10.6326
G01 X14.6159 Y10.6474
G01 X14.6389 Y10.6640
G01 X14.6547 Y10.6767
G01 X14.6757 Y10.6957
G01 X14.6899 Y10.7103
G01 X14.7087 Y10.7314
G01 X14.7258 Y10.7540
G01 X14.7373 Y10.7707
G01 X14.7518 Y10.7950
G01 X14.7612 Y10.8131
G01 X14.7730 Y10.8388
G01 X14.7829 Y10.8653
G01 X14.7890 Y10.8847
G01 X14.7959 Y10.9122
G01 X14.7985 Y10.9255
G01 X14.8027 Y10.9535
G01 X14.8040 Y10.9670
G01 X14.8054 Y10.9952
G01 X14.8055 Y11.3020
G01 X14.8040 Y11.3370
G01 X14.8018 Y11.3573
G01 X14.7973 Y11.3852
G01 X14.7943 Y11.3984
G01 X14.7871 Y11.4258
G01 X14.7779 Y11.4525
G01 X14.7730 Y11.4652
G01 X14.7612 Y11.4909
G01 X14.7518 Y11.5090
G01 X14.7373 Y11.5333
G01 X14.7258 Y11.5500
G01 X14.7087 Y11.5726
G01 X14.6853 Y11.5987
G01 X14.6707 Y11.6129
G01 X14.6496 Y11.6317
G01 X14.6270 Y11.6488
G01 X14.6103 Y11.6603
G01 X14.5800 Y11.6781
G01 X14.5546 Y11.6905
G01 X14.5359 Y11.6985
G01 X14.5093 Y11.7081
G01 X14.4897 Y11.7137
G01 X14.4622 Y11.7203
G01 X14.4343 Y11.7248
G01 X14.4140 Y11.7270
G01 X14.3790 Y11.7285
G01 X12.0588 Y11.7286
G01 X12.0452 Y11.7283
G01 X12.0023 Y11.7259
G01 X11.9888 Y11.7242
G01 X11.9530 Y11.7188
G01 X11.9397 Y11.7161
G01 X11.9045 Y11.7074
G01 X11.8849 Y11.7018
G01 X11.8444 Y11.6873
G01 X11.8319 Y11.6821
G01 X11.8131 Y11.6733
G01 X11.7930 Y11.6637
G01 X11.7810 Y11.6573
G01 X11.7441 Y11.6352
G01 X11.7273 Y11.6236
G01 X11.6983 Y11.6020
G01 X11.6878 Y11.5934
G01 X11.6609 Y11.5691
G01 X11.6511 Y11.5597
G01 X11.0551 Y10.9637
G01 X11.0259 Y10.9321
G01 X11.0128 Y10.9165
G01 X10.9872 Y10.8820
G01 X10.9761 Y10.8649
G01 X10.9543 Y10.8278
G01 X10.9396 Y10.7976
G01 X10.9327 Y10.7829
G01 X10.9275 Y10.7704
G01 X10.9130 Y10.7299
G01 X10.9074 Y10.7103
G01 X10.8987 Y10.6751
G01 X10.8949 Y10.6551
G01 X10.8897 Y10.6193
G01 X10.8884 Y10.6058
G01 X10.8865 Y10.5696
G01 X10.8862 Y10.5560
G01 X10.8862 Y10.3546
G01 X10.5589 Y10.3546
G01 X10.5514 Y10.3702
G01 X10.5450 Y10.3821
G01 X10.5255 Y10.4148
G01 X10.5139 Y10.4316
G01 X10.4952 Y10.4567
G01 X10.4866 Y10.4672
G01 X10.4610 Y10.4954
G01 X10.4464 Y10.5096
G01 X10.4180 Y10.5350
G01 X10.4073 Y10.5433
G01 X10.3821 Y10.5619
G01 X10.3650 Y10.5730
G01 X10.3322 Y10.5923
G01 X10.3201 Y10.5984
G01 X10.2917 Y10.6117
G01 X10.2728 Y10.6193
G01 X10.2368 Y10.6318
G01 X10.2000 Y10.6414
G01 X10.1800 Y10.6456
G01 X10.1491 Y10.6503
G01 X10.1356 Y10.6519
G01 X10.0976 Y10.6541
G01 X10.0840 Y10.6545
G01 X9.1840 Y10.6545
G01 X9.1704 Y10.6541
G01 X9.1392 Y10.6525
G01 X9.1189 Y10.6503
G01 X9.0880 Y10.6456
G01 X9.0746 Y10.6430
G01 X9.0442 Y10.6354
G01 X9.0312 Y10.6318
G01 X9.0183 Y10.6276
G01 X8.9888 Y10.6169
G01 X8.9763 Y10.6117
G01 X8.9479 Y10.5984
G01 X8.9299 Y10.5890
G01 X8.9030 Y10.5730
G01 X8.8915 Y10.5658
G01 X8.8607 Y10.5433
G01 X8.8448 Y10.5306
G01 X8.8166 Y10.5050
G01 X8.8070 Y10.4954
G01 X8.7814 Y10.4672
G01 X8.7687 Y10.4513
G01 X8.7462 Y10.4205
G01 X8.7390 Y10.4090
G01 X8.7197 Y10.3762
G01 X8.7031 Y10.3419
G01 X8.6976 Y10.3295
G01 X8.6844 Y10.2937
G01 X8.6802 Y10.2808
G01 X8.6766 Y10.2678
G01 X8.6676 Y10.2307
G01 X8.6617 Y10.1931
G01 X8.6595 Y10.1728
G01 X8.6579 Y10.1416
G01 X8.6575 Y10.1280
G01 X8.6575 Y9.4280
G01 X8.6579 Y9.4144
G01 X8.6601 Y9.3764
G01 X8.6617 Y9.3629
G01 X8.6664 Y9.3320
G01 X8.6706 Y9.3120
G01 X8.6802 Y9.2752
G01 X8.6844 Y9.2623
G01 X8.6951 Y9.2328
G01 X8.7003 Y9.2203
G01 X8.7136 Y9.1919
G01 X8.7230 Y9.1739
G01 X8.7390 Y9.1470
G01 X8.7462 Y9.1355
G01 X8.7687 Y9.1047
G01 X8.7814 Y9.0888
G01 X8.8024 Y9.0656
G01 X8.8117 Y9.0557
G01 X8.8216 Y9.0464
G01 X8.8448 Y9.0254
G01 X8.8553 Y9.0168
G01 X8.8859 Y8.9941
G01 X8.9030 Y8.9830
G01 X8.9299 Y8.9670
G01 X8.9418 Y8.9606
G01 X8.9763 Y8.9443
G01 X8.9888 Y8.9391
G01 X9.0247 Y8.9262
G01 X9.0377 Y8.9223
G01 X9.0746 Y8.9130
G01 X9.0947 Y8.9093
G01 X9.1324 Y8.9041
G01 X9.1704 Y8.9019
G01 X9.1840 Y8.9015
G01 X10.0840 Y8.9015
G01 X10.0976 Y8.9019
G00 Z2.0000
G00 X10.0927 Y9.0016
G01 F40.00
G01 Z-0.1000
G01 F35.00
G01 X10.1258 Y9.0034
G01 X10.1630 Y9.0088
G01 X10.1715 Y9.0105
G01 X10.1995 Y9.0174
G01 X10.2161 Y9.0225
G01 X10.2473 Y9.0338
G01 X10.2851 Y9.0517
G01 X10.3210 Y9.0733
G01 X10.3478 Y9.0929
G01 X10.3612 Y9.1039
G01 X10.3826 Y9.1233
G01 X10.3887 Y9.1294
G01 X10.4138 Y9.1573
G01 X10.4363 Y9.1874
G01 X10.4411 Y9.1946
G01 X10.4560 Y9.2193
G01 X10.4642 Y9.2346
G01 X10.4782 Y9.2647
G01 X10.4913 Y9.3012
G01 X10.9860 Y9.3012
G01 X10.9861 Y9.0785
G01 X10.9883 Y9.0361
G01 X10.9944 Y8.9940
G01 X10.9971 Y8.9813
G01 X11.0065 Y8.9444
G01 X11.0223 Y8.9003
G01 X11.0423 Y8.8580
G01 X11.0664 Y8.8179
G01 X11.0942 Y8.7803
G01 X11.1257 Y8.7457
G01 X11.8027 Y8.0686
G01 X11.8027 Y8.0050
G01 X11.7828 Y7.9978
G01 X11.7747 Y7.9945
G01 X11.7486 Y7.9822
G01 X11.7371 Y7.9762
G01 X11.7050 Y7.9567
G01 X11.6747 Y7.9345
G01 X11.6680 Y7.9290
G01 X11.6466 Y7.9097
G01 X11.6343 Y7.8974
G01 X11.6122 Y7.8727
G01 X11.5873 Y7.8390
G01 X11.5678 Y7.8069
G01 X11.5618 Y7.7954
G01 X11.5478 Y7.7653
G01 X11.5365 Y7.7341
G01 X11.5325 Y7.7217
G01 X11.5236 Y7.6852
G01 X11.5185 Y7.6524
G01 X11.5170 Y7.6395
G01 X11.5154 Y7.6020
G01 X11.5154 Y6.6520
G01 X11.5174 Y6.6102
G01 X11.5236 Y6.5688
G01 X11.5325 Y6.5323
G01 X11.5365 Y6.5199
G01 X11.5478 Y6.4887
G01 X11.5618 Y6.4586
G01 X11.5678 Y6.4471
G01 X11.5873 Y6.4150
G01 X11.6069 Y6.3882
G01 X11.6150 Y6.3780
G01 X11.6403 Y6.3503
G01 X11.6648 Y6.3279
G01 X11.6747 Y6.3195
G01 X11.7014 Y6.2997
G01 X11.7123 Y6.2926
G01 X11.7371 Y6.2778
G01 X11.7447 Y6.2737
G01 X11.7787 Y6.2578
G01 X11.8027 Y6.2490
G01 X11.8027 Y5.5637
G01 X11.7837 Y5.5565
G01 X11.7537 Y5.5423
G01 X11.7461 Y5.5382
G01 X11.7213 Y5.5234
G01 X11.7104 Y5.5163
G01 X11.6803 Y5.4938
G01 X11.6556 Y5.4717
G01 X11.6433 Y5.4594
G01 X11.6240 Y5.4380
G01 X11.6185 Y5.4313
G01 X11.5963 Y5.4010
G01 X11.5790 Y5.3727
G01 X11.5727 Y5.3613
G01 X11.5568 Y5.3273
G01 X11.5440 Y5.2920
G01 X11.5404 Y5.2795
G01 X11.5326 Y5.2472
G01 X11.5269 Y5.2101
G01 X11.5258 Y5.1972
G01 X11.5244 Y5.1640
G01 X11.5244 Y4.2597
G01 X11.5260 Y4.2265
G01 X11.5275 Y4.2136
G01 X11.5326 Y4.1808
G01 X11.5404 Y4.1485
G01 X11.5440 Y4.1360
G01 X11.5568 Y4.1007
G01 X11.5727 Y4.0667
G01 X11.5790 Y4.0553
G01 X11.5963 Y4.0270
G01 X11.6185 Y3.9967
G01 X11.6240 Y3.9900
G01 X11.6433 Y3.9686
G01 X11.6556 Y3.9563
G01 X11.6803 Y3.9342
G01 X11.7069 Y3.9143
G01 X11.7176 Y3.9069
G01 X11.7499 Y3.8877
G01 X11.7837 Y3.8715
G01 X11.7958 Y3.8667
G01 X11.8272 Y3.8557
G01 X11.8678 Y3.8456
G01 X11.9092 Y3.8394
G01 X11.9510 Y3.8374
G01 X12.6597 Y3.8376
G01 X12.6885 Y3.8390
G01 X12.7014 Y3.8405
G01 X12.7342 Y3.8456
G01 X12.7665 Y3.8534
G01 X12.7790 Y3.8570
G01 X12.8143 Y3.8698
G01 X12.8521 Y3.8877
G01 X12.8880 Y3.9093
G01 X12.9183 Y3.9315
G01 X12.9282 Y3.9399
G01 X12.9496 Y3.9593
G01 X12.9587 Y3.9686
G01 X12.9808 Y3.9933
G01 X13.0007 Y4.0199
G01 X13.0081 Y4.0306
G01 X13.0273 Y4.0629
G01 X13.0452 Y4.1007
G01 X13.0593 Y4.1402
G01 X13.0675 Y4.1723
G01 X13.0702 Y4.1850
G01 X13.0756 Y4.2222
G01 X13.0776 Y4.2640
G01 X13.0774 Y5.1727
G01 X13.0756 Y5.2058
G01 X13.0694 Y5.2472
G01 X13.0593 Y5.2878
G01 X13.0483 Y5.3192
G01 X13.0417 Y5.3352
G01 X13.0293 Y5.3613
G01 X13.0252 Y5.3689
G01 X13.0057 Y5.4010
G01 X12.9835 Y5.4313
G01 X12.9751 Y5.4412
G01 X12.9557 Y5.4626
G01 X12.9496 Y5.4687
G01 X12.9282 Y5.4881
G01 X12.9148 Y5.4991
G01 X12.8916 Y5.5163
G01 X12.8844 Y5.5211
G01 X12.8521 Y5.5403
G01 X12.8183 Y5.5565
G01 X12.8062 Y5.5613
G01 X12.7790 Y5.5710
G01 X12.7563 Y5.5771
G01 X12.7563 Y6.2490
G01 X12.7803 Y6.2578
G01 X12.8143 Y6.2737
G01 X12.8219 Y6.2778
G01 X12.8467 Y6.2926
G01 X12.8576 Y6.2997
G01 X12.8877 Y6.3222
G01 X12.9124 Y6.3443
G01 X12.9217 Y6.3534
G01 X12.9440 Y6.3780
G01 X12.9521 Y6.3882
G01 X12.9717 Y6.4150
G01 X12.9912 Y6.4471
G01 X12.9972 Y6.4586
G01 X13.0112 Y6.4887
G01 X13.0225 Y6.5199
G01 X13.0265 Y6.5323
G01 X13.0354 Y6.5688
G01 X13.0416 Y6.6102
G01 X13.0436 Y6.6520
G01 X13.0436 Y7.6020
G01 X13.0420 Y7.6395
G01 X13.0405 Y7.6524
G01 X13.0354 Y7.6852
G01 X13.0276 Y7.7175
G01 X13.0240 Y7.7300
G01 X13.0112 Y7.7653
G01 X12.9953 Y7.7993
G01 X12.9890 Y7.8107
G01 X12.9717 Y7.8390
G01 X12.9468 Y7.8727
G01 X12.9217 Y7.9006
G01 X12.9124 Y7.9097
G01 X12.8877 Y7.9318
G01 X12.8576 Y7.9543
G01 X12.8467 Y7.9614
G01 X12.8219 Y7.9762
G01 X12.8143 Y7.9803
G01 X12.7803 Y7.9962
G01 X12.7563 Y8.0050
G01 X12.7562 Y8.2704
G01 X12.7540 Y8.3128
G01 X12.7486 Y8.3506
G01 X12.7452 Y8.3676
G01 X12.7358 Y8.4045
G01 X12.7200 Y8.4486
G01 X12.7000 Y8.4909
G01 X12.6759 Y8.5310
G01 X12.6481 Y8.5686
G01 X12.6166 Y8.6032
G01 X11.9396 Y9.2803
G01 X11.9396 Y10.3585
G01 X12.2563 Y10.6752
G01 X14.3790 Y10.6754
G01 X14.4110 Y10.6769
G01 X14.4427 Y10.6816
G01 X14.4738 Y10.6894
G01 X14.5040 Y10.7002
G01 X14.5291 Y10.7119
G01 X14.5405 Y10.7182
G01 X14.5605 Y10.7304
G01 X14.5794 Y10.7442
G01 X14.5895 Y10.7523
G01 X14.6069 Y10.7680
G01 X14.6159 Y10.7773
G01 X14.6315 Y10.7948
G01 X14.6456 Y10.8134
G01 X14.6530 Y10.8242
G01 X14.6650 Y10.8442
G01 X14.6710 Y10.8558
G01 X14.6808 Y10.8770
G01 X14.6889 Y10.8989
G01 X14.6928 Y10.9113
G01 X14.6985 Y10.9340
G01 X14.7002 Y10.9425
G01 X14.7036 Y10.9657
G01 X14.7044 Y10.9743
G01 X14.7056 Y10.9977
G01 X14.7056 Y11.3020
G01 X14.7047 Y11.3254
G01 X14.7036 Y11.3383
G01 X14.7002 Y11.3615
G01 X14.6985 Y11.3700
G01 X14.6928 Y11.3927
G01 X14.6889 Y11.4051
G01 X14.6808 Y11.4270
G01 X14.6671 Y11.4560
G01 X14.6530 Y11.4798
G01 X14.6456 Y11.4906
G01 X14.6315 Y11.5092
G01 X14.6159 Y11.5267
G01 X14.6069 Y11.5360
G01 X14.5862 Y11.5545
G01 X14.5676 Y11.5686
G01 X14.5568 Y11.5760
G01 X14.5330 Y11.5901
G01 X14.5119 Y11.6003
G01 X14.5000 Y11.6054
G01 X14.4780 Y11.6133
G01 X14.4655 Y11.6169
G01 X14.4427 Y11.6224
G01 X14.4153 Y11.6266
G01 X14.4024 Y11.6277
G01 X14.3790 Y11.6286
G01 X12.0588 Y11.6288
G01 X12.0121 Y11.6265
G01 X11.9700 Y11.6204
G01 X11.9573 Y11.6177
G01 X11.9288 Y11.6106
G01 X11.9163 Y11.6070
G01 X11.8804 Y11.5941
G01 X11.8724 Y11.5908
G01 X11.8558 Y11.5830
G01 X11.8379 Y11.5745
G01 X11.8302 Y11.5704
G01 X11.7975 Y11.5508
G01 X11.7868 Y11.5434
G01 X11.7632 Y11.5259
G01 X11.7530 Y11.5178
G01 X11.7217 Y11.4891
G01 X11.1257 Y10.8931
G01 X11.0942 Y10.8585
G01 X11.0688 Y10.8245
G01 X11.0617 Y10.8136
G01 X11.0423 Y10.7808
G01 X11.0258 Y10.7464
G01 X11.0207 Y10.7344
G01 X11.0078 Y10.6985
G01 X11.0042 Y10.6860
G01 X10.9952 Y10.6490
G01 X10.9894 Y10.6113
G01 X10.9877 Y10.5941
G01 X10.9860 Y10.5560
G01 X10.9860 Y10.2548
G01 X10.4913 Y10.2548
G01 X10.4782 Y10.2913
G01 X10.4642 Y10.3214
G01 X10.4582 Y10.3329
G01 X10.4387 Y10.3650
G01 X10.4138 Y10.3987
G01 X10.3917 Y10.4234
G01 X10.3826 Y10.4327
G01 X10.3547 Y10.4578
G01 X10.3246 Y10.4803
G01 X10.3137 Y10.4874
G01 X10.2851 Y10.5043
G01 X10.2473 Y10.5222
G01 X10.2120 Y10.5350
G01 X10.1995 Y10.5386
G01 X10.1672 Y10.5464
G01 X10.1258 Y10.5526
G01 X10.0840 Y10.5546
G01 X9.1840 Y10.5546
G01 X9.1465 Y10.5530
G01 X9.1379 Y10.5521
G01 X9.1093 Y10.5479
G01 X9.0923 Y10.5445
G01 X9.0602 Y10.5363
G01 X9.0207 Y10.5222
G01 X8.9867 Y10.5063
G01 X8.9753 Y10.5000
G01 X8.9470 Y10.4827
G01 X8.9133 Y10.4578
G01 X8.8823 Y10.4297
G01 X8.8542 Y10.3987
G01 X8.8293 Y10.3650
G01 X8.8098 Y10.3329
G01 X8.8038 Y10.3214
G01 X8.7915 Y10.2953
G01 X8.7867 Y10.2832
G01 X8.7757 Y10.2518
G01 X8.7675 Y10.2197
G01 X8.7648 Y10.2070
G01 X8.7599 Y10.1741
G01 X8.7590 Y10.1655
G01 X8.7576 Y10.1367
G01 X8.7574 Y9.4280
G01 X8.7594 Y9.3862
G01 X8.7656 Y9.3448
G01 X8.7734 Y9.3125
G01 X8.7770 Y9.3000
G01 X8.7898 Y9.2647
G01 X8.8057 Y9.2307
G01 X8.8120 Y9.2193
G01 X8.8293 Y9.1910
G01 X8.8542 Y9.1573
G01 X8.8823 Y9.1263
G01 X8.9133 Y9.0982
G01 X8.9470 Y9.0733
G01 X8.9829 Y9.0517
G01 X9.0207 Y9.0338
G01 X9.0602 Y9.0197
G01 X9.1008 Y9.0096
G01 X9.1379 Y9.0039
G01 X9.1508 Y9.0028
G01 X9.1840 Y9.0014
G01 X10.0927 Y9.0016
G00 Z2.0000
G00 X10.0878 Y9.1013
G01 F40.00
G01 Z-0.1000
G01 F35.00
G01 X10.1160 Y9.1028
G01 X10.1478 Y9.1075
G01 X10.1789 Y9.1153
G01 X10.2091 Y9.1261
G01 X10.2381 Y9.1398
G01 X10.2656 Y9.1563
G01 X10.2913 Y9.1754
G01 X10.3137 Y9.1956
G01 X10.3366 Y9.2207
G01 X10.3557 Y9.2464
G01 X10.3722 Y9.2739
G01 X10.3844 Y9.2995
G01 X10.3873 Y9.3065
G01 X10.3967 Y9.3331
G01 X10.4037 Y9.3606
G01 X10.4052 Y9.3680
G01 X10.4088 Y9.3922
G01 X10.4096 Y9.4011
G01 X11.0859 Y9.4010
G01 X11.0859 Y9.0828
G01 X11.0879 Y9.0440
G01 X11.0924 Y9.0130
G01 X11.0939 Y9.0056
G01 X11.1021 Y8.9734
G01 X11.1132 Y8.9421
G01 X11.1161 Y8.9351
G01 X11.1304 Y8.9051
G01 X11.1483 Y8.8750
G01 X11.1714 Y8.8437
G01 X11.1963 Y8.8163
G01 X11.9026 Y8.1100
G01 X11.9025 Y7.9262
G01 X11.8782 Y7.9225
G01 X11.8471 Y7.9147
G01 X11.8169 Y7.9039
G01 X11.7896 Y7.8911
G01 X11.7636 Y7.8757
G01 X11.7574 Y7.8716
G01 X11.7347 Y7.8546
G01 X11.7096 Y7.8317
G01 X11.6894 Y7.8093
G01 X11.6703 Y7.7836
G01 X11.6538 Y7.7561
G01 X11.6416 Y7.7305
G01 X11.6387 Y7.7235
G01 X11.6305 Y7.7004
G01 X11.6283 Y7.6932
G01 X11.6215 Y7.6658
G01 X11.6166 Y7.6322
G01 X11.6152 Y7.6020
G01 X11.6152 Y6.6520
G01 X11.6168 Y6.6200
G01 X11.6219 Y6.5864
G01 X11.6293 Y6.5571
G01 X11.6387 Y6.5305
G01 X11.6416 Y6.5235
G01 X11.6538 Y6.4979
G01 X11.6703 Y6.4704
G01 X11.6871 Y6.4477
G01 X11.6918 Y6.4418
G01 X11.7083 Y6.4236
G01 X11.7136 Y6.4183
G01 X11.7347 Y6.3994
G01 X11.7574 Y6.3824
G01 X11.7636 Y6.3783
G01 X11.7847 Y6.3656
G01 X11.7913 Y6.3621
G01 X11.8169 Y6.3501
G01 X11.8471 Y6.3393
G01 X11.8782 Y6.3315
G01 X11.9026 Y6.3278
G01 X11.9025 Y5.4869
G01 X11.8854 Y5.4841
G01 X11.8543 Y5.4762
G01 X11.8259 Y5.4659
G01 X11.7986 Y5.4531
G01 X11.7726 Y5.4377
G01 X11.7664 Y5.4336
G01 X11.7437 Y5.4166
G01 X11.7186 Y5.3937
G01 X11.6984 Y5.3713
G01 X11.6814 Y5.3486
G01 X11.6773 Y5.3424
G01 X11.6646 Y5.3213
G01 X11.6611 Y5.3147
G01 X11.6491 Y5.2891
G01 X11.6383 Y5.2589
G01 X11.6305 Y5.2278
G01 X11.6260 Y5.1979
G01 X11.6242 Y5.1640
G01 X11.6242 Y4.2640
G01 X11.6258 Y4.2320
G01 X11.6309 Y4.1984
G01 X11.6383 Y4.1691
G01 X11.6477 Y4.1425
G01 X11.6506 Y4.1355
G01 X11.6628 Y4.1099
G01 X11.6773 Y4.0856
G01 X11.6814 Y4.0794
G01 X11.6984 Y4.0567
G01 X11.7199 Y4.0329
G01 X11.7408 Y4.0138
G01 X11.7467 Y4.0091
G01 X11.7694 Y3.9923
G01 X11.7969 Y3.9758
G01 X11.8225 Y3.9636
G01 X11.8295 Y3.9607
G01 X11.8561 Y3.9513
G01 X11.8872 Y3.9435
G01 X11.9190 Y3.9388
G01 X11.9510 Y3.9372
G01 X12.6529 Y3.9372
G01 X12.6793 Y3.9385
G01 X12.6868 Y3.9392
G01 X12.7148 Y3.9435
G01 X12.7422 Y3.9503
G01 X12.7494 Y3.9525
G01 X12.7761 Y3.9621
G01 X12.8051 Y3.9758
G01 X12.8294 Y3.9903
G01 X12.8356 Y3.9944
G01 X12.8583 Y4.0114
G01 X12.8794 Y4.0303
G01 X12.8847 Y4.0356
G01 X12.9036 Y4.0567
G01 X12.9227 Y4.0824
G01 X12.9392 Y4.1099
G01 X12.9514 Y4.1355
G01 X12.9543 Y4.1425
G01 X12.9637 Y4.1691
G01 X12.9707 Y4.1966
G01 X12.9722 Y4.2040
G01 X12.9758 Y4.2282
G01 X12.9765 Y4.2357
G01 X12.9778 Y4.2640
G01 X12.9778 Y5.1640
G01 X12.9764 Y5.1942
G01 X12.9715 Y5.2278
G01 X12.9637 Y5.2589
G01 X12.9529 Y5.2891
G01 X12.9409 Y5.3147
G01 X12.9374 Y5.3213
G01 X12.9247 Y5.3424
G01 X12.9206 Y5.3486
G01 X12.9036 Y5.3713
G01 X12.8847 Y5.3924
G01 X12.8794 Y5.3977
G01 X12.8583 Y5.4166
G01 X12.8326 Y5.4357
G01 X12.8051 Y5.4522
G01 X12.7761 Y5.4659
G01 X12.7459 Y5.4767
G01 X12.7148 Y5.4845
G01 X12.6830 Y5.4892
G01 X12.6564 Y5.4906
G01 X12.6565 Y6.3278
G01 X12.6808 Y6.3315
G01 X12.7119 Y6.3393
G01 X12.7421 Y6.3501
G01 X12.7677 Y6.3621
G01 X12.7743 Y6.3656
G01 X12.7954 Y6.3783
G01 X12.8016 Y6.3824
G01 X12.8243 Y6.3994
G01 X12.8454 Y6.4183
G01 X12.8507 Y6.4236
G01 X12.8672 Y6.4418
G01 X12.8719 Y6.4477
G01 X12.8887 Y6.4704
G01 X12.9052 Y6.4979
G01 X12.9174 Y6.5235
G01 X12.9203 Y6.5305
G01 X12.9297 Y6.5571
G01 X12.9375 Y6.5882
G01 X12.9422 Y6.6200
G01 X12.9438 Y6.6520
G01 X12.9438 Y7.6020
G01 X12.9422 Y7.6340
G01 X12.9382 Y7.6620
G01 X12.9367 Y7.6694
G01 X12.9307 Y7.6932
G01 X12.9285 Y7.7004
G01 X12.9189 Y7.7271
G01 X12.9052 Y7.7561
G01 X12.8887 Y7.7836
G01 X12.8719 Y7.8063
G01 X12.8672 Y7.8122
G01 X12.8467 Y7.8344
G01 X12.8243 Y7.8546
G01 X12.8016 Y7.8716
G01 X12.7954 Y7.8757
G01 X12.7743 Y7.8884
G01 X12.7677 Y7.8919
G01 X12.7421 Y7.9039
G01 X12.7119 Y7.9147
G01 X12.6808 Y7.9225
G01 X12.6564 Y7.9262
G01 X12.6564 Y8.2661
G01 X12.6544 Y8.3049
G01 X12.6499 Y8.3359
G01 X12.6484 Y8.3433
G01 X12.6402 Y8.3755
G01 X12.6291 Y8.4068
G01 X12.6262 Y8.4138
G01 X12.6119 Y8.4438
G01 X12.5919 Y8.4771
G01 X12.5709 Y8.5052
G01 X12.5460 Y8.5326
G01 X11.8397 Y9.2389
G01 X11.8398 Y10.3999
G01 X12.2149 Y10.7751
G01 X14.3790 Y10.7752
G01 X14.4012 Y10.7763
G01 X14.4232 Y10.7796
G01 X14.4448 Y10.7850
G01 X14.4623 Y10.7911
G01 X14.4692 Y10.7940
G01 X14.4859 Y10.8020
G01 X14.5018 Y10.8114
G01 X14.5081 Y10.8156
G01 X14.5229 Y10.8267
G01 X14.5366 Y10.8390
G01 X14.5420 Y10.8444
G01 X14.5543 Y10.8581
G01 X14.5654 Y10.8729
G01 X14.5696 Y10.8792
G01 X14.5790 Y10.8951
G01 X14.5870 Y10.9118
G01 X14.5899 Y10.9187
G01 X14.5960 Y10.9362
G01 X14.6014 Y10.9578
G01 X14.6047 Y10.9798
G01 X14.6058 Y11.0020
G01 X14.6058 Y11.3020
G01 X14.6050 Y11.3205
G01 X14.6042 Y11.3280
G01 X14.6014 Y11.3462
G01 X14.5960 Y11.3678
G01 X14.5885 Y11.3888
G01 X14.5790 Y11.4089
G01 X14.5696 Y11.4248
G01 X14.5654 Y11.4311
G01 X14.5543 Y11.4459
G01 X14.5420 Y11.4596
G01 X14.5366 Y11.4650
G01 X14.5229 Y11.4773
G01 X14.5081 Y11.4884
G01 X14.5018 Y11.4926
G01 X14.4859 Y11.5020
G01 X14.4692 Y11.5100
G01 X14.4623 Y11.5129
G01 X14.4448 Y11.5190
G01 X14.4269 Y11.5236
G01 X14.4195 Y11.5251
G01 X14.4012 Y11.5277
G01 X14.3809 Y11.5288
G01 X12.0588 Y11.5289
G01 X12.0219 Y11.5271
G01 X11.9853 Y11.5217
G01 X11.9494 Y11.5127
G01 X11.9181 Y11.5016
G01 X11.9111 Y11.4987
G01 X11.8811 Y11.4844
G01 X11.8494 Y11.4654
G01 X11.8197 Y11.4434
G01 X11.7936 Y11.4199
G01 X11.1963 Y10.8225
G01 X11.1714 Y10.7951
G01 X11.1483 Y10.7638
G01 X11.1322 Y10.7370
G01 X11.1287 Y10.7303
G01 X11.1145 Y10.7003
G01 X11.1033 Y10.6690
G01 X11.1011 Y10.6618
G01 X11.0931 Y10.6295
G01 X11.0877 Y10.5929
G01 X11.0859 Y10.5560
G01 X11.0858 Y10.1549
G01 X10.4096 Y10.1550
G01 X10.4088 Y10.1638
G01 X10.4052 Y10.1880
G01 X10.4037 Y10.1954
G01 X10.3967 Y10.2229
G01 X10.3873 Y10.2495
G01 X10.3844 Y10.2565
G01 X10.3722 Y10.2821
G01 X10.3557 Y10.3096
G01 X10.3366 Y10.3353
G01 X10.3151 Y10.3591
G01 X10.2913 Y10.3806
G01 X10.2686 Y10.3976
G01 X10.2624 Y10.4017
G01 X10.2413 Y10.4144
G01 X10.2347 Y10.4179
G01 X10.2091 Y10.4299
G01 X10.1789 Y10.4407
G01 X10.1478 Y10.4485
G01 X10.1160 Y10.4532
G01 X10.0840 Y10.4548
G01 X9.1840 Y10.4548
G01 X9.1538 Y10.4534
G01 X9.1240 Y10.4492
G01 X9.1166 Y10.4477
G01 X9.0891 Y10.4407
G01 X9.0589 Y10.4299
G01 X9.0299 Y10.4162
G01 X9.0056 Y10.4017
G01 X8.9994 Y10.3976
G01 X8.9752 Y10.3794
G01 X8.9529 Y10.3591
G01 X8.9338 Y10.3382
G01 X8.9291 Y10.3323
G01 X8.9144 Y10.3126
G01 X8.9103 Y10.3064
G01 X8.8958 Y10.2821
G01 X8.8836 Y10.2565
G01 X8.8807 Y10.2495
G01 X8.8713 Y10.2229
G01 X8.8635 Y10.1918
G01 X8.8588 Y10.1600
G01 X8.8572 Y10.1299
G01 X8.8572 Y9.4280
G01 X8.8586 Y9.3978
G01 X8.8628 Y9.3680
G01 X8.8643 Y9.3606
G01 X8.8713 Y9.3331
G01 X8.8821 Y9.3029
G01 X8.8958 Y9.2739
G01 X8.9103 Y9.2496
G01 X8.9144 Y9.2434
G01 X8.9326 Y9.2192
G01 X8.9529 Y9.1969
G01 X8.9767 Y9.1754
G01 X9.0024 Y9.1563
G01 X9.0299 Y9.1398
G01 X9.0589 Y9.1261
G01 X9.0891 Y9.1153
G01 X9.1202 Y9.1075
G01 X9.1520 Y9.1028
G01 X9.1840 Y9.1012
G01 X10.0878 Y9.1013
G00 Z2.0000
G00 X6.5174 Y10.6387
G01 F40.00
G01 Z-0.1000
G01 F35.00
G01 X6.4977 Y10.6337
G01 X6.4847 Y10.6298
G01 X6.4488 Y10.6169
G01 X6.4363 Y10.6117
G01 X6.4079 Y10.5984
G01 X6.3899 Y10.5890
G01 X6.3630 Y10.5730
G01 X6.3515 Y10.5658
G01 X6.3404 Y10.5579
G01 X6.3153 Y10.5392
G01 X6.3048 Y10.5306
G01 X6.2816 Y10.5096
G01 X6.2670 Y10.4954
G01 X6.2459 Y10.4723
G01 X6.2370 Y10.4620
G01 X6.2141 Y10.4316
G01 X6.2025 Y10.4148
G01 X6.1864 Y10.3880
G01 X6.1797 Y10.3762
G01 X6.1736 Y10.3641
G01 X6.1603 Y10.3357
G01 X6.1527 Y10.3168
G01 X6.1402 Y10.2808
G01 X6.1366 Y10.2678
G01 X6.1276 Y10.2307
G01 X6.1253 Y10.2173
G01 X6.1201 Y10.1796
G01 X6.1179 Y10.1416
G01 X6.1175 Y10.1280
G01 X6.1175 Y9.4280
G01 X6.1179 Y9.4144
G01 X6.1195 Y9.3832
G01 X6.1217 Y9.3629
G01 X6.1276 Y9.3253
G01 X6.1306 Y9.3120
G01 X6.1383 Y9.2817
G01 X6.1444 Y9.2623
G01 X6.1576 Y9.2265
G01 X6.1736 Y9.1919
G01 X6.1830 Y9.1739
G01 X6.1990 Y9.1470
G01 X6.2062 Y9.1355
G01 X6.2141 Y9.1244
G01 X6.2370 Y9.0940
G01 X6.2624 Y9.0656
G01 X6.2717 Y9.0557
G01 X6.2816 Y9.0464
G01 X6.3100 Y9.0210
G01 X6.3404 Y8.9981
G01 X6.3572 Y8.9865
G01 X6.3899 Y8.9670
G01 X6.4018 Y8.9606
G01 X6.4363 Y8.9443
G01 X6.4488 Y8.9391
G01 X6.4847 Y8.9262
G01 X6.4977 Y8.9223
G01 X6.5346 Y8.9130
G01 X6.5547 Y8.9093
G01 X6.5924 Y8.9041
G01 X6.6304 Y8.9019
G01 X6.6440 Y8.9015
G01 X7.5440 Y8.9015
G01 X7.5821 Y8.9031
G01 X7.6023 Y8.9048
G01 X7.6400 Y8.9104
G01 X7.6600 Y8.9146
G01 X7.6968 Y8.9242
G01 X7.7097 Y8.9284
G01 X7.7392 Y8.9391
G01 X7.7517 Y8.9443
G01 X7.7801 Y8.9576
G01 X7.7981 Y8.9670
G01 X7.8250 Y8.9830
G01 X7.8365 Y8.9902
G01 X7.8476 Y8.9981
G01 X7.8727 Y9.0168
G01 X7.8832 Y9.0254
G01 X7.9064 Y9.0464
G01 X7.9210 Y9.0606
G01 X7.9421 Y9.0837
G01 X7.9510 Y9.0940
G01 X7.9593 Y9.1047
G01 X7.9779 Y9.1299
G01 X7.9890 Y9.1470
G01 X8.0050 Y9.1739
G01 X8.0114 Y9.1858
G01 X8.0249 Y9.2141
G01 X8.0304 Y9.2265
G01 X8.0353 Y9.2392
G01 X8.0458 Y9.2687
G01 X8.0497 Y9.2817
G01 X8.0574 Y9.3120
G01 X8.0616 Y9.3320
G01 X8.0663 Y9.3629
G01 X8.0679 Y9.3764
G01 X8.0701 Y9.4144
G01 X8.0705 Y9.4280
G01 X8.0704 Y10.1348
G01 X8.0689 Y10.1661
G01 X8.0679 Y10.1796
G01 X8.0627 Y10.2173
G01 X8.0590 Y10.2374
G01 X8.0514 Y10.2678
G01 X8.0478 Y10.2808
G01 X8.0436 Y10.2937
G01 X8.0329 Y10.3232
G01 X8.0249 Y10.3419
G01 X8.0083 Y10.3762
G01 X7.9890 Y10.4090
G01 X7.9779 Y10.4261
G01 X7.9593 Y10.4513
G01 X7.9510 Y10.4620
G01 X7.9256 Y10.4904
G01 X7.9114 Y10.5050
G01 X7.8883 Y10.5261
G01 X7.8780 Y10.5350
G01 X7.8476 Y10.5579
G01 X7.8308 Y10.5695
G01 X7.7981 Y10.5890
G01 X7.7862 Y10.5954
G01 X7.7579 Y10.6089
G01 X7.7392 Y10.6169
G01 X7.7033 Y10.6298
G01 X7.6903 Y10.6337
G01 X7.6706 Y10.6387
G01 X7.6706 Y10.9719
G01 X7.6850 Y10.9751
G01 X7.7088 Y10.9811
G01 X7.7283 Y10.9867
G01 X7.7642 Y10.9996
G01 X7.7829 Y11.0076
G01 X7.8172 Y11.0242
G01 X7.8500 Y11.0435
G01 X7.8671 Y11.0546
G01 X7.8977 Y11.0773
G01 X7.9133 Y11.0904
G01 X7.9413 Y11.1162
G01 X7.9671 Y11.1442
G01 X7.9802 Y11.1598
G01 X8.0029 Y11.1904
G01 X8.0105 Y11.2017
G01 X8.0300 Y11.2344
G01 X8.0364 Y11.2463
G01 X8.0455 Y11.2654
G01 X8.8361 Y11.2654
G01 X8.8436 Y11.2498
G01 X8.8500 Y11.2379
G01 X8.8695 Y11.2052
G01 X8.8811 Y11.1884
G01 X8.8998 Y11.1633
G01 X8.9084 Y11.1528
G01 X8.9340 Y11.1246
G01 X8.9486 Y11.1104
G01 X8.9770 Y11.0850
G01 X8.9877 Y11.0767
G01 X9.0129 Y11.0581
G01 X9.0300 Y11.0470
G01 X9.0628 Y11.0277
G01 X9.0971 Y11.0111
G01 X9.1158 Y11.0031
G01 X9.1517 Y10.9902
G01 X9.1712 Y10.9846
G01 X9.2083 Y10.9756
G01 X9.2217 Y10.9733
G01 X9.2527 Y10.9688
G01 X9.2729 Y10.9671
G01 X9.3110 Y10.9655
G01 X10.2110 Y10.9655
G01 X10.2246 Y10.9659
G01 X10.2626 Y10.9681
G01 X10.2761 Y10.9697
G01 X10.3137 Y10.9756
G01 X10.3508 Y10.9846
G01 X10.3703 Y10.9902
G01 X10.4062 Y11.0031
G01 X10.4249 Y11.0111
G01 X10.4592 Y11.0277
G01 X10.4920 Y11.0470
G01 X10.5091 Y11.0581
G01 X10.5397 Y11.0808
G01 X10.5553 Y11.0939
G01 X10.5833 Y11.1197
G01 X10.6091 Y11.1477
G01 X10.6222 Y11.1633
G01 X10.6449 Y11.1939
G01 X10.6525 Y11.2052
G01 X10.6720 Y11.2379
G01 X10.6784 Y11.2498
G01 X10.6859 Y11.2654
G01 X10.9522 Y11.2655
G01 X10.9884 Y11.2671
G01 X11.0019 Y11.2681
G01 X11.0445 Y11.2741
G01 X11.0645 Y11.2779
G01 X11.1063 Y11.2883
G01 X11.1257 Y11.2945
G01 X11.1598 Y11.3067
G01 X11.1785 Y11.3148
G01 X11.2112 Y11.3303
G01 X11.2232 Y11.3367
G01 X11.2543 Y11.3553
G01 X11.2714 Y11.3664
G01 X11.3059 Y11.3920
G01 X11.3215 Y11.4051
G01 X11.3483 Y11.4295
G01 X11.7642 Y11.8454
G01 X14.3790 Y11.8455
G01 X14.3926 Y11.8459
G01 X14.4208 Y11.8476
G01 X14.4343 Y11.8492
G01 X14.4622 Y11.8537
G01 X14.4754 Y11.8567
G01 X14.5028 Y11.8639
G01 X14.5359 Y11.8755
G01 X14.5546 Y11.8835
G01 X14.5800 Y11.8959
G01 X14.6045 Y11.9101
G01 X14.6159 Y11.9174
G01 X14.6270 Y11.9252
G01 X14.6496 Y11.9423
G01 X14.6707 Y11.9611
G01 X14.6853 Y11.9753
G01 X14.7043 Y11.9963
G01 X14.7129 Y12.0067
G01 X14.7298 Y12.0295
G01 X14.7409 Y12.0465
G01 X14.7551 Y12.0710
G01 X14.7675 Y12.0964
G01 X14.7755 Y12.1151
G01 X14.7851 Y12.1417
G01 X14.7907 Y12.1613
G01 X14.7959 Y12.1822
G01 X14.7985 Y12.1955
G01 X14.8034 Y12.2302
G01 X14.8054 Y12.2652
G01 X14.8054 Y12.5788
G01 X14.8040 Y12.6070
G01 X14.8027 Y12.6205
G01 X14.7985 Y12.6485
G01 X14.7943 Y12.6684
G01 X14.7890 Y12.6893
G01 X14.7851 Y12.7023
G01 X14.7730 Y12.7352
G01 X14.7675 Y12.7476
G01 X14.7551 Y12.7730
G01 X14.7373 Y12.8033
G01 X14.7298 Y12.8145
G01 X14.7129 Y12.8373
G01 X14.7043 Y12.8477
G01 X14.6899 Y12.8637
G01 X14.6806 Y12.8736
G01 X14.6707 Y12.8829
G01 X14.6547 Y12.8973
G01 X14.6443 Y12.9059
G01 X14.6159 Y12.9266
G01 X14.6045 Y12.9339
G01 X14.5800 Y12.9481
G01 X14.5484 Y12.9633
G01 X14.5359 Y12.9685
G01 X14.5157 Y12.9759
G01 X14.5028 Y12.9801
G01 X14.4897 Y12.9837
G01 X14.4688 Y12.9889
G01 X14.4555 Y12.9915
G01 X14.4208 Y12.9964
G01 X14.3926 Y12.9981
G01 X14.3790 Y12.9985
G01 X11.5254 Y12.9986
G01 X11.5118 Y12.9983
G01 X11.4689 Y12.9959
G01 X11.4263 Y12.9899
G01 X11.4063 Y12.9861
G01 X11.3711 Y12.9774
G01 X11.3580 Y12.9738
G01 X11.3174 Y12.9596
G01 X11.2985 Y12.9521
G01 X11.2596 Y12.9337
G01 X11.2418 Y12.9239
G01 X11.2050 Y12.9015
G01 X11.1939 Y12.8936
G01 X11.1649 Y12.8720
G01 X11.1493 Y12.8589
G01 X11.1177 Y12.8297
G01 X10.7066 Y12.4186
G01 X10.6859 Y12.4186
G01 X10.6784 Y12.4342
G01 X10.6720 Y12.4461
G01 X10.6525 Y12.4788
G01 X10.6409 Y12.4956
G01 X10.6222 Y12.5207
G01 X10.6136 Y12.5312
G01 X10.5926 Y12.5544
G01 X10.5833 Y12.5643
G01 X10.5553 Y12.5901
G01 X10.5397 Y12.6032
G01 X10.5146 Y12.6219
G01 X10.5035 Y12.6298
G01 X10.4920 Y12.6370
G01 X10.4651 Y12.6530
G01 X10.4471 Y12.6624
G01 X10.4125 Y12.6784
G01 X10.3767 Y12.6916
G01 X10.3573 Y12.6977
G01 X10.3270 Y12.7054
G01 X10.3137 Y12.7084
G01 X10.2761 Y12.7143
G01 X10.2558 Y12.7165
G01 X10.2246 Y12.7181
G01 X10.2110 Y12.7185
G01 X9.3110 Y12.7185
G01 X9.2974 Y12.7181
G01 X9.2594 Y12.7159
G01 X9.2459 Y12.7143
G01 X9.2083 Y12.7084
G01 X9.1712 Y12.6994
G01 X9.1517 Y12.6938
G01 X9.1158 Y12.6809
G01 X9.0971 Y12.6729
G01 X9.0628 Y12.6563
G01 X9.0300 Y12.6370
G01 X9.0129 Y12.6259
G01 X8.9823 Y12.6032
G01 X8.9667 Y12.5901
G01 X8.9387 Y12.5643
G01 X8.9129 Y12.5363
G01 X8.8998 Y12.5207
G01 X8.8771 Y12.4901
G01 X8.8695 Y12.4788
G01 X8.8500 Y12.4461
G01 X8.8436 Y12.4342
G01 X8.8361 Y12.4186
G01 X8.0295 Y12.4186
G01 X8.0105 Y12.4503
G01 X7.9989 Y12.4671
G01 X7.9760 Y12.4975
G01 X7.9506 Y12.5259
G01 X7.9364 Y12.5405
G01 X7.9082 Y12.5661
G01 X7.8923 Y12.5788
G01 X7.8615 Y12.6013
G01 X7.8290 Y12.6211
G01 X7.8112 Y12.6309
G01 X7.7767 Y12.6472
G01 X7.7578 Y12.6548
G01 X7.7218 Y12.6673
G01 X7.6850 Y12.6769
G01 X7.6650 Y12.6811
G01 X7.6341 Y12.6858
G01 X7.6206 Y12.6874
G01 X7.5826 Y12.6896
G01 X7.5690 Y12.6900
G01 X6.6190 Y12.6900
G01 X6.5809 Y12.6884
G01 X6.5607 Y12.6867
G01 X6.5230 Y12.6811
G01 X6.5030 Y12.6769
G01 X6.4662 Y12.6673
G01 X6.4302 Y12.6548
G01 X6.4113 Y12.6472
G01 X6.3829 Y12.6339
G01 X6.3708 Y12.6278
G01 X6.3590 Y12.6211
G01 X6.3322 Y12.6050
G01 X6.3154 Y12.5934
G01 X6.2850 Y12.5705
G01 X6.2566 Y12.5451
G01 X6.2420 Y12.5309
G01 X6.2209 Y12.5078
G01 X6.2120 Y12.4975
G01 X6.1891 Y12.4671
G01 X6.1775 Y12.4503
G01 X6.1580 Y12.4176
G01 X6.1486 Y12.3996
G01 X6.1326 Y12.3650
G01 X6.1194 Y12.3292
G01 X6.1152 Y12.3163
G01 X6.1116 Y12.3033
G01 X6.1040 Y12.2728
G01 X6.1014 Y12.2595
G01 X6.0967 Y12.2286
G01 X6.0951 Y12.2151
G01 X6.0941 Y12.2016
G01 X6.0926 Y12.1703
G01 X6.0925 Y11.4885
G01 X6.0929 Y11.4749
G01 X6.0951 Y11.4369
G01 X6.0967 Y11.4234
G01 X6.1014 Y11.3925
G01 X6.1040 Y11.3792
G01 X6.1116 Y11.3487
G01 X6.1152 Y11.3357
G01 X6.1194 Y11.3228
G01 X6.1326 Y11.2870
G01 X6.1486 Y11.2524
G01 X6.1547 Y11.2403
G01 X6.1740 Y11.2075
G01 X6.1812 Y11.1960
G01 X6.1891 Y11.1849
G01 X6.2120 Y11.1545
G01 X6.2374 Y11.1261
G01 X6.2467 Y11.1162
G01 X6.2566 Y11.1069
G01 X6.2850 Y11.0815
G01 X6.3154 Y11.0586
G01 X6.3265 Y11.0507
G01 X6.3590 Y11.0309
G01 X6.3708 Y11.0242
G01 X6.3829 Y11.0181
G01 X6.4113 Y11.0048
G01 X6.4238 Y10.9996
G01 X6.4533 Y10.9889
G01 X6.4662 Y10.9847
G01 X6.5030 Y10.9751
G01 X6.5174 Y10.9719
G01 X6.5174 Y10.6387
G00 Z2.0000
G00 X6.6152 Y12.4902
G01 F40.00
G01 Z-0.1000
G01 F35.00
G01 X6.5870 Y12.4887
G01 X6.5590 Y12.4847
G01 X6.5516 Y12.4832
G01 X6.5278 Y12.4772
G01 X6.5206 Y12.4750
G01 X6.4939 Y12.4654
G01 X6.4649 Y12.4517
G01 X6.4374 Y12.4352
G01 X6.4147 Y12.4184
G01 X6.4088 Y12.4137
G01 X6.3906 Y12.3972
G01 X6.3853 Y12.3919
G01 X6.3664 Y12.3708
G01 X6.3473 Y12.3451
G01 X6.3326 Y12.3208
G01 X6.3291 Y12.3142
G01 X6.3171 Y12.2886
G01 X6.3068 Y12.2602
G01 X6.2993 Y12.2309
G01 X6.2978 Y12.2235
G01 X6.2938 Y12.1955
G01 X6.2922 Y12.1654
G01 X6.2922 Y11.4885
G01 X6.2938 Y11.4565
G01 X6.2978 Y11.4285
G01 X6.2993 Y11.4211
G01 X6.3053 Y11.3973
G01 X6.3075 Y11.3901
G01 X6.3171 Y11.3634
G01 X6.3291 Y11.3378
G01 X6.3326 Y11.3312
G01 X6.3473 Y11.3069
G01 X6.3664 Y11.2812
G01 X6.3879 Y11.2574
G01 X6.4132 Y11.2347
G01 X6.4374 Y11.2168
G01 X6.4617 Y11.2021
G01 X6.4683 Y11.1986
G01 X6.4905 Y11.1881
G01 X6.4975 Y11.1852
