(G-CODE GENERATED BY FLATCAM v8.994 - www.flatcam.org - Version Date: 2020/11/7)

(Name: ADCandDAC-B_Cu.gbr_0.1268_iso7_cnc)
(Type: G-code from Geometry)
(Units: MM)

(Created on Чацвер, 26 лістапада 2020 at 10:10)

(This preprocessor is the default preprocessor used by FlatCAM.)
(It is made to work with MACH3 compatible motion controllers.)

(TOOL DIAMETER: 0.1268 mm)
(Feedrate_XY: 35.0 mm/min)
(Feedrate_Z: 40.0 mm/min)
(Feedrate rapids 1000.0 mm/min)

(Z_Cut: -0.05 mm)
(Z_Move: 2.0 mm)
(Z Start: None mm)
(Z End: 15.0 mm)
(X,Y End: None mm)
(Steps per circle: 64)
(Preprocessor Geometry: default)

(X range:    4.5311 ...   55.1860  mm)
(Y range:    3.7880 ...   29.2842  mm)

(Spindle Speed: 10000.0 RPM)
G21
G90
G94

G01 F35.00

M5
G00 Z15.0000
G00 X0.0000 Y0.0000
T2
M6    
(MSG, Change to Tool Dia = 0.1268)
M0
G00 Z15.0000

M03 S10000.0
G01 F35.00
G00 X8.6740 Y22.0927
G01 F40.00
G01 Z-0.0500
G01 F35.00
G01 X8.7051 Y22.0919
G01 X8.7207 Y22.0921
G01 X8.8342 Y22.0975
G01 X8.8653 Y22.0998
G01 X8.8961 Y22.1036
G01 X8.9932 Y22.1180
G01 X9.0239 Y22.1233
G01 X9.0542 Y22.1301
G01 X9.1494 Y22.1540
G01 X9.1794 Y22.1623
G01 X9.2090 Y22.1720
G01 X9.3014 Y22.2051
G01 X9.3304 Y22.2163
G01 X9.3589 Y22.2289
G01 X9.4476 Y22.2708
G01 X9.4754 Y22.2848
G01 X9.5024 Y22.3002
G01 X9.5866 Y22.3506
G01 X9.6129 Y22.3673
G01 X9.6257 Y22.3761
G01 X9.7172 Y22.4437
G01 X9.7417 Y22.4628
G01 X9.7653 Y22.4831
G01 X9.8494 Y22.5596
G01 X9.8714 Y22.5816
G01 X9.8820 Y22.5930
G01 X9.9479 Y22.6657
G01 X9.9682 Y22.6893
G01 X9.9873 Y22.7138
G01 X10.0458 Y22.7927
G01 X10.0637 Y22.8181
G01 X10.0804 Y22.8444
G01 X10.1308 Y22.9286
G01 X10.1462 Y22.9556
G01 X10.1602 Y22.9834
G01 X10.2021 Y23.0721
G01 X10.2147 Y23.1006
G01 X10.2259 Y23.1296
G01 X10.2590 Y23.2220
G01 X10.2687 Y23.2516
G01 X10.2770 Y23.2816
G01 X10.3045 Y23.3919
G01 X10.3077 Y23.4071
G01 X10.3130 Y23.4378
G01 X10.3274 Y23.5349
G01 X10.3312 Y23.5657
G01 X10.3335 Y23.5968
G01 X10.3383 Y23.6948
G01 X10.3391 Y23.7259
G01 X10.3383 Y23.7570
G01 X10.3335 Y23.8550
G01 X10.3312 Y23.8861
G01 X10.3274 Y23.9169
G01 X10.3130 Y24.0140
G01 X10.3077 Y24.0447
G01 X10.3009 Y24.0750
G01 X10.2770 Y24.1702
G01 X10.2687 Y24.2002
G01 X10.2590 Y24.2298
G01 X10.2259 Y24.3222
G01 X10.2147 Y24.3512
G01 X10.2021 Y24.3797
G01 X10.1602 Y24.4684
G01 X10.1462 Y24.4962
G01 X10.1308 Y24.5232
G01 X10.0804 Y24.6074
G01 X10.0637 Y24.6337
G01 X10.0458 Y24.6591
G01 X9.9873 Y24.7380
G01 X9.9682 Y24.7625
G01 X9.9479 Y24.7861
G01 X9.8820 Y24.8588
G01 X9.8714 Y24.8702
G01 X9.8494 Y24.8922
G01 X9.7653 Y24.9687
G01 X9.7417 Y24.9890
G01 X9.7172 Y25.0081
G01 X9.6383 Y25.0666
G01 X9.6129 Y25.0845
G01 X9.5866 Y25.1012
G01 X9.5024 Y25.1516
G01 X9.4754 Y25.1670
G01 X9.4476 Y25.1810
G01 X9.3589 Y25.2229
G01 X9.3304 Y25.2355
G01 X9.3014 Y25.2467
G01 X9.2090 Y25.2798
G01 X9.1794 Y25.2895
G01 X9.1494 Y25.2978
G01 X9.0542 Y25.3217
G01 X9.0391 Y25.3253
G01 X9.0086 Y25.3314
G01 X8.8961 Y25.3482
G01 X8.8653 Y25.3520
G01 X8.8342 Y25.3543
G01 X8.7207 Y25.3597
G01 X8.7051 Y25.3599
G01 X8.6740 Y25.3591
G01 X8.5760 Y25.3543
G01 X8.5449 Y25.3520
G01 X8.5141 Y25.3482
G01 X8.4170 Y25.3338
G01 X8.4016 Y25.3314
G01 X8.3711 Y25.3253
G01 X8.2608 Y25.2978
G01 X8.2308 Y25.2895
G01 X8.2159 Y25.2848
G01 X8.1088 Y25.2467
G01 X8.0798 Y25.2355
G01 X8.0513 Y25.2229
G01 X7.9486 Y25.1741
G01 X7.9212 Y25.1595
G01 X7.9078 Y25.1516
G01 X7.8103 Y25.0930
G01 X7.7845 Y25.0757
G01 X7.7217 Y25.0294
G01 X7.7089 Y25.0518
G01 X7.7007 Y25.0651
G01 X7.6923 Y25.0781
G01 X7.6743 Y25.1036
G01 X7.6552 Y25.1281
G01 X7.6452 Y25.1400
G01 X7.6243 Y25.1631
G01 X7.6023 Y25.1851
G01 X7.5792 Y25.2060
G01 X7.5673 Y25.2160
G01 X7.5428 Y25.2351
G01 X7.5302 Y25.2442
G01 X7.5173 Y25.2531
G01 X7.4910 Y25.2697
G01 X7.4776 Y25.2775
G01 X7.4502 Y25.2922
G01 X7.4220 Y25.3055
G01 X7.3933 Y25.3174
G01 X7.3640 Y25.3279
G01 X7.3491 Y25.3326
G01 X7.3191 Y25.3409
G01 X7.2888 Y25.3477
G01 X7.2735 Y25.3506
G01 X7.2427 Y25.3551
G01 X7.2272 Y25.3568
G01 X7.1962 Y25.3591
G01 X7.1807 Y25.3597
G01 X5.1651 Y25.3599
G01 X5.1340 Y25.3591
G01 X5.1030 Y25.3568
G01 X5.0721 Y25.3530
G01 X5.0414 Y25.3477
G01 X5.0262 Y25.3445
G01 X4.9960 Y25.3369
G01 X4.9662 Y25.3279
G01 X4.9369 Y25.3174
G01 X4.9082 Y25.3055
G01 X4.8800 Y25.2922
G01 X4.8526 Y25.2775
G01 X4.8259 Y25.2615
G01 X4.8000 Y25.2442
G01 X4.7750 Y25.2257
G01 X4.7510 Y25.2060
G01 X4.7279 Y25.1851
G01 X4.7059 Y25.1631
G01 X4.6953 Y25.1517
G01 X4.6750 Y25.1281
G01 X4.6559 Y25.1036
G01 X4.6468 Y25.0910
G01 X4.6295 Y25.0651
G01 X4.6135 Y25.0384
G01 X4.6060 Y25.0248
G01 X4.5988 Y25.0110
G01 X4.5855 Y24.9828
G01 X4.5736 Y24.9541
G01 X4.5682 Y24.9395
G01 X4.5631 Y24.9248
G01 X4.5541 Y24.8950
G01 X4.5501 Y24.8799
G01 X4.5433 Y24.8496
G01 X4.5380 Y24.8189
G01 X4.5359 Y24.8035
G01 X4.5342 Y24.7880
G01 X4.5319 Y24.7570
G01 X4.5311 Y24.7259
G01 X4.5311 Y22.7259
G01 X4.5319 Y22.6948
G01 X4.5342 Y22.6638
G01 X4.5380 Y22.6329
G01 X4.5404 Y22.6175
G01 X4.5465 Y22.5870
G01 X4.5541 Y22.5568
G01 X4.5584 Y22.5419
G01 X4.5682 Y22.5123
G01 X4.5794 Y22.4833
G01 X4.5920 Y22.4548
G01 X4.6060 Y22.4270
G01 X4.6213 Y22.4000
G01 X4.6379 Y22.3737
G01 X4.6559 Y22.3482
G01 X4.6750 Y22.3237
G01 X4.6850 Y22.3118
G01 X4.7059 Y22.2887
G01 X4.7279 Y22.2667
G01 X4.7393 Y22.2561
G01 X4.7629 Y22.2358
G01 X4.7874 Y22.2167
G01 X4.8129 Y22.1987
G01 X4.8259 Y22.1903
G01 X4.8392 Y22.1821
G01 X4.8662 Y22.1668
G01 X4.8800 Y22.1596
G01 X4.9082 Y22.1463
G01 X4.9225 Y22.1402
G01 X4.9515 Y22.1290
G01 X4.9811 Y22.1192
G01 X4.9960 Y22.1149
G01 X5.0111 Y22.1109
G01 X5.0414 Y22.1041
G01 X5.0721 Y22.0988
G01 X5.0875 Y22.0967
G01 X5.1030 Y22.0950
G01 X5.1340 Y22.0927
G01 X5.1651 Y22.0919
G01 X7.1651 Y22.0919
G01 X7.1807 Y22.0921
G01 X7.2117 Y22.0936
G01 X7.2427 Y22.0967
G01 X7.2735 Y22.1012
G01 X7.2888 Y22.1041
G01 X7.3191 Y22.1109
G01 X7.3491 Y22.1192
G01 X7.3640 Y22.1239
G01 X7.3933 Y22.1344
G01 X7.4220 Y22.1463
G01 X7.4362 Y22.1528
G01 X7.4502 Y22.1596
G01 X7.4776 Y22.1743
G01 X7.5043 Y22.1903
G01 X7.5173 Y22.1987
G01 X7.5428 Y22.2167
G01 X7.5673 Y22.2358
G01 X7.5792 Y22.2458
G01 X7.6023 Y22.2667
G01 X7.6243 Y22.2887
G01 X7.6452 Y22.3118
G01 X7.6552 Y22.3237
G01 X7.6743 Y22.3482
G01 X7.6923 Y22.3737
G01 X7.7007 Y22.3867
G01 X7.7089 Y22.4000
G01 X7.7217 Y22.4224
G01 X7.7845 Y22.3761
G01 X7.8103 Y22.3588
G01 X7.9078 Y22.3002
G01 X7.9348 Y22.2848
G01 X7.9626 Y22.2708
G01 X8.0513 Y22.2289
G01 X8.0798 Y22.2163
G01 X8.1088 Y22.2051
G01 X8.2012 Y22.1720
G01 X8.2308 Y22.1623
G01 X8.2608 Y22.1540
G01 X8.3560 Y22.1301
G01 X8.3863 Y22.1233
G01 X8.4016 Y22.1204
G01 X8.5141 Y22.1036
G01 X8.5449 Y22.0998
G01 X8.5760 Y22.0975
G01 X8.6740 Y22.0927
G00 Z2.0000
G00 X28.6125 Y5.5668
G01 F40.00
G01 Z-0.0500
G01 F35.00
G01 X28.6436 Y5.5660
G01 X28.6747 Y5.5668
G01 X28.7687 Y5.5716
G01 X28.7996 Y5.5746
G01 X28.8927 Y5.5882
G01 X28.9234 Y5.5936
G01 X28.9537 Y5.6004
G01 X29.0299 Y5.6194
G01 X29.0449 Y5.6234
G01 X29.0747 Y5.6324
G01 X29.1633 Y5.6640
G01 X29.1924 Y5.6752
G01 X29.2208 Y5.6878
G01 X29.3058 Y5.7282
G01 X29.3196 Y5.7353
G01 X29.3467 Y5.7507
G01 X29.4140 Y5.7910
G01 X29.4403 Y5.8077
G01 X29.4657 Y5.8256
G01 X29.5412 Y5.8818
G01 X29.5533 Y5.8915
G01 X29.5769 Y5.9118
G01 X29.6465 Y5.9751
G01 X29.6685 Y5.9971
G01 X29.7318 Y6.0667
G01 X29.7521 Y6.0903
G01 X29.7712 Y6.1148
G01 X29.8271 Y6.1905
G01 X29.8444 Y6.2164
G01 X29.8929 Y6.2969
G01 X29.9083 Y6.3240
G01 X29.9223 Y6.3518
G01 X29.9558 Y6.4228
G01 X29.9684 Y6.4512
G01 X29.9796 Y6.4803
G01 X30.0112 Y6.5689
G01 X30.0202 Y6.5987
G01 X30.0242 Y6.6137
G01 X30.0468 Y6.7050
G01 X30.0529 Y6.7355
G01 X30.0669 Y6.8286
G01 X30.0707 Y6.8594
G01 X30.0730 Y6.8905
G01 X30.0768 Y6.9689
G01 X30.0776 Y7.0000
G01 X30.0768 Y7.0311
G01 X30.0720 Y7.1251
G01 X30.0690 Y7.1560
G01 X30.0554 Y7.2491
G01 X30.0500 Y7.2798
G01 X30.0432 Y7.3101
G01 X30.0242 Y7.3863
G01 X30.0159 Y7.4163
G01 X30.0112 Y7.4311
G01 X29.9796 Y7.5197
G01 X29.9684 Y7.5488
G01 X29.9558 Y7.5772
G01 X29.9223 Y7.6482
G01 X29.9083 Y7.6760
G01 X29.8929 Y7.7031
G01 X29.8526 Y7.7704
G01 X29.8359 Y7.7967
G01 X29.8180 Y7.8221
G01 X29.7618 Y7.8976
G01 X29.7434 Y7.9201
G01 X31.5962 Y7.9201
G01 X31.6258 Y7.8805
G01 X31.6455 Y7.8565
G01 X31.7217 Y7.7721
G01 X31.7432 Y7.7496
G01 X31.7543 Y7.7387
G01 X31.8384 Y7.6622
G01 X31.8620 Y7.6419
G01 X31.8865 Y7.6228
G01 X31.9645 Y7.5650
G01 X31.9645 Y6.4920
G01 X31.9652 Y6.4609
G01 X31.9676 Y6.4159
G01 X31.9689 Y6.4004
G01 X31.9728 Y6.3696
G01 X31.9796 Y6.3251
G01 X31.9824 Y6.3098
G01 X31.9856 Y6.2945
G01 X31.9964 Y6.2508
G01 X32.0047 Y6.2208
G01 X32.0144 Y6.1913
G01 X32.0298 Y6.1490
G01 X32.0356 Y6.1345
G01 X32.0417 Y6.1202
G01 X32.0608 Y6.0794
G01 X32.0748 Y6.0516
G01 X32.0823 Y6.0380
G01 X32.1052 Y5.9993
G01 X32.1219 Y5.9730
G01 X32.1307 Y5.9602
G01 X32.1573 Y5.9239
G01 X32.1668 Y5.9115
G01 X32.1865 Y5.8875
G01 X32.2272 Y5.8426
G01 X32.7969 Y5.2727
G01 X32.8194 Y5.2512
G01 X32.8529 Y5.2211
G01 X32.8769 Y5.2014
G01 X32.8893 Y5.1919
G01 X32.9256 Y5.1653
G01 X32.9384 Y5.1565
G01 X32.9647 Y5.1398
G01 X33.0034 Y5.1169
G01 X33.0170 Y5.1094
G01 X33.0448 Y5.0954
G01 X33.0856 Y5.0763
G01 X33.0999 Y5.0702
G01 X33.1289 Y5.0590
G01 X33.1714 Y5.0440
G01 X33.2012 Y5.0349
G01 X33.2162 Y5.0310
G01 X33.2599 Y5.0202
G01 X33.2752 Y5.0170
G01 X33.2905 Y5.0142
G01 X33.3350 Y5.0074
G01 X33.3658 Y5.0035
G01 X33.3969 Y5.0013
G01 X33.4418 Y4.9992
G01 X33.4574 Y4.9991
G01 X42.0742 Y4.9991
G01 X42.1320 Y4.9211
G01 X42.1511 Y4.8966
G01 X42.1714 Y4.8730
G01 X42.2373 Y4.8003
G01 X42.2479 Y4.7889
G01 X42.2699 Y4.7669
G01 X42.3540 Y4.6904
G01 X42.3776 Y4.6701
G01 X42.4021 Y4.6510
G01 X42.4810 Y4.5925
G01 X42.5064 Y4.5746
G01 X42.5327 Y4.5579
G01 X42.6169 Y4.5075
G01 X42.6439 Y4.4921
G01 X42.6717 Y4.4781
G01 X42.7604 Y4.4362
G01 X42.7889 Y4.4236
G01 X42.8179 Y4.4124
G01 X42.9103 Y4.3793
G01 X42.9399 Y4.3696
G01 X42.9699 Y4.3613
G01 X43.0651 Y4.3374
G01 X43.0954 Y4.3306
G01 X43.1261 Y4.3253
G01 X43.2232 Y4.3109
G01 X43.2540 Y4.3071
G01 X43.2851 Y4.3048
G01 X43.3831 Y4.3000
G01 X43.4142 Y4.2992
G01 X43.4453 Y4.3000
G01 X43.5433 Y4.3048
G01 X43.5744 Y4.3071
G01 X43.6052 Y4.3109
G01 X43.7023 Y4.3253
G01 X43.7330 Y4.3306
G01 X43.7633 Y4.3374
G01 X43.8585 Y4.3613
G01 X43.8885 Y4.3696
G01 X43.9181 Y4.3793
G01 X44.0105 Y4.4124
G01 X44.0395 Y4.4236
G01 X44.0680 Y4.4362
G01 X44.1567 Y4.4781
G01 X44.1845 Y4.4921
G01 X44.2115 Y4.5075
G01 X44.2957 Y4.5579
G01 X44.3220 Y4.5746
G01 X44.3474 Y4.5925
G01 X44.4263 Y4.6510
G01 X44.4508 Y4.6701
G01 X44.4744 Y4.6904
G01 X44.5585 Y4.7669
G01 X44.5805 Y4.7889
G01 X44.5911 Y4.8003
G01 X44.6570 Y4.8730
G01 X44.6773 Y4.8966
G01 X44.6964 Y4.9211
G01 X44.7542 Y4.9991
G01 X45.3446 Y4.9991
G01 X45.3602 Y4.9992
G01 X45.4051 Y5.0013
G01 X45.4362 Y5.0035
G01 X45.4670 Y5.0074
G01 X45.5115 Y5.0142
G01 X45.5268 Y5.0170
G01 X45.5421 Y5.0202
G01 X45.5858 Y5.0310
G01 X45.6158 Y5.0393
G01 X45.6453 Y5.0490
G01 X45.6876 Y5.0644
G01 X45.7021 Y5.0702
G01 X45.7164 Y5.0763
G01 X45.7572 Y5.0954
G01 X45.7850 Y5.1094
G01 X45.8120 Y5.1247
G01 X45.8505 Y5.1480
G01 X45.8764 Y5.1653
G01 X45.9127 Y5.1919
G01 X45.9251 Y5.2014
G01 X45.9491 Y5.2211
G01 X45.9826 Y5.2512
G01 X46.0051 Y5.2727
G01 X51.7105 Y10.9781
G01 X51.7320 Y11.0006
G01 X51.7621 Y11.0341
G01 X51.7818 Y11.0581
G01 X51.8088 Y11.0942
G01 X51.8267 Y11.1196
G01 X51.8434 Y11.1459
G01 X51.8663 Y11.1846
G01 X51.8810 Y11.2121
G01 X51.9069 Y11.2668
G01 X51.9130 Y11.2811
G01 X51.9242 Y11.3101
G01 X51.9392 Y11.3526
G01 X51.9439 Y11.3674
G01 X51.9483 Y11.3824
G01 X51.9594 Y11.4260
G01 X51.9662 Y11.4564
G01 X51.9690 Y11.4717
G01 X51.9779 Y11.5316
G01 X51.9810 Y11.5625
G01 X51.9840 Y11.6230
G01 X51.9841 Y16.3280
G01 X52.0621 Y16.3858
G01 X52.0866 Y16.4049
G01 X52.1102 Y16.4252
G01 X52.1829 Y16.4911
G01 X52.2054 Y16.5126
G01 X52.2269 Y16.5351
G01 X52.2928 Y16.6078
G01 X52.3131 Y16.6314
G01 X52.3322 Y16.6559
G01 X52.3907 Y16.7348
G01 X52.4086 Y16.7602
G01 X52.4253 Y16.7865
G01 X52.4757 Y16.8707
G01 X52.4911 Y16.8977
G01 X52.5051 Y16.9255
G01 X52.5470 Y17.0142
G01 X52.5596 Y17.0427
G01 X52.5708 Y17.0717
G01 X52.6039 Y17.1641
G01 X52.6136 Y17.1937
G01 X52.6219 Y17.2237
G01 X52.6458 Y17.3189
G01 X52.6526 Y17.3492
G01 X52.6555 Y17.3645
G01 X52.6723 Y17.4770
G01 X52.6761 Y17.5078
G01 X52.6784 Y17.5389
G01 X52.6832 Y17.6369
G01 X52.6838 Y17.6524
G01 X52.6838 Y17.6836
G01 X52.6775 Y17.8127
G01 X52.6744 Y17.8436
G01 X52.6723 Y17.8590
G01 X52.6579 Y17.9561
G01 X52.6526 Y17.9868
G01 X52.6458 Y18.0171
G01 X52.6219 Y18.1123
G01 X52.6136 Y18.1423
G01 X52.6039 Y18.1719
G01 X52.5708 Y18.2643
G01 X52.5596 Y18.2933
G01 X52.5470 Y18.3218
G01 X52.5051 Y18.4105
G01 X52.4911 Y18.4383
G01 X52.4757 Y18.4653
G01 X52.4253 Y18.5495
G01 X52.4086 Y18.5758
G01 X52.3907 Y18.6012
G01 X52.3322 Y18.6801
G01 X52.3131 Y18.7046
G01 X52.2928 Y18.7282
G01 X52.2269 Y18.8009
G01 X52.2054 Y18.8234
G01 X52.1829 Y18.8449
G01 X52.1102 Y18.9108
G01 X52.0866 Y18.9311
G01 X52.0621 Y18.9502
G01 X51.9832 Y19.0087
G01 X51.9578 Y19.0266
G01 X51.9315 Y19.0433
G01 X51.8473 Y19.0937
G01 X51.8203 Y19.1091
G01 X51.7925 Y19.1231
G01 X51.7038 Y19.1650
G01 X51.6753 Y19.1776
G01 X51.6463 Y19.1888
G01 X51.5539 Y19.2219
G01 X51.5243 Y19.2316
G01 X51.4943 Y19.2399
G01 X51.3991 Y19.2638
G01 X51.3688 Y19.2706
G01 X51.3381 Y19.2759
G01 X51.2410 Y19.2903
G01 X51.2102 Y19.2941
G01 X51.1791 Y19.2964
G01 X51.0811 Y19.3012
G01 X51.0500 Y19.3020
G01 X51.0189 Y19.3012
G01 X50.9209 Y19.2964
G01 X50.8898 Y19.2941
G01 X50.8590 Y19.2903
G01 X50.7619 Y19.2759
G01 X50.7312 Y19.2706
G01 X50.7160 Y19.2674
G01 X50.6057 Y19.2399
G01 X50.5757 Y19.2316
G01 X50.5461 Y19.2219
G01 X50.4537 Y19.1888
G01 X50.4391 Y19.1834
G01 X50.4104 Y19.1715
G01 X50.2935 Y19.1162
G01 X50.2661 Y19.1016
G01 X50.2527 Y19.0937
G01 X50.1685 Y19.0433
G01 X50.1422 Y19.0266
G01 X50.1168 Y19.0087
G01 X50.0379 Y18.9502
G01 X50.0134 Y18.9311
G01 X50.0015 Y18.9211
G01 X49.9057 Y18.8343
G01 X49.8946 Y18.8234
G01 X49.8731 Y18.8009
G01 X49.8072 Y18.7282
G01 X49.7869 Y18.7046
G01 X49.7678 Y18.6801
G01 X49.7100 Y18.6021
G01 X48.3477 Y18.6021
G01 X38.6391 Y28.3107
G01 X38.6280 Y28.3216
G01 X38.5948 Y28.3520
G01 X38.5712 Y28.3723
G01 X38.5467 Y28.3915
G01 X38.5104 Y28.4181
G01 X38.4845 Y28.4354
G01 X38.4460 Y28.4587
G01 X38.4190 Y28.4740
G01 X38.4051 Y28.4812
G01 X38.3645 Y28.5006
G01 X38.3361 Y28.5132
G01 X38.3216 Y28.5190
G01 X38.2793 Y28.5344
G01 X38.2646 Y28.5394
G01 X38.2348 Y28.5485
G01 X38.1912 Y28.5596
G01 X38.1608 Y28.5664
G01 X38.1302 Y28.5717
G01 X38.0856 Y28.5781
G01 X38.0547 Y28.5812
G01 X38.0391 Y28.5821
G01 X37.9942 Y28.5842
G01 X37.9786 Y28.5843
G01 X35.2419 Y28.5843
G01 X35.1841 Y28.6623
G01 X35.1650 Y28.6868
G01 X35.1447 Y28.7104
G01 X35.0788 Y28.7831
G01 X35.0573 Y28.8056
G01 X35.0348 Y28.8271
G01 X34.9621 Y28.8930
G01 X34.9385 Y28.9133
G01 X34.9140 Y28.9324
G01 X34.8351 Y28.9909
G01 X34.8097 Y29.0088
G01 X34.7834 Y29.0255
G01 X34.6992 Y29.0759
G01 X34.6722 Y29.0913
G01 X34.6444 Y29.1053
G01 X34.5557 Y29.1472
G01 X34.5272 Y29.1598
G01 X34.4982 Y29.1710
G01 X34.4058 Y29.2041
G01 X34.3762 Y29.2138
G01 X34.3462 Y29.2221
G01 X34.2510 Y29.2460
G01 X34.2207 Y29.2528
G01 X34.1900 Y29.2581
G01 X34.0929 Y29.2725
G01 X34.0621 Y29.2763
G01 X34.0310 Y29.2786
G01 X33.9330 Y29.2834
G01 X33.9019 Y29.2842
G01 X33.8708 Y29.2834
G01 X33.7728 Y29.2786
G01 X33.7417 Y29.2763
G01 X33.7109 Y29.2725
G01 X33.6138 Y29.2581
G01 X33.5831 Y29.2528
G01 X33.5528 Y29.2460
G01 X33.4576 Y29.2221
G01 X33.4276 Y29.2138
G01 X33.3980 Y29.2041
G01 X33.3056 Y29.1710
G01 X33.2766 Y29.1598
G01 X33.2481 Y29.1472
G01 X33.1594 Y29.1053
G01 X33.1316 Y29.0913
G01 X33.1046 Y29.0759
G01 X33.0204 Y29.0255
G01 X32.9941 Y29.0088
G01 X32.9687 Y28.9909
G01 X32.8898 Y28.9324
G01 X32.8653 Y28.9133
G01 X32.8417 Y28.8930
G01 X32.7690 Y28.8271
G01 X32.7465 Y28.8056
G01 X32.7250 Y28.7831
G01 X32.6591 Y28.7104
G01 X32.6388 Y28.6868
G01 X32.6197 Y28.6623
G01 X32.5612 Y28.5834
G01 X32.5433 Y28.5580
G01 X32.5266 Y28.5317
G01 X32.4762 Y28.4475
G01 X32.4608 Y28.4205
G01 X32.4468 Y28.3927
G01 X32.4049 Y28.3040
G01 X32.3923 Y28.2755
G01 X32.3811 Y28.2465
G01 X32.3480 Y28.1541
G01 X32.3383 Y28.1245
G01 X32.3300 Y28.0945
G01 X32.3061 Y27.9993
G01 X32.2993 Y27.9690
G01 X32.2940 Y27.9383
G01 X32.2796 Y27.8412
G01 X32.2758 Y27.8104
G01 X32.2744 Y27.7949
G01 X32.2687 Y27.6813
G01 X32.2679 Y27.6502
G01 X32.2687 Y27.6191
G01 X32.2735 Y27.5211
G01 X32.2758 Y27.4900
G01 X32.2796 Y27.4592
G01 X32.2940 Y27.3621
G01 X32.2993 Y27.3314
G01 X32.3061 Y27.3011
G01 X32.3300 Y27.2059
G01 X32.3383 Y27.1759
G01 X32.3480 Y27.1463
G01 X32.3811 Y27.0539
G01 X32.3923 Y27.0249
G01 X32.4049 Y26.9964
G01 X32.4537 Y26.8937
G01 X32.4683 Y26.8663
G01 X32.4762 Y26.8529
G01 X32.5266 Y26.7687
G01 X32.5433 Y26.7424
G01 X32.5521 Y26.7296
G01 X32.6197 Y26.6381
G01 X32.6388 Y26.6136
G01 X32.6591 Y26.5900
G01 X32.7250 Y26.5173
G01 X32.7465 Y26.4948
G01 X32.7690 Y26.4733
G01 X32.8417 Y26.4074
G01 X32.8653 Y26.3871
G01 X32.8774 Y26.3774
G01 X32.9687 Y26.3095
G01 X32.9941 Y26.2916
G01 X33.0204 Y26.2749
G01 X33.1046 Y26.2245
G01 X33.1316 Y26.2091
G01 X33.1594 Y26.1951
G01 X33.2481 Y26.1532
G01 X33.2766 Y26.1406
G01 X33.3056 Y26.1294
G01 X33.3980 Y26.0963
G01 X33.4276 Y26.0866
G01 X33.4576 Y26.0783
G01 X33.5528 Y26.0544
G01 X33.5831 Y26.0476
G01 X33.6138 Y26.0423
G01 X33.7109 Y26.0279
G01 X33.7417 Y26.0241
G01 X33.7728 Y26.0218
G01 X33.8708 Y26.0170
G01 X33.9019 Y26.0162
G01 X33.9330 Y26.0170
G01 X34.0466 Y26.0227
G01 X34.0621 Y26.0241
G01 X34.0929 Y26.0279
G01 X34.1900 Y26.0423
G01 X34.2207 Y26.0476
G01 X34.2510 Y26.0544
G01 X34.3462 Y26.0783
G01 X34.3762 Y26.0866
G01 X34.4058 Y26.0963
G01 X34.4982 Y26.1294
G01 X34.5272 Y26.1406
G01 X34.5557 Y26.1532
G01 X34.6444 Y26.1951
G01 X34.6722 Y26.2091
G01 X34.6858 Y26.2166
G01 X34.7834 Y26.2749
G01 X34.7967 Y26.2831
G01 X34.8225 Y26.3004
G01 X34.9264 Y26.3774
G01 X34.9385 Y26.3871
G01 X34.9621 Y26.4074
G01 X35.0462 Y26.4839
G01 X35.0682 Y26.5059
G01 X35.0788 Y26.5173
G01 X35.1447 Y26.5900
G01 X35.1650 Y26.6136
G01 X35.1841 Y26.6381
G01 X35.2419 Y26.7161
G01 X37.5917 Y26.7161
G01 X47.3003 Y17.0075
G01 X47.3114 Y16.9966
G01 X47.3446 Y16.9662
G01 X47.3682 Y16.9459
G01 X47.3927 Y16.9267
G01 X47.4290 Y16.9001
G01 X47.4549 Y16.8828
G01 X47.4934 Y16.8595
G01 X47.5068 Y16.8517
G01 X47.5343 Y16.8370
G01 X47.5749 Y16.8176
G01 X47.6033 Y16.8050
G01 X47.6323 Y16.7938
G01 X47.6748 Y16.7788
G01 X47.6896 Y16.7741
G01 X47.7196 Y16.7658
G01 X47.7633 Y16.7550
G01 X47.7939 Y16.7490
G01 X47.8384 Y16.7422
G01 X47.8692 Y16.7383
G01 X47.9003 Y16.7361
G01 X47.9452 Y16.7340
G01 X47.9608 Y16.7339
G01 X49.7100 Y16.7339
G01 X49.7678 Y16.6559
G01 X49.7869 Y16.6314
G01 X49.8072 Y16.6078
G01 X49.8731 Y16.5351
G01 X49.8946 Y16.5126
G01 X49.9171 Y16.4911
G01 X49.9898 Y16.4252
G01 X50.0134 Y16.4049
G01 X50.0379 Y16.3858
G01 X50.1158 Y16.3280
G01 X50.1159 Y12.0255
G01 X44.9577 Y6.8673
G01 X44.7542 Y6.8673
G01 X44.6964 Y6.9453
G01 X44.6773 Y6.9698
G01 X44.6570 Y6.9934
G01 X44.5911 Y7.0661
G01 X44.5696 Y7.0886
G01 X44.5471 Y7.1101
G01 X44.4744 Y7.1760
G01 X44.4508 Y7.1963
G01 X44.4263 Y7.2154
G01 X44.3474 Y7.2739
G01 X44.3220 Y7.2918
G01 X44.2957 Y7.3085
G01 X44.2115 Y7.3589
G01 X44.1845 Y7.3743
G01 X44.1567 Y7.3883
G01 X44.0538 Y7.4367
G01 X44.0251 Y7.4486
G01 X44.0105 Y7.4540
G01 X43.9181 Y7.4871
G01 X43.8885 Y7.4968
G01 X43.8585 Y7.5051
G01 X43.7633 Y7.5290
G01 X43.7330 Y7.5358
G01 X43.7023 Y7.5411
G01 X43.6052 Y7.5555
G01 X43.5744 Y7.5593
G01 X43.5433 Y7.5616
G01 X43.4453 Y7.5664
G01 X43.4142 Y7.5672
G01 X43.3831 Y7.5664
G01 X43.2851 Y7.5616
G01 X43.2540 Y7.5593
G01 X43.2232 Y7.5555
G01 X43.1261 Y7.5411
G01 X43.0954 Y7.5358
G01 X43.0651 Y7.5290
G01 X42.9699 Y7.5051
G01 X42.9399 Y7.4968
G01 X42.9103 Y7.4871
G01 X42.8179 Y7.4540
G01 X42.7889 Y7.4428
G01 X42.7604 Y7.4302
G01 X42.6717 Y7.3883
G01 X42.6439 Y7.3743
G01 X42.6169 Y7.3589
G01 X42.5327 Y7.3085
G01 X42.5064 Y7.2918
G01 X42.4810 Y7.2739
G01 X42.4021 Y7.2154
G01 X42.3776 Y7.1963
G01 X42.3540 Y7.1760
G01 X42.2699 Y7.0995
G01 X42.2588 Y7.0886
G01 X42.2373 Y7.0661
G01 X42.1714 Y6.9934
G01 X42.1511 Y6.9698
G01 X42.1320 Y6.9453
G01 X42.0742 Y6.8674
G01 X33.8443 Y6.8673
G01 X33.8327 Y6.8789
G01 X33.8327 Y7.5650
G01 X33.9107 Y7.6228
G01 X33.9352 Y7.6419
G01 X33.9588 Y7.6622
G01 X34.0315 Y7.7281
G01 X34.0540 Y7.7496
G01 X34.0755 Y7.7721
G01 X34.1414 Y7.8448
G01 X34.1617 Y7.8684
G01 X34.1808 Y7.8929
G01 X34.2393 Y7.9718
G01 X34.2572 Y7.9972
G01 X34.2739 Y8.0235
G01 X34.3243 Y8.1077
G01 X34.3397 Y8.1347
G01 X34.3537 Y8.1625
G01 X34.3956 Y8.2512
G01 X34.4082 Y8.2797
G01 X34.4194 Y8.3087
G01 X34.4525 Y8.4011
G01 X34.4622 Y8.4307
G01 X34.4705 Y8.4607
G01 X34.4944 Y8.5559
G01 X34.5012 Y8.5862
G01 X34.5065 Y8.6169
G01 X34.5209 Y8.7140
G01 X34.5247 Y8.7448
G01 X34.5270 Y8.7759
G01 X34.5318 Y8.8739
G01 X34.5326 Y8.9050
G01 X34.5318 Y8.9361
G01 X34.5270 Y9.0341
G01 X34.5247 Y9.0652
G01 X34.5209 Y9.0960
G01 X34.5065 Y9.1931
G01 X34.5012 Y9.2238
G01 X34.4944 Y9.2541
G01 X34.4705 Y9.3493
G01 X34.4622 Y9.3793
G01 X34.4525 Y9.4089
G01 X34.4194 Y9.5013
G01 X34.4082 Y9.5303
G01 X34.3956 Y9.5588
G01 X34.3537 Y9.6475
G01 X34.3397 Y9.6753
G01 X34.3243 Y9.7023
G01 X34.2739 Y9.7865
G01 X34.2572 Y9.8128
G01 X34.2393 Y9.8382
G01 X34.1808 Y9.9171
G01 X34.1617 Y9.9416
G01 X34.1414 Y9.9652
G01 X34.0649 Y10.0493
G01 X34.0429 Y10.0713
G01 X34.0315 Y10.0819
G01 X33.9588 Y10.1478
G01 X33.9352 Y10.1681
G01 X33.9107 Y10.1872
G01 X33.8318 Y10.2457
G01 X33.8064 Y10.2636
G01 X33.7801 Y10.2803
G01 X33.6959 Y10.3307
G01 X33.6689 Y10.3461
G01 X33.6411 Y10.3601
G01 X33.5524 Y10.4020
G01 X33.5239 Y10.4146
G01 X33.4949 Y10.4258
G01 X33.4025 Y10.4589
G01 X33.3729 Y10.4686
G01 X33.3580 Y10.4730
G01 X33.2477 Y10.5008
G01 X33.2174 Y10.5076
G01 X33.1867 Y10.5129
G01 X33.0896 Y10.5273
G01 X33.0588 Y10.5311
G01 X33.0277 Y10.5334
G01 X32.9297 Y10.5382
G01 X32.8986 Y10.5390
G01 X32.8675 Y10.5382
G01 X32.7695 Y10.5334
G01 X32.7384 Y10.5311
G01 X32.7076 Y10.5273
G01 X32.6105 Y10.5129
G01 X32.5798 Y10.5076
G01 X32.5495 Y10.5008
G01 X32.4392 Y10.4730
G01 X32.4243 Y10.4686
G01 X32.3947 Y10.4589
G01 X32.3023 Y10.4258
G01 X32.2733 Y10.4146
G01 X32.2448 Y10.4020
G01 X32.1561 Y10.3601
G01 X32.1283 Y10.3461
G01 X32.1013 Y10.3307
G01 X32.0038 Y10.2721
G01 X31.9908 Y10.2636
G01 X31.9654 Y10.2457
G01 X31.8865 Y10.1872
G01 X31.8620 Y10.1681
G01 X31.8501 Y10.1581
G01 X31.7657 Y10.0819
G01 X31.7432 Y10.0604
G01 X31.7217 Y10.0379
G01 X31.6455 Y9.9535
G01 X31.6355 Y9.9416
G01 X31.6164 Y9.9171
G01 X31.5579 Y9.8382
G01 X31.5400 Y9.8128
G01 X31.5245 Y9.7884
G01 X24.1982 Y9.7883
G01 X24.2258 Y9.7975
G01 X24.2997 Y9.8240
G01 X24.3288 Y9.8352
G01 X24.3572 Y9.8478
G01 X24.4282 Y9.8813
G01 X24.4422 Y9.8882
G01 X24.4696 Y9.9028
G01 X24.5504 Y9.9510
G01 X24.5767 Y9.9677
G01 X24.6021 Y9.9856
G01 X24.6776 Y10.0418
G01 X24.7016 Y10.0615
G01 X24.7133 Y10.0718
G01 X24.7715 Y10.1246
G01 X24.7940 Y10.1460
G01 X24.8154 Y10.1685
G01 X24.8682 Y10.2267
G01 X24.8885 Y10.2503
G01 X24.9076 Y10.2748
G01 X24.9544 Y10.3379
G01 X24.9723 Y10.3633
G01 X24.9890 Y10.3896
G01 X25.0293 Y10.4569
G01 X25.0447 Y10.4840
G01 X25.0518 Y10.4978
G01 X25.0922 Y10.5828
G01 X25.1048 Y10.6112
G01 X25.1160 Y10.6403
G01 X25.1425 Y10.7142
G01 X25.1523 Y10.7437
G01 X25.1606 Y10.7737
G01 X25.1796 Y10.8499
G01 X25.1864 Y10.8802
G01 X25.1918 Y10.9109
G01 X25.2054 Y11.0040
G01 X25.2071 Y11.0194
G01 X25.2094 Y11.0505
G01 X25.2138 Y11.1444
G01 X25.2138 Y11.1756
G01 X25.2084 Y11.2851
G01 X25.2054 Y11.3160
G01 X25.2033 Y11.3314
G01 X25.1918 Y11.4091
G01 X25.1864 Y11.4398
G01 X25.1796 Y11.4701
G01 X25.1606 Y11.5463
G01 X25.1523 Y11.5763
G01 X25.1476 Y11.5911
G01 X25.1160 Y11.6797
G01 X25.1048 Y11.7088
G01 X25.0987 Y11.7231
G01 X25.0518 Y11.8222
G01 X25.0372 Y11.8496
G01 X25.0293 Y11.8631
G01 X24.9808 Y11.9436
G01 X24.9723 Y11.9567
G01 X24.9544 Y11.9821
G01 X24.9076 Y12.0452
G01 X24.8885 Y12.0697
G01 X24.8682 Y12.0933
G01 X24.8075 Y12.1600
G01 X24.8682 Y12.2267
G01 X24.8885 Y12.2503
G01 X24.8982 Y12.2624
G01 X24.9635 Y12.3505
G01 X24.9723 Y12.3633
G01 X24.9890 Y12.3896
G01 X25.0372 Y12.4704
G01 X25.0447 Y12.4840
G01 X25.0587 Y12.5118
G01 X25.0922 Y12.5828
G01 X25.1048 Y12.6112
G01 X25.1160 Y12.6403
G01 X25.1425 Y12.7142
G01 X25.1476 Y12.7289
G01 X25.1566 Y12.7587
G01 X25.1796 Y12.8499
G01 X25.1864 Y12.8802
G01 X25.1918 Y12.9109
G01 X25.2033 Y12.9886
G01 X25.2071 Y13.0194
G01 X25.2094 Y13.0505
G01 X25.2132 Y13.1289
G01 X25.2140 Y13.1600
G01 X25.2132 Y13.1911
G01 X25.2094 Y13.2695
G01 X25.2084 Y13.2851
G01 X25.2054 Y13.3160
G01 X25.1918 Y13.4091
G01 X25.1864 Y13.4398
G01 X25.1796 Y13.4701
G01 X25.1566 Y13.5613
G01 X25.1476 Y13.5911
G01 X25.1160 Y13.6797
G01 X25.1048 Y13.7088
G01 X25.0922 Y13.7372
G01 X25.0587 Y13.8082
G01 X25.0447 Y13.8360
G01 X25.0293 Y13.8631
G01 X24.9890 Y13.9304
G01 X24.9723 Y13.9567
G01 X24.9544 Y13.9821
G01 X24.9076 Y14.0452
G01 X24.8885 Y14.0697
G01 X24.8682 Y14.0933
G01 X24.8075 Y14.1600
G01 X24.8682 Y14.2267
G01 X24.8885 Y14.2503
G01 X24.9076 Y14.2748
G01 X24.9544 Y14.3379
G01 X24.9723 Y14.3633
G01 X24.9890 Y14.3896
G01 X25.0293 Y14.4569
G01 X25.0447 Y14.4840
G01 X25.0587 Y14.5118
G01 X25.0922 Y14.5828
G01 X25.0987 Y14.5969
G01 X25.1106 Y14.6257
G01 X25.1425 Y14.7142
G01 X25.1523 Y14.7437
G01 X25.1606 Y14.7737
G01 X25.1796 Y14.8499
G01 X25.1864 Y14.8802
G01 X25.1918 Y14.9109
G01 X25.2033 Y14.9886
G01 X25.2071 Y15.0194
G01 X25.2094 Y15.0505
G01 X25.2132 Y15.1289
G01 X25.2140 Y15.1600
G01 X25.2132 Y15.1911
G01 X25.2094 Y15.2695
G01 X25.2071 Y15.3006
G01 X25.2033 Y15.3314
G01 X25.1893 Y15.4245
G01 X25.1832 Y15.4550
G01 X25.1606 Y15.5463
G01 X25.1523 Y15.5763
G01 X25.1425 Y15.6058
G01 X25.1106 Y15.6943
G01 X25.0987 Y15.7231
G01 X25.0922 Y15.7372
G01 X25.0518 Y15.8222
G01 X25.0372 Y15.8496
G01 X25.0104 Y15.8946
G01 X25.0283 Y15.9117
G01 X25.0498 Y15.9342
G01 X25.0701 Y15.9578
G01 X25.0892 Y15.9823
G01 X25.1072 Y16.0078
G01 X25.1238 Y16.0341
G01 X25.1316 Y16.0475
G01 X25.1463 Y16.0749
G01 X25.1596 Y16.1031
G01 X25.1657 Y16.1174
G01 X25.1769 Y16.1464
G01 X25.1867 Y16.1760
G01 X25.1950 Y16.2060
G01 X25.2018 Y16.2363
G01 X25.2071 Y16.2670
G01 X25.2109 Y16.2979
G01 X25.2132 Y16.3289
G01 X25.2140 Y16.3600
G01 X25.2140 Y17.9600
G01 X25.2138 Y17.9756
G01 X25.2123 Y18.0066
G01 X25.2109 Y18.0221
G01 X25.2071 Y18.0530
G01 X25.2018 Y18.0837
G01 X25.1950 Y18.1140
G01 X25.1867 Y18.1440
G01 X25.1820 Y18.1589
G01 X25.1715 Y18.1882
G01 X25.1596 Y18.2169
G01 X25.1531 Y18.2311
G01 X25.1391 Y18.2589
G01 X25.1238 Y18.2859
G01 X25.1072 Y18.3122
G01 X25.0892 Y18.3377
G01 X25.0701 Y18.3622
G01 X25.0498 Y18.3858
G01 X25.0283 Y18.4083
G01 X25.0058 Y18.4298
G01 X24.9822 Y18.4501
G01 X24.9701 Y18.4598
G01 X24.9451 Y18.4783
G01 X24.9192 Y18.4956
G01 X24.9059 Y18.5038
G01 X24.8789 Y18.5191
G01 X24.8511 Y18.5331
G01 X24.8369 Y18.5396
G01 X24.8082 Y18.5515
G01 X24.7789 Y18.5620
G01 X24.7491 Y18.5710
G01 X24.7189 Y18.5786
G01 X24.7037 Y18.5818
G01 X24.6730 Y18.5871
G01 X24.6421 Y18.5909
G01 X24.6111 Y18.5932
G01 X24.5800 Y18.5940
G01 X22.9800 Y18.5940
G01 X22.9644 Y18.5938
G01 X22.9334 Y18.5923
G01 X22.9024 Y18.5892
G01 X22.8716 Y18.5847
G01 X22.8411 Y18.5786
G01 X22.8260 Y18.5750
G01 X22.7960 Y18.5667
G01 X22.7664 Y18.5569
G01 X22.7518 Y18.5515
G01 X22.7374 Y18.5457
G01 X22.7089 Y18.5331
G01 X22.6949 Y18.5263
G01 X22.6675 Y18.5116
G01 X22.6541 Y18.5038
G01 X22.6278 Y18.4872
G01 X22.6023 Y18.4692
G01 X22.5899 Y18.4598
G01 X22.5659 Y18.4401
G01 X22.5542 Y18.4298
G01 X22.5428 Y18.4192
G01 X22.5208 Y18.3972
G01 X22.4999 Y18.3741
G01 X22.4899 Y18.3622
G01 X22.4708 Y18.3377
G01 X22.4617 Y18.3251
G01 X22.4444 Y18.2992
G01 X22.4362 Y18.2859
G01 X22.4209 Y18.2589
G01 X22.4069 Y18.2311
G01 X22.4004 Y18.2169
G01 X22.3885 Y18.1882
G01 X22.3831 Y18.1736
G01 X22.3733 Y18.1440
G01 X22.3690 Y18.1291
G01 X22.3614 Y18.0989
G01 X22.3553 Y18.0684
G01 X22.3529 Y18.0530
G01 X22.3508 Y18.0376
G01 X22.3477 Y18.0066
G01 X22.3468 Y17.9911
G01 X22.3460 Y17.9600
G01 X22.3460 Y16.3600
G01 X22.3468 Y16.3289
G01 X22.3491 Y16.2979
G01 X22.3508 Y16.2824
G01 X22.3553 Y16.2516
G01 X22.3614 Y16.2211
G01 X22.3690 Y16.1909
G01 X22.3780 Y16.1611
G01 X22.3885 Y16.1318
G01 X22.4004 Y16.1031
G01 X22.4137 Y16.0749
G01 X22.4284 Y16.0475
G01 X22.4444 Y16.0208
G01 X22.4528 Y16.0078
G01 X22.4708 Y15.9823
G01 X22.4899 Y15.9578
G01 X22.5102 Y15.9342
G01 X22.5317 Y15.9117
G01 X22.5496 Y15.8946
G01 X22.5228 Y15.8496
G01 X22.5082 Y15.8222
G01 X22.4678 Y15.7372
G01 X22.4552 Y15.7088
G01 X22.4494 Y15.6943
G01 X22.4175 Y15.6058
G01 X22.4077 Y15.5763
G01 X22.3994 Y15.5463
G01 X22.3768 Y15.4550
G01 X22.3707 Y15.4245
G01 X22.3567 Y15.3314
G01 X22.3529 Y15.3006
G01 X22.3506 Y15.2695
G01 X22.3468 Y15.1911
G01 X22.3460 Y15.1600
G01 X22.3468 Y15.1289
G01 X22.3506 Y15.0505
G01 X22.3529 Y15.0194
G01 X22.3567 Y14.9886
G01 X22.3682 Y14.9109
G01 X22.3736 Y14.8802
G01 X22.3804 Y14.8499
G01 X22.3994 Y14.7737
G01 X22.4077 Y14.7437
G01 X22.4175 Y14.7142
G01 X22.4494 Y14.6257
G01 X22.4613 Y14.5969
G01 X22.4678 Y14.5828
G01 X22.5013 Y14.5118
G01 X22.5153 Y14.4840
G01 X22.5307 Y14.4569
G01 X22.5710 Y14.3896
G01 X22.5877 Y14.3633
G01 X22.6056 Y14.3379
G01 X22.6524 Y14.2748
G01 X22.6715 Y14.2503
G01 X22.6918 Y14.2267
G01 X22.7525 Y14.1600
G01 X22.6918 Y14.0933
G01 X22.6715 Y14.0697
G01 X22.6524 Y14.0452
G01 X22.6056 Y13.9821
G01 X22.5877 Y13.9567
G01 X22.5710 Y13.9304
G01 X22.5307 Y13.8631
G01 X22.5153 Y13.8360
G01 X22.5013 Y13.8082
G01 X22.4678 Y13.7372
G01 X22.4552 Y13.7088
G01 X22.4440 Y13.6797
G01 X22.4124 Y13.5911
G01 X22.4034 Y13.5613
G01 X22.3804 Y13.4701
G01 X22.3736 Y13.4398
G01 X22.3682 Y13.4091
G01 X22.3546 Y13.3160
G01 X22.3529 Y13.3006
G01 X22.3506 Y13.2695
G01 X22.3468 Y13.1911
G01 X22.3460 Y13.1600
G01 X22.3468 Y13.1289
G01 X22.3506 Y13.0505
G01 X22.3529 Y13.0194
G01 X22.3567 Y12.9886
G01 X22.3682 Y12.9109
G01 X22.3736 Y12.8802
G01 X22.3804 Y12.8499
G01 X22.4034 Y12.7587
G01 X22.4077 Y12.7437
G01 X22.4175 Y12.7142
G01 X22.4440 Y12.6403
G01 X22.4552 Y12.6112
G01 X22.4678 Y12.5828
G01 X22.5013 Y12.5118
G01 X22.5153 Y12.4840
G01 X22.5228 Y12.4704
G01 X22.5710 Y12.3896
G01 X22.5877 Y12.3633
G01 X22.5965 Y12.3505
G01 X22.6618 Y12.2624
G01 X22.6815 Y12.2384
G01 X22.6918 Y12.2267
G01 X22.7525 Y12.1600
G01 X22.6918 Y12.0933
G01 X22.6715 Y12.0697
G01 X22.6618 Y12.0576
G01 X22.5965 Y11.9695
G01 X22.5877 Y11.9567
G01 X22.5710 Y11.9304
G01 X22.5228 Y11.8496
G01 X22.5153 Y11.8360
G01 X22.5013 Y11.8082
G01 X22.4678 Y11.7372
G01 X22.4552 Y11.7088
G01 X22.4440 Y11.6797
G01 X22.4175 Y11.6058
G01 X22.4124 Y11.5911
G01 X22.4034 Y11.5613
G01 X22.3804 Y11.4701
G01 X22.3736 Y11.4398
G01 X22.3682 Y11.4091
G01 X22.3567 Y11.3314
G01 X22.3529 Y11.3006
G01 X22.3506 Y11.2695
G01 X22.3468 Y11.1911
G01 X22.3460 Y11.1600
G01 X22.3468 Y11.1289
G01 X22.3506 Y11.0505
G01 X22.3516 Y11.0349
G01 X22.3546 Y11.0040
G01 X22.3682 Y10.9109
G01 X22.3736 Y10.8802
G01 X22.3804 Y10.8499
G01 X22.3994 Y10.7737
G01 X22.4077 Y10.7437
G01 X22.4124 Y10.7289
G01 X22.4440 Y10.6403
G01 X22.4552 Y10.6112
G01 X22.4678 Y10.5828
G01 X22.5082 Y10.4978
G01 X22.5228 Y10.4704
G01 X22.5307 Y10.4569
G01 X22.5710 Y10.3896
G01 X22.5877 Y10.3633
G01 X22.6056 Y10.3379
G01 X22.6524 Y10.2748
G01 X22.6715 Y10.2503
G01 X22.6918 Y10.2267
G01 X22.7446 Y10.1685
G01 X22.7660 Y10.1460
G01 X22.7885 Y10.1246
G01 X22.8467 Y10.0718
G01 X22.8703 Y10.0515
G01 X22.8824 Y10.0418
G01 X22.9579 Y9.9856
G01 X22.9833 Y9.9677
G01 X23.0096 Y9.9510
G01 X23.0904 Y9.9028
G01 X23.1040 Y9.8953
G01 X23.1318 Y9.8813
G01 X23.2028 Y9.8478
G01 X23.2312 Y9.8352
G01 X23.2603 Y9.8240
G01 X23.3342 Y9.7975
G01 X23.3618 Y9.7883
G01 X20.4552 Y9.7883
G01 X20.4602 Y9.8899
G01 X20.4610 Y9.9210
G01 X20.4608 Y9.9366
G01 X20.4554 Y10.0501
G01 X20.4545 Y10.0657
G01 X20.4514 Y10.0966
G01 X20.4349 Y10.2091
G01 X20.4296 Y10.2398
G01 X20.4264 Y10.2550
G01 X20.3950 Y10.3804
G01 X20.3859 Y10.4102
G01 X20.3809 Y10.4249
G01 X20.3424 Y10.5319
G01 X20.3366 Y10.5463
G01 X20.3240 Y10.5748
G01 X20.2821 Y10.6635
G01 X20.2681 Y10.6913
G01 X20.2527 Y10.7183
G01 X20.2023 Y10.8025
G01 X20.1856 Y10.8288
G01 X20.1768 Y10.8416
G01 X20.0998 Y10.9455
G01 X20.0901 Y10.9576
G01 X20.0698 Y10.9812
G01 X20.0039 Y11.0539
G01 X19.9824 Y11.0764
G01 X19.9713 Y11.0873
G01 X19.8755 Y11.1741
G01 X19.8515 Y11.1938
G01 X19.8391 Y11.2032
G01 X19.7476 Y11.2708
G01 X19.7218 Y11.2881
G01 X19.7085 Y11.2963
G01 X19.6243 Y11.3467
G01 X19.5973 Y11.3621
G01 X19.5695 Y11.3761
G01 X19.4666 Y11.4245
G01 X19.4379 Y11.4364
G01 X19.4233 Y11.4418
G01 X19.3309 Y11.4749
G01 X19.3013 Y11.4846
G01 X19.2713 Y11.4929
G01 X19.1761 Y11.5168
G01 X19.1458 Y11.5236
G01 X19.1151 Y11.5289
G01 X19.0180 Y11.5433
G01 X18.9872 Y11.5471
G01 X18.9561 Y11.5494
G01 X18.8426 Y11.5548
G01 X18.8114 Y11.5548
G01 X18.7959 Y11.5542
G01 X18.6979 Y11.5494
G01 X18.6668 Y11.5471
G01 X18.6360 Y11.5433
G01 X18.5389 Y11.5289
G01 X18.5082 Y11.5236
G01 X18.4779 Y11.5168
G01 X18.3827 Y11.4929
G01 X18.3527 Y11.4846
G01 X18.3231 Y11.4749
G01 X18.2161 Y11.4364
G01 X18.2017 Y11.4306
G01 X18.1732 Y11.4180
G01 X18.0845 Y11.3761
G01 X18.0705 Y11.3692
G01 X18.0431 Y11.3546
G01 X17.9455 Y11.2963
G01 X17.9192 Y11.2796
G01 X17.8938 Y11.2617
G01 X17.8149 Y11.2032
G01 X17.7904 Y11.1841
G01 X17.7668 Y11.1638
G01 X17.6941 Y11.0979
G01 X17.6716 Y11.0764
G01 X17.6501 Y11.0539
G01 X17.5842 Y10.9812
G01 X17.5639 Y10.9576
G01 X17.5448 Y10.9331
G01 X17.4863 Y10.8542
G01 X17.4684 Y10.8288
G01 X17.4517 Y10.8025
G01 X17.4072 Y10.7282
G01 X12.9313 Y10.7281
G01 X12.8829 Y10.7934
G01 X12.8638 Y10.8179
G01 X12.8435 Y10.8415
G01 X12.7670 Y10.9256
G01 X12.7561 Y10.9367
G01 X12.7336 Y10.9582
G01 X12.6609 Y11.0241
G01 X12.6492 Y11.0344
G01 X12.6252 Y11.0541
G01 X12.5339 Y11.1220
G01 X12.5085 Y11.1399
G01 X12.4822 Y11.1566
G01 X12.3980 Y11.2070
G01 X12.3710 Y11.2224
G01 X12.3432 Y11.2364
G01 X12.2545 Y11.2783
G01 X12.2260 Y11.2909
G01 X12.1970 Y11.3021
G01 X12.1046 Y11.3352
G01 X12.0750 Y11.3449
G01 X12.0450 Y11.3532
G01 X11.9498 Y11.3771
G01 X11.9195 Y11.3839
G01 X11.8888 Y11.3892
G01 X11.7917 Y11.4036
G01 X11.7609 Y11.4074
G01 X11.7298 Y11.4097
G01 X11.6318 Y11.4145
G01 X11.6007 Y11.4153
G01 X11.5696 Y11.4145
G01 X11.4716 Y11.4097
G01 X11.4405 Y11.4074
G01 X11.4097 Y11.4036
G01 X11.2972 Y11.3868
G01 X11.2667 Y11.3807
G01 X11.2516 Y11.3771
G01 X11.1564 Y11.3532
G01 X11.1264 Y11.3449
G01 X11.0968 Y11.3352
G01 X11.0044 Y11.3021
G01 X10.9754 Y11.2909
G01 X10.9469 Y11.2783
G01 X10.8582 Y11.2364
G01 X10.8304 Y11.2224
G01 X10.8034 Y11.2070
G01 X10.7192 Y11.1566
G01 X10.6929 Y11.1399
G01 X10.6675 Y11.1220
G01 X10.5886 Y11.0635
G01 X10.5641 Y11.0444
G01 X10.5405 Y11.0241
G01 X10.4564 Y10.9476
G01 X10.4453 Y10.9367
G01 X10.4238 Y10.9142
G01 X10.3579 Y10.8415
G01 X10.3376 Y10.8179
G01 X10.3185 Y10.7934
G01 X10.2600 Y10.7145
G01 X10.2421 Y10.6891
G01 X10.2254 Y10.6628
G01 X10.1671 Y10.5652
G01 X10.1596 Y10.5516
G01 X10.1456 Y10.5238
G01 X10.1037 Y10.4351
G01 X10.0911 Y10.4066
G01 X10.0853 Y10.3922
G01 X10.0468 Y10.2852
G01 X10.0371 Y10.2556
G01 X10.0288 Y10.2256
G01 X10.0049 Y10.1304
G01 X9.9981 Y10.1001
G01 X9.9952 Y10.0848
G01 X9.9763 Y9.9569
G01 X9.9746 Y9.9415
G01 X9.9723 Y9.9104
G01 X9.9669 Y9.7969
G01 X9.9669 Y9.7657
G01 X9.9675 Y9.7502
G01 X9.9723 Y9.6522
G01 X9.9746 Y9.6211
G01 X9.9784 Y9.5903
G01 X9.9952 Y9.4778
G01 X10.0013 Y9.4473
G01 X10.0049 Y9.4322
G01 X10.0288 Y9.3370
G01 X10.0371 Y9.3070
G01 X10.0468 Y9.2774
G01 X10.0799 Y9.1850
G01 X10.0911 Y9.1560
G01 X10.1037 Y9.1275
G01 X10.1456 Y9.0388
G01 X10.1596 Y9.0110
G01 X10.1750 Y8.9840
G01 X10.2336 Y8.8865
G01 X10.2509 Y8.8607
G01 X10.2600 Y8.8481
G01 X10.3185 Y8.7692
G01 X10.3376 Y8.7447
G01 X10.3579 Y8.7211
G01 X10.4238 Y8.6484
G01 X10.4453 Y8.6259
G01 X10.4678 Y8.6044
G01 X10.5405 Y8.5385
G01 X10.5641 Y8.5182
G01 X10.5886 Y8.4991
G01 X10.6801 Y8.4315
G01 X10.7059 Y8.4142
G01 X10.7192 Y8.4060
G01 X10.8034 Y8.3556
G01 X10.8304 Y8.3402
G01 X10.8582 Y8.3262
G01 X10.9611 Y8.2778
G01 X10.9898 Y8.2659
G01 X11.0044 Y8.2605
G01 X11.1115 Y8.2224
G01 X11.1264 Y8.2177
G01 X11.1564 Y8.2094
G01 X11.2516 Y8.1855
G01 X11.2819 Y8.1787
G01 X11.3126 Y8.1734
G01 X11.4097 Y8.1590
G01 X11.4251 Y8.1569
G01 X11.4560 Y8.1538
G01 X11.5696 Y8.1481
G01 X11.6007 Y8.1473
G01 X11.6318 Y8.1481
G01 X11.7454 Y8.1538
G01 X11.7609 Y8.1552
G01 X11.7917 Y8.1590
G01 X11.8888 Y8.1734
G01 X11.9195 Y8.1787
G01 X11.9498 Y8.1855
G01 X12.0450 Y8.2094
G01 X12.0750 Y8.2177
G01 X12.1046 Y8.2274
G01 X12.2116 Y8.2659
G01 X12.2260 Y8.2717
G01 X12.2545 Y8.2843
G01 X12.3432 Y8.3262
G01 X12.3710 Y8.3402
G01 X12.3980 Y8.3556
G01 X12.4822 Y8.4060
G01 X12.5085 Y8.4227
G01 X12.5339 Y8.4406
G01 X12.6128 Y8.4991
G01 X12.6373 Y8.5182
G01 X12.6609 Y8.5385
G01 X12.7336 Y8.6044
G01 X12.7561 Y8.6259
G01 X12.7776 Y8.6484
G01 X12.8435 Y8.7211
G01 X12.8638 Y8.7447
G01 X12.8829 Y8.7692
G01 X12.9480 Y8.8572
G01 X17.5853 Y8.8597
G01 X17.6501 Y8.7881
G01 X17.6716 Y8.7656
G01 X17.6941 Y8.7441
G01 X17.7668 Y8.6782
G01 X17.7904 Y8.6579
G01 X17.8025 Y8.6482
G01 X17.8938 Y8.5803
G01 X17.9192 Y8.5624
G01 X17.9322 Y8.5539
G01 X18.0431 Y8.4874
G01 X18.0567 Y8.4799
G01 X18.0845 Y8.4659
G01 X18.1874 Y8.4175
G01 X18.2161 Y8.4056
G01 X18.2307 Y8.4002
G01 X18.3231 Y8.3671
G01 X18.3527 Y8.3574
G01 X18.3827 Y8.3491
G01 X18.4779 Y8.3252
G01 X18.5082 Y8.3184
G01 X18.5389 Y8.3131
G01 X18.6514 Y8.2966
G01 X18.6668 Y8.2949
G01 X18.6979 Y8.2926
G01 X18.7959 Y8.2878
G01 X18.8114 Y8.2872
G01 X18.8426 Y8.2872
G01 X18.9561 Y8.2926
G01 X18.9872 Y8.2949
G01 X19.0180 Y8.2987
G01 X19.1140 Y8.3129
G01 X19.2333 Y8.1937
G01 X19.2444 Y8.1828
G01 X19.2776 Y8.1524
G01 X19.3012 Y8.1321
G01 X19.3257 Y8.1129
G01 X19.3620 Y8.0863
G01 X19.3879 Y8.0690
G01 X19.4398 Y8.0379
G01 X19.4673 Y8.0232
G01 X19.5220 Y7.9973
G01 X19.5508 Y7.9854
G01 X19.6078 Y7.9650
G01 X19.6376 Y7.9559
G01 X19.6963 Y7.9412
G01 X19.7269 Y7.9352
G01 X19.7714 Y7.9284
G01 X19.8022 Y7.9245
G01 X19.8333 Y7.9223
G01 X19.8782 Y7.9202
G01 X19.8938 Y7.9201
G01 X23.2211 Y7.9201
G01 X23.2165 Y7.8930
G01 X23.2127 Y7.8621
G01 X23.2104 Y7.8311
G01 X23.2096 Y7.8000
G01 X23.2096 Y6.2000
G01 X23.2104 Y6.1689
G01 X23.2127 Y6.1379
G01 X23.2165 Y6.1070
G01 X23.2218 Y6.0763
G01 X23.2286 Y6.0460
G01 X23.2326 Y6.0309
G01 X23.2369 Y6.0160
G01 X23.2467 Y5.9864
G01 X23.2521 Y5.9718
G01 X23.2640 Y5.9431
G01 X23.2773 Y5.9149
G01 X23.2920 Y5.8875
G01 X23.2998 Y5.8741
G01 X23.3080 Y5.8608
G01 X23.3253 Y5.8349
G01 X23.3438 Y5.8099
G01 X23.3635 Y5.7859
G01 X23.3738 Y5.7742
G01 X23.3953 Y5.7517
G01 X23.4064 Y5.7408
G01 X23.4178 Y5.7302
G01 X23.4414 Y5.7099
G01 X23.4659 Y5.6908
G01 X23.4785 Y5.6817
G01 X23.5044 Y5.6644
G01 X23.5311 Y5.6484
G01 X23.5447 Y5.6409
G01 X23.5585 Y5.6337
G01 X23.5867 Y5.6204
G01 X23.6154 Y5.6085
G01 X23.6300 Y5.6031
G01 X23.6596 Y5.5933
G01 X23.6896 Y5.5850
G01 X23.7047 Y5.5814
G01 X23.7352 Y5.5753
G01 X23.7660 Y5.5708
G01 X23.7815 Y5.5691
G01 X23.7970 Y5.5677
G01 X23.8280 Y5.5662
G01 X25.4436 Y5.5660
G01 X25.4747 Y5.5668
G01 X25.4902 Y5.5677
G01 X25.5212 Y5.5708
G01 X25.5520 Y5.5753
G01 X25.5673 Y5.5782
G01 X25.5976 Y5.5850
G01 X25.6276 Y5.5933
G01 X25.6572 Y5.6031
G01 X25.6862 Y5.6143
G01 X25.7147 Y5.6269
G01 X25.7425 Y5.6409
G01 X25.7695 Y5.6562
G01 X25.7958 Y5.6728
G01 X25.8213 Y5.6908
G01 X25.8458 Y5.7099
G01 X25.8694 Y5.7302
G01 X25.8919 Y5.7517
G01 X25.9090 Y5.7696
G01 X25.9540 Y5.7428
G01 X25.9814 Y5.7282
G01 X26.0664 Y5.6878
G01 X26.0805 Y5.6813
G01 X26.1093 Y5.6694
G01 X26.1978 Y5.6375
G01 X26.2273 Y5.6277
G01 X26.2573 Y5.6194
G01 X26.3486 Y5.5968
G01 X26.3791 Y5.5907
G01 X26.4722 Y5.5767
G01 X26.5030 Y5.5729
G01 X26.5341 Y5.5706
G01 X26.6125 Y5.5668
G01 X26.6436 Y5.5660
G01 X26.6747 Y5.5668
G01 X26.7531 Y5.5706
G01 X26.7842 Y5.5729
G01 X26.8150 Y5.5767
G01 X26.8927 Y5.5882
G01 X26.9234 Y5.5936
G01 X26.9537 Y5.6004
G01 X27.0299 Y5.6194
G01 X27.0599 Y5.6277
G01 X27.0894 Y5.6375
G01 X27.1779 Y5.6694
G01 X27.2067 Y5.6813
G01 X27.2208 Y5.6878
G01 X27.2918 Y5.7213
G01 X27.3196 Y5.7353
G01 X27.3467 Y5.7507
G01 X27.4140 Y5.7910
G01 X27.4403 Y5.8077
G01 X27.4657 Y5.8256
G01 X27.5288 Y5.8724
G01 X27.5533 Y5.8915
G01 X27.5769 Y5.9118
G01 X27.6436 Y5.9725
G01 X27.7103 Y5.9118
G01 X27.7339 Y5.8915
G01 X27.7584 Y5.8724
G01 X27.8215 Y5.8256
G01 X27.8469 Y5.8077
G01 X27.8732 Y5.7910
G01 X27.9405 Y5.7507
G01 X27.9676 Y5.7353
G01 X27.9954 Y5.7213
G01 X28.0664 Y5.6878
G01 X28.0948 Y5.6752
G01 X28.1239 Y5.6640
G01 X28.1978 Y5.6375
G01 X28.2273 Y5.6277
G01 X28.2573 Y5.6194
G01 X28.3335 Y5.6004
G01 X28.3638 Y5.5936
G01 X28.3945 Y5.5882
G01 X28.4722 Y5.5767
G01 X28.5030 Y5.5729
G01 X28.5341 Y5.5706
G01 X28.6125 Y5.5668
G00 Z2.0000
G00 X36.9762 Y7.3448
G01 F40.00
G01 Z-0.0500
G01 F35.00
G01 X37.0073 Y7.3440
G01 X37.0384 Y7.3448
G01 X37.1324 Y7.3496
G01 X37.1633 Y7.3526
G01 X37.2564 Y7.3662
G01 X37.2871 Y7.3716
G01 X37.3174 Y7.3784
G01 X37.4086 Y7.4014
G01 X37.4384 Y7.4104
G01 X37.4531 Y7.4155
G01 X37.5416 Y7.4474
G01 X37.5704 Y7.4593
G01 X37.6695 Y7.5062
G01 X37.6969 Y7.5208
G01 X37.7419 Y7.5476
G01 X37.7590 Y7.5297
G01 X37.7701 Y7.5188
G01 X37.7932 Y7.4979
G01 X37.8172 Y7.4782
G01 X37.8422 Y7.4597
G01 X37.8681 Y7.4424
G01 X37.8948 Y7.4264
G01 X37.9222 Y7.4117
G01 X37.9504 Y7.3984
G01 X37.9791 Y7.3865
G01 X38.0084 Y7.3760
G01 X38.0382 Y7.3670
G01 X38.0684 Y7.3594
G01 X38.0989 Y7.3533
G01 X38.1297 Y7.3488
G01 X38.1607 Y7.3457
G01 X38.1917 Y7.3442
G01 X39.8073 Y7.3440
G01 X39.8229 Y7.3442
G01 X39.8539 Y7.3457
G01 X39.8849 Y7.3488
G01 X39.9003 Y7.3509
G01 X39.9157 Y7.3533
G01 X39.9462 Y7.3594
G01 X39.9764 Y7.3670
G01 X39.9913 Y7.3713
G01 X40.0209 Y7.3811
G01 X40.0355 Y7.3865
G01 X40.0499 Y7.3923
G01 X40.0784 Y7.4049
G01 X40.0924 Y7.4117
G01 X40.1198 Y7.4264
G01 X40.1465 Y7.4424
G01 X40.1595 Y7.4508
G01 X40.1724 Y7.4597
G01 X40.1974 Y7.4782
G01 X40.2214 Y7.4979
G01 X40.2445 Y7.5188
G01 X40.2665 Y7.5408
G01 X40.2874 Y7.5639
G01 X40.3071 Y7.5879
G01 X40.3165 Y7.6003
G01 X40.3345 Y7.6258
G01 X40.3511 Y7.6521
G01 X40.3664 Y7.6791
G01 X40.3804 Y7.7069
G01 X40.3930 Y7.7354
G01 X40.4042 Y7.7644
G01 X40.4093 Y7.7791
G01 X40.4183 Y7.8089
G01 X40.4223 Y7.8240
G01 X40.4291 Y7.8543
G01 X40.4344 Y7.8850
G01 X40.4382 Y7.9159
G01 X40.4405 Y7.9469
G01 X40.4413 Y7.9780
G01 X40.4413 Y9.5780
G01 X40.4405 Y9.6091
G01 X40.4396 Y9.6246
G01 X40.4382 Y9.6401
G01 X40.4344 Y9.6710
G01 X40.4291 Y9.7017
G01 X40.4259 Y9.7169
G01 X40.4183 Y9.7471
G01 X40.4140 Y9.7620
G01 X40.4042 Y9.7916
G01 X40.3988 Y9.8062
G01 X40.3869 Y9.8349
G01 X40.3804 Y9.8491
G01 X40.3736 Y9.8631
G01 X40.3589 Y9.8905
G01 X40.3511 Y9.9039
G01 X40.3345 Y9.9302
G01 X40.3165 Y9.9557
G01 X40.3071 Y9.9681
G01 X40.2874 Y9.9921
G01 X40.2771 Y10.0038
G01 X40.2556 Y10.0263
G01 X40.2331 Y10.0478
G01 X40.2095 Y10.0681
G01 X40.1850 Y10.0872
G01 X40.1595 Y10.1052
G01 X40.1332 Y10.1218
G01 X40.1062 Y10.1371
G01 X40.0784 Y10.1511
G01 X40.0499 Y10.1637
G01 X40.0209 Y10.1749
G01 X40.0062 Y10.1800
G01 X39.9764 Y10.1890
G01 X39.9462 Y10.1966
G01 X39.9157 Y10.2027
G01 X39.8849 Y10.2072
G01 X39.8539 Y10.2103
G01 X39.8384 Y10.2112
G01 X39.8073 Y10.2120
G01 X38.2073 Y10.2120
G01 X38.1762 Y10.2112
G01 X38.1452 Y10.2089
G01 X38.1143 Y10.2051
G01 X38.0989 Y10.2027
G01 X38.0684 Y10.1966
G01 X38.0382 Y10.1890
G01 X38.0084 Y10.1800
G01 X37.9791 Y10.1695
G01 X37.9504 Y10.1576
G01 X37.9222 Y10.1443
G01 X37.8948 Y10.1296
G01 X37.8681 Y10.1136
G01 X37.8422 Y10.0963
G01 X37.8296 Y10.0872
G01 X37.8051 Y10.0681
G01 X37.7815 Y10.0478
G01 X37.7590 Y10.0263
G01 X37.7419 Y10.0084
G01 X37.6969 Y10.0352
G01 X37.6695 Y10.0498
G01 X37.5704 Y10.0967
G01 X37.5416 Y10.1086
G01 X37.4531 Y10.1405
G01 X37.4236 Y10.1503
G01 X37.4086 Y10.1546
G01 X37.3174 Y10.1776
G01 X37.2871 Y10.1844
G01 X37.2564 Y10.1898
G01 X37.1787 Y10.2013
G01 X37.1479 Y10.2051
G01 X37.1168 Y10.2074
G01 X37.0229 Y10.2118
G01 X36.9917 Y10.2118
G01 X36.8978 Y10.2074
G01 X36.8667 Y10.2051
G01 X36.8359 Y10.2013
G01 X36.7428 Y10.1873
G01 X36.7123 Y10.1812
G01 X36.6210 Y10.1586
G01 X36.5910 Y10.1503
G01 X36.5615 Y10.1405
G01 X36.4876 Y10.1140
G01 X36.4585 Y10.1028
G01 X36.4301 Y10.0902
G01 X36.3591 Y10.0567
G01 X36.3313 Y10.0427
G01 X36.3042 Y10.0273
G01 X36.2369 Y9.9870
G01 X36.2106 Y9.9703
G01 X36.1852 Y9.9524
G01 X36.1097 Y9.8962
G01 X36.0857 Y9.8765
G01 X36.0158 Y9.8134
G01 X35.9933 Y9.7920
G01 X35.9719 Y9.7695
G01 X35.9191 Y9.7113
G01 X35.8988 Y9.6877
G01 X35.8797 Y9.6632
G01 X35.8329 Y9.6001
G01 X35.8150 Y9.5747
G01 X35.7983 Y9.5484
G01 X35.7501 Y9.4676
G01 X35.7426 Y9.4540
G01 X35.7286 Y9.4262
G01 X35.6951 Y9.3552
G01 X35.6825 Y9.3268
G01 X35.6713 Y9.2977
G01 X35.6448 Y9.2238
G01 X35.6350 Y9.1943
G01 X35.6267 Y9.1643
G01 X35.6041 Y9.0730
G01 X35.6009 Y9.0578
G01 X35.5955 Y9.0271
G01 X35.5840 Y8.9494
G01 X35.5802 Y8.9186
G01 X35.5779 Y8.8875
G01 X35.5741 Y8.8091
G01 X35.5733 Y8.7780
G01 X35.5741 Y8.7469
G01 X35.5779 Y8.6685
G01 X35.5802 Y8.6374
G01 X35.5840 Y8.6066
G01 X35.5955 Y8.5289
G01 X35.6009 Y8.4982
G01 X35.6077 Y8.4679
G01 X35.6307 Y8.3767
G01 X35.6397 Y8.3469
G01 X35.6713 Y8.2583
G01 X35.6825 Y8.2292
G01 X35.6951 Y8.2008
G01 X35.7286 Y8.1298
G01 X35.7426 Y8.1020
G01 X35.7580 Y8.0749
G01 X35.8065 Y7.9944
G01 X35.8238 Y7.9685
G01 X35.8797 Y7.8928
G01 X35.8988 Y7.8683
G01 X35.9191 Y7.8447
G01 X35.9824 Y7.7751
G01 X36.0044 Y7.7531
G01 X36.0740 Y7.6898
G01 X36.0976 Y7.6695
G01 X36.1221 Y7.6504
G01 X36.1852 Y7.6036
G01 X36.2106 Y7.5857
G01 X36.2369 Y7.5690
G01 X36.3042 Y7.5287
G01 X36.3313 Y7.5133
G01 X36.3591 Y7.4993
G01 X36.4301 Y7.4658
G01 X36.4585 Y7.4532
G01 X36.4876 Y7.4420
G01 X36.5615 Y7.4155
G01 X36.5910 Y7.4057
G01 X36.6210 Y7.3974
G01 X36.7123 Y7.3748
G01 X36.7428 Y7.3687
G01 X36.8359 Y7.3547
G01 X36.8667 Y7.3509
G01 X36.8978 Y7.3486
G01 X36.9762 Y7.3448
G00 Z2.0000
G00 X36.2640 Y21.1870
G01 F40.00
G01 Z-0.0500
G01 F35.00
G01 X36.2796 Y21.1872
G01 X36.3106 Y21.1887
G01 X36.3416 Y21.1918
G01 X36.3724 Y21.1963
G01 X36.4029 Y21.2024
G01 X36.4331 Y21.2100
G01 X36.4629 Y21.2190
G01 X36.4776 Y21.2241
G01 X36.5066 Y21.2353
G01 X36.5351 Y21.2479
G01 X36.5491 Y21.2547
G01 X36.5765 Y21.2694
G01 X36.6032 Y21.2854
G01 X36.6291 Y21.3027
G01 X36.6541 Y21.3212
G01 X36.6662 Y21.3309
G01 X36.6898 Y21.3512
G01 X36.7123 Y21.3727
G01 X36.7232 Y21.3838
G01 X36.7441 Y21.4069
G01 X36.7638 Y21.4309
G01 X36.7732 Y21.4433
G01 X36.7912 Y21.4688
G01 X36.8078 Y21.4951
G01 X36.8231 Y21.5221
G01 X36.8371 Y21.5499
G01 X36.8497 Y21.5784
G01 X36.8609 Y21.6074
G01 X36.8707 Y21.6370
G01 X36.8790 Y21.6670
G01 X36.8858 Y21.6973
G01 X36.8887 Y21.7126
G01 X36.8932 Y21.7434
G01 X36.8963 Y21.7744
G01 X36.8978 Y21.8054
G01 X36.8980 Y21.8210
G01 X36.8980 Y23.4210
G01 X36.8972 Y23.4521
G01 X36.8949 Y23.4831
G01 X36.8911 Y23.5140
G01 X36.8858 Y23.5447
G01 X36.8790 Y23.5750
G01 X36.8750 Y23.5901
G01 X36.8660 Y23.6199
G01 X36.8555 Y23.6492
G01 X36.8436 Y23.6779
G01 X36.8303 Y23.7061
G01 X36.8156 Y23.7335
G01 X36.8078 Y23.7469
G01 X36.7912 Y23.7732
G01 X36.7732 Y23.7987
G01 X36.7541 Y23.8232
G01 X36.7338 Y23.8468
G01 X36.7123 Y23.8693
G01 X36.6944 Y23.8864
G01 X36.7212 Y23.9314
G01 X36.7358 Y23.9588
G01 X36.7762 Y24.0438
G01 X36.7827 Y24.0579
G01 X36.7946 Y24.0867
G01 X36.8265 Y24.1752
G01 X36.8363 Y24.2047
G01 X36.8446 Y24.2347
G01 X36.8636 Y24.3109
G01 X36.8704 Y24.3412
G01 X36.8733 Y24.3565
G01 X36.8873 Y24.4496
G01 X36.8911 Y24.4804
G01 X36.8934 Y24.5115
G01 X36.8972 Y24.5899
G01 X36.8980 Y24.6210
G01 X36.8972 Y24.6521
G01 X36.8934 Y24.7305
G01 X36.8911 Y24.7616
G01 X36.8873 Y24.7924
G01 X36.8758 Y24.8701
G01 X36.8704 Y24.9008
G01 X36.8672 Y24.9160
G01 X36.8446 Y25.0073
G01 X36.8363 Y25.0373
G01 X36.8265 Y25.0668
G01 X36.8000 Y25.1407
G01 X36.7888 Y25.1698
G01 X36.7762 Y25.1982
G01 X36.7427 Y25.2692
G01 X36.7287 Y25.2970
G01 X36.7133 Y25.3241
G01 X36.6730 Y25.3914
G01 X36.6563 Y25.4177
G01 X36.6384 Y25.4431
G01 X36.5916 Y25.5062
G01 X36.5725 Y25.5307
G01 X36.5522 Y25.5543
G01 X36.4994 Y25.6125
G01 X36.4780 Y25.6350
G01 X36.4555 Y25.6564
G01 X36.3973 Y25.7092
G01 X36.3737 Y25.7295
G01 X36.3492 Y25.7486
G01 X36.2861 Y25.7954
G01 X36.2607 Y25.8133
G01 X36.2344 Y25.8300
G01 X36.1671 Y25.8703
G01 X36.1400 Y25.8857
G01 X36.1122 Y25.8997
G01 X36.0412 Y25.9332
G01 X36.0128 Y25.9458
G01 X35.9837 Y25.9570
G01 X35.9098 Y25.9835
G01 X35.8803 Y25.9933
G01 X35.8503 Y26.0016
G01 X35.7741 Y26.0206
G01 X35.7438 Y26.0274
G01 X35.7131 Y26.0328
G01 X35.6354 Y26.0443
G01 X35.6046 Y26.0481
G01 X35.5735 Y26.0504
G01 X35.4951 Y26.0542
G01 X35.4640 Y26.0550
G01 X35.4329 Y26.0542
G01 X35.3545 Y26.0504
G01 X35.3234 Y26.0481
G01 X35.2926 Y26.0443
G01 X35.2149 Y26.0328
G01 X35.1995 Y26.0303
G01 X35.1690 Y26.0242
G01 X35.0777 Y26.0016
G01 X35.0477 Y25.9933
G01 X35.0182 Y25.9835
G01 X34.9443 Y25.9570
G01 X34.9152 Y25.9458
G01 X34.9009 Y25.9397
G01 X34.8158 Y25.8997
G01 X34.7880 Y25.8857
G01 X34.7609 Y25.8703
G01 X34.6804 Y25.8218
G01 X34.6545 Y25.8045
G01 X34.6419 Y25.7954
G01 X34.5788 Y25.7486
G01 X34.5543 Y25.7295
G01 X34.5307 Y25.7092
G01 X34.4611 Y25.6459
G01 X34.4391 Y25.6239
G01 X34.3758 Y25.5543
G01 X34.3655 Y25.5426
G01 X34.3458 Y25.5186
G01 X34.2896 Y25.4431
G01 X34.2717 Y25.4177
G01 X34.2550 Y25.3914
G01 X34.2147 Y25.3241
G01 X34.1993 Y25.2970
G01 X34.1922 Y25.2832
G01 X34.1518 Y25.1982
G01 X34.1392 Y25.1698
G01 X34.1280 Y25.1407
G01 X34.0964 Y25.0521
G01 X34.0917 Y25.0373
G01 X34.0834 Y25.0073
G01 X34.0608 Y24.9160
G01 X34.0547 Y24.8855
G01 X34.0407 Y24.7924
G01 X34.0386 Y24.7770
G01 X34.0356 Y24.7461
G01 X34.0308 Y24.6521
G01 X34.0300 Y24.6210
G01 X34.0308 Y24.5899
G01 X34.0346 Y24.5115
G01 X34.0356 Y24.4959
G01 X34.0386 Y24.4650
G01 X34.0522 Y24.3719
G01 X34.0576 Y24.3412
G01 X34.0644 Y24.3109
G01 X34.0834 Y24.2347
G01 X34.0874 Y24.2197
G01 X34.0964 Y24.1899
G01 X34.1280 Y24.1013
G01 X34.1334 Y24.0867
G01 X34.1453 Y24.0579
G01 X34.1922 Y23.9588
G01 X34.2068 Y23.9314
G01 X34.2336 Y23.8864
G01 X34.2157 Y23.8693
G01 X34.1942 Y23.8468
G01 X34.1739 Y23.8232
G01 X34.1548 Y23.7987
G01 X34.1368 Y23.7732
G01 X34.1202 Y23.7469
G01 X34.1049 Y23.7199
G01 X34.0909 Y23.6921
G01 X34.0783 Y23.6636
G01 X34.0671 Y23.6346
G01 X34.0573 Y23.6050
G01 X34.0530 Y23.5901
G01 X34.0454 Y23.5599
G01 X34.0393 Y23.5294
G01 X34.0348 Y23.4986
G01 X34.0317 Y23.4676
G01 X34.0308 Y23.4521
G01 X34.0300 Y23.4210
G01 X34.0300 Y21.8210
G01 X34.0308 Y21.7899
G01 X34.0317 Y21.7744
G01 X34.0348 Y21.7434
G01 X34.0393 Y21.7126
G01 X34.0454 Y21.6821
G01 X34.0490 Y21.6670
G01 X34.0573 Y21.6370
G01 X34.0620 Y21.6221
G01 X34.0725 Y21.5928
G01 X34.0783 Y21.5784
G01 X34.0909 Y21.5499
G01 X34.0977 Y21.5359
G01 X34.1124 Y21.5085
G01 X34.1202 Y21.4951
G01 X34.1368 Y21.4688
G01 X34.1457 Y21.4559
G01 X34.1642 Y21.4309
G01 X34.1739 Y21.4188
G01 X34.1942 Y21.3952
G01 X34.2157 Y21.3727
G01 X34.2382 Y21.3512
G01 X34.2499 Y21.3409
G01 X34.2739 Y21.3212
G01 X34.2989 Y21.3027
G01 X34.3118 Y21.2938
G01 X34.3248 Y21.2854
G01 X34.3515 Y21.2694
G01 X34.3789 Y21.2547
G01 X34.3929 Y21.2479
G01 X34.4071 Y21.2414
G01 X34.4358 Y21.2295
G01 X34.4651 Y21.2190
G01 X34.4800 Y21.2143
G01 X34.5100 Y21.2060
G01 X34.5251 Y21.2024
G01 X34.5556 Y21.1963
G01 X34.5710 Y21.1939
G01 X34.6019 Y21.1901
G01 X34.6329 Y21.1878
G01 X34.6640 Y21.1870
G01 X36.2640 Y21.1870
G00 Z2.0000
G00 X52.1969 Y24.0138
G01 F40.00
G01 Z-0.0500
G01 F35.00
G01 X52.2124 Y24.0132
G01 X52.2436 Y24.0132
G01 X52.3531 Y24.0186
G01 X52.3840 Y24.0216
G01 X52.4771 Y24.0352
G01 X52.5078 Y24.0406
G01 X52.5230 Y24.0438
G01 X52.6143 Y24.0664
G01 X52.6443 Y24.0747
G01 X52.6738 Y24.0845
G01 X52.7477 Y24.1110
G01 X52.7768 Y24.1222
G01 X52.8052 Y24.1348
G01 X52.8762 Y24.1683
G01 X52.9040 Y24.1823
G01 X52.9311 Y24.1977
G01 X52.9984 Y24.2380
G01 X53.0247 Y24.2547
G01 X53.0501 Y24.2726
G01 X53.1132 Y24.3194
G01 X53.1377 Y24.3385
G01 X53.1613 Y24.3588
G01 X53.2195 Y24.4116
G01 X53.2420 Y24.4330
G01 X53.2634 Y24.4555
G01 X53.3162 Y24.5137
G01 X53.3365 Y24.5373
G01 X53.3556 Y24.5618
G01 X53.4024 Y24.6249
G01 X53.4203 Y24.6503
G01 X53.4370 Y24.6766
G01 X53.4773 Y24.7439
G01 X53.4927 Y24.7710
G01 X53.5067 Y24.7988
G01 X53.5467 Y24.8839
G01 X53.5528 Y24.8982
G01 X53.5640 Y24.9273
G01 X53.5905 Y25.0012
G01 X53.6003 Y25.0307
G01 X53.6086 Y25.0607
G01 X53.6276 Y25.1369
G01 X53.6344 Y25.1672
G01 X53.6398 Y25.1979
G01 X53.6513 Y25.2756
G01 X53.6551 Y25.3064
G01 X53.6574 Y25.3375
G01 X53.6612 Y25.4159
G01 X53.6620 Y25.4470
G01 X53.6612 Y25.4781
G01 X53.6574 Y25.5565
G01 X53.6551 Y25.5876
G01 X53.6513 Y25.6184
G01 X53.6373 Y25.7115
G01 X53.6344 Y25.7268
G01 X53.6276 Y25.7571
G01 X53.6086 Y25.8333
G01 X53.6003 Y25.8633
G01 X53.5905 Y25.8928
G01 X53.5586 Y25.9813
G01 X53.5528 Y25.9958
G01 X53.5402 Y26.0242
G01 X53.4998 Y26.1092
G01 X53.4852 Y26.1366
G01 X53.4584 Y26.1816
G01 X53.4763 Y26.1987
G01 X53.4978 Y26.2212
G01 X53.5181 Y26.2448
G01 X53.5372 Y26.2693
G01 X53.5552 Y26.2948
G01 X53.5636 Y26.3078
G01 X53.5796 Y26.3345
G01 X53.5943 Y26.3619
G01 X53.6011 Y26.3759
G01 X53.6137 Y26.4044
G01 X53.6249 Y26.4334
G01 X53.6347 Y26.4630
G01 X53.6430 Y26.4930
G01 X53.6498 Y26.5233
G01 X53.6551 Y26.5540
G01 X53.6589 Y26.5849
G01 X53.6612 Y26.6159
G01 X53.6620 Y26.6470
G01 X53.6620 Y28.2470
G01 X53.6612 Y28.2781
G01 X53.6589 Y28.3091
G01 X53.6572 Y28.3246
G01 X53.6527 Y28.3554
G01 X53.6498 Y28.3707
G01 X53.6430 Y28.4010
G01 X53.6390 Y28.4161
G01 X53.6347 Y28.4310
G01 X53.6249 Y28.4606
G01 X53.6137 Y28.4896
G01 X53.6011 Y28.5181
G01 X53.5871 Y28.5459
G01 X53.5718 Y28.5729
G01 X53.5552 Y28.5992
G01 X53.5463 Y28.6121
G01 X53.5372 Y28.6247
G01 X53.5181 Y28.6492
G01 X53.5081 Y28.6611
G01 X53.4872 Y28.6842
G01 X53.4652 Y28.7062
G01 X53.4538 Y28.7168
G01 X53.4302 Y28.7371
G01 X53.4181 Y28.7468
G01 X53.3931 Y28.7653
G01 X53.3802 Y28.7742
G01 X53.3672 Y28.7826
G01 X53.3405 Y28.7986
G01 X53.3131 Y28.8133
G01 X53.2991 Y28.8201
G01 X53.2849 Y28.8266
G01 X53.2562 Y28.8385
G01 X53.2416 Y28.8439
G01 X53.2120 Y28.8537
G01 X53.1820 Y28.8620
G01 X53.1517 Y28.8688
G01 X53.1210 Y28.8741
G01 X53.0901 Y28.8779
G01 X53.0591 Y28.8802
G01 X53.0280 Y28.8810
G01 X51.4280 Y28.8810
G01 X51.4124 Y28.8808
G01 X51.3814 Y28.8793
G01 X51.3504 Y28.8762
G01 X51.3196 Y28.8717
G01 X51.2891 Y28.8656
G01 X51.2589 Y28.8580
G01 X51.2440 Y28.8537
G01 X51.2291 Y28.8490
G01 X51.1998 Y28.8385
G01 X51.1854 Y28.8327
G01 X51.1569 Y28.8201
G01 X51.1291 Y28.8061
G01 X51.1155 Y28.7986
G01 X51.0888 Y28.7826
G01 X51.0629 Y28.7653
G01 X51.0503 Y28.7562
G01 X51.0379 Y28.7468
G01 X51.0139 Y28.7271
G01 X51.0022 Y28.7168
G01 X50.9797 Y28.6953
G01 X50.9582 Y28.6728
G01 X50.9479 Y28.6611
G01 X50.9282 Y28.6371
G01 X50.9188 Y28.6247
G01 X50.9097 Y28.6121
G01 X50.8924 Y28.5862
G01 X50.8764 Y28.5595
G01 X50.8689 Y28.5459
G01 X50.8549 Y28.5181
G01 X50.8484 Y28.5039
G01 X50.8423 Y28.4896
G01 X50.8311 Y28.4606
G01 X50.8213 Y28.4310
G01 X50.8170 Y28.4161
G01 X50.8094 Y28.3859
G01 X50.8062 Y28.3707
G01 X50.8009 Y28.3400
G01 X50.7971 Y28.3091
G01 X50.7948 Y28.2781
G01 X50.7940 Y28.2470
G01 X50.7940 Y26.6470
G01 X50.7948 Y26.6159
G01 X50.7971 Y26.5849
G01 X50.8009 Y26.5540
G01 X50.8062 Y26.5233
G01 X50.8130 Y26.4930
G01 X50.8213 Y26.4630
G01 X50.8260 Y26.4481
G01 X50.8365 Y26.4188
G01 X50.8484 Y26.3901
G01 X50.8617 Y26.3619
G01 X50.8764 Y26.3345
G01 X50.8842 Y26.3211
G01 X50.9008 Y26.2948
G01 X50.9188 Y26.2693
G01 X50.9379 Y26.2448
G01 X50.9582 Y26.2212
G01 X50.9797 Y26.1987
G01 X50.9976 Y26.1816
G01 X50.9708 Y26.1366
G01 X50.9562 Y26.1092
G01 X50.9093 Y26.0101
G01 X50.9032 Y25.9958
G01 X50.8920 Y25.9667
G01 X50.8604 Y25.8781
G01 X50.8557 Y25.8633
G01 X50.8474 Y25.8333
G01 X50.8284 Y25.7571
G01 X50.8216 Y25.7268
G01 X50.8162 Y25.6961
G01 X50.8026 Y25.6030
G01 X50.7996 Y25.5721
G01 X50.7986 Y25.5565
G01 X50.7948 Y25.4781
G01 X50.7940 Y25.4470
G01 X50.7948 Y25.4159
G01 X50.7986 Y25.3375
G01 X50.8009 Y25.3064
G01 X50.8047 Y25.2756
G01 X50.8162 Y25.1979
G01 X50.8216 Y25.1672
G01 X50.8284 Y25.1369
G01 X50.8474 Y25.0607
G01 X50.8514 Y25.0457
G01 X50.8604 Y25.0159
G01 X50.8920 Y24.9273
G01 X50.9032 Y24.8982
G01 X50.9158 Y24.8698
G01 X50.9493 Y24.7988
G01 X50.9633 Y24.7710
G01 X50.9787 Y24.7439
G01 X51.0272 Y24.6634
G01 X51.0445 Y24.6375
G01 X51.1004 Y24.5618
G01 X51.1195 Y24.5373
G01 X51.1398 Y24.5137
G01 X51.2031 Y24.4441
G01 X51.2251 Y24.4221
G01 X51.2947 Y24.3588
G01 X51.3183 Y24.3385
G01 X51.3428 Y24.3194
G01 X51.4059 Y24.2726
G01 X51.4313 Y24.2547
G01 X51.4576 Y24.2380
G01 X51.5249 Y24.1977
G01 X51.5520 Y24.1823
G01 X51.5798 Y24.1683
G01 X51.6508 Y24.1348
G01 X51.6792 Y24.1222
G01 X51.7083 Y24.1110
G01 X51.7822 Y24.0845
G01 X51.8117 Y24.0747
G01 X51.8417 Y24.0664
G01 X51.9330 Y24.0438
G01 X51.9635 Y24.0377
G01 X52.0566 Y24.0237
G01 X52.0874 Y24.0199
G01 X52.1185 Y24.0176
G01 X52.1969 Y24.0138
G00 Z2.0000
G00 X51.7209 Y3.7888
G01 F40.00
G01 Z-0.0500
G01 F35.00
G01 X51.7520 Y3.7880
G01 X51.7831 Y3.7888
G01 X51.8771 Y3.7936
G01 X51.9080 Y3.7966
G01 X52.0011 Y3.8102
G01 X52.0318 Y3.8156
G01 X52.0621 Y3.8224
G01 X52.1533 Y3.8454
G01 X52.1683 Y3.8497
G01 X52.1978 Y3.8595
G01 X52.2863 Y3.8914
G01 X52.3151 Y3.9033
G01 X52.4142 Y3.9502
G01 X52.4416 Y3.9648
G01 X52.4866 Y3.9916
G01 X52.5037 Y3.9737
G01 X52.5148 Y3.9628
G01 X52.5379 Y3.9419
G01 X52.5619 Y3.9222
G01 X52.5869 Y3.9037
G01 X52.6128 Y3.8864
G01 X52.6395 Y3.8704
G01 X52.6669 Y3.8557
G01 X52.6951 Y3.8424
G01 X52.7238 Y3.8305
G01 X52.7531 Y3.8200
G01 X52.7829 Y3.8110
G01 X52.8131 Y3.8034
G01 X52.8436 Y3.7973
G01 X52.8744 Y3.7928
G01 X52.9054 Y3.7897
G01 X52.9364 Y3.7882
G01 X54.5520 Y3.7880
G01 X54.5831 Y3.7888
G01 X54.5986 Y3.7897
G01 X54.6296 Y3.7928
G01 X54.6450 Y3.7949
G01 X54.6757 Y3.8002
G01 X54.6909 Y3.8034
G01 X54.7211 Y3.8110
G01 X54.7360 Y3.8153
G01 X54.7656 Y3.8251
G01 X54.7802 Y3.8305
G01 X54.7946 Y3.8363
G01 X54.8231 Y3.8489
G01 X54.8509 Y3.8629
G01 X54.8645 Y3.8704
G01 X54.8912 Y3.8864
G01 X54.9042 Y3.8948
G01 X54.9171 Y3.9037
G01 X54.9421 Y3.9222
G01 X54.9661 Y3.9419
G01 X54.9892 Y3.9628
G01 X55.0112 Y3.9848
G01 X55.0321 Y4.0079
G01 X55.0518 Y4.0319
G01 X55.0703 Y4.0569
G01 X55.0876 Y4.0828
G01 X55.1036 Y4.1095
G01 X55.1111 Y4.1231
G01 X55.1251 Y4.1509
G01 X55.1377 Y4.1794
G01 X55.1489 Y4.2084
G01 X55.1587 Y4.2380
G01 X55.1630 Y4.2529
G01 X55.1706 Y4.2831
G01 X55.1767 Y4.3136
G01 X55.1812 Y4.3444
G01 X55.1843 Y4.3754
G01 X55.1852 Y4.3909
G01 X55.1860 Y4.4220
G01 X55.1860 Y6.0220
G01 X55.1858 Y6.0376
G01 X55.1843 Y6.0686
G01 X55.1812 Y6.0996
G01 X55.1791 Y6.1150
G01 X55.1767 Y6.1304
G01 X55.1706 Y6.1609
G01 X55.1630 Y6.1911
G01 X55.1587 Y6.2060
G01 X55.1540 Y6.2209
G01 X55.1435 Y6.2502
G01 X55.1316 Y6.2789
G01 X55.1251 Y6.2931
G01 X55.1111 Y6.3209
G01 X55.1036 Y6.3345
G01 X55.0958 Y6.3479
G01 X55.0792 Y6.3742
G01 X55.0612 Y6.3997
G01 X55.0518 Y6.4121
G01 X55.0321 Y6.4361
G01 X55.0112 Y6.4592
G01 X54.9892 Y6.4812
G01 X54.9661 Y6.5021
G01 X54.9421 Y6.5218
G01 X54.9171 Y6.5403
G01 X54.8912 Y6.5576
G01 X54.8779 Y6.5658
G01 X54.8509 Y6.5811
G01 X54.8231 Y6.5951
G01 X54.7946 Y6.6077
G01 X54.7656 Y6.6189
G01 X54.7360 Y6.6287
G01 X54.7060 Y6.6370
G01 X54.6757 Y6.6438
G01 X54.6450 Y6.6491
G01 X54.6141 Y6.6529
G01 X54.5986 Y6.6543
G01 X54.5831 Y6.6552
G01 X54.5520 Y6.6560
G01 X52.9520 Y6.6560
G01 X52.9209 Y6.6552
G01 X52.8899 Y6.6529
G01 X52.8590 Y6.6491
G01 X52.8283 Y6.6438
G01 X52.7980 Y6.6370
G01 X52.7829 Y6.6330
G01 X52.7531 Y6.6240
G01 X52.7238 Y6.6135
G01 X52.6951 Y6.6016
G01 X52.6669 Y6.5883
G01 X52.6395 Y6.5736
G01 X52.6128 Y6.5576
G01 X52.5998 Y6.5492
G01 X52.5743 Y6.5312
G01 X52.5498 Y6.5121
G01 X52.5262 Y6.4918
G01 X52.5037 Y6.4703
G01 X52.4866 Y6.4524
G01 X52.4416 Y6.4792
G01 X52.4142 Y6.4938
G01 X52.3151 Y6.5407
G01 X52.2863 Y6.5526
G01 X52.1978 Y6.5845
G01 X52.1831 Y6.5896
G01 X52.1533 Y6.5986
G01 X52.0621 Y6.6216
G01 X52.0318 Y6.6284
G01 X52.0011 Y6.6338
G01 X51.9234 Y6.6453
G01 X51.8926 Y6.6491
G01 X51.8615 Y6.6514
G01 X51.7676 Y6.6558
G01 X51.7364 Y6.6558
G01 X51.6425 Y6.6514
G01 X51.6114 Y6.6491
G01 X51.5806 Y6.6453
G01 X51.4875 Y6.6313
G01 X51.4570 Y6.6252
G01 X51.3657 Y6.6026
G01 X51.3357 Y6.5943
G01 X51.3062 Y6.5845
G01 X51.2323 Y6.5580
G01 X51.2032 Y6.5468
G01 X51.1748 Y6.5342
G01 X51.1038 Y6.5007
G01 X51.0760 Y6.4867
G01 X51.0489 Y6.4713
G01 X50.9816 Y6.4310
G01 X50.9553 Y6.4143
G01 X50.9299 Y6.3964
G01 X50.8544 Y6.3402
G01 X50.8304 Y6.3205
G01 X50.7605 Y6.2574
G01 X50.7380 Y6.2360
G01 X50.7166 Y6.2135
G01 X50.6638 Y6.1553
G01 X50.6435 Y6.1317
G01 X50.6244 Y6.1072
G01 X50.5776 Y6.0441
G01 X50.5597 Y6.0187
G01 X50.5430 Y5.9924
G01 X50.4948 Y5.9116
G01 X50.4873 Y5.8980
G01 X50.4733 Y5.8702
G01 X50.4398 Y5.7992
G01 X50.4272 Y5.7708
G01 X50.4160 Y5.7417
G01 X50.3895 Y5.6678
G01 X50.3797 Y5.6383
G01 X50.3714 Y5.6083
G01 X50.3488 Y5.5170
G01 X50.3427 Y5.4865
G01 X50.3402 Y5.4711
G01 X50.3287 Y5.3934
G01 X50.3249 Y5.3626
G01 X50.3226 Y5.3315
G01 X50.3188 Y5.2531
G01 X50.3180 Y5.2220
G01 X50.3188 Y5.1909
G01 X50.3226 Y5.1125
G01 X50.3249 Y5.0814
G01 X50.3287 Y5.0506
G01 X50.3402 Y4.9729
G01 X50.3456 Y4.9422
G01 X50.3524 Y4.9119
G01 X50.3754 Y4.8207
G01 X50.3844 Y4.7909
G01 X50.4160 Y4.7023
G01 X50.4272 Y4.6732
G01 X50.4398 Y4.6448
G01 X50.4733 Y4.5738
G01 X50.4873 Y4.5460
G01 X50.5027 Y4.5189
G01 X50.5512 Y4.4384
G01 X50.5685 Y4.4125
G01 X50.6244 Y4.3368
G01 X50.6435 Y4.3123
G01 X50.6638 Y4.2887
G01 X50.7271 Y4.2191
G01 X50.7491 Y4.1971
G01 X50.8187 Y4.1338
G01 X50.8423 Y4.1135
G01 X50.8668 Y4.0944
G01 X50.9299 Y4.0476
G01 X50.9553 Y4.0297
G01 X50.9816 Y4.0130
G01 X51.0489 Y3.9727
G01 X51.0760 Y3.9573
G01 X51.1038 Y3.9433
G01 X51.1748 Y3.9098
G01 X51.2032 Y3.8972
G01 X51.2323 Y3.8860
G01 X51.3062 Y3.8595
G01 X51.3357 Y3.8497
G01 X51.3657 Y3.8414
G01 X51.4570 Y3.8188
G01 X51.4875 Y3.8127
G01 X51.5806 Y3.7987
G01 X51.6114 Y3.7949
G01 X51.6425 Y3.7926
G01 X51.7209 Y3.7888
G00 Z2.0000
M05
G00 Z2.0000
G00 Z15.00


