(G-CODE GENERATED BY FLATCAM v8.994 - www.flatcam.org - Version Date: 2020/11/7)

(Name: ADCandDAC-B_Cu.gbr_0.1268_iso5_cnc)
(Type: G-code from Geometry)
(Units: MM)

(Created on Чацвер, 26 лістапада 2020 at 10:09)

(This preprocessor is the default preprocessor used by FlatCAM.)
(It is made to work with MACH3 compatible motion controllers.)

(TOOL DIAMETER: 0.1268 mm)
(Feedrate_XY: 35.0 mm/min)
(Feedrate_Z: 40.0 mm/min)
(Feedrate rapids 1000.0 mm/min)

(Z_Cut: -0.05 mm)
(Z_Move: 2.0 mm)
(Z Start: None mm)
(Z End: 15.0 mm)
(X,Y End: None mm)
(Steps per circle: 64)
(Preprocessor Geometry: default)

(X range:    4.7213 ...   54.9958  mm)
(Y range:    3.9782 ...   29.0940  mm)

(Spindle Speed: 10000.0 RPM)
G21
G90
G94

G01 F35.00

M5
G00 Z15.0000
G00 X0.0000 Y0.0000
T2
M6    
(MSG, Change to Tool Dia = 0.1268)
M0
G00 Z15.0000

M03 S10000.0
G01 F35.00
G00 X8.6833 Y22.2826
G01 F40.00
G01 Z-0.0500
G01 F35.00
G01 X8.6942 Y22.2822
G01 X8.7160 Y22.2822
G01 X8.8249 Y22.2874
G01 X8.8466 Y22.2891
G01 X8.8682 Y22.2917
G01 X8.9653 Y22.3061
G01 X8.9868 Y22.3098
G01 X9.0080 Y22.3146
G01 X9.1032 Y22.3385
G01 X9.1242 Y22.3443
G01 X9.1449 Y22.3511
G01 X9.2373 Y22.3842
G01 X9.2576 Y22.3920
G01 X9.2775 Y22.4008
G01 X9.3662 Y22.4428
G01 X9.3857 Y22.4526
G01 X9.3952 Y22.4578
G01 X9.4888 Y22.5138
G01 X9.5072 Y22.5254
G01 X9.5250 Y22.5380
G01 X9.6039 Y22.5964
G01 X9.6210 Y22.6098
G01 X9.6375 Y22.6241
G01 X9.7102 Y22.6900
G01 X9.7260 Y22.7050
G01 X9.7410 Y22.7208
G01 X9.8069 Y22.7935
G01 X9.8212 Y22.8100
G01 X9.8346 Y22.8271
G01 X9.8930 Y22.9060
G01 X9.9056 Y22.9238
G01 X9.9172 Y22.9422
G01 X9.9732 Y23.0358
G01 X9.9784 Y23.0453
G01 X9.9882 Y23.0648
G01 X10.0302 Y23.1535
G01 X10.0390 Y23.1734
G01 X10.0468 Y23.1937
G01 X10.0799 Y23.2861
G01 X10.0867 Y23.3068
G01 X10.0925 Y23.3278
G01 X10.1164 Y23.4230
G01 X10.1212 Y23.4442
G01 X10.1249 Y23.4657
G01 X10.1393 Y23.5628
G01 X10.1419 Y23.5844
G01 X10.1436 Y23.6061
G01 X10.1484 Y23.7041
G01 X10.1489 Y23.7259
G01 X10.1484 Y23.7477
G01 X10.1436 Y23.8457
G01 X10.1419 Y23.8674
G01 X10.1393 Y23.8890
G01 X10.1249 Y23.9861
G01 X10.1212 Y24.0076
G01 X10.1164 Y24.0288
G01 X10.0898 Y24.1346
G01 X10.0834 Y24.1554
G01 X10.0799 Y24.1657
G01 X10.0468 Y24.2581
G01 X10.0390 Y24.2784
G01 X10.0302 Y24.2983
G01 X9.9882 Y24.3870
G01 X9.9784 Y24.4065
G01 X9.9677 Y24.4255
G01 X9.9172 Y24.5096
G01 X9.9056 Y24.5280
G01 X9.8930 Y24.5458
G01 X9.8346 Y24.6247
G01 X9.8212 Y24.6418
G01 X9.8069 Y24.6583
G01 X9.7336 Y24.7390
G01 X9.7260 Y24.7468
G01 X9.7102 Y24.7618
G01 X9.6375 Y24.8277
G01 X9.6210 Y24.8420
G01 X9.6039 Y24.8554
G01 X9.5162 Y24.9202
G01 X9.4981 Y24.9323
G01 X9.4888 Y24.9380
G01 X9.4047 Y24.9885
G01 X9.3857 Y24.9992
G01 X9.3662 Y25.0090
G01 X9.2775 Y25.0510
G01 X9.2576 Y25.0598
G01 X9.2373 Y25.0676
G01 X9.1449 Y25.1007
G01 X9.1242 Y25.1075
G01 X9.1032 Y25.1133
G01 X9.0080 Y25.1372
G01 X8.9974 Y25.1397
G01 X8.9761 Y25.1440
G01 X8.8682 Y25.1601
G01 X8.8466 Y25.1627
G01 X8.8249 Y25.1644
G01 X8.7269 Y25.1692
G01 X8.7051 Y25.1697
G01 X8.6833 Y25.1692
G01 X8.5853 Y25.1644
G01 X8.5744 Y25.1637
G01 X8.5528 Y25.1615
G01 X8.4449 Y25.1457
G01 X8.4234 Y25.1420
G01 X8.4022 Y25.1372
G01 X8.3070 Y25.1133
G01 X8.2860 Y25.1075
G01 X8.2653 Y25.1007
G01 X8.1729 Y25.0676
G01 X8.1526 Y25.0598
G01 X8.1327 Y25.0510
G01 X8.0440 Y25.0090
G01 X8.0245 Y24.9992
G01 X8.0055 Y24.9885
G01 X7.9214 Y24.9380
G01 X7.9030 Y24.9264
G01 X7.8852 Y24.9138
G01 X7.8063 Y24.8554
G01 X7.7892 Y24.8420
G01 X7.7727 Y24.8277
G01 X7.7000 Y24.7618
G01 X7.6842 Y24.7468
G01 X7.6692 Y24.7310
G01 X7.6089 Y24.6646
G01 X7.6088 Y24.7368
G01 X7.6084 Y24.7477
G01 X7.6068 Y24.7694
G01 X7.6041 Y24.7910
G01 X7.6024 Y24.8018
G01 X7.5981 Y24.8231
G01 X7.5928 Y24.8443
G01 X7.5865 Y24.8651
G01 X7.5792 Y24.8856
G01 X7.5708 Y24.9057
G01 X7.5615 Y24.9254
G01 X7.5512 Y24.9446
G01 X7.5400 Y24.9633
G01 X7.5279 Y24.9814
G01 X7.5150 Y24.9989
G01 X7.5011 Y25.0158
G01 X7.4865 Y25.0319
G01 X7.4711 Y25.0473
G01 X7.4550 Y25.0619
G01 X7.4381 Y25.0758
G01 X7.4206 Y25.0887
G01 X7.4025 Y25.1008
G01 X7.3838 Y25.1120
G01 X7.3646 Y25.1223
G01 X7.3449 Y25.1316
G01 X7.3248 Y25.1400
G01 X7.3043 Y25.1473
G01 X7.2835 Y25.1536
G01 X7.2623 Y25.1589
G01 X7.2410 Y25.1632
G01 X7.2194 Y25.1664
G01 X7.1977 Y25.1685
G01 X7.1760 Y25.1696
G01 X7.1651 Y25.1697
G01 X5.1651 Y25.1697
G01 X5.1433 Y25.1692
G01 X5.1325 Y25.1685
G01 X5.1108 Y25.1664
G01 X5.0892 Y25.1632
G01 X5.0785 Y25.1612
G01 X5.0573 Y25.1564
G01 X5.0363 Y25.1506
G01 X5.0259 Y25.1473
G01 X5.0054 Y25.1400
G01 X4.9853 Y25.1316
G01 X4.9656 Y25.1223
G01 X4.9464 Y25.1120
G01 X4.9277 Y25.1008
G01 X4.9185 Y25.0949
G01 X4.9007 Y25.0824
G01 X4.8836 Y25.0690
G01 X4.8671 Y25.0547
G01 X4.8513 Y25.0397
G01 X4.8363 Y25.0239
G01 X4.8291 Y25.0158
G01 X4.8152 Y24.9989
G01 X4.8023 Y24.9814
G01 X4.7961 Y24.9725
G01 X4.7844 Y24.9541
G01 X4.7737 Y24.9351
G01 X4.7687 Y24.9254
G01 X4.7639 Y24.9156
G01 X4.7551 Y24.8957
G01 X4.7472 Y24.8754
G01 X4.7437 Y24.8651
G01 X4.7404 Y24.8547
G01 X4.7346 Y24.8337
G01 X4.7321 Y24.8231
G01 X4.7278 Y24.8018
G01 X4.7246 Y24.7802
G01 X4.7234 Y24.7694
G01 X4.7225 Y24.7585
G01 X4.7214 Y24.7368
G01 X4.7213 Y22.7259
G01 X4.7218 Y22.7041
G01 X4.7234 Y22.6824
G01 X4.7261 Y22.6608
G01 X4.7278 Y22.6500
G01 X4.7321 Y22.6287
G01 X4.7346 Y22.6181
G01 X4.7404 Y22.5971
G01 X4.7472 Y22.5764
G01 X4.7551 Y22.5561
G01 X4.7639 Y22.5362
G01 X4.7687 Y22.5264
G01 X4.7790 Y22.5072
G01 X4.7844 Y22.4977
G01 X4.7961 Y22.4793
G01 X4.8086 Y22.4615
G01 X4.8220 Y22.4444
G01 X4.8363 Y22.4279
G01 X4.8513 Y22.4121
G01 X4.8671 Y22.3971
G01 X4.8752 Y22.3899
G01 X4.8921 Y22.3760
G01 X4.9096 Y22.3631
G01 X4.9277 Y22.3510
G01 X4.9369 Y22.3452
G01 X4.9464 Y22.3398
G01 X4.9656 Y22.3295
G01 X4.9754 Y22.3247
G01 X4.9953 Y22.3159
G01 X5.0054 Y22.3118
G01 X5.0259 Y22.3045
G01 X5.0467 Y22.2982
G01 X5.0573 Y22.2954
G01 X5.0785 Y22.2906
G01 X5.0892 Y22.2886
G01 X5.1108 Y22.2854
G01 X5.1216 Y22.2842
G01 X5.1433 Y22.2826
G01 X5.1542 Y22.2822
G01 X7.1651 Y22.2821
G01 X7.1760 Y22.2822
G01 X7.1977 Y22.2833
G01 X7.2086 Y22.2842
G01 X7.2302 Y22.2869
G01 X7.2517 Y22.2906
G01 X7.2729 Y22.2954
G01 X7.2939 Y22.3012
G01 X7.3146 Y22.3080
G01 X7.3349 Y22.3159
G01 X7.3548 Y22.3247
G01 X7.3743 Y22.3345
G01 X7.3933 Y22.3452
G01 X7.4117 Y22.3569
G01 X7.4295 Y22.3694
G01 X7.4466 Y22.3828
G01 X7.4631 Y22.3971
G01 X7.4789 Y22.4121
G01 X7.4939 Y22.4279
G01 X7.5082 Y22.4444
G01 X7.5216 Y22.4615
G01 X7.5341 Y22.4793
G01 X7.5458 Y22.4977
G01 X7.5512 Y22.5072
G01 X7.5615 Y22.5264
G01 X7.5708 Y22.5461
G01 X7.5792 Y22.5662
G01 X7.5865 Y22.5867
G01 X7.5928 Y22.6075
G01 X7.5981 Y22.6287
G01 X7.6024 Y22.6500
G01 X7.6041 Y22.6608
G01 X7.6068 Y22.6824
G01 X7.6077 Y22.6933
G01 X7.6088 Y22.7150
G01 X7.6089 Y22.7872
G01 X7.6692 Y22.7208
G01 X7.6842 Y22.7050
G01 X7.7000 Y22.6900
G01 X7.7727 Y22.6241
G01 X7.7892 Y22.6098
G01 X7.7977 Y22.6030
G01 X7.8852 Y22.5380
G01 X7.8940 Y22.5316
G01 X7.9121 Y22.5195
G01 X8.0150 Y22.4578
G01 X8.0245 Y22.4526
G01 X8.0440 Y22.4428
G01 X8.1327 Y22.4008
G01 X8.1526 Y22.3920
G01 X8.1729 Y22.3842
G01 X8.2653 Y22.3511
G01 X8.2860 Y22.3443
G01 X8.3070 Y22.3385
G01 X8.4128 Y22.3121
G01 X8.4341 Y22.3078
G01 X8.4449 Y22.3061
G01 X8.5420 Y22.2917
G01 X8.5636 Y22.2891
G01 X8.5853 Y22.2874
G01 X8.6833 Y22.2826
G00 Z2.0000
G00 X23.7582 Y9.9167
G01 F40.00
G01 Z-0.0500
G01 F35.00
G01 X23.7800 Y9.9162
G01 X23.7909 Y9.9163
G01 X23.8911 Y9.9213
G01 X23.9127 Y9.9234
G01 X23.9235 Y9.9249
G01 X24.0119 Y9.9381
G01 X24.0333 Y9.9424
G01 X24.0439 Y9.9449
G01 X24.1201 Y9.9639
G01 X24.1411 Y9.9698
G01 X24.1617 Y9.9766
G01 X24.2357 Y10.0030
G01 X24.2560 Y10.0109
G01 X24.2660 Y10.0152
G01 X24.3469 Y10.0533
G01 X24.3663 Y10.0631
G01 X24.3853 Y10.0738
G01 X24.4526 Y10.1142
G01 X24.4710 Y10.1258
G01 X24.4800 Y10.1320
G01 X24.5606 Y10.1917
G01 X24.5691 Y10.1985
G01 X24.5856 Y10.2128
G01 X24.6437 Y10.2655
G01 X24.6595 Y10.2805
G01 X24.6745 Y10.2963
G01 X24.7272 Y10.3544
G01 X24.7415 Y10.3709
G01 X24.7549 Y10.3881
G01 X24.8016 Y10.4512
G01 X24.8142 Y10.4690
G01 X24.8258 Y10.4874
G01 X24.8662 Y10.5547
G01 X24.8769 Y10.5737
G01 X24.8867 Y10.5931
G01 X24.9203 Y10.6641
G01 X24.9291 Y10.6840
G01 X24.9370 Y10.7043
G01 X24.9634 Y10.7783
G01 X24.9702 Y10.7989
G01 X24.9761 Y10.8199
G01 X24.9951 Y10.8961
G01 X24.9999 Y10.9173
G01 X25.0036 Y10.9388
G01 X25.0151 Y11.0165
G01 X25.0178 Y11.0381
G01 X25.0194 Y11.0598
G01 X25.0233 Y11.1382
G01 X25.0238 Y11.1600
G01 X25.0233 Y11.1818
G01 X25.0194 Y11.2602
G01 X25.0178 Y11.2819
G01 X25.0151 Y11.3035
G01 X25.0036 Y11.3812
G01 X24.9999 Y11.4027
G01 X24.9951 Y11.4239
G01 X24.9761 Y11.5001
G01 X24.9702 Y11.5211
G01 X24.9634 Y11.5417
G01 X24.9370 Y11.6157
G01 X24.9291 Y11.6360
G01 X24.9248 Y11.6460
G01 X24.8819 Y11.7367
G01 X24.8769 Y11.7463
G01 X24.8662 Y11.7653
G01 X24.8258 Y11.8326
G01 X24.8142 Y11.8510
G01 X24.8016 Y11.8688
G01 X24.7483 Y11.9406
G01 X24.7345 Y11.9574
G01 X24.7272 Y11.9656
G01 X24.6745 Y12.0237
G01 X24.6595 Y12.0395
G01 X24.6517 Y12.0471
G01 X24.5774 Y12.1145
G01 X24.5606 Y12.1283
G01 X24.5180 Y12.1600
G01 X24.5606 Y12.1917
G01 X24.5774 Y12.2055
G01 X24.6517 Y12.2729
G01 X24.6671 Y12.2883
G01 X24.6745 Y12.2963
G01 X24.7345 Y12.3626
G01 X24.7483 Y12.3794
G01 X24.7549 Y12.3881
G01 X24.8016 Y12.4512
G01 X24.8142 Y12.4690
G01 X24.8258 Y12.4874
G01 X24.8662 Y12.5547
G01 X24.8769 Y12.5737
G01 X24.8819 Y12.5833
G01 X24.9203 Y12.6641
G01 X24.9248 Y12.6740
G01 X24.9332 Y12.6941
G01 X24.9670 Y12.7886
G01 X24.9733 Y12.8094
G01 X24.9761 Y12.8199
G01 X24.9951 Y12.8961
G01 X24.9999 Y12.9173
G01 X25.0036 Y12.9388
G01 X25.0151 Y13.0165
G01 X25.0178 Y13.0381
G01 X25.0187 Y13.0489
G01 X25.0237 Y13.1491
G01 X25.0237 Y13.1709
G01 X25.0233 Y13.1818
G01 X25.0194 Y13.2602
G01 X25.0178 Y13.2819
G01 X25.0151 Y13.3035
G01 X25.0036 Y13.3812
G01 X24.9999 Y13.4027
G01 X24.9951 Y13.4239
G01 X24.9761 Y13.5001
G01 X24.9702 Y13.5211
G01 X24.9634 Y13.5417
G01 X24.9370 Y13.6157
G01 X24.9291 Y13.6360
G01 X24.9248 Y13.6460
G01 X24.8819 Y13.7367
G01 X24.8769 Y13.7463
G01 X24.8662 Y13.7653
G01 X24.8258 Y13.8326
G01 X24.8142 Y13.8510
G01 X24.8016 Y13.8688
G01 X24.7549 Y13.9319
G01 X24.7483 Y13.9406
G01 X24.7345 Y13.9574
G01 X24.6745 Y14.0237
G01 X24.6595 Y14.0395
G01 X24.6517 Y14.0471
G01 X24.5774 Y14.1145
G01 X24.5606 Y14.1283
G01 X24.5180 Y14.1600
G01 X24.5606 Y14.1917
G01 X24.5774 Y14.2055
G01 X24.6517 Y14.2729
G01 X24.6671 Y14.2883
G01 X24.6745 Y14.2963
G01 X24.7345 Y14.3626
G01 X24.7483 Y14.3794
G01 X24.7549 Y14.3881
G01 X24.8016 Y14.4512
G01 X24.8142 Y14.4690
G01 X24.8258 Y14.4874
G01 X24.8662 Y14.5547
G01 X24.8769 Y14.5737
G01 X24.8819 Y14.5833
G01 X24.9203 Y14.6641
G01 X24.9248 Y14.6740
G01 X24.9332 Y14.6941
G01 X24.9670 Y14.7886
G01 X24.9733 Y14.8094
G01 X24.9761 Y14.8199
G01 X24.9951 Y14.8961
G01 X24.9999 Y14.9173
G01 X25.0036 Y14.9388
G01 X25.0151 Y15.0165
G01 X25.0178 Y15.0381
G01 X25.0187 Y15.0489
G01 X25.0237 Y15.1491
G01 X25.0237 Y15.1709
G01 X25.0233 Y15.1818
G01 X25.0194 Y15.2602
G01 X25.0178 Y15.2819
G01 X25.0151 Y15.3035
G01 X25.0036 Y15.3812
G01 X24.9999 Y15.4027
G01 X24.9976 Y15.4133
G01 X24.9761 Y15.5001
G01 X24.9702 Y15.5211
G01 X24.9634 Y15.5417
G01 X24.9370 Y15.6157
G01 X24.9291 Y15.6360
G01 X24.9203 Y15.6559
G01 X24.8867 Y15.7269
G01 X24.8769 Y15.7463
G01 X24.8662 Y15.7653
G01 X24.8258 Y15.8326
G01 X24.8142 Y15.8510
G01 X24.8016 Y15.8688
G01 X24.7549 Y15.9319
G01 X24.7429 Y15.9472
G01 X24.7697 Y15.9588
G01 X24.7795 Y15.9636
G01 X24.7987 Y15.9739
G01 X24.8174 Y15.9851
G01 X24.8355 Y15.9972
G01 X24.8444 Y16.0035
G01 X24.8530 Y16.0101
G01 X24.8699 Y16.0240
G01 X24.8780 Y16.0312
G01 X24.8938 Y16.0462
G01 X24.9088 Y16.0620
G01 X24.9231 Y16.0785
G01 X24.9299 Y16.0870
G01 X24.9365 Y16.0956
G01 X24.9490 Y16.1134
G01 X24.9607 Y16.1318
G01 X24.9714 Y16.1508
G01 X24.9764 Y16.1605
G01 X24.9812 Y16.1703
G01 X24.9900 Y16.1902
G01 X24.9941 Y16.2003
G01 X25.0014 Y16.2208
G01 X25.0047 Y16.2312
G01 X25.0105 Y16.2522
G01 X25.0153 Y16.2734
G01 X25.0190 Y16.2949
G01 X25.0205 Y16.3057
G01 X25.0226 Y16.3274
G01 X25.0233 Y16.3382
G01 X25.0238 Y16.3600
G01 X25.0238 Y17.9600
G01 X25.0233 Y17.9818
G01 X25.0226 Y17.9926
G01 X25.0205 Y18.0143
G01 X25.0173 Y18.0359
G01 X25.0153 Y18.0466
G01 X25.0130 Y18.0572
G01 X25.0077 Y18.0784
G01 X25.0014 Y18.0992
G01 X24.9941 Y18.1197
G01 X24.9857 Y18.1398
G01 X24.9812 Y18.1497
G01 X24.9714 Y18.1692
G01 X24.9661 Y18.1787
G01 X24.9549 Y18.1974
G01 X24.9428 Y18.2155
G01 X24.9299 Y18.2330
G01 X24.9160 Y18.2499
G01 X24.9014 Y18.2660
G01 X24.8938 Y18.2738
G01 X24.8780 Y18.2888
G01 X24.8699 Y18.2960
G01 X24.8530 Y18.3099
G01 X24.8355 Y18.3228
G01 X24.8174 Y18.3349
G01 X24.8082 Y18.3407
G01 X24.7892 Y18.3514
G01 X24.7697 Y18.3612
G01 X24.7498 Y18.3700
G01 X24.7295 Y18.3779
G01 X24.7192 Y18.3814
G01 X24.6984 Y18.3877
G01 X24.6878 Y18.3905
G01 X24.6666 Y18.3953
G01 X24.6451 Y18.3990
G01 X24.6235 Y18.4017
G01 X24.6018 Y18.4033
G01 X24.5800 Y18.4038
G01 X22.9800 Y18.4038
G01 X22.9582 Y18.4033
G01 X22.9365 Y18.4017
G01 X22.9149 Y18.3990
G01 X22.8934 Y18.3953
G01 X22.8828 Y18.3930
G01 X22.8616 Y18.3877
G01 X22.8408 Y18.3814
G01 X22.8305 Y18.3779
G01 X22.8102 Y18.3700
G01 X22.7903 Y18.3612
G01 X22.7708 Y18.3514
G01 X22.7613 Y18.3461
G01 X22.7426 Y18.3349
G01 X22.7334 Y18.3290
G01 X22.7156 Y18.3165
G01 X22.7070 Y18.3099
G01 X22.6901 Y18.2960
G01 X22.6740 Y18.2814
G01 X22.6662 Y18.2738
G01 X22.6512 Y18.2580
G01 X22.6369 Y18.2415
G01 X22.6301 Y18.2330
G01 X22.6235 Y18.2244
G01 X22.6110 Y18.2066
G01 X22.5993 Y18.1882
G01 X22.5939 Y18.1787
G01 X22.5836 Y18.1595
G01 X22.5743 Y18.1398
G01 X22.5700 Y18.1298
G01 X22.5621 Y18.1095
G01 X22.5586 Y18.0992
G01 X22.5523 Y18.0784
G01 X22.5495 Y18.0678
G01 X22.5447 Y18.0466
G01 X22.5410 Y18.0251
G01 X22.5383 Y18.0035
G01 X22.5367 Y17.9818
G01 X22.5362 Y17.9600
G01 X22.5362 Y16.3600
G01 X22.5367 Y16.3382
G01 X22.5383 Y16.3165
G01 X22.5395 Y16.3057
G01 X22.5410 Y16.2949
G01 X22.5447 Y16.2734
G01 X22.5470 Y16.2628
G01 X22.5523 Y16.2416
G01 X22.5553 Y16.2312
G01 X22.5621 Y16.2105
G01 X22.5700 Y16.1902
G01 X22.5788 Y16.1703
G01 X22.5836 Y16.1605
G01 X22.5886 Y16.1508
G01 X22.5993 Y16.1318
G01 X22.6110 Y16.1134
G01 X22.6172 Y16.1045
G01 X22.6301 Y16.0870
G01 X22.6369 Y16.0785
G01 X22.6512 Y16.0620
G01 X22.6662 Y16.0462
G01 X22.6740 Y16.0386
G01 X22.6901 Y16.0240
G01 X22.6985 Y16.0169
G01 X22.7156 Y16.0035
G01 X22.7334 Y15.9910
G01 X22.7426 Y15.9851
G01 X22.7613 Y15.9739
G01 X22.7708 Y15.9686
G01 X22.7903 Y15.9588
G01 X22.8171 Y15.9472
G01 X22.8051 Y15.9319
G01 X22.7584 Y15.8688
G01 X22.7458 Y15.8510
G01 X22.7342 Y15.8326
G01 X22.6938 Y15.7653
G01 X22.6831 Y15.7463
G01 X22.6733 Y15.7269
G01 X22.6397 Y15.6559
G01 X22.6309 Y15.6360
G01 X22.6230 Y15.6157
G01 X22.5966 Y15.5417
G01 X22.5898 Y15.5211
G01 X22.5839 Y15.5001
G01 X22.5649 Y15.4239
G01 X22.5601 Y15.4027
G01 X22.5564 Y15.3812
G01 X22.5449 Y15.3035
G01 X22.5422 Y15.2819
G01 X22.5406 Y15.2602
G01 X22.5367 Y15.1818
G01 X22.5362 Y15.1600
G01 X22.5367 Y15.1382
G01 X22.5406 Y15.0598
G01 X22.5422 Y15.0381
G01 X22.5434 Y15.0273
G01 X22.5564 Y14.9388
G01 X22.5601 Y14.9173
G01 X22.5649 Y14.8961
G01 X22.5839 Y14.8199
G01 X22.5898 Y14.7989
G01 X22.5966 Y14.7783
G01 X22.6230 Y14.7043
G01 X22.6309 Y14.6840
G01 X22.6397 Y14.6641
G01 X22.6733 Y14.5931
G01 X22.6831 Y14.5737
G01 X22.6883 Y14.5641
G01 X22.7342 Y14.4874
G01 X22.7458 Y14.4690
G01 X22.7584 Y14.4512
G01 X22.8051 Y14.3881
G01 X22.8117 Y14.3794
G01 X22.8255 Y14.3626
G01 X22.8855 Y14.2963
G01 X22.9005 Y14.2805
G01 X22.9083 Y14.2729
G01 X22.9826 Y14.2055
G01 X22.9994 Y14.1917
G01 X23.0420 Y14.1600
G01 X22.9994 Y14.1283
G01 X22.9826 Y14.1145
G01 X22.9163 Y14.0545
G01 X22.9005 Y14.0395
G01 X22.8929 Y14.0317
G01 X22.8328 Y13.9656
G01 X22.8185 Y13.9491
G01 X22.8051 Y13.9319
G01 X22.7584 Y13.8688
G01 X22.7520 Y13.8600
G01 X22.7399 Y13.8419
G01 X22.6938 Y13.7653
G01 X22.6831 Y13.7463
G01 X22.6733 Y13.7269
G01 X22.6397 Y13.6559
G01 X22.6352 Y13.6460
G01 X22.6268 Y13.6259
G01 X22.5966 Y13.5417
G01 X22.5930 Y13.5314
G01 X22.5867 Y13.5106
G01 X22.5624 Y13.4133
G01 X22.5581 Y13.3919
G01 X22.5564 Y13.3812
G01 X22.5449 Y13.3035
G01 X22.5422 Y13.2819
G01 X22.5406 Y13.2602
G01 X22.5367 Y13.1818
G01 X22.5362 Y13.1600
G01 X22.5367 Y13.1382
G01 X22.5406 Y13.0598
G01 X22.5422 Y13.0381
G01 X22.5449 Y13.0165
G01 X22.5564 Y12.9388
G01 X22.5601 Y12.9173
G01 X22.5649 Y12.8961
G01 X22.5839 Y12.8199
G01 X22.5898 Y12.7989
G01 X22.5966 Y12.7783
G01 X22.6268 Y12.6941
G01 X22.6352 Y12.6740
G01 X22.6397 Y12.6641
G01 X22.6733 Y12.5931
G01 X22.6831 Y12.5737
G01 X22.6938 Y12.5547
G01 X22.7342 Y12.4874
G01 X22.7458 Y12.4690
G01 X22.7584 Y12.4512
G01 X22.8117 Y12.3794
G01 X22.8255 Y12.3626
G01 X22.8328 Y12.3544
G01 X22.8855 Y12.2963
G01 X22.9005 Y12.2805
G01 X22.9083 Y12.2729
G01 X22.9826 Y12.2055
G01 X22.9994 Y12.1917
G01 X23.0420 Y12.1600
G01 X22.9994 Y12.1283
G01 X22.9826 Y12.1145
G01 X22.9083 Y12.0471
G01 X22.9005 Y12.0395
G01 X22.8855 Y12.0237
G01 X22.8328 Y11.9656
G01 X22.8255 Y11.9574
G01 X22.8117 Y11.9406
G01 X22.7584 Y11.8688
G01 X22.7458 Y11.8510
G01 X22.7342 Y11.8326
G01 X22.6938 Y11.7653
G01 X22.6831 Y11.7463
G01 X22.6733 Y11.7269
G01 X22.6397 Y11.6559
G01 X22.6352 Y11.6460
G01 X22.6268 Y11.6259
G01 X22.5966 Y11.5417
G01 X22.5898 Y11.5211
G01 X22.5839 Y11.5001
G01 X22.5649 Y11.4239
G01 X22.5601 Y11.4027
G01 X22.5564 Y11.3812
G01 X22.5449 Y11.3035
G01 X22.5422 Y11.2819
G01 X22.5406 Y11.2602
G01 X22.5367 Y11.1818
G01 X22.5362 Y11.1600
G01 X22.5367 Y11.1382
G01 X22.5406 Y11.0598
G01 X22.5422 Y11.0381
G01 X22.5449 Y11.0165
G01 X22.5564 Y10.9388
G01 X22.5601 Y10.9173
G01 X22.5624 Y10.9067
G01 X22.5839 Y10.8199
G01 X22.5898 Y10.7989
G01 X22.5966 Y10.7783
G01 X22.6230 Y10.7043
G01 X22.6309 Y10.6840
G01 X22.6397 Y10.6641
G01 X22.6733 Y10.5931
G01 X22.6831 Y10.5737
G01 X22.6883 Y10.5641
G01 X22.7342 Y10.4874
G01 X22.7458 Y10.4690
G01 X22.7584 Y10.4512
G01 X22.8051 Y10.3881
G01 X22.8185 Y10.3709
G01 X22.8328 Y10.3544
G01 X22.8855 Y10.2963
G01 X22.9005 Y10.2805
G01 X22.9163 Y10.2655
G01 X22.9826 Y10.2055
G01 X22.9909 Y10.1985
G01 X23.0081 Y10.1851
G01 X23.0712 Y10.1384
G01 X23.0890 Y10.1258
G01 X23.1074 Y10.1142
G01 X23.1747 Y10.0738
G01 X23.1937 Y10.0631
G01 X23.2131 Y10.0533
G01 X23.2841 Y10.0197
G01 X23.3040 Y10.0109
G01 X23.3141 Y10.0068
G01 X23.3983 Y9.9766
G01 X23.4189 Y9.9698
G01 X23.4399 Y9.9639
G01 X23.5161 Y9.9449
G01 X23.5373 Y9.9401
G01 X23.5588 Y9.9364
G01 X23.6365 Y9.9249
G01 X23.6581 Y9.9222
G01 X23.6798 Y9.9206
G01 X23.7582 Y9.9167
G00 Z2.0000
G00 X25.7609 Y8.1103
G01 F40.00
G01 Z-0.0500
G01 F35.00
G01 X25.7796 Y8.0899
G01 X25.7935 Y8.0730
G01 X25.8064 Y8.0555
G01 X25.8185 Y8.0374
G01 X25.8297 Y8.0187
G01 X25.8400 Y7.9995
G01 X25.8493 Y7.9798
G01 X25.8564 Y7.9629
G01 X25.8717 Y7.9749
G01 X25.9348 Y8.0216
G01 X25.9526 Y8.0342
G01 X25.9617 Y8.0401
G01 X26.0477 Y8.0917
G01 X26.0669 Y8.1019
G01 X26.0842 Y8.1103
G01 X25.7609 Y8.1103
G00 Z2.0000
G00 X27.2030 Y8.1103
G01 F40.00
G01 Z-0.0500
G01 F35.00
G01 X27.2203 Y8.1019
G01 X27.2395 Y8.0917
G01 X27.3162 Y8.0458
G01 X27.3346 Y8.0342
G01 X27.3524 Y8.0216
G01 X27.4155 Y7.9749
G01 X27.4327 Y7.9615
G01 X27.4410 Y7.9545
G01 X27.5073 Y7.8945
G01 X27.5231 Y7.8795
G01 X27.5307 Y7.8717
G01 X27.5981 Y7.7974
G01 X27.6119 Y7.7806
G01 X27.6436 Y7.7380
G01 X27.6753 Y7.7806
G01 X27.6891 Y7.7974
G01 X27.7565 Y7.8717
G01 X27.7641 Y7.8795
G01 X27.7799 Y7.8945
G01 X27.8462 Y7.9545
G01 X27.8630 Y7.9683
G01 X27.8717 Y7.9749
G01 X27.9348 Y8.0216
G01 X27.9526 Y8.0342
G01 X27.9710 Y8.0458
G01 X28.0477 Y8.0917
G01 X28.0669 Y8.1019
G01 X28.0842 Y8.1103
G01 X27.2030 Y8.1103
G00 Z2.0000
G00 X28.6218 Y5.7567
G01 F40.00
G01 Z-0.0500
G01 F35.00
G01 X28.6436 Y5.7562
G01 X28.6654 Y5.7567
G01 X28.7547 Y5.7613
G01 X28.7655 Y5.7622
G01 X28.7871 Y5.7649
G01 X28.8648 Y5.7764
G01 X28.8863 Y5.7801
G01 X28.9075 Y5.7849
G01 X28.9837 Y5.8039
G01 X28.9942 Y5.8067
G01 X29.0150 Y5.8130
G01 X29.0993 Y5.8430
G01 X29.1196 Y5.8509
G01 X29.1395 Y5.8597
G01 X29.2105 Y5.8933
G01 X29.2299 Y5.9031
G01 X29.2489 Y5.9138
G01 X29.3162 Y5.9542
G01 X29.3346 Y5.9658
G01 X29.3524 Y5.9784
G01 X29.4242 Y6.0317
G01 X29.4327 Y6.0385
G01 X29.4492 Y6.0528
G01 X29.5073 Y6.1055
G01 X29.5231 Y6.1205
G01 X29.5381 Y6.1363
G01 X29.5908 Y6.1944
G01 X29.6051 Y6.2109
G01 X29.6185 Y6.2281
G01 X29.6652 Y6.2912
G01 X29.6778 Y6.3090
G01 X29.6837 Y6.3181
G01 X29.7298 Y6.3947
G01 X29.7405 Y6.4137
G01 X29.7503 Y6.4331
G01 X29.7839 Y6.5041
G01 X29.7927 Y6.5240
G01 X29.8006 Y6.5443
G01 X29.8270 Y6.6183
G01 X29.8338 Y6.6389
G01 X29.8397 Y6.6599
G01 X29.8587 Y6.7361
G01 X29.8635 Y6.7573
G01 X29.8672 Y6.7788
G01 X29.8802 Y6.8673
G01 X29.8823 Y6.8889
G01 X29.8830 Y6.8998
G01 X29.8869 Y6.9782
G01 X29.8874 Y7.0000
G01 X29.8869 Y7.0218
G01 X29.8830 Y7.1002
G01 X29.8823 Y7.1111
G01 X29.8802 Y7.1327
G01 X29.8672 Y7.2212
G01 X29.8635 Y7.2427
G01 X29.8587 Y7.2639
G01 X29.8397 Y7.3401
G01 X29.8338 Y7.3611
G01 X29.8270 Y7.3817
G01 X29.8006 Y7.4557
G01 X29.7927 Y7.4760
G01 X29.7839 Y7.4959
G01 X29.7503 Y7.5669
G01 X29.7405 Y7.5863
G01 X29.7298 Y7.6053
G01 X29.6837 Y7.6819
G01 X29.6716 Y7.7000
G01 X29.6652 Y7.7088
G01 X29.6185 Y7.7719
G01 X29.6051 Y7.7891
G01 X29.5908 Y7.8056
G01 X29.5381 Y7.8637
G01 X29.5231 Y7.8795
G01 X29.5073 Y7.8945
G01 X29.4492 Y7.9472
G01 X29.4327 Y7.9615
G01 X29.4155 Y7.9749
G01 X29.3436 Y8.0280
G01 X29.3346 Y8.0342
G01 X29.3162 Y8.0458
G01 X29.2489 Y8.0862
G01 X29.2299 Y8.0969
G01 X29.2030 Y8.1103
G01 X31.6933 Y8.1103
G01 X31.7107 Y8.0851
G01 X31.7691 Y8.0062
G01 X31.7825 Y7.9891
G01 X31.7968 Y7.9726
G01 X31.8627 Y7.8999
G01 X31.8701 Y7.8919
G01 X31.8855 Y7.8765
G01 X31.9662 Y7.8032
G01 X31.9743 Y7.7959
G01 X31.9912 Y7.7821
G01 X32.0875 Y7.7107
G01 X32.1056 Y7.6986
G01 X32.1546 Y7.6690
G01 X32.1547 Y6.4920
G01 X32.1552 Y6.4702
G01 X32.1566 Y6.4408
G01 X32.1582 Y6.4191
G01 X32.1594 Y6.4083
G01 X32.1670 Y6.3576
G01 X32.1689 Y6.3469
G01 X32.1737 Y6.3256
G01 X32.1809 Y6.2970
G01 X32.1867 Y6.2760
G01 X32.1935 Y6.2554
G01 X32.2034 Y6.2276
G01 X32.2113 Y6.2073
G01 X32.2201 Y6.1874
G01 X32.2327 Y6.1608
G01 X32.2425 Y6.1413
G01 X32.2477 Y6.1318
G01 X32.2684 Y6.0971
G01 X32.2800 Y6.0787
G01 X32.2926 Y6.0609
G01 X32.3101 Y6.0372
G01 X32.3167 Y6.0285
G01 X32.3305 Y6.0117
G01 X32.3649 Y5.9737
G01 X32.9313 Y5.4071
G01 X32.9471 Y5.3921
G01 X32.9771 Y5.3651
G01 X32.9854 Y5.3581
G01 X33.0026 Y5.3447
G01 X33.0263 Y5.3272
G01 X33.0441 Y5.3146
G01 X33.0625 Y5.3030
G01 X33.0972 Y5.2823
G01 X33.1067 Y5.2771
G01 X33.1262 Y5.2673
G01 X33.1528 Y5.2547
G01 X33.1727 Y5.2459
G01 X33.1930 Y5.2380
G01 X33.2311 Y5.2246
G01 X33.2519 Y5.2183
G01 X33.2624 Y5.2155
G01 X33.2910 Y5.2083
G01 X33.3123 Y5.2035
G01 X33.3337 Y5.1998
G01 X33.3629 Y5.1955
G01 X33.3845 Y5.1928
G01 X33.4062 Y5.1912
G01 X33.4356 Y5.1898
G01 X33.4574 Y5.1893
G01 X42.1782 Y5.1893
G01 X42.2078 Y5.1402
G01 X42.2199 Y5.1221
G01 X42.2913 Y5.0258
G01 X42.3051 Y5.0089
G01 X42.3124 Y5.0008
G01 X42.3783 Y4.9281
G01 X42.3857 Y4.9201
G01 X42.4011 Y4.9047
G01 X42.4899 Y4.8241
G01 X42.5068 Y4.8103
G01 X42.5154 Y4.8037
G01 X42.5943 Y4.7453
G01 X42.6121 Y4.7327
G01 X42.6305 Y4.7211
G01 X42.7241 Y4.6651
G01 X42.7336 Y4.6599
G01 X42.7531 Y4.6501
G01 X42.8418 Y4.6081
G01 X42.8617 Y4.5993
G01 X42.8820 Y4.5915
G01 X42.9744 Y4.5584
G01 X42.9951 Y4.5516
G01 X43.0161 Y4.5458
G01 X43.1113 Y4.5219
G01 X43.1325 Y4.5171
G01 X43.1540 Y4.5134
G01 X43.2511 Y4.4990
G01 X43.2727 Y4.4964
G01 X43.2944 Y4.4947
G01 X43.3924 Y4.4899
G01 X43.4142 Y4.4894
G01 X43.4360 Y4.4899
G01 X43.5340 Y4.4947
G01 X43.5557 Y4.4964
G01 X43.5773 Y4.4990
G01 X43.6744 Y4.5134
G01 X43.6959 Y4.5171
G01 X43.7171 Y4.5219
G01 X43.8123 Y4.5458
G01 X43.8333 Y4.5516
G01 X43.8540 Y4.5584
G01 X43.9464 Y4.5915
G01 X43.9667 Y4.5993
G01 X43.9866 Y4.6081
G01 X44.0753 Y4.6501
G01 X44.0851 Y4.6549
G01 X44.1043 Y4.6651
G01 X44.1979 Y4.7211
G01 X44.2163 Y4.7327
G01 X44.2341 Y4.7453
G01 X44.3130 Y4.8037
G01 X44.3216 Y4.8103
G01 X44.3385 Y4.8241
G01 X44.4273 Y4.9047
G01 X44.4351 Y4.9123
G01 X44.4501 Y4.9281
G01 X44.5160 Y5.0008
G01 X44.5233 Y5.0089
G01 X44.5371 Y5.0258
G01 X44.6085 Y5.1221
G01 X44.6206 Y5.1402
G01 X44.6502 Y5.1893
G01 X45.3446 Y5.1893
G01 X45.3664 Y5.1898
G01 X45.4067 Y5.1919
G01 X45.4175 Y5.1928
G01 X45.4391 Y5.1955
G01 X45.4683 Y5.1998
G01 X45.4897 Y5.2035
G01 X45.5110 Y5.2083
G01 X45.5396 Y5.2155
G01 X45.5606 Y5.2213
G01 X45.5812 Y5.2281
G01 X45.6090 Y5.2380
G01 X45.6293 Y5.2459
G01 X45.6492 Y5.2547
G01 X45.6758 Y5.2673
G01 X45.6953 Y5.2771
G01 X45.7142 Y5.2878
G01 X45.7488 Y5.3087
G01 X45.7669 Y5.3208
G01 X45.7994 Y5.3447
G01 X45.8081 Y5.3513
G01 X45.8249 Y5.3651
G01 X45.8549 Y5.3921
G01 X45.8707 Y5.4071
G01 X51.5761 Y11.1125
G01 X51.5911 Y11.1283
G01 X51.6181 Y11.1583
G01 X51.6319 Y11.1751
G01 X51.6560 Y11.2075
G01 X51.6686 Y11.2253
G01 X51.6802 Y11.2437
G01 X51.7009 Y11.2784
G01 X51.7111 Y11.2976
G01 X51.7330 Y11.3439
G01 X51.7414 Y11.3640
G01 X51.7452 Y11.3742
G01 X51.7551 Y11.4020
G01 X51.7619 Y11.4226
G01 X51.7677 Y11.4436
G01 X51.7749 Y11.4722
G01 X51.7797 Y11.4935
G01 X51.7816 Y11.5042
G01 X51.7892 Y11.5549
G01 X51.7913 Y11.5765
G01 X51.7938 Y11.6277
G01 X51.7939 Y16.4320
G01 X51.8430 Y16.4616
G01 X51.8611 Y16.4737
G01 X51.9488 Y16.5385
G01 X51.9574 Y16.5451
G01 X51.9743 Y16.5589
G01 X52.0551 Y16.6321
G01 X52.0709 Y16.6471
G01 X52.0859 Y16.6629
G01 X52.1518 Y16.7356
G01 X52.1661 Y16.7521
G01 X52.1729 Y16.7606
G01 X52.2379 Y16.8481
G01 X52.2505 Y16.8659
G01 X52.2621 Y16.8843
G01 X52.3126 Y16.9684
G01 X52.3233 Y16.9874
G01 X52.3331 Y17.0069
G01 X52.3751 Y17.0956
G01 X52.3839 Y17.1155
G01 X52.3917 Y17.1358
G01 X52.4248 Y17.2282
G01 X52.4283 Y17.2385
G01 X52.4347 Y17.2593
G01 X52.4613 Y17.3651
G01 X52.4661 Y17.3863
G01 X52.4698 Y17.4078
G01 X52.4842 Y17.5049
G01 X52.4868 Y17.5265
G01 X52.4885 Y17.5482
G01 X52.4933 Y17.6462
G01 X52.4938 Y17.6680
G01 X52.4933 Y17.6898
G01 X52.4885 Y17.7878
G01 X52.4868 Y17.8095
G01 X52.4842 Y17.8311
G01 X52.4698 Y17.9282
G01 X52.4661 Y17.9497
G01 X52.4613 Y17.9709
G01 X52.4374 Y18.0661
G01 X52.4316 Y18.0871
G01 X52.4248 Y18.1078
G01 X52.3917 Y18.2002
G01 X52.3839 Y18.2205
G01 X52.3751 Y18.2404
G01 X52.3331 Y18.3291
G01 X52.3233 Y18.3486
G01 X52.3126 Y18.3676
G01 X52.2621 Y18.4517
G01 X52.2505 Y18.4701
G01 X52.2379 Y18.4879
G01 X52.1795 Y18.5668
G01 X52.1661 Y18.5839
G01 X52.1518 Y18.6004
G01 X52.0859 Y18.6731
G01 X52.0709 Y18.6889
G01 X52.0551 Y18.7039
G01 X51.9824 Y18.7698
G01 X51.9659 Y18.7841
G01 X51.9488 Y18.7975
G01 X51.8699 Y18.8559
G01 X51.8521 Y18.8685
G01 X51.8337 Y18.8801
G01 X51.7496 Y18.9306
G01 X51.7306 Y18.9413
G01 X51.7111 Y18.9511
G01 X51.6224 Y18.9931
G01 X51.6025 Y19.0019
G01 X51.5822 Y19.0097
G01 X51.4898 Y19.0428
G01 X51.4691 Y19.0496
G01 X51.4481 Y19.0554
G01 X51.3529 Y19.0793
G01 X51.3317 Y19.0841
G01 X51.3102 Y19.0878
G01 X51.2131 Y19.1022
G01 X51.1915 Y19.1048
G01 X51.1698 Y19.1065
G01 X51.0609 Y19.1117
G01 X51.0391 Y19.1117
G01 X51.0282 Y19.1113
G01 X50.9302 Y19.1065
G01 X50.9085 Y19.1048
G01 X50.8869 Y19.1022
G01 X50.7898 Y19.0878
G01 X50.7683 Y19.0841
G01 X50.7471 Y19.0793
G01 X50.6519 Y19.0554
G01 X50.6309 Y19.0496
G01 X50.6102 Y19.0428
G01 X50.5178 Y19.0097
G01 X50.4975 Y19.0019
G01 X50.4776 Y18.9931
G01 X50.3889 Y18.9511
G01 X50.3694 Y18.9413
G01 X50.3599 Y18.9361
G01 X50.2663 Y18.8801
G01 X50.2479 Y18.8685
G01 X50.2301 Y18.8559
G01 X50.1512 Y18.7975
G01 X50.1341 Y18.7841
G01 X50.1257 Y18.7771
G01 X50.0369 Y18.6965
G01 X50.0215 Y18.6811
G01 X50.0141 Y18.6731
G01 X49.9482 Y18.6004
G01 X49.9339 Y18.5839
G01 X49.9271 Y18.5754
G01 X49.8557 Y18.4791
G01 X49.8436 Y18.4610
G01 X49.8140 Y18.4120
G01 X48.2690 Y18.4119
G01 X38.5047 Y28.1763
G01 X38.4889 Y28.1913
G01 X38.4589 Y28.2183
G01 X38.4421 Y28.2321
G01 X38.4097 Y28.2562
G01 X38.3919 Y28.2688
G01 X38.3735 Y28.2804
G01 X38.3388 Y28.3011
G01 X38.3196 Y28.3113
G01 X38.2832 Y28.3287
G01 X38.2633 Y28.3375
G01 X38.2430 Y28.3454
G01 X38.2049 Y28.3588
G01 X38.1841 Y28.3651
G01 X38.1736 Y28.3679
G01 X38.1344 Y28.3776
G01 X38.1130 Y28.3818
G01 X38.0731 Y28.3879
G01 X38.0515 Y28.3906
G01 X38.0298 Y28.3922
G01 X38.0004 Y28.3936
G01 X37.9786 Y28.3941
G01 X35.1379 Y28.3941
G01 X35.1083 Y28.4432
G01 X35.0962 Y28.4613
G01 X35.0314 Y28.5490
G01 X35.0180 Y28.5661
G01 X35.0110 Y28.5745
G01 X34.9378 Y28.6553
G01 X34.9228 Y28.6711
G01 X34.9070 Y28.6861
G01 X34.8262 Y28.7593
G01 X34.8178 Y28.7663
G01 X34.8007 Y28.7797
G01 X34.7218 Y28.8381
G01 X34.7040 Y28.8507
G01 X34.6856 Y28.8623
G01 X34.6015 Y28.9128
G01 X34.5825 Y28.9235
G01 X34.5630 Y28.9333
G01 X34.4644 Y28.9798
G01 X34.4544 Y28.9841
G01 X34.4341 Y28.9919
G01 X34.3417 Y29.0250
G01 X34.3210 Y29.0318
G01 X34.3000 Y29.0376
G01 X34.2048 Y29.0615
G01 X34.1836 Y29.0663
G01 X34.1621 Y29.0700
G01 X34.0650 Y29.0844
G01 X34.0434 Y29.0870
G01 X34.0217 Y29.0887
G01 X33.9237 Y29.0935
G01 X33.9019 Y29.0940
G01 X33.8801 Y29.0935
G01 X33.7821 Y29.0887
G01 X33.7604 Y29.0870
G01 X33.7388 Y29.0844
G01 X33.6417 Y29.0700
G01 X33.6202 Y29.0663
G01 X33.5990 Y29.0615
G01 X33.5038 Y29.0376
G01 X33.4828 Y29.0318
G01 X33.4621 Y29.0250
G01 X33.3697 Y28.9919
G01 X33.3494 Y28.9841
G01 X33.3295 Y28.9753
G01 X33.2408 Y28.9333
G01 X33.2213 Y28.9235
G01 X33.2023 Y28.9128
G01 X33.1182 Y28.8623
G01 X33.0998 Y28.8507
G01 X33.0820 Y28.8381
G01 X33.0031 Y28.7797
G01 X32.9860 Y28.7663
G01 X32.9695 Y28.7520
G01 X32.8968 Y28.6861
G01 X32.8810 Y28.6711
G01 X32.8660 Y28.6553
G01 X32.8001 Y28.5826
G01 X32.7858 Y28.5661
G01 X32.7724 Y28.5490
G01 X32.7140 Y28.4701
G01 X32.7014 Y28.4523
G01 X32.6898 Y28.4339
G01 X32.6393 Y28.3498
G01 X32.6286 Y28.3308
G01 X32.6188 Y28.3113
G01 X32.5768 Y28.2226
G01 X32.5680 Y28.2027
G01 X32.5602 Y28.1824
G01 X32.5271 Y28.0900
G01 X32.5203 Y28.0693
G01 X32.5145 Y28.0483
G01 X32.4906 Y27.9531
G01 X32.4858 Y27.9319
G01 X32.4838 Y27.9212
G01 X32.4677 Y27.8133
G01 X32.4651 Y27.7917
G01 X32.4634 Y27.7700
G01 X32.4586 Y27.6720
G01 X32.4581 Y27.6502
G01 X32.4586 Y27.6284
G01 X32.4641 Y27.5195
G01 X32.4651 Y27.5087
G01 X32.4677 Y27.4871
G01 X32.4821 Y27.3900
G01 X32.4858 Y27.3685
G01 X32.4906 Y27.3473
G01 X32.5145 Y27.2521
G01 X32.5203 Y27.2311
G01 X32.5271 Y27.2104
G01 X32.5602 Y27.1180
G01 X32.5680 Y27.0977
G01 X32.5768 Y27.0778
G01 X32.6188 Y26.9891
G01 X32.6236 Y26.9793
G01 X32.6338 Y26.9601
G01 X32.6898 Y26.8665
G01 X32.7014 Y26.8481
G01 X32.7140 Y26.8303
G01 X32.7724 Y26.7514
G01 X32.7858 Y26.7343
G01 X32.8001 Y26.7178
G01 X32.8660 Y26.6451
G01 X32.8810 Y26.6293
G01 X32.8968 Y26.6143
G01 X32.9695 Y26.5484
G01 X32.9860 Y26.5341
G01 X33.0031 Y26.5207
G01 X33.0820 Y26.4623
G01 X33.0998 Y26.4497
G01 X33.1182 Y26.4381
G01 X33.2023 Y26.3876
G01 X33.2213 Y26.3769
G01 X33.2408 Y26.3671
G01 X33.3295 Y26.3251
G01 X33.3494 Y26.3163
G01 X33.3697 Y26.3085
G01 X33.4621 Y26.2754
G01 X33.4828 Y26.2686
G01 X33.5038 Y26.2628
G01 X33.5990 Y26.2389
G01 X33.6202 Y26.2341
G01 X33.6417 Y26.2304
G01 X33.7388 Y26.2160
G01 X33.7604 Y26.2134
G01 X33.7821 Y26.2117
G01 X33.8801 Y26.2069
G01 X33.9019 Y26.2064
G01 X33.9237 Y26.2069
G01 X34.0326 Y26.2124
G01 X34.0542 Y26.2146
G01 X34.0650 Y26.2160
G01 X34.1621 Y26.2304
G01 X34.1836 Y26.2341
G01 X34.2048 Y26.2389
G01 X34.3000 Y26.2628
G01 X34.3210 Y26.2686
G01 X34.3417 Y26.2754
G01 X34.4341 Y26.3085
G01 X34.4544 Y26.3163
G01 X34.4743 Y26.3251
G01 X34.5630 Y26.3671
G01 X34.5728 Y26.3719
G01 X34.5920 Y26.3821
G01 X34.6949 Y26.4438
G01 X34.7040 Y26.4497
G01 X34.7218 Y26.4623
G01 X34.8007 Y26.5207
G01 X34.8178 Y26.5341
G01 X34.8343 Y26.5484
G01 X34.9070 Y26.6143
G01 X34.9228 Y26.6293
G01 X34.9304 Y26.6371
G01 X35.0037 Y26.7178
G01 X35.0180 Y26.7343
G01 X35.0248 Y26.7428
G01 X35.0962 Y26.8391
G01 X35.1083 Y26.8572
G01 X35.1379 Y26.9062
G01 X37.6704 Y26.9063
G01 X47.4347 Y17.1419
G01 X47.4505 Y17.1269
G01 X47.4723 Y17.1071
G01 X47.4888 Y17.0929
G01 X47.5060 Y17.0795
G01 X47.5385 Y17.0556
G01 X47.5566 Y17.0435
G01 X47.5912 Y17.0226
G01 X47.6006 Y17.0171
G01 X47.6198 Y17.0069
G01 X47.6562 Y16.9895
G01 X47.6761 Y16.9807
G01 X47.6964 Y16.9728
G01 X47.7345 Y16.9594
G01 X47.7553 Y16.9531
G01 X47.7944 Y16.9431
G01 X47.8157 Y16.9383
G01 X47.8371 Y16.9346
G01 X47.8771 Y16.9288
G01 X47.8987 Y16.9267
G01 X47.9390 Y16.9246
G01 X47.9608 Y16.9241
G01 X49.8140 Y16.9241
G01 X49.8436 Y16.8750
G01 X49.8557 Y16.8569
G01 X49.9271 Y16.7606
G01 X49.9339 Y16.7521
G01 X49.9482 Y16.7356
G01 X50.0141 Y16.6629
G01 X50.0291 Y16.6471
G01 X50.0449 Y16.6321
G01 X50.1176 Y16.5662
G01 X50.1341 Y16.5519
G01 X50.1426 Y16.5451
G01 X50.2389 Y16.4737
G01 X50.2570 Y16.4616
G01 X50.3060 Y16.4320
G01 X50.3061 Y11.9468
G01 X45.0364 Y6.6771
G01 X44.6502 Y6.6771
G01 X44.6206 Y6.7262
G01 X44.6085 Y6.7443
G01 X44.5371 Y6.8406
G01 X44.5233 Y6.8575
G01 X44.5160 Y6.8656
G01 X44.4501 Y6.9383
G01 X44.4427 Y6.9463
G01 X44.4273 Y6.9617
G01 X44.3385 Y7.0423
G01 X44.3301 Y7.0493
G01 X44.3130 Y7.0627
G01 X44.2341 Y7.1211
G01 X44.2163 Y7.1337
G01 X44.1979 Y7.1453
G01 X44.1043 Y7.2013
G01 X44.0851 Y7.2115
G01 X44.0753 Y7.2163
G01 X43.9866 Y7.2583
G01 X43.9667 Y7.2671
G01 X43.9464 Y7.2749
G01 X43.8540 Y7.3080
G01 X43.8333 Y7.3148
G01 X43.8123 Y7.3206
G01 X43.7171 Y7.3445
G01 X43.6959 Y7.3493
G01 X43.6744 Y7.3530
G01 X43.5773 Y7.3674
G01 X43.5557 Y7.3700
G01 X43.5340 Y7.3717
G01 X43.4360 Y7.3765
G01 X43.4142 Y7.3770
G01 X43.3924 Y7.3765
G01 X43.2944 Y7.3717
G01 X43.2727 Y7.3700
G01 X43.2511 Y7.3674
G01 X43.1540 Y7.3530
G01 X43.1325 Y7.3493
G01 X43.1113 Y7.3445
G01 X43.0161 Y7.3206
G01 X42.9951 Y7.3148
G01 X42.9744 Y7.3080
G01 X42.8820 Y7.2749
G01 X42.8617 Y7.2671
G01 X42.8418 Y7.2583
G01 X42.7531 Y7.2163
G01 X42.7336 Y7.2065
G01 X42.7241 Y7.2013
G01 X42.6305 Y7.1453
G01 X42.6121 Y7.1337
G01 X42.5943 Y7.1211
G01 X42.5154 Y7.0627
G01 X42.4983 Y7.0493
G01 X42.4899 Y7.0423
G01 X42.4011 Y6.9617
G01 X42.3933 Y6.9541
G01 X42.3783 Y6.9383
G01 X42.3124 Y6.8656
G01 X42.2981 Y6.8491
G01 X42.2913 Y6.8406
G01 X42.2199 Y6.7443
G01 X42.2078 Y6.7262
G01 X42.1782 Y6.6772
G01 X33.7656 Y6.6771
G01 X33.6425 Y6.8002
G01 X33.6425 Y7.6690
G01 X33.6916 Y7.6986
G01 X33.7097 Y7.7107
G01 X33.7974 Y7.7755
G01 X33.8145 Y7.7889
G01 X33.8229 Y7.7959
G01 X33.9037 Y7.8691
G01 X33.9195 Y7.8841
G01 X33.9345 Y7.8999
G01 X34.0077 Y7.9807
G01 X34.0147 Y7.9891
G01 X34.0281 Y8.0062
G01 X34.0865 Y8.0851
G01 X34.0991 Y8.1029
G01 X34.1107 Y8.1213
G01 X34.1612 Y8.2054
G01 X34.1719 Y8.2244
G01 X34.1817 Y8.2439
G01 X34.2282 Y8.3425
G01 X34.2365 Y8.3626
G01 X34.2403 Y8.3728
G01 X34.2734 Y8.4652
G01 X34.2802 Y8.4859
G01 X34.2860 Y8.5069
G01 X34.3099 Y8.6021
G01 X34.3147 Y8.6233
G01 X34.3184 Y8.6448
G01 X34.3328 Y8.7419
G01 X34.3354 Y8.7635
G01 X34.3371 Y8.7852
G01 X34.3419 Y8.8832
G01 X34.3424 Y8.9050
G01 X34.3419 Y8.9268
G01 X34.3371 Y9.0248
G01 X34.3354 Y9.0465
G01 X34.3328 Y9.0681
G01 X34.3184 Y9.1652
G01 X34.3147 Y9.1867
G01 X34.3099 Y9.2079
G01 X34.2860 Y9.3031
G01 X34.2802 Y9.3241
G01 X34.2734 Y9.3448
G01 X34.2403 Y9.4372
G01 X34.2325 Y9.4575
G01 X34.2237 Y9.4774
G01 X34.1769 Y9.5759
G01 X34.1719 Y9.5856
G01 X34.1612 Y9.6046
G01 X34.1107 Y9.6887
G01 X34.0991 Y9.7071
G01 X34.0865 Y9.7249
G01 X34.0281 Y9.8038
G01 X34.0147 Y9.8209
G01 X34.0004 Y9.8374
G01 X33.9345 Y9.9101
G01 X33.9195 Y9.9259
G01 X33.9037 Y9.9409
G01 X33.8310 Y10.0068
G01 X33.8145 Y10.0211
G01 X33.7974 Y10.0345
G01 X33.7097 Y10.0993
G01 X33.6916 Y10.1114
G01 X33.6823 Y10.1171
G01 X33.5982 Y10.1676
G01 X33.5792 Y10.1783
G01 X33.5597 Y10.1881
G01 X33.4710 Y10.2301
G01 X33.4511 Y10.2389
G01 X33.4308 Y10.2467
G01 X33.3384 Y10.2798
G01 X33.3177 Y10.2866
G01 X33.2967 Y10.2924
G01 X33.2015 Y10.3163
G01 X33.1803 Y10.3211
G01 X33.1588 Y10.3248
G01 X33.0617 Y10.3392
G01 X33.0401 Y10.3418
G01 X33.0184 Y10.3435
G01 X32.9204 Y10.3483
G01 X32.8986 Y10.3488
G01 X32.8768 Y10.3483
G01 X32.7788 Y10.3435
G01 X32.7571 Y10.3418
G01 X32.7355 Y10.3392
G01 X32.6384 Y10.3248
G01 X32.6169 Y10.3211
G01 X32.5957 Y10.3163
G01 X32.5005 Y10.2924
G01 X32.4795 Y10.2866
G01 X32.4588 Y10.2798
G01 X32.3664 Y10.2467
G01 X32.3461 Y10.2389
G01 X32.3262 Y10.2301
G01 X32.2375 Y10.1881
G01 X32.2180 Y10.1783
G01 X32.1990 Y10.1676
G01 X32.1149 Y10.1171
G01 X32.0965 Y10.1055
G01 X32.0787 Y10.0929
G01 X31.9998 Y10.0345
G01 X31.9827 Y10.0211
G01 X31.9662 Y10.0068
G01 X31.8935 Y9.9409
G01 X31.8777 Y9.9259
G01 X31.8627 Y9.9101
G01 X31.7968 Y9.8374
G01 X31.7825 Y9.8209
G01 X31.7691 Y9.8038
G01 X31.7107 Y9.7249
G01 X31.6981 Y9.7071
G01 X31.6865 Y9.6887
G01 X31.6323 Y9.5982
G01 X20.2333 Y9.5981
G01 X20.2408 Y9.6287
G01 X20.2451 Y9.6500
G01 X20.2626 Y9.7687
G01 X20.2638 Y9.7795
G01 X20.2655 Y9.8012
G01 X20.2703 Y9.8992
G01 X20.2708 Y9.9210
G01 X20.2703 Y9.9428
G01 X20.2655 Y10.0408
G01 X20.2638 Y10.0625
G01 X20.2612 Y10.0841
G01 X20.2468 Y10.1812
G01 X20.2431 Y10.2027
G01 X20.2408 Y10.2133
G01 X20.2144 Y10.3191
G01 X20.2086 Y10.3401
G01 X20.2018 Y10.3608
G01 X20.1687 Y10.4532
G01 X20.1609 Y10.4735
G01 X20.1521 Y10.4934
G01 X20.1101 Y10.5821
G01 X20.1003 Y10.6016
G01 X20.0896 Y10.6206
G01 X20.0391 Y10.7047
G01 X20.0275 Y10.7231
G01 X20.0213 Y10.7321
G01 X19.9499 Y10.8284
G01 X19.9431 Y10.8369
G01 X19.9288 Y10.8534
G01 X19.8629 Y10.9261
G01 X19.8479 Y10.9419
G01 X19.8321 Y10.9569
G01 X19.7594 Y11.0228
G01 X19.7429 Y11.0371
G01 X19.7258 Y11.0505
G01 X19.6469 Y11.1089
G01 X19.6291 Y11.1215
G01 X19.6107 Y11.1331
G01 X19.5266 Y11.1836
G01 X19.5076 Y11.1943
G01 X19.4881 Y11.2041
G01 X19.3895 Y11.2506
G01 X19.3694 Y11.2589
G01 X19.3592 Y11.2627
G01 X19.2668 Y11.2958
G01 X19.2461 Y11.3026
G01 X19.2251 Y11.3084
G01 X19.1299 Y11.3323
G01 X19.1087 Y11.3371
G01 X19.0872 Y11.3408
G01 X18.9901 Y11.3552
G01 X18.9685 Y11.3578
G01 X18.9468 Y11.3595
G01 X18.8488 Y11.3643
G01 X18.8270 Y11.3648
G01 X18.8052 Y11.3643
G01 X18.7072 Y11.3595
G01 X18.6855 Y11.3578
G01 X18.6639 Y11.3552
G01 X18.5668 Y11.3408
G01 X18.5453 Y11.3371
G01 X18.5241 Y11.3323
G01 X18.4289 Y11.3084
G01 X18.4079 Y11.3026
G01 X18.3872 Y11.2958
G01 X18.2948 Y11.2627
G01 X18.2745 Y11.2549
G01 X18.2546 Y11.2461
G01 X18.1659 Y11.2041
G01 X18.1464 Y11.1943
G01 X18.1274 Y11.1836
G01 X18.0340 Y11.1274
G01 X18.0249 Y11.1215
G01 X18.0071 Y11.1089
G01 X17.9282 Y11.0505
G01 X17.9111 Y11.0371
G01 X17.8946 Y11.0228
G01 X17.8219 Y10.9569
G01 X17.8061 Y10.9419
G01 X17.7911 Y10.9261
G01 X17.7179 Y10.8453
G01 X17.7109 Y10.8369
G01 X17.6975 Y10.8198
G01 X17.6391 Y10.7409
G01 X17.6327 Y10.7321
G01 X17.6206 Y10.7140
G01 X17.5589 Y10.6111
G01 X17.5487 Y10.5919
G01 X17.5230 Y10.5380
G01 X12.8291 Y10.5379
G01 X12.8071 Y10.5743
G01 X12.7950 Y10.5924
G01 X12.7302 Y10.6801
G01 X12.7236 Y10.6887
G01 X12.7098 Y10.7056
G01 X12.6366 Y10.7864
G01 X12.6216 Y10.8022
G01 X12.6058 Y10.8172
G01 X12.5250 Y10.8904
G01 X12.5166 Y10.8974
G01 X12.4995 Y10.9108
G01 X12.4206 Y10.9692
G01 X12.4028 Y10.9818
G01 X12.3844 Y10.9934
G01 X12.3003 Y11.0439
G01 X12.2813 Y11.0546
G01 X12.2618 Y11.0644
G01 X12.1632 Y11.1109
G01 X12.1532 Y11.1152
G01 X12.1329 Y11.1230
G01 X12.0405 Y11.1561
G01 X12.0198 Y11.1629
G01 X11.9988 Y11.1687
G01 X11.9036 Y11.1926
G01 X11.8824 Y11.1974
G01 X11.8609 Y11.2011
G01 X11.7638 Y11.2155
G01 X11.7422 Y11.2181
G01 X11.7205 Y11.2198
G01 X11.6225 Y11.2246
G01 X11.6007 Y11.2251
G01 X11.5789 Y11.2246
G01 X11.4809 Y11.2198
G01 X11.4592 Y11.2181
G01 X11.4376 Y11.2155
G01 X11.3405 Y11.2011
G01 X11.3190 Y11.1974
G01 X11.2978 Y11.1926
G01 X11.1920 Y11.1660
G01 X11.1712 Y11.1596
G01 X11.1609 Y11.1561
G01 X11.0685 Y11.1230
G01 X11.0482 Y11.1152
G01 X11.0283 Y11.1064
G01 X10.9396 Y11.0644
G01 X10.9201 Y11.0546
G01 X10.9011 Y11.0439
G01 X10.8170 Y10.9934
G01 X10.7986 Y10.9818
G01 X10.7808 Y10.9692
G01 X10.7019 Y10.9108
G01 X10.6848 Y10.8974
G01 X10.6683 Y10.8831
G01 X10.5956 Y10.8172
G01 X10.5798 Y10.8022
G01 X10.5648 Y10.7864
G01 X10.4989 Y10.7137
G01 X10.4846 Y10.6972
G01 X10.4712 Y10.6801
G01 X10.4128 Y10.6012
G01 X10.4002 Y10.5834
G01 X10.3886 Y10.5650
G01 X10.3381 Y10.4809
G01 X10.3274 Y10.4619
G01 X10.3176 Y10.4424
G01 X10.2756 Y10.3537
G01 X10.2668 Y10.3338
G01 X10.2590 Y10.3135
G01 X10.2259 Y10.2211
G01 X10.2191 Y10.2004
G01 X10.2133 Y10.1794
G01 X10.1869 Y10.0736
G01 X10.1826 Y10.0523
G01 X10.1809 Y10.0415
G01 X10.1665 Y9.9444
G01 X10.1639 Y9.9228
G01 X10.1622 Y9.9011
G01 X10.1574 Y9.8031
G01 X10.1569 Y9.7813
G01 X10.1574 Y9.7595
G01 X10.1622 Y9.6615
G01 X10.1639 Y9.6398
G01 X10.1665 Y9.6182
G01 X10.1809 Y9.5211
G01 X10.1846 Y9.4996
G01 X10.1894 Y9.4784
G01 X10.2133 Y9.3832
G01 X10.2191 Y9.3622
G01 X10.2259 Y9.3415
G01 X10.2590 Y9.2491
G01 X10.2668 Y9.2288
G01 X10.2756 Y9.2089
G01 X10.3176 Y9.1202
G01 X10.3274 Y9.1007
G01 X10.3381 Y9.0817
G01 X10.3886 Y8.9976
G01 X10.4002 Y8.9792
G01 X10.4128 Y8.9614
G01 X10.4712 Y8.8825
G01 X10.4846 Y8.8654
G01 X10.4989 Y8.8489
G01 X10.5648 Y8.7762
G01 X10.5798 Y8.7604
G01 X10.5956 Y8.7454
G01 X10.6683 Y8.6795
G01 X10.6848 Y8.6652
G01 X10.7019 Y8.6518
G01 X10.7808 Y8.5934
G01 X10.7986 Y8.5808
G01 X10.8170 Y8.5692
G01 X10.9011 Y8.5187
G01 X10.9201 Y8.5080
G01 X10.9396 Y8.4982
G01 X11.0283 Y8.4562
G01 X11.0482 Y8.4474
G01 X11.0685 Y8.4396
G01 X11.1609 Y8.4065
G01 X11.1816 Y8.3997
G01 X11.2026 Y8.3939
G01 X11.3084 Y8.3675
G01 X11.3190 Y8.3652
G01 X11.3405 Y8.3615
G01 X11.4376 Y8.3471
G01 X11.4592 Y8.3445
G01 X11.4809 Y8.3428
G01 X11.5789 Y8.3380
G01 X11.6007 Y8.3375
G01 X11.6225 Y8.3380
G01 X11.7205 Y8.3428
G01 X11.7422 Y8.3445
G01 X11.7638 Y8.3471
G01 X11.8609 Y8.3615
G01 X11.8824 Y8.3652
G01 X11.9036 Y8.3700
G01 X11.9988 Y8.3939
G01 X12.0198 Y8.3997
G01 X12.0405 Y8.4065
G01 X12.1329 Y8.4396
G01 X12.1431 Y8.4434
G01 X12.1632 Y8.4517
G01 X12.2618 Y8.4982
G01 X12.2813 Y8.5080
G01 X12.3003 Y8.5187
G01 X12.3844 Y8.5692
G01 X12.4028 Y8.5808
G01 X12.4206 Y8.5934
G01 X12.4995 Y8.6518
G01 X12.5166 Y8.6652
G01 X12.5250 Y8.6722
G01 X12.6058 Y8.7454
G01 X12.6216 Y8.7604
G01 X12.6366 Y8.7762
G01 X12.7098 Y8.8570
G01 X12.7168 Y8.8654
G01 X12.7302 Y8.8825
G01 X12.7950 Y8.9702
G01 X12.8071 Y8.9883
G01 X12.8427 Y9.0474
G01 X17.6770 Y9.0499
G01 X17.7041 Y9.0136
G01 X17.7179 Y8.9967
G01 X17.7985 Y8.9079
G01 X17.8061 Y8.9001
G01 X17.8219 Y8.8851
G01 X17.8946 Y8.8192
G01 X17.9027 Y8.8119
G01 X17.9196 Y8.7981
G01 X18.0159 Y8.7267
G01 X18.0340 Y8.7146
G01 X18.0433 Y8.7089
G01 X18.1274 Y8.6584
G01 X18.1464 Y8.6477
G01 X18.1659 Y8.6379
G01 X18.2645 Y8.5914
G01 X18.2745 Y8.5871
G01 X18.2948 Y8.5793
G01 X18.3872 Y8.5462
G01 X18.4079 Y8.5394
G01 X18.4289 Y8.5336
G01 X18.5241 Y8.5097
G01 X18.5453 Y8.5049
G01 X18.5668 Y8.5012
G01 X18.6639 Y8.4868
G01 X18.6747 Y8.4854
G01 X18.6963 Y8.4832
G01 X18.8052 Y8.4777
G01 X18.8270 Y8.4772
G01 X18.8488 Y8.4777
G01 X18.9577 Y8.4832
G01 X18.9793 Y8.4854
G01 X18.9901 Y8.4868
G01 X19.0980 Y8.5029
G01 X19.1193 Y8.5072
G01 X19.1749 Y8.5210
G01 X19.3755 Y8.3205
G01 X19.4053 Y8.2933
G01 X19.4218 Y8.2791
G01 X19.4390 Y8.2657
G01 X19.4627 Y8.2482
G01 X19.4805 Y8.2356
G01 X19.4989 Y8.2240
G01 X19.5242 Y8.2088
G01 X19.5431 Y8.1981
G01 X19.5626 Y8.1883
G01 X19.5892 Y8.1757
G01 X19.6091 Y8.1669
G01 X19.6192 Y8.1628
G01 X19.6675 Y8.1456
G01 X19.6883 Y8.1393
G01 X19.7380 Y8.1268
G01 X19.7487 Y8.1245
G01 X19.7701 Y8.1208
G01 X19.8101 Y8.1150
G01 X19.8317 Y8.1129
G01 X19.8720 Y8.1108
G01 X19.8938 Y8.1103
G01 X23.5263 Y8.1103
G01 X23.5148 Y8.0980
G01 X23.5005 Y8.0815
G01 X23.4871 Y8.0644
G01 X23.4746 Y8.0466
G01 X23.4629 Y8.0282
G01 X23.4575 Y8.0187
G01 X23.4472 Y7.9995
G01 X23.4379 Y7.9798
G01 X23.4295 Y7.9597
G01 X23.4222 Y7.9392
G01 X23.4159 Y7.9184
G01 X23.4131 Y7.9078
G01 X23.4083 Y7.8866
G01 X23.4063 Y7.8759
G01 X23.4031 Y7.8543
G01 X23.4010 Y7.8326
G01 X23.3999 Y7.8109
G01 X23.3998 Y7.8000
G01 X23.3998 Y6.2000
G01 X23.3999 Y6.1891
G01 X23.4010 Y6.1674
G01 X23.4031 Y6.1457
G01 X23.4046 Y6.1349
G01 X23.4063 Y6.1241
G01 X23.4106 Y6.1028
G01 X23.4159 Y6.0816
G01 X23.4189 Y6.0712
G01 X23.4257 Y6.0505
G01 X23.4295 Y6.0403
G01 X23.4379 Y6.0202
G01 X23.4424 Y6.0103
G01 X23.4522 Y5.9908
G01 X23.4575 Y5.9813
G01 X23.4687 Y5.9626
G01 X23.4746 Y5.9534
G01 X23.4808 Y5.9445
G01 X23.4937 Y5.9270
G01 X23.5076 Y5.9101
G01 X23.5148 Y5.9020
G01 X23.5298 Y5.8862
G01 X23.5376 Y5.8786
G01 X23.5456 Y5.8712
G01 X23.5621 Y5.8569
G01 X23.5792 Y5.8435
G01 X23.5881 Y5.8372
G01 X23.6062 Y5.8251
G01 X23.6154 Y5.8193
G01 X23.6344 Y5.8086
G01 X23.6539 Y5.7988
G01 X23.6738 Y5.7900
G01 X23.6839 Y5.7859
G01 X23.6941 Y5.7821
G01 X23.7148 Y5.7753
G01 X23.7252 Y5.7723
G01 X23.7464 Y5.7670
G01 X23.7570 Y5.7647
G01 X23.7785 Y5.7610
G01 X23.8001 Y5.7583
G01 X23.8110 Y5.7574
G01 X23.8327 Y5.7563
G01 X23.8436 Y5.7562
G01 X25.4436 Y5.7562
G01 X25.4654 Y5.7567
G01 X25.4871 Y5.7583
G01 X25.4979 Y5.7595
G01 X25.5195 Y5.7627
G01 X25.5302 Y5.7647
G01 X25.5408 Y5.7670
G01 X25.5620 Y5.7723
G01 X25.5828 Y5.7786
G01 X25.6033 Y5.7859
G01 X25.6134 Y5.7900
G01 X25.6333 Y5.7988
G01 X25.6528 Y5.8086
G01 X25.6623 Y5.8139
G01 X25.6810 Y5.8251
G01 X25.6902 Y5.8310
G01 X25.6991 Y5.8372
G01 X25.7166 Y5.8501
G01 X25.7335 Y5.8640
G01 X25.7416 Y5.8712
G01 X25.7496 Y5.8786
G01 X25.7650 Y5.8940
G01 X25.7796 Y5.9101
G01 X25.7935 Y5.9270
G01 X25.8001 Y5.9356
G01 X25.8126 Y5.9534
G01 X25.8185 Y5.9626
G01 X25.8297 Y5.9813
G01 X25.8400 Y6.0005
G01 X25.8448 Y6.0103
G01 X25.8564 Y6.0371
G01 X25.8717 Y6.0251
G01 X25.9348 Y5.9784
G01 X25.9526 Y5.9658
G01 X25.9710 Y5.9542
G01 X26.0383 Y5.9138
G01 X26.0573 Y5.9031
G01 X26.0767 Y5.8933
G01 X26.1477 Y5.8597
G01 X26.1676 Y5.8509
G01 X26.1879 Y5.8430
G01 X26.2619 Y5.8166
G01 X26.2825 Y5.8098
G01 X26.3035 Y5.8039
G01 X26.3797 Y5.7849
G01 X26.4009 Y5.7801
G01 X26.4224 Y5.7764
G01 X26.5001 Y5.7649
G01 X26.5217 Y5.7622
G01 X26.5434 Y5.7606
G01 X26.6218 Y5.7567
G01 X26.6436 Y5.7562
G01 X26.6654 Y5.7567
G01 X26.7438 Y5.7606
G01 X26.7655 Y5.7622
G01 X26.7763 Y5.7634
G01 X26.8648 Y5.7764
G01 X26.8863 Y5.7801
G01 X26.9075 Y5.7849
G01 X26.9837 Y5.8039
G01 X27.0047 Y5.8098
G01 X27.0253 Y5.8166
G01 X27.0993 Y5.8430
G01 X27.1196 Y5.8509
G01 X27.1395 Y5.8597
G01 X27.2105 Y5.8933
G01 X27.2299 Y5.9031
G01 X27.2395 Y5.9083
G01 X27.3162 Y5.9542
G01 X27.3346 Y5.9658
G01 X27.3524 Y5.9784
G01 X27.4155 Y6.0251
G01 X27.4327 Y6.0385
G01 X27.4410 Y6.0455
G01 X27.5073 Y6.1055
G01 X27.5231 Y6.1205
G01 X27.5307 Y6.1283
G01 X27.5981 Y6.2026
G01 X27.6119 Y6.2194
G01 X27.6436 Y6.2620
G01 X27.6753 Y6.2194
G01 X27.6891 Y6.2026
G01 X27.7565 Y6.1283
G01 X27.7641 Y6.1205
G01 X27.7799 Y6.1055
G01 X27.8462 Y6.0455
G01 X27.8545 Y6.0385
G01 X27.8717 Y6.0251
G01 X27.9348 Y5.9784
G01 X27.9526 Y5.9658
G01 X27.9710 Y5.9542
G01 X28.0383 Y5.9138
G01 X28.0477 Y5.9083
G01 X28.0669 Y5.8981
G01 X28.1477 Y5.8597
G01 X28.1576 Y5.8552
G01 X28.1777 Y5.8468
G01 X28.2722 Y5.8130
G01 X28.2930 Y5.8067
G01 X28.3035 Y5.8039
G01 X28.3797 Y5.7849
G01 X28.4009 Y5.7801
G01 X28.4224 Y5.7764
G01 X28.5001 Y5.7649
G01 X28.5217 Y5.7622
G01 X28.5325 Y5.7613
G01 X28.6218 Y5.7567
G00 Z2.0000
G00 X36.9855 Y7.5347
G01 F40.00
G01 Z-0.0500
G01 F35.00
G01 X37.0073 Y7.5342
G01 X37.0182 Y7.5343
G01 X37.1184 Y7.5393
G01 X37.1292 Y7.5402
G01 X37.1508 Y7.5429
G01 X37.2285 Y7.5544
G01 X37.2500 Y7.5581
G01 X37.2606 Y7.5604
G01 X37.3474 Y7.5819
G01 X37.3684 Y7.5878
G01 X37.3890 Y7.5946
G01 X37.4630 Y7.6210
G01 X37.4833 Y7.6289
G01 X37.5032 Y7.6377
G01 X37.5742 Y7.6713
G01 X37.5936 Y7.6811
G01 X37.6126 Y7.6918
G01 X37.6799 Y7.7322
G01 X37.6983 Y7.7438
G01 X37.7161 Y7.7564
G01 X37.7792 Y7.8031
G01 X37.7945 Y7.8151
G01 X37.8061 Y7.7883
G01 X37.8159 Y7.7688
G01 X37.8212 Y7.7593
G01 X37.8266 Y7.7498
G01 X37.8383 Y7.7314
G01 X37.8445 Y7.7225
G01 X37.8574 Y7.7050
G01 X37.8713 Y7.6881
G01 X37.8785 Y7.6800
G01 X37.8935 Y7.6642
G01 X37.9093 Y7.6492
G01 X37.9174 Y7.6420
G01 X37.9343 Y7.6281
G01 X37.9429 Y7.6215
G01 X37.9607 Y7.6090
G01 X37.9699 Y7.6031
G01 X37.9791 Y7.5973
G01 X37.9981 Y7.5866
G01 X38.0078 Y7.5816
G01 X38.0275 Y7.5723
G01 X38.0375 Y7.5680
G01 X38.0578 Y7.5601
G01 X38.0681 Y7.5566
G01 X38.0889 Y7.5503
G01 X38.1101 Y7.5450
G01 X38.1314 Y7.5407
G01 X38.1422 Y7.5390
G01 X38.1530 Y7.5375
G01 X38.1747 Y7.5354
G01 X38.1855 Y7.5347
G01 X38.2073 Y7.5342
G01 X39.8073 Y7.5342
G01 X39.8291 Y7.5347
G01 X39.8508 Y7.5363
G01 X39.8616 Y7.5375
G01 X39.8832 Y7.5407
G01 X39.8939 Y7.5427
G01 X39.9045 Y7.5450
G01 X39.9257 Y7.5503
G01 X39.9465 Y7.5566
G01 X39.9568 Y7.5601
G01 X39.9670 Y7.5639
G01 X39.9871 Y7.5723
G01 X39.9970 Y7.5768
G01 X40.0165 Y7.5866
G01 X40.0355 Y7.5973
G01 X40.0447 Y7.6031
G01 X40.0628 Y7.6152
G01 X40.0717 Y7.6215
G01 X40.0888 Y7.6349
G01 X40.1053 Y7.6492
G01 X40.1133 Y7.6566
G01 X40.1287 Y7.6720
G01 X40.1433 Y7.6881
G01 X40.1572 Y7.7050
G01 X40.1701 Y7.7225
G01 X40.1763 Y7.7314
G01 X40.1880 Y7.7498
G01 X40.1987 Y7.7688
G01 X40.2037 Y7.7785
G01 X40.2130 Y7.7982
G01 X40.2214 Y7.8183
G01 X40.2287 Y7.8388
G01 X40.2350 Y7.8596
G01 X40.2403 Y7.8808
G01 X40.2426 Y7.8914
G01 X40.2463 Y7.9129
G01 X40.2490 Y7.9345
G01 X40.2506 Y7.9562
G01 X40.2511 Y7.9780
G01 X40.2511 Y9.5780
G01 X40.2506 Y9.5998
G01 X40.2499 Y9.6106
G01 X40.2478 Y9.6323
G01 X40.2446 Y9.6539
G01 X40.2426 Y9.6646
G01 X40.2403 Y9.6752
G01 X40.2350 Y9.6964
G01 X40.2287 Y9.7172
G01 X40.2252 Y9.7275
G01 X40.2173 Y9.7478
G01 X40.2130 Y9.7578
G01 X40.2085 Y9.7677
G01 X40.1987 Y9.7872
G01 X40.1934 Y9.7967
G01 X40.1822 Y9.8154
G01 X40.1701 Y9.8335
G01 X40.1638 Y9.8424
G01 X40.1572 Y9.8510
G01 X40.1433 Y9.8679
G01 X40.1287 Y9.8840
G01 X40.1133 Y9.8994
G01 X40.0972 Y9.9140
G01 X40.0803 Y9.9279
G01 X40.0628 Y9.9408
G01 X40.0447 Y9.9529
G01 X40.0260 Y9.9641
G01 X40.0165 Y9.9694
G01 X39.9970 Y9.9792
G01 X39.9771 Y9.9880
G01 X39.9568 Y9.9959
G01 X39.9361 Y10.0027
G01 X39.9151 Y10.0085
G01 X39.8939 Y10.0133
G01 X39.8724 Y10.0170
G01 X39.8508 Y10.0197
G01 X39.8291 Y10.0213
G01 X39.8073 Y10.0218
G01 X38.2073 Y10.0218
G01 X38.1855 Y10.0213
G01 X38.1638 Y10.0197
G01 X38.1530 Y10.0185
G01 X38.1422 Y10.0170
G01 X38.1207 Y10.0133
G01 X38.0995 Y10.0085
G01 X38.0889 Y10.0057
G01 X38.0785 Y10.0027
G01 X38.0578 Y9.9959
G01 X38.0375 Y9.9880
G01 X38.0275 Y9.9837
G01 X38.0176 Y9.9792
G01 X37.9981 Y9.9694
G01 X37.9886 Y9.9641
G01 X37.9699 Y9.9529
G01 X37.9518 Y9.9408
G01 X37.9429 Y9.9345
G01 X37.9258 Y9.9211
G01 X37.9174 Y9.9140
G01 X37.9013 Y9.8994
G01 X37.8935 Y9.8918
G01 X37.8785 Y9.8760
G01 X37.8642 Y9.8595
G01 X37.8574 Y9.8510
G01 X37.8445 Y9.8335
G01 X37.8383 Y9.8246
G01 X37.8324 Y9.8154
G01 X37.8212 Y9.7967
G01 X37.8109 Y9.7775
G01 X37.8061 Y9.7677
G01 X37.7945 Y9.7409
G01 X37.7792 Y9.7529
G01 X37.7161 Y9.7996
G01 X37.6983 Y9.8122
G01 X37.6799 Y9.8238
G01 X37.6126 Y9.8642
G01 X37.5936 Y9.8749
G01 X37.5742 Y9.8847
G01 X37.5032 Y9.9183
G01 X37.4833 Y9.9271
G01 X37.4630 Y9.9350
G01 X37.3890 Y9.9614
G01 X37.3684 Y9.9682
G01 X37.3474 Y9.9741
G01 X37.2606 Y9.9956
G01 X37.2392 Y9.9999
G01 X37.2285 Y10.0016
G01 X37.1508 Y10.0131
G01 X37.1292 Y10.0158
G01 X37.1075 Y10.0174
G01 X37.0291 Y10.0213
G01 X37.0073 Y10.0218
G01 X36.9855 Y10.0213
G01 X36.9071 Y10.0174
G01 X36.8854 Y10.0158
G01 X36.8638 Y10.0131
G01 X36.7861 Y10.0016
G01 X36.7646 Y9.9979
G01 X36.7434 Y9.9931
G01 X36.6672 Y9.9741
G01 X36.6462 Y9.9682
G01 X36.6256 Y9.9614
G01 X36.5516 Y9.9350
G01 X36.5313 Y9.9271
G01 X36.5114 Y9.9183
G01 X36.4404 Y9.8847
G01 X36.4210 Y9.8749
G01 X36.4020 Y9.8642
G01 X36.3254 Y9.8181
G01 X36.3163 Y9.8122
G01 X36.2985 Y9.7996
G01 X36.2354 Y9.7529
G01 X36.2182 Y9.7395
G01 X36.2017 Y9.7252
G01 X36.1356 Y9.6651
G01 X36.1278 Y9.6575
G01 X36.1128 Y9.6417
G01 X36.0601 Y9.5836
G01 X36.0458 Y9.5671
G01 X36.0324 Y9.5499
G01 X35.9857 Y9.4868
G01 X35.9731 Y9.4690
G01 X35.9615 Y9.4506
G01 X35.9211 Y9.3833
G01 X35.9104 Y9.3643
G01 X35.9006 Y9.3449
G01 X35.8670 Y9.2739
G01 X35.8582 Y9.2540
G01 X35.8503 Y9.2337
G01 X35.8239 Y9.1597
G01 X35.8171 Y9.1391
G01 X35.8112 Y9.1181
G01 X35.7897 Y9.0313
G01 X35.7874 Y9.0207
G01 X35.7837 Y8.9992
G01 X35.7722 Y8.9215
G01 X35.7695 Y8.8999
G01 X35.7679 Y8.8782
G01 X35.7640 Y8.7998
G01 X35.7635 Y8.7780
G01 X35.7640 Y8.7562
G01 X35.7679 Y8.6778
G01 X35.7695 Y8.6561
G01 X35.7722 Y8.6345
G01 X35.7837 Y8.5568
G01 X35.7874 Y8.5353
G01 X35.7922 Y8.5141
G01 X35.8112 Y8.4379
G01 X35.8171 Y8.4169
G01 X35.8239 Y8.3963
G01 X35.8503 Y8.3223
G01 X35.8582 Y8.3020
G01 X35.8670 Y8.2821
G01 X35.9006 Y8.2111
G01 X35.9104 Y8.1917
G01 X35.9211 Y8.1727
G01 X35.9615 Y8.1054
G01 X35.9731 Y8.0870
G01 X35.9857 Y8.0692
G01 X36.0324 Y8.0061
G01 X36.0458 Y7.9889
G01 X36.0601 Y7.9724
G01 X36.1128 Y7.9143
G01 X36.1202 Y7.9063
G01 X36.1356 Y7.8909
G01 X36.2017 Y7.8308
G01 X36.2182 Y7.8165
G01 X36.2354 Y7.8031
G01 X36.2985 Y7.7564
G01 X36.3163 Y7.7438
G01 X36.3347 Y7.7322
G01 X36.4020 Y7.6918
G01 X36.4210 Y7.6811
G01 X36.4404 Y7.6713
G01 X36.5114 Y7.6377
G01 X36.5313 Y7.6289
G01 X36.5516 Y7.6210
G01 X36.6256 Y7.5946
G01 X36.6462 Y7.5878
G01 X36.6672 Y7.5819
G01 X36.7434 Y7.5629
G01 X36.7540 Y7.5604
G01 X36.7754 Y7.5561
G01 X36.8638 Y7.5429
G01 X36.8854 Y7.5402
G01 X36.9071 Y7.5386
G01 X36.9855 Y7.5347
G00 Z2.0000
G00 X36.2640 Y21.3772
G01 F40.00
G01 Z-0.0500
G01 F35.00
G01 X36.2858 Y21.3777
G01 X36.3075 Y21.3793
G01 X36.3183 Y21.3805
G01 X36.3399 Y21.3837
G01 X36.3612 Y21.3880
G01 X36.3824 Y21.3933
G01 X36.4032 Y21.3996
G01 X36.4237 Y21.4069
G01 X36.4438 Y21.4153
G01 X36.4537 Y21.4198
G01 X36.4732 Y21.4296
G01 X36.4922 Y21.4403
G01 X36.5106 Y21.4520
G01 X36.5284 Y21.4645
G01 X36.5455 Y21.4779
G01 X36.5620 Y21.4922
G01 X36.5700 Y21.4996
G01 X36.5854 Y21.5150
G01 X36.6000 Y21.5311
G01 X36.6139 Y21.5480
G01 X36.6268 Y21.5655
G01 X36.6389 Y21.5836
G01 X36.6501 Y21.6023
G01 X36.6604 Y21.6215
G01 X36.6697 Y21.6412
G01 X36.6781 Y21.6613
G01 X36.6854 Y21.6818
G01 X36.6887 Y21.6922
G01 X36.6917 Y21.7026
G01 X36.6970 Y21.7238
G01 X36.7013 Y21.7451
G01 X36.7045 Y21.7667
G01 X36.7066 Y21.7884
G01 X36.7077 Y21.8101
G01 X36.7078 Y21.8210
G01 X36.7078 Y23.4210
G01 X36.7073 Y23.4428
G01 X36.7066 Y23.4536
G01 X36.7045 Y23.4753
G01 X36.7013 Y23.4969
G01 X36.6993 Y23.5076
G01 X36.6970 Y23.5182
G01 X36.6917 Y23.5394
G01 X36.6854 Y23.5602
G01 X36.6781 Y23.5807
G01 X36.6740 Y23.5908
G01 X36.6652 Y23.6107
G01 X36.6554 Y23.6302
G01 X36.6501 Y23.6397
G01 X36.6389 Y23.6584
G01 X36.6330 Y23.6676
G01 X36.6205 Y23.6854
G01 X36.6139 Y23.6940
G01 X36.6000 Y23.7109
G01 X36.5854 Y23.7270
G01 X36.5778 Y23.7348
G01 X36.5620 Y23.7498
G01 X36.5539 Y23.7570
G01 X36.5455 Y23.7641
G01 X36.5284 Y23.7775
G01 X36.5106 Y23.7900
G01 X36.5014 Y23.7959
G01 X36.4827 Y23.8071
G01 X36.4732 Y23.8124
G01 X36.4537 Y23.8222
G01 X36.4269 Y23.8338
G01 X36.4389 Y23.8491
G01 X36.4856 Y23.9122
G01 X36.4982 Y23.9300
G01 X36.5098 Y23.9484
G01 X36.5502 Y24.0157
G01 X36.5609 Y24.0347
G01 X36.5707 Y24.0541
G01 X36.6043 Y24.1251
G01 X36.6131 Y24.1450
G01 X36.6210 Y24.1653
G01 X36.6474 Y24.2393
G01 X36.6542 Y24.2599
G01 X36.6573 Y24.2704
G01 X36.6791 Y24.3571
G01 X36.6839 Y24.3783
G01 X36.6876 Y24.3998
G01 X36.6991 Y24.4775
G01 X36.7018 Y24.4991
G01 X36.7034 Y24.5208
G01 X36.7073 Y24.5992
G01 X36.7078 Y24.6210
G01 X36.7073 Y24.6428
G01 X36.7034 Y24.7212
G01 X36.7018 Y24.7429
G01 X36.6991 Y24.7645
G01 X36.6876 Y24.8422
G01 X36.6839 Y24.8637
G01 X36.6816 Y24.8743
G01 X36.6601 Y24.9611
G01 X36.6542 Y24.9821
G01 X36.6474 Y25.0027
G01 X36.6210 Y25.0767
G01 X36.6131 Y25.0970
G01 X36.6043 Y25.1169
G01 X36.5707 Y25.1879
G01 X36.5609 Y25.2073
G01 X36.5502 Y25.2263
G01 X36.5098 Y25.2936
G01 X36.4982 Y25.3120
G01 X36.4856 Y25.3298
G01 X36.4389 Y25.3929
G01 X36.4255 Y25.4101
G01 X36.4112 Y25.4266
G01 X36.3585 Y25.4847
G01 X36.3435 Y25.5005
G01 X36.3277 Y25.5155
G01 X36.2696 Y25.5682
G01 X36.2531 Y25.5825
G01 X36.2359 Y25.5959
G01 X36.1728 Y25.6426
G01 X36.1550 Y25.6552
G01 X36.1366 Y25.6668
G01 X36.0693 Y25.7072
G01 X36.0503 Y25.7179
G01 X36.0309 Y25.7277
G01 X35.9599 Y25.7613
G01 X35.9400 Y25.7701
G01 X35.9197 Y25.7780
G01 X35.8457 Y25.8044
G01 X35.8251 Y25.8112
G01 X35.8041 Y25.8171
G01 X35.7279 Y25.8361
G01 X35.7067 Y25.8409
G01 X35.6852 Y25.8446
G01 X35.6075 Y25.8561
G01 X35.5859 Y25.8588
G01 X35.5642 Y25.8604
G01 X35.4858 Y25.8643
G01 X35.4640 Y25.8648
G01 X35.4422 Y25.8643
G01 X35.3638 Y25.8604
G01 X35.3421 Y25.8588
G01 X35.3205 Y25.8561
G01 X35.2428 Y25.8446
G01 X35.2321 Y25.8429
G01 X35.2107 Y25.8386
G01 X35.1239 Y25.8171
G01 X35.1029 Y25.8112
G01 X35.0823 Y25.8044
G01 X35.0083 Y25.7780
G01 X34.9880 Y25.7701
G01 X34.9681 Y25.7613
G01 X34.8971 Y25.7277
G01 X34.8777 Y25.7179
G01 X34.8587 Y25.7072
G01 X34.7914 Y25.6668
G01 X34.7730 Y25.6552
G01 X34.7552 Y25.6426
G01 X34.6921 Y25.5959
G01 X34.6749 Y25.5825
G01 X34.6584 Y25.5682
G01 X34.6003 Y25.5155
G01 X34.5845 Y25.5005
G01 X34.5695 Y25.4847
G01 X34.5168 Y25.4266
G01 X34.5025 Y25.4101
G01 X34.4891 Y25.3929
G01 X34.4424 Y25.3298
G01 X34.4298 Y25.3120
G01 X34.4182 Y25.2936
G01 X34.3778 Y25.2263
G01 X34.3671 Y25.2073
G01 X34.3573 Y25.1879
G01 X34.3237 Y25.1169
G01 X34.3149 Y25.0970
G01 X34.3070 Y25.0767
G01 X34.2806 Y25.0027
G01 X34.2738 Y24.9821
G01 X34.2679 Y24.9611
G01 X34.2489 Y24.8849
G01 X34.2441 Y24.8637
G01 X34.2404 Y24.8422
G01 X34.2289 Y24.7645
G01 X34.2262 Y24.7429
G01 X34.2246 Y24.7212
G01 X34.2207 Y24.6428
G01 X34.2202 Y24.6210
G01 X34.2207 Y24.5992
G01 X34.2246 Y24.5208
G01 X34.2262 Y24.4991
G01 X34.2289 Y24.4775
G01 X34.2404 Y24.3998
G01 X34.2441 Y24.3783
G01 X34.2489 Y24.3571
G01 X34.2707 Y24.2704
G01 X34.2770 Y24.2496
G01 X34.2806 Y24.2393
G01 X34.3070 Y24.1653
G01 X34.3149 Y24.1450
G01 X34.3237 Y24.1251
G01 X34.3573 Y24.0541
G01 X34.3671 Y24.0347
G01 X34.3778 Y24.0157
G01 X34.4182 Y23.9484
G01 X34.4298 Y23.9300
G01 X34.4424 Y23.9122
G01 X34.4891 Y23.8491
G01 X34.5011 Y23.8338
G01 X34.4743 Y23.8222
G01 X34.4548 Y23.8124
G01 X34.4453 Y23.8071
G01 X34.4266 Y23.7959
G01 X34.4174 Y23.7900
G01 X34.3996 Y23.7775
G01 X34.3825 Y23.7641
G01 X34.3660 Y23.7498
G01 X34.3580 Y23.7424
G01 X34.3502 Y23.7348
G01 X34.3352 Y23.7190
G01 X34.3209 Y23.7025
G01 X34.3141 Y23.6940
G01 X34.3075 Y23.6854
G01 X34.2950 Y23.6676
G01 X34.2891 Y23.6584
G01 X34.2779 Y23.6397
G01 X34.2676 Y23.6205
G01 X34.2583 Y23.6008
G01 X34.2540 Y23.5908
G01 X34.2499 Y23.5807
G01 X34.2426 Y23.5602
G01 X34.2393 Y23.5498
G01 X34.2335 Y23.5288
G01 X34.2287 Y23.5076
G01 X34.2250 Y23.4861
G01 X34.2235 Y23.4753
G01 X34.2214 Y23.4536
G01 X34.2203 Y23.4319
G01 X34.2202 Y23.4210
G01 X34.2202 Y21.8210
G01 X34.2203 Y21.8101
G01 X34.2214 Y21.7884
G01 X34.2235 Y21.7667
G01 X34.2267 Y21.7451
G01 X34.2310 Y21.7238
G01 X34.2363 Y21.7026
G01 X34.2393 Y21.6922
G01 X34.2461 Y21.6715
G01 X34.2499 Y21.6613
G01 X34.2583 Y21.6412
G01 X34.2628 Y21.6313
G01 X34.2676 Y21.6215
G01 X34.2779 Y21.6023
G01 X34.2833 Y21.5928
G01 X34.2950 Y21.5744
G01 X34.3012 Y21.5655
G01 X34.3141 Y21.5480
G01 X34.3280 Y21.5311
G01 X34.3352 Y21.5230
G01 X34.3502 Y21.5072
G01 X34.3580 Y21.4996
G01 X34.3741 Y21.4850
G01 X34.3825 Y21.4779
G01 X34.3910 Y21.4711
G01 X34.4085 Y21.4582
G01 X34.4174 Y21.4520
G01 X34.4358 Y21.4403
G01 X34.4548 Y21.4296
G01 X34.4645 Y21.4246
G01 X34.4842 Y21.4153
G01 X34.4942 Y21.4110
G01 X34.5145 Y21.4031
G01 X34.5248 Y21.3996
G01 X34.5456 Y21.3933
G01 X34.5562 Y21.3905
G01 X34.5774 Y21.3857
G01 X34.5881 Y21.3837
G01 X34.5989 Y21.3820
G01 X34.6205 Y21.3793
G01 X34.6422 Y21.3777
G01 X34.6640 Y21.3772
G01 X36.2640 Y21.3772
G00 Z2.0000
G00 X52.2062 Y24.2037
G01 F40.00
G01 Z-0.0500
G01 F35.00
G01 X52.2171 Y24.2033
G01 X52.2389 Y24.2033
G01 X52.3391 Y24.2083
G01 X52.3607 Y24.2104
G01 X52.3715 Y24.2119
G01 X52.4492 Y24.2234
G01 X52.4707 Y24.2271
G01 X52.4813 Y24.2294
G01 X52.5681 Y24.2509
G01 X52.5891 Y24.2568
G01 X52.6097 Y24.2636
G01 X52.6837 Y24.2900
G01 X52.7040 Y24.2979
G01 X52.7239 Y24.3067
G01 X52.7949 Y24.3403
G01 X52.8143 Y24.3501
G01 X52.8333 Y24.3608
G01 X52.9006 Y24.4012
G01 X52.9190 Y24.4128
G01 X52.9368 Y24.4254
G01 X52.9999 Y24.4721
G01 X53.0171 Y24.4855
G01 X53.0336 Y24.4998
G01 X53.0917 Y24.5525
G01 X53.1075 Y24.5675
G01 X53.1225 Y24.5833
G01 X53.1752 Y24.6414
G01 X53.1895 Y24.6579
G01 X53.2029 Y24.6751
G01 X53.2496 Y24.7382
G01 X53.2622 Y24.7560
G01 X53.2738 Y24.7744
G01 X53.3142 Y24.8417
G01 X53.3249 Y24.8607
G01 X53.3347 Y24.8801
G01 X53.3728 Y24.9610
G01 X53.3771 Y24.9710
G01 X53.3850 Y24.9913
G01 X53.4114 Y25.0653
G01 X53.4182 Y25.0859
G01 X53.4241 Y25.1069
G01 X53.4431 Y25.1831
G01 X53.4479 Y25.2043
G01 X53.4516 Y25.2258
G01 X53.4631 Y25.3035
G01 X53.4658 Y25.3251
G01 X53.4674 Y25.3468
G01 X53.4713 Y25.4252
G01 X53.4718 Y25.4470
G01 X53.4713 Y25.4688
G01 X53.4674 Y25.5472
G01 X53.4658 Y25.5689
G01 X53.4631 Y25.5905
G01 X53.4516 Y25.6682
G01 X53.4479 Y25.6897
G01 X53.4431 Y25.7109
G01 X53.4213 Y25.7976
G01 X53.4150 Y25.8184
G01 X53.4114 Y25.8287
G01 X53.3850 Y25.9027
G01 X53.3771 Y25.9230
G01 X53.3683 Y25.9429
G01 X53.3347 Y26.0139
G01 X53.3249 Y26.0333
G01 X53.3142 Y26.0523
G01 X53.2738 Y26.1196
G01 X53.2622 Y26.1380
G01 X53.2496 Y26.1558
G01 X53.2029 Y26.2189
G01 X53.1909 Y26.2342
G01 X53.2177 Y26.2458
G01 X53.2372 Y26.2556
G01 X53.2467 Y26.2609
G01 X53.2654 Y26.2721
G01 X53.2835 Y26.2842
G01 X53.2924 Y26.2905
G01 X53.3010 Y26.2971
G01 X53.3179 Y26.3110
G01 X53.3340 Y26.3256
G01 X53.3418 Y26.3332
G01 X53.3568 Y26.3490
G01 X53.3640 Y26.3571
G01 X53.3779 Y26.3740
G01 X53.3908 Y26.3915
G01 X53.4029 Y26.4096
G01 X53.4087 Y26.4188
G01 X53.4194 Y26.4378
G01 X53.4244 Y26.4475
G01 X53.4337 Y26.4672
G01 X53.4380 Y26.4772
G01 X53.4459 Y26.4975
G01 X53.4494 Y26.5078
G01 X53.4527 Y26.5182
G01 X53.4585 Y26.5392
G01 X53.4633 Y26.5604
G01 X53.4670 Y26.5819
G01 X53.4685 Y26.5927
G01 X53.4697 Y26.6035
G01 X53.4713 Y26.6252
G01 X53.4718 Y26.6470
G01 X53.4718 Y28.2470
G01 X53.4713 Y28.2688
G01 X53.4697 Y28.2905
G01 X53.4685 Y28.3013
G01 X53.4653 Y28.3229
G01 X53.4633 Y28.3336
G01 X53.4585 Y28.3548
G01 X53.4527 Y28.3758
G01 X53.4494 Y28.3862
G01 X53.4421 Y28.4067
G01 X53.4337 Y28.4268
G01 X53.4292 Y28.4367
G01 X53.4194 Y28.4562
G01 X53.4087 Y28.4752
G01 X53.3970 Y28.4936
G01 X53.3908 Y28.5025
G01 X53.3779 Y28.5200
G01 X53.3640 Y28.5369
G01 X53.3568 Y28.5450
G01 X53.3418 Y28.5608
G01 X53.3340 Y28.5684
G01 X53.3179 Y28.5830
G01 X53.3095 Y28.5901
G01 X53.2924 Y28.6035
G01 X53.2746 Y28.6160
G01 X53.2562 Y28.6277
G01 X53.2467 Y28.6331
G01 X53.2275 Y28.6434
G01 X53.2177 Y28.6482
G01 X53.2078 Y28.6527
G01 X53.1877 Y28.6611
G01 X53.1672 Y28.6684
G01 X53.1464 Y28.6747
G01 X53.1252 Y28.6800
G01 X53.1146 Y28.6823
G01 X53.0931 Y28.6860
G01 X53.0715 Y28.6887
G01 X53.0498 Y28.6903
G01 X53.0280 Y28.6908
G01 X51.4280 Y28.6908
G01 X51.4062 Y28.6903
G01 X51.3845 Y28.6887
G01 X51.3737 Y28.6875
G01 X51.3521 Y28.6843
G01 X51.3414 Y28.6823
G01 X51.3202 Y28.6775
G01 X51.3096 Y28.6747
G01 X51.2888 Y28.6684
G01 X51.2785 Y28.6649
G01 X51.2582 Y28.6570
G01 X51.2383 Y28.6482
G01 X51.2285 Y28.6434
G01 X51.2093 Y28.6331
G01 X51.1998 Y28.6277
G01 X51.1906 Y28.6219
G01 X51.1725 Y28.6098
G01 X51.1636 Y28.6035
G01 X51.1465 Y28.5901
G01 X51.1300 Y28.5758
G01 X51.1220 Y28.5684
G01 X51.1142 Y28.5608
G01 X51.0992 Y28.5450
G01 X51.0849 Y28.5285
G01 X51.0781 Y28.5200
G01 X51.0715 Y28.5114
G01 X51.0590 Y28.4936
G01 X51.0531 Y28.4844
G01 X51.0419 Y28.4657
G01 X51.0316 Y28.4465
G01 X51.0268 Y28.4367
G01 X51.0223 Y28.4268
G01 X51.0139 Y28.4067
G01 X51.0066 Y28.3862
G01 X51.0033 Y28.3758
G01 X50.9975 Y28.3548
G01 X50.9927 Y28.3336
G01 X50.9890 Y28.3121
G01 X50.9863 Y28.2905
G01 X50.9847 Y28.2688
G01 X50.9842 Y28.2470
G01 X50.9842 Y26.6470
G01 X50.9843 Y26.6361
G01 X50.9854 Y26.6144
G01 X50.9875 Y26.5927
G01 X50.9907 Y26.5711
G01 X50.9927 Y26.5604
G01 X50.9975 Y26.5392
G01 X51.0003 Y26.5286
G01 X51.0033 Y26.5182
G01 X51.0101 Y26.4975
G01 X51.0180 Y26.4772
G01 X51.0223 Y26.4672
G01 X51.0316 Y26.4475
G01 X51.0419 Y26.4283
G01 X51.0473 Y26.4188
G01 X51.0590 Y26.4004
G01 X51.0652 Y26.3915
G01 X51.0781 Y26.3740
G01 X51.0920 Y26.3571
G01 X51.1066 Y26.3410
G01 X51.1142 Y26.3332
G01 X51.1300 Y26.3182
G01 X51.1381 Y26.3110
G01 X51.1550 Y26.2971
G01 X51.1636 Y26.2905
G01 X51.1814 Y26.2780
G01 X51.1998 Y26.2663
G01 X51.2093 Y26.2609
G01 X51.2188 Y26.2556
G01 X51.2383 Y26.2458
G01 X51.2651 Y26.2342
G01 X51.2531 Y26.2189
G01 X51.2064 Y26.1558
G01 X51.1938 Y26.1380
G01 X51.1822 Y26.1196
G01 X51.1418 Y26.0523
G01 X51.1311 Y26.0333
G01 X51.1213 Y26.0139
G01 X51.0877 Y25.9429
G01 X51.0789 Y25.9230
G01 X51.0710 Y25.9027
G01 X51.0446 Y25.8287
G01 X51.0378 Y25.8081
G01 X51.0319 Y25.7871
G01 X51.0129 Y25.7109
G01 X51.0081 Y25.6897
G01 X51.0044 Y25.6682
G01 X50.9929 Y25.5905
G01 X50.9902 Y25.5689
G01 X50.9886 Y25.5472
G01 X50.9847 Y25.4688
G01 X50.9842 Y25.4470
G01 X50.9847 Y25.4252
G01 X50.9886 Y25.3468
G01 X50.9902 Y25.3251
G01 X50.9929 Y25.3035
G01 X51.0044 Y25.2258
G01 X51.0081 Y25.2043
G01 X51.0129 Y25.1831
G01 X51.0319 Y25.1069
G01 X51.0378 Y25.0859
G01 X51.0446 Y25.0653
G01 X51.0710 Y24.9913
G01 X51.0789 Y24.9710
G01 X51.0877 Y24.9511
G01 X51.1213 Y24.8801
G01 X51.1311 Y24.8607
G01 X51.1418 Y24.8417
G01 X51.1822 Y24.7744
G01 X51.1938 Y24.7560
G01 X51.2064 Y24.7382
G01 X51.2531 Y24.6751
G01 X51.2665 Y24.6579
G01 X51.2808 Y24.6414
G01 X51.3335 Y24.5833
G01 X51.3409 Y24.5753
G01 X51.3563 Y24.5599
G01 X51.4224 Y24.4998
G01 X51.4389 Y24.4855
G01 X51.4561 Y24.4721
G01 X51.5192 Y24.4254
G01 X51.5370 Y24.4128
G01 X51.5554 Y24.4012
G01 X51.6227 Y24.3608
G01 X51.6417 Y24.3501
G01 X51.6611 Y24.3403
G01 X51.7321 Y24.3067
G01 X51.7520 Y24.2979
G01 X51.7723 Y24.2900
G01 X51.8463 Y24.2636
G01 X51.8669 Y24.2568
G01 X51.8879 Y24.2509
G01 X51.9641 Y24.2319
G01 X51.9853 Y24.2271
G01 X51.9961 Y24.2251
G01 X52.0845 Y24.2119
G01 X52.1061 Y24.2092
G01 X52.1278 Y24.2076
G01 X52.2062 Y24.2037
G00 Z2.0000
G00 X51.7302 Y3.9787
G01 F40.00
G01 Z-0.0500
G01 F35.00
G01 X51.7520 Y3.9782
G01 X51.7629 Y3.9783
G01 X51.8631 Y3.9833
G01 X51.8739 Y3.9842
G01 X51.8955 Y3.9869
G01 X51.9732 Y3.9984
G01 X51.9839 Y4.0001
G01 X52.0053 Y4.0044
G01 X52.0921 Y4.0259
G01 X52.1131 Y4.0318
G01 X52.1337 Y4.0386
G01 X52.2077 Y4.0650
G01 X52.2280 Y4.0729
G01 X52.2479 Y4.0817
G01 X52.3189 Y4.1153
G01 X52.3383 Y4.1251
G01 X52.3573 Y4.1358
G01 X52.4246 Y4.1762
G01 X52.4430 Y4.1878
G01 X52.4608 Y4.2004
G01 X52.5239 Y4.2471
G01 X52.5392 Y4.2591
G01 X52.5508 Y4.2323
G01 X52.5606 Y4.2128
G01 X52.5659 Y4.2033
G01 X52.5713 Y4.1938
G01 X52.5830 Y4.1754
G01 X52.5892 Y4.1665
G01 X52.6021 Y4.1490
G01 X52.6160 Y4.1321
G01 X52.6232 Y4.1240
G01 X52.6382 Y4.1082
G01 X52.6540 Y4.0932
G01 X52.6621 Y4.0860
G01 X52.6790 Y4.0721
G01 X52.6876 Y4.0655
G01 X52.7054 Y4.0530
G01 X52.7146 Y4.0471
G01 X52.7238 Y4.0413
G01 X52.7428 Y4.0306
G01 X52.7525 Y4.0256
G01 X52.7722 Y4.0163
G01 X52.7822 Y4.0120
G01 X52.8025 Y4.0041
G01 X52.8128 Y4.0006
G01 X52.8336 Y3.9943
G01 X52.8548 Y3.9890
G01 X52.8761 Y3.9847
G01 X52.8869 Y3.9830
G01 X52.9085 Y3.9803
G01 X52.9194 Y3.9794
G01 X52.9411 Y3.9783
G01 X52.9520 Y3.9782
G01 X54.5520 Y3.9782
G01 X54.5738 Y3.9787
G01 X54.5955 Y3.9803
G01 X54.6063 Y3.9815
G01 X54.6171 Y3.9830
G01 X54.6386 Y3.9867
G01 X54.6598 Y3.9915
G01 X54.6704 Y3.9943
G01 X54.6808 Y3.9973
G01 X54.7015 Y4.0041
G01 X54.7218 Y4.0120
G01 X54.7318 Y4.0163
G01 X54.7417 Y4.0208
G01 X54.7612 Y4.0306
G01 X54.7707 Y4.0359
G01 X54.7894 Y4.0471
G01 X54.7986 Y4.0530
G01 X54.8164 Y4.0655
G01 X54.8335 Y4.0789
G01 X54.8419 Y4.0860
G01 X54.8580 Y4.1006
G01 X54.8734 Y4.1160
G01 X54.8880 Y4.1321
G01 X54.8951 Y4.1405
G01 X54.9085 Y4.1576
G01 X54.9210 Y4.1754
G01 X54.9327 Y4.1938
G01 X54.9434 Y4.2128
G01 X54.9532 Y4.2323
G01 X54.9620 Y4.2522
G01 X54.9661 Y4.2623
G01 X54.9734 Y4.2828
G01 X54.9797 Y4.3036
G01 X54.9850 Y4.3248
G01 X54.9873 Y4.3354
G01 X54.9910 Y4.3569
G01 X54.9937 Y4.3785
G01 X54.9953 Y4.4002
G01 X54.9958 Y4.4220
G01 X54.9958 Y6.0220
G01 X54.9953 Y6.0438
G01 X54.9946 Y6.0546
G01 X54.9925 Y6.0763
G01 X54.9910 Y6.0871
G01 X54.9873 Y6.1086
G01 X54.9850 Y6.1192
G01 X54.9797 Y6.1404
G01 X54.9734 Y6.1612
G01 X54.9699 Y6.1715
G01 X54.9620 Y6.1918
G01 X54.9577 Y6.2018
G01 X54.9532 Y6.2117
G01 X54.9434 Y6.2312
G01 X54.9327 Y6.2502
G01 X54.9269 Y6.2594
G01 X54.9210 Y6.2686
G01 X54.9085 Y6.2864
G01 X54.8951 Y6.3035
G01 X54.8808 Y6.3200
G01 X54.8658 Y6.3358
G01 X54.8500 Y6.3508
G01 X54.8419 Y6.3580
G01 X54.8250 Y6.3719
G01 X54.8075 Y6.3848
G01 X54.7894 Y6.3969
G01 X54.7707 Y6.4081
G01 X54.7515 Y6.4184
G01 X54.7318 Y6.4277
G01 X54.7117 Y6.4361
G01 X54.7015 Y6.4399
G01 X54.6808 Y6.4467
G01 X54.6598 Y6.4525
G01 X54.6386 Y6.4573
G01 X54.6171 Y6.4610
G01 X54.5955 Y6.4637
G01 X54.5738 Y6.4653
G01 X54.5520 Y6.4658
G01 X52.9520 Y6.4658
G01 X52.9302 Y6.4653
G01 X52.9194 Y6.4646
G01 X52.8977 Y6.4625
G01 X52.8761 Y6.4593
G01 X52.8654 Y6.4573
G01 X52.8442 Y6.4525
G01 X52.8336 Y6.4497
G01 X52.8232 Y6.4467
G01 X52.8025 Y6.4399
G01 X52.7822 Y6.4320
G01 X52.7623 Y6.4232
G01 X52.7525 Y6.4184
G01 X52.7428 Y6.4134
G01 X52.7238 Y6.4027
G01 X52.7054 Y6.3910
G01 X52.6965 Y6.3848
G01 X52.6790 Y6.3719
G01 X52.6705 Y6.3651
G01 X52.6621 Y6.3580
G01 X52.6460 Y6.3434
G01 X52.6382 Y6.3358
G01 X52.6232 Y6.3200
G01 X52.6160 Y6.3119
G01 X52.6021 Y6.2950
G01 X52.5955 Y6.2864
G01 X52.5830 Y6.2686
G01 X52.5713 Y6.2502
G01 X52.5659 Y6.2407
G01 X52.5556 Y6.2215
G01 X52.5508 Y6.2117
G01 X52.5392 Y6.1849
G01 X52.5239 Y6.1969
G01 X52.4608 Y6.2436
G01 X52.4430 Y6.2562
G01 X52.4246 Y6.2678
G01 X52.3573 Y6.3082
G01 X52.3383 Y6.3189
G01 X52.3189 Y6.3287
G01 X52.2479 Y6.3623
G01 X52.2280 Y6.3711
G01 X52.2077 Y6.3790
G01 X52.1337 Y6.4054
G01 X52.1131 Y6.4122
G01 X52.0921 Y6.4181
G01 X52.0053 Y6.4396
G01 X51.9839 Y6.4439
G01 X51.9732 Y6.4456
G01 X51.8955 Y6.4571
G01 X51.8739 Y6.4598
G01 X51.8522 Y6.4614
G01 X51.7738 Y6.4653
G01 X51.7520 Y6.4658
G01 X51.7302 Y6.4653
G01 X51.6518 Y6.4614
G01 X51.6301 Y6.4598
G01 X51.6085 Y6.4571
G01 X51.5308 Y6.4456
G01 X51.5093 Y6.4419
G01 X51.4881 Y6.4371
G01 X51.4119 Y6.4181
G01 X51.3909 Y6.4122
G01 X51.3703 Y6.4054
G01 X51.2963 Y6.3790
G01 X51.2760 Y6.3711
G01 X51.2561 Y6.3623
G01 X51.1851 Y6.3287
G01 X51.1657 Y6.3189
G01 X51.1467 Y6.3082
G01 X51.0701 Y6.2621
G01 X51.0610 Y6.2562
G01 X51.0432 Y6.2436
G01 X50.9801 Y6.1969
G01 X50.9629 Y6.1835
G01 X50.9464 Y6.1692
G01 X50.8803 Y6.1091
G01 X50.8649 Y6.0937
G01 X50.8575 Y6.0857
G01 X50.8048 Y6.0276
G01 X50.7905 Y6.0111
G01 X50.7771 Y5.9939
G01 X50.7304 Y5.9308
G01 X50.7178 Y5.9130
G01 X50.7062 Y5.8946
G01 X50.6658 Y5.8273
G01 X50.6551 Y5.8083
G01 X50.6453 Y5.7889
G01 X50.6117 Y5.7179
G01 X50.6029 Y5.6980
G01 X50.5950 Y5.6777
G01 X50.5686 Y5.6037
G01 X50.5618 Y5.5831
G01 X50.5559 Y5.5621
G01 X50.5344 Y5.4753
G01 X50.5321 Y5.4647
G01 X50.5284 Y5.4432
G01 X50.5169 Y5.3655
G01 X50.5142 Y5.3439
G01 X50.5126 Y5.3222
G01 X50.5087 Y5.2438
G01 X50.5082 Y5.2220
G01 X50.5087 Y5.2002
G01 X50.5126 Y5.1218
G01 X50.5142 Y5.1001
G01 X50.5169 Y5.0785
G01 X50.5284 Y5.0008
G01 X50.5321 Y4.9793
G01 X50.5369 Y4.9581
G01 X50.5559 Y4.8819
G01 X50.5618 Y4.8609
G01 X50.5686 Y4.8403
G01 X50.5950 Y4.7663
G01 X50.6029 Y4.7460
G01 X50.6117 Y4.7261
G01 X50.6453 Y4.6551
G01 X50.6551 Y4.6357
G01 X50.6658 Y4.6167
G01 X50.7062 Y4.5494
G01 X50.7178 Y4.5310
G01 X50.7304 Y4.5132
G01 X50.7771 Y4.4501
G01 X50.7905 Y4.4329
G01 X50.8048 Y4.4164
G01 X50.8575 Y4.3583
G01 X50.8649 Y4.3503
G01 X50.8803 Y4.3349
G01 X50.9464 Y4.2748
G01 X50.9629 Y4.2605
G01 X50.9801 Y4.2471
G01 X51.0432 Y4.2004
G01 X51.0610 Y4.1878
G01 X51.0794 Y4.1762
G01 X51.1467 Y4.1358
G01 X51.1657 Y4.1251
G01 X51.1851 Y4.1153
G01 X51.2561 Y4.0817
G01 X51.2760 Y4.0729
G01 X51.2963 Y4.0650
G01 X51.3703 Y4.0386
G01 X51.3909 Y4.0318
G01 X51.4119 Y4.0259
G01 X51.4881 Y4.0069
G01 X51.4987 Y4.0044
G01 X51.5201 Y4.0001
G01 X51.6085 Y3.9869
G01 X51.6301 Y3.9842
G01 X51.6518 Y3.9826
G01 X51.7302 Y3.9787
G00 Z2.0000
M05
G00 Z2.0000
G00 Z15.00


