(G-CODE GENERATED BY FLATCAM v8.994 - www.flatcam.org - Version Date: 2020/11/7)

(Name: ADCandDAC-B_Cu.gbr_0.1268_iso6_cnc)
(Type: G-code from Geometry)
(Units: MM)

(Created on Чацвер, 26 лістапада 2020 at 10:09)

(This preprocessor is the default preprocessor used by FlatCAM.)
(It is made to work with MACH3 compatible motion controllers.)

(TOOL DIAMETER: 0.1268 mm)
(Feedrate_XY: 35.0 mm/min)
(Feedrate_Z: 40.0 mm/min)
(Feedrate rapids 1000.0 mm/min)

(Z_Cut: -0.05 mm)
(Z_Move: 2.0 mm)
(Z Start: None mm)
(Z End: 15.0 mm)
(X,Y End: None mm)
(Steps per circle: 64)
(Preprocessor Geometry: default)

(X range:    4.6262 ...   55.0909  mm)
(Y range:    3.8831 ...   29.1891  mm)

(Spindle Speed: 10000.0 RPM)
G21
G90
G94

G01 F35.00

M5
G00 Z15.0000
G00 X0.0000 Y0.0000
T2
M6    
(MSG, Change to Tool Dia = 0.1268)
M0
G00 Z15.0000

M03 S10000.0
G01 F35.00
G00 X8.6787 Y22.1876
G01 F40.00
G01 Z-0.0500
G01 F35.00
G01 X8.7051 Y22.1870
G01 X8.7183 Y22.1872
G01 X8.8296 Y22.1925
G01 X8.8559 Y22.1944
G01 X8.8822 Y22.1976
G01 X8.9793 Y22.2120
G01 X9.0053 Y22.2166
G01 X9.0311 Y22.2224
G01 X9.1263 Y22.2462
G01 X9.1518 Y22.2533
G01 X9.1769 Y22.2616
G01 X9.2693 Y22.2946
G01 X9.2940 Y22.3041
G01 X9.3182 Y22.3149
G01 X9.4069 Y22.3568
G01 X9.4305 Y22.3687
G01 X9.4535 Y22.3817
G01 X9.5377 Y22.4322
G01 X9.5490 Y22.4391
G01 X9.5710 Y22.4538
G01 X9.6605 Y22.5200
G01 X9.6814 Y22.5363
G01 X9.7014 Y22.5536
G01 X9.7838 Y22.6285
G01 X9.8025 Y22.6472
G01 X9.8115 Y22.6569
G01 X9.8774 Y22.7296
G01 X9.8947 Y22.7496
G01 X9.9110 Y22.7705
G01 X9.9694 Y22.8493
G01 X9.9846 Y22.8709
G01 X9.9988 Y22.8933
G01 X10.0493 Y22.9775
G01 X10.0623 Y23.0005
G01 X10.0742 Y23.0241
G01 X10.1161 Y23.1128
G01 X10.1269 Y23.1370
G01 X10.1364 Y23.1617
G01 X10.1737 Y23.2666
G01 X10.1777 Y23.2792
G01 X10.1848 Y23.3047
G01 X10.2086 Y23.3999
G01 X10.2144 Y23.4257
G01 X10.2190 Y23.4517
G01 X10.2334 Y23.5488
G01 X10.2366 Y23.5751
G01 X10.2385 Y23.6014
G01 X10.2434 Y23.6995
G01 X10.2440 Y23.7259
G01 X10.2434 Y23.7523
G01 X10.2385 Y23.8504
G01 X10.2366 Y23.8767
G01 X10.2334 Y23.9030
G01 X10.2190 Y24.0001
G01 X10.2144 Y24.0261
G01 X10.2086 Y24.0519
G01 X10.1814 Y24.1599
G01 X10.1737 Y24.1852
G01 X10.1694 Y24.1977
G01 X10.1364 Y24.2901
G01 X10.1269 Y24.3148
G01 X10.1161 Y24.3390
G01 X10.0742 Y24.4277
G01 X10.0623 Y24.4513
G01 X10.0493 Y24.4743
G01 X9.9988 Y24.5585
G01 X9.9846 Y24.5809
G01 X9.9694 Y24.6025
G01 X9.9110 Y24.6813
G01 X9.8947 Y24.7022
G01 X9.8774 Y24.7222
G01 X9.8115 Y24.7949
G01 X9.8025 Y24.8046
G01 X9.7838 Y24.8233
G01 X9.7014 Y24.8982
G01 X9.6814 Y24.9155
G01 X9.6605 Y24.9318
G01 X9.5710 Y24.9980
G01 X9.5601 Y25.0054
G01 X9.5377 Y25.0196
G01 X9.4535 Y25.0701
G01 X9.4305 Y25.0831
G01 X9.4069 Y25.0950
G01 X9.3182 Y25.1369
G01 X9.2940 Y25.1477
G01 X9.2693 Y25.1572
G01 X9.1769 Y25.1902
G01 X9.1518 Y25.1985
G01 X9.1263 Y25.2056
G01 X9.0311 Y25.2294
G01 X9.0053 Y25.2352
G01 X8.9793 Y25.2398
G01 X8.8822 Y25.2542
G01 X8.8559 Y25.2574
G01 X8.8296 Y25.2593
G01 X8.7315 Y25.2642
G01 X8.7051 Y25.2648
G01 X8.6787 Y25.2642
G01 X8.5806 Y25.2593
G01 X8.5543 Y25.2574
G01 X8.5280 Y25.2542
G01 X8.4309 Y25.2398
G01 X8.4049 Y25.2352
G01 X8.3791 Y25.2294
G01 X8.2839 Y25.2056
G01 X8.2584 Y25.1985
G01 X8.2333 Y25.1902
G01 X8.1285 Y25.1526
G01 X8.1162 Y25.1477
G01 X8.0920 Y25.1369
G01 X8.0033 Y25.0950
G01 X7.9797 Y25.0831
G01 X7.9567 Y25.0701
G01 X7.8612 Y25.0127
G01 X7.8392 Y24.9980
G01 X7.8285 Y24.9902
G01 X7.7392 Y24.9238
G01 X7.7187 Y24.9070
G01 X7.6830 Y24.8748
G01 X7.6768 Y24.8949
G01 X7.6679 Y24.9198
G01 X7.6578 Y24.9443
G01 X7.6523 Y24.9563
G01 X7.6404 Y24.9799
G01 X7.6340 Y24.9915
G01 X7.6273 Y25.0029
G01 X7.6132 Y25.0253
G01 X7.5979 Y25.0469
G01 X7.5899 Y25.0574
G01 X7.5732 Y25.0779
G01 X7.5644 Y25.0878
G01 X7.5462 Y25.1070
G01 X7.5270 Y25.1252
G01 X7.5070 Y25.1425
G01 X7.4966 Y25.1507
G01 X7.4754 Y25.1665
G01 X7.4645 Y25.1740
G01 X7.4421 Y25.1881
G01 X7.4191 Y25.2012
G01 X7.4074 Y25.2073
G01 X7.3835 Y25.2186
G01 X7.3590 Y25.2287
G01 X7.3466 Y25.2333
G01 X7.3341 Y25.2376
G01 X7.3088 Y25.2453
G01 X7.2832 Y25.2517
G01 X7.2702 Y25.2544
G01 X7.2572 Y25.2569
G01 X7.2311 Y25.2607
G01 X7.2179 Y25.2622
G01 X7.1915 Y25.2642
G01 X7.1651 Y25.2648
G01 X5.1651 Y25.2648
G01 X5.1387 Y25.2642
G01 X5.1123 Y25.2622
G01 X5.0860 Y25.2590
G01 X5.0730 Y25.2569
G01 X5.0470 Y25.2517
G01 X5.0214 Y25.2453
G01 X4.9961 Y25.2376
G01 X4.9712 Y25.2287
G01 X4.9467 Y25.2186
G01 X4.9228 Y25.2073
G01 X4.8995 Y25.1948
G01 X4.8768 Y25.1812
G01 X4.8548 Y25.1665
G01 X4.8441 Y25.1587
G01 X4.8232 Y25.1425
G01 X4.8032 Y25.1252
G01 X4.7935 Y25.1162
G01 X4.7748 Y25.0975
G01 X4.7570 Y25.0779
G01 X4.7403 Y25.0574
G01 X4.7245 Y25.0362
G01 X4.7098 Y25.0142
G01 X4.7029 Y25.0029
G01 X4.6898 Y24.9799
G01 X4.6837 Y24.9682
G01 X4.6724 Y24.9443
G01 X4.6672 Y24.9321
G01 X4.6623 Y24.9198
G01 X4.6534 Y24.8949
G01 X4.6457 Y24.8696
G01 X4.6424 Y24.8568
G01 X4.6393 Y24.8440
G01 X4.6341 Y24.8180
G01 X4.6303 Y24.7919
G01 X4.6277 Y24.7655
G01 X4.6268 Y24.7523
G01 X4.6262 Y24.7259
G01 X4.6262 Y22.7259
G01 X4.6268 Y22.6995
G01 X4.6288 Y22.6731
G01 X4.6320 Y22.6468
G01 X4.6366 Y22.6208
G01 X4.6393 Y22.6078
G01 X4.6457 Y22.5822
G01 X4.6534 Y22.5569
G01 X4.6577 Y22.5444
G01 X4.6672 Y22.5197
G01 X4.6779 Y22.4955
G01 X4.6898 Y22.4719
G01 X4.7029 Y22.4489
G01 X4.7170 Y22.4265
G01 X4.7245 Y22.4156
G01 X4.7403 Y22.3944
G01 X4.7570 Y22.3739
G01 X4.7748 Y22.3543
G01 X4.7935 Y22.3356
G01 X4.8032 Y22.3266
G01 X4.8232 Y22.3093
G01 X4.8441 Y22.2931
G01 X4.8548 Y22.2853
G01 X4.8768 Y22.2706
G01 X4.8881 Y22.2637
G01 X4.9111 Y22.2506
G01 X4.9228 Y22.2445
G01 X4.9347 Y22.2387
G01 X4.9589 Y22.2280
G01 X4.9712 Y22.2231
G01 X4.9961 Y22.2142
G01 X5.0087 Y22.2102
G01 X5.0342 Y22.2032
G01 X5.0600 Y22.1974
G01 X5.0860 Y22.1928
G01 X5.0991 Y22.1911
G01 X5.1123 Y22.1896
G01 X5.1387 Y22.1876
G01 X5.1651 Y22.1870
G01 X7.1651 Y22.1870
G01 X7.1915 Y22.1876
G01 X7.2179 Y22.1896
G01 X7.2311 Y22.1911
G01 X7.2572 Y22.1949
G01 X7.2832 Y22.2001
G01 X7.2960 Y22.2032
G01 X7.3215 Y22.2102
G01 X7.3341 Y22.2142
G01 X7.3590 Y22.2231
G01 X7.3713 Y22.2280
G01 X7.3835 Y22.2332
G01 X7.4074 Y22.2445
G01 X7.4191 Y22.2506
G01 X7.4421 Y22.2637
G01 X7.4534 Y22.2706
G01 X7.4754 Y22.2853
G01 X7.4966 Y22.3011
G01 X7.5070 Y22.3093
G01 X7.5270 Y22.3266
G01 X7.5367 Y22.3356
G01 X7.5462 Y22.3448
G01 X7.5644 Y22.3640
G01 X7.5817 Y22.3840
G01 X7.5899 Y22.3944
G01 X7.5979 Y22.4049
G01 X7.6132 Y22.4265
G01 X7.6204 Y22.4376
G01 X7.6340 Y22.4603
G01 X7.6465 Y22.4836
G01 X7.6523 Y22.4955
G01 X7.6630 Y22.5197
G01 X7.6679 Y22.5320
G01 X7.6768 Y22.5569
G01 X7.6830 Y22.5770
G01 X7.7187 Y22.5448
G01 X7.7392 Y22.5280
G01 X7.8285 Y22.4616
G01 X7.8501 Y22.4464
G01 X7.8612 Y22.4391
G01 X7.9567 Y22.3817
G01 X7.9797 Y22.3687
G01 X8.0033 Y22.3568
G01 X8.0920 Y22.3149
G01 X8.1162 Y22.3041
G01 X8.1285 Y22.2992
G01 X8.2333 Y22.2616
G01 X8.2584 Y22.2533
G01 X8.2839 Y22.2462
G01 X8.3791 Y22.2224
G01 X8.4049 Y22.2166
G01 X8.4309 Y22.2120
G01 X8.5280 Y22.1976
G01 X8.5543 Y22.1944
G01 X8.5806 Y22.1925
G01 X8.6787 Y22.1876
G00 Z2.0000
G00 X23.7536 Y9.8217
G01 F40.00
G01 Z-0.0500
G01 F35.00
G01 X23.7800 Y9.8211
G01 X23.7932 Y9.8213
G01 X23.8981 Y9.8264
G01 X23.9112 Y9.8275
G01 X23.9375 Y9.8308
G01 X24.0282 Y9.8444
G01 X24.0412 Y9.8468
G01 X24.0670 Y9.8526
G01 X24.1560 Y9.8751
G01 X24.1813 Y9.8827
G01 X24.2677 Y9.9135
G01 X24.2801 Y9.9181
G01 X24.3045 Y9.9282
G01 X24.3875 Y9.9673
G01 X24.4112 Y9.9792
G01 X24.4342 Y9.9922
G01 X24.5128 Y10.0395
G01 X24.5348 Y10.0542
G01 X24.6191 Y10.1168
G01 X24.6294 Y10.1250
G01 X24.6494 Y10.1423
G01 X24.7076 Y10.1950
G01 X24.7267 Y10.2133
G01 X24.7450 Y10.2324
G01 X24.7977 Y10.2906
G01 X24.8150 Y10.3106
G01 X24.8313 Y10.3315
G01 X24.8780 Y10.3945
G01 X24.8933 Y10.4161
G01 X24.9074 Y10.4385
G01 X24.9478 Y10.5058
G01 X24.9608 Y10.5288
G01 X24.9727 Y10.5525
G01 X25.0063 Y10.6234
G01 X25.0170 Y10.6476
G01 X25.0265 Y10.6723
G01 X25.0530 Y10.7462
G01 X25.0612 Y10.7713
G01 X25.0683 Y10.7968
G01 X25.0874 Y10.8730
G01 X25.0932 Y10.8988
G01 X25.0977 Y10.9249
G01 X25.1092 Y11.0025
G01 X25.1125 Y11.0288
G01 X25.1144 Y11.0551
G01 X25.1183 Y11.1336
G01 X25.1189 Y11.1600
G01 X25.1183 Y11.1864
G01 X25.1136 Y11.2781
G01 X25.1125 Y11.2912
G01 X25.1092 Y11.3175
G01 X25.0977 Y11.3951
G01 X25.0932 Y11.4212
G01 X25.0874 Y11.4470
G01 X25.0683 Y11.5232
G01 X25.0649 Y11.5360
G01 X25.0573 Y11.5613
G01 X25.0219 Y11.6601
G01 X25.0170 Y11.6724
G01 X25.0063 Y11.6966
G01 X24.9727 Y11.7675
G01 X24.9608 Y11.7912
G01 X24.9478 Y11.8142
G01 X24.9074 Y11.8815
G01 X24.8933 Y11.9039
G01 X24.8858 Y11.9148
G01 X24.8313 Y11.9885
G01 X24.8150 Y12.0094
G01 X24.8065 Y12.0195
G01 X24.7450 Y12.0876
G01 X24.7267 Y12.1067
G01 X24.7076 Y12.1250
G01 X24.6690 Y12.1600
G01 X24.7076 Y12.1950
G01 X24.7267 Y12.2133
G01 X24.7450 Y12.2324
G01 X24.8065 Y12.3005
G01 X24.8150 Y12.3106
G01 X24.8313 Y12.3315
G01 X24.8858 Y12.4052
G01 X24.8933 Y12.4161
G01 X24.9074 Y12.4385
G01 X24.9478 Y12.5058
G01 X24.9608 Y12.5288
G01 X24.9727 Y12.5525
G01 X25.0063 Y12.6234
G01 X25.0118 Y12.6355
G01 X25.0219 Y12.6599
G01 X25.0573 Y12.7587
G01 X25.0649 Y12.7840
G01 X25.0683 Y12.7968
G01 X25.0874 Y12.8730
G01 X25.0932 Y12.8988
G01 X25.0977 Y12.9249
G01 X25.1110 Y13.0156
G01 X25.1136 Y13.0419
G01 X25.1144 Y13.0551
G01 X25.1183 Y13.1336
G01 X25.1189 Y13.1600
G01 X25.1183 Y13.1864
G01 X25.1136 Y13.2781
G01 X25.1125 Y13.2912
G01 X25.1092 Y13.3175
G01 X25.0977 Y13.3951
G01 X25.0932 Y13.4212
G01 X25.0874 Y13.4470
G01 X25.0683 Y13.5232
G01 X25.0612 Y13.5487
G01 X25.0530 Y13.5738
G01 X25.0265 Y13.6477
G01 X25.0170 Y13.6724
G01 X25.0063 Y13.6966
G01 X24.9727 Y13.7675
G01 X24.9608 Y13.7912
G01 X24.9478 Y13.8142
G01 X24.9074 Y13.8815
G01 X24.8933 Y13.9039
G01 X24.8780 Y13.9255
G01 X24.8232 Y13.9991
G01 X24.8150 Y14.0094
G01 X24.7977 Y14.0294
G01 X24.7360 Y14.0973
G01 X24.7173 Y14.1160
G01 X24.6690 Y14.1600
G01 X24.7173 Y14.2040
G01 X24.7360 Y14.2227
G01 X24.7977 Y14.2906
G01 X24.8150 Y14.3106
G01 X24.8232 Y14.3209
G01 X24.8780 Y14.3945
G01 X24.8933 Y14.4161
G01 X24.9074 Y14.4385
G01 X24.9478 Y14.5058
G01 X24.9608 Y14.5288
G01 X24.9669 Y14.5406
G01 X25.0063 Y14.6234
G01 X25.0170 Y14.6476
G01 X25.0265 Y14.6723
G01 X25.0530 Y14.7462
G01 X25.0612 Y14.7713
G01 X25.0683 Y14.7968
G01 X25.0874 Y14.8730
G01 X25.0932 Y14.8988
G01 X25.0977 Y14.9249
G01 X25.1110 Y15.0156
G01 X25.1136 Y15.0419
G01 X25.1144 Y15.0551
G01 X25.1183 Y15.1336
G01 X25.1189 Y15.1600
G01 X25.1183 Y15.1864
G01 X25.1136 Y15.2781
G01 X25.1125 Y15.2912
G01 X25.1092 Y15.3175
G01 X25.0956 Y15.4082
G01 X25.0904 Y15.4341
G01 X25.0683 Y15.5232
G01 X25.0612 Y15.5487
G01 X25.0530 Y15.5738
G01 X25.0219 Y15.6601
G01 X25.0170 Y15.6724
G01 X25.0063 Y15.6966
G01 X24.9669 Y15.7794
G01 X24.9544 Y15.8027
G01 X24.9074 Y15.8815
G01 X24.8933 Y15.9039
G01 X24.8850 Y15.9158
G01 X24.9010 Y15.9272
G01 X24.9115 Y15.9352
G01 X24.9320 Y15.9519
G01 X24.9516 Y15.9697
G01 X24.9703 Y15.9884
G01 X24.9881 Y16.0080
G01 X25.0048 Y16.0285
G01 X25.0128 Y16.0390
G01 X25.0281 Y16.0606
G01 X25.0422 Y16.0830
G01 X25.0553 Y16.1060
G01 X25.0614 Y16.1177
G01 X25.0727 Y16.1416
G01 X25.0828 Y16.1661
G01 X25.0917 Y16.1910
G01 X25.0994 Y16.2163
G01 X25.1058 Y16.2419
G01 X25.1110 Y16.2679
G01 X25.1148 Y16.2940
G01 X25.1174 Y16.3204
G01 X25.1187 Y16.3468
G01 X25.1189 Y16.3600
G01 X25.1189 Y17.9600
G01 X25.1183 Y17.9864
G01 X25.1174 Y17.9996
G01 X25.1148 Y18.0260
G01 X25.1110 Y18.0521
G01 X25.1058 Y18.0781
G01 X25.1027 Y18.0909
G01 X25.0957 Y18.1164
G01 X25.0874 Y18.1415
G01 X25.0828 Y18.1539
G01 X25.0727 Y18.1784
G01 X25.0614 Y18.2023
G01 X25.0489 Y18.2256
G01 X25.0353 Y18.2483
G01 X25.0206 Y18.2703
G01 X25.0128 Y18.2810
G01 X24.9966 Y18.3019
G01 X24.9793 Y18.3219
G01 X24.9611 Y18.3411
G01 X24.9419 Y18.3593
G01 X24.9219 Y18.3766
G01 X24.9010 Y18.3928
G01 X24.8903 Y18.4006
G01 X24.8683 Y18.4153
G01 X24.8570 Y18.4222
G01 X24.8340 Y18.4353
G01 X24.8104 Y18.4472
G01 X24.7862 Y18.4579
G01 X24.7615 Y18.4674
G01 X24.7364 Y18.4757
G01 X24.7237 Y18.4794
G01 X24.6981 Y18.4858
G01 X24.6851 Y18.4885
G01 X24.6591 Y18.4931
G01 X24.6328 Y18.4963
G01 X24.6064 Y18.4983
G01 X24.5800 Y18.4989
G01 X22.9800 Y18.4989
G01 X22.9668 Y18.4987
G01 X22.9404 Y18.4974
G01 X22.9140 Y18.4948
G01 X22.8879 Y18.4910
G01 X22.8619 Y18.4858
G01 X22.8363 Y18.4794
G01 X22.8236 Y18.4757
G01 X22.8110 Y18.4717
G01 X22.7861 Y18.4628
G01 X22.7616 Y18.4527
G01 X22.7496 Y18.4472
G01 X22.7260 Y18.4353
G01 X22.7030 Y18.4222
G01 X22.6917 Y18.4153
G01 X22.6697 Y18.4006
G01 X22.6485 Y18.3848
G01 X22.6381 Y18.3766
G01 X22.6280 Y18.3681
G01 X22.6084 Y18.3503
G01 X22.5989 Y18.3411
G01 X22.5807 Y18.3219
G01 X22.5634 Y18.3019
G01 X22.5472 Y18.2810
G01 X22.5394 Y18.2703
G01 X22.5247 Y18.2483
G01 X22.5111 Y18.2256
G01 X22.5047 Y18.2140
G01 X22.4986 Y18.2023
G01 X22.4873 Y18.1784
G01 X22.4772 Y18.1539
G01 X22.4683 Y18.1290
G01 X22.4643 Y18.1164
G01 X22.4573 Y18.0909
G01 X22.4542 Y18.0781
G01 X22.4490 Y18.0521
G01 X22.4452 Y18.0260
G01 X22.4437 Y18.0128
G01 X22.4417 Y17.9864
G01 X22.4411 Y17.9600
G01 X22.4411 Y16.3600
G01 X22.4417 Y16.3336
G01 X22.4437 Y16.3072
G01 X22.4469 Y16.2809
G01 X22.4490 Y16.2679
G01 X22.4542 Y16.2419
G01 X22.4606 Y16.2163
G01 X22.4683 Y16.1910
G01 X22.4726 Y16.1785
G01 X22.4821 Y16.1538
G01 X22.4928 Y16.1296
G01 X22.5047 Y16.1060
G01 X22.5178 Y16.0830
G01 X22.5247 Y16.0717
G01 X22.5394 Y16.0497
G01 X22.5552 Y16.0285
G01 X22.5719 Y16.0080
G01 X22.5897 Y15.9884
G01 X22.6084 Y15.9697
G01 X22.6280 Y15.9519
G01 X22.6485 Y15.9352
G01 X22.6590 Y15.9272
G01 X22.6750 Y15.9158
G01 X22.6667 Y15.9039
G01 X22.6526 Y15.8815
G01 X22.6056 Y15.8027
G01 X22.5931 Y15.7794
G01 X22.5537 Y15.6966
G01 X22.5482 Y15.6845
G01 X22.5381 Y15.6601
G01 X22.5070 Y15.5738
G01 X22.4988 Y15.5487
G01 X22.4917 Y15.5232
G01 X22.4696 Y15.4341
G01 X22.4644 Y15.4082
G01 X22.4508 Y15.3175
G01 X22.4490 Y15.3044
G01 X22.4464 Y15.2781
G01 X22.4417 Y15.1864
G01 X22.4411 Y15.1600
G01 X22.4417 Y15.1336
G01 X22.4456 Y15.0551
G01 X22.4475 Y15.0288
G01 X22.4490 Y15.0156
G01 X22.4623 Y14.9249
G01 X22.4668 Y14.8988
G01 X22.4726 Y14.8730
G01 X22.4917 Y14.7968
G01 X22.4988 Y14.7713
G01 X22.5070 Y14.7462
G01 X22.5335 Y14.6723
G01 X22.5430 Y14.6476
G01 X22.5537 Y14.6234
G01 X22.5931 Y14.5406
G01 X22.6056 Y14.5173
G01 X22.6122 Y14.5058
G01 X22.6526 Y14.4385
G01 X22.6667 Y14.4161
G01 X22.6820 Y14.3945
G01 X22.7368 Y14.3209
G01 X22.7450 Y14.3106
G01 X22.7623 Y14.2906
G01 X22.8240 Y14.2227
G01 X22.8427 Y14.2040
G01 X22.8910 Y14.1600
G01 X22.8427 Y14.1160
G01 X22.8240 Y14.0973
G01 X22.7623 Y14.0294
G01 X22.7535 Y14.0195
G01 X22.7368 Y13.9991
G01 X22.6820 Y13.9255
G01 X22.6667 Y13.9039
G01 X22.6526 Y13.8815
G01 X22.6122 Y13.8142
G01 X22.5992 Y13.7912
G01 X22.5931 Y13.7794
G01 X22.5537 Y13.6966
G01 X22.5430 Y13.6724
G01 X22.5335 Y13.6477
G01 X22.5070 Y13.5738
G01 X22.4988 Y13.5487
G01 X22.4917 Y13.5232
G01 X22.4726 Y13.4470
G01 X22.4668 Y13.4212
G01 X22.4623 Y13.3951
G01 X22.4490 Y13.3044
G01 X22.4464 Y13.2781
G01 X22.4456 Y13.2649
G01 X22.4417 Y13.1864
G01 X22.4411 Y13.1600
G01 X22.4417 Y13.1336
G01 X22.4464 Y13.0419
G01 X22.4475 Y13.0288
G01 X22.4508 Y13.0025
G01 X22.4623 Y12.9249
G01 X22.4668 Y12.8988
G01 X22.4726 Y12.8730
G01 X22.4917 Y12.7968
G01 X22.4951 Y12.7840
G01 X22.5027 Y12.7587
G01 X22.5381 Y12.6599
G01 X22.5430 Y12.6476
G01 X22.5537 Y12.6234
G01 X22.5873 Y12.5525
G01 X22.5992 Y12.5288
G01 X22.6122 Y12.5058
G01 X22.6526 Y12.4385
G01 X22.6667 Y12.4161
G01 X22.6742 Y12.4052
G01 X22.7287 Y12.3315
G01 X22.7450 Y12.3106
G01 X22.7535 Y12.3005
G01 X22.8150 Y12.2324
G01 X22.8333 Y12.2133
G01 X22.8524 Y12.1950
G01 X22.8910 Y12.1600
G01 X22.8524 Y12.1250
G01 X22.8333 Y12.1067
G01 X22.8150 Y12.0876
G01 X22.7535 Y12.0195
G01 X22.7368 Y11.9991
G01 X22.7287 Y11.9885
G01 X22.6820 Y11.9255
G01 X22.6667 Y11.9039
G01 X22.6526 Y11.8815
G01 X22.6056 Y11.8027
G01 X22.5931 Y11.7794
G01 X22.5873 Y11.7675
G01 X22.5537 Y11.6966
G01 X22.5430 Y11.6724
G01 X22.5335 Y11.6477
G01 X22.5070 Y11.5738
G01 X22.5027 Y11.5613
G01 X22.4951 Y11.5360
G01 X22.4726 Y11.4470
G01 X22.4668 Y11.4212
G01 X22.4623 Y11.3951
G01 X22.4508 Y11.3175
G01 X22.4490 Y11.3044
G01 X22.4464 Y11.2781
G01 X22.4413 Y11.1732
G01 X22.4411 Y11.1600
G01 X22.4417 Y11.1336
G01 X22.4456 Y11.0551
G01 X22.4475 Y11.0288
G01 X22.4508 Y11.0025
G01 X22.4623 Y10.9249
G01 X22.4668 Y10.8988
G01 X22.4696 Y10.8859
G01 X22.4917 Y10.7968
G01 X22.4988 Y10.7713
G01 X22.5070 Y10.7462
G01 X22.5381 Y10.6599
G01 X22.5482 Y10.6355
G01 X22.5873 Y10.5525
G01 X22.5931 Y10.5406
G01 X22.6056 Y10.5173
G01 X22.6526 Y10.4385
G01 X22.6667 Y10.4161
G01 X22.6820 Y10.3945
G01 X22.7287 Y10.3315
G01 X22.7450 Y10.3106
G01 X22.7623 Y10.2906
G01 X22.8150 Y10.2324
G01 X22.8333 Y10.2133
G01 X22.8524 Y10.1950
G01 X22.9205 Y10.1335
G01 X22.9409 Y10.1168
G01 X22.9515 Y10.1087
G01 X23.0252 Y10.0542
G01 X23.0472 Y10.0395
G01 X23.1258 Y9.9922
G01 X23.1488 Y9.9792
G01 X23.1725 Y9.9673
G01 X23.2555 Y9.9282
G01 X23.2799 Y9.9181
G01 X23.3662 Y9.8870
G01 X23.3913 Y9.8788
G01 X23.4168 Y9.8717
G01 X23.4930 Y9.8526
G01 X23.5188 Y9.8468
G01 X23.5449 Y9.8423
G01 X23.6225 Y9.8308
G01 X23.6488 Y9.8275
G01 X23.6751 Y9.8256
G01 X23.7536 Y9.8217
G00 Z2.0000
G00 X27.5158 Y8.0152
G01 F40.00
G01 Z-0.0500
G01 F35.00
G01 X27.5712 Y7.9650
G01 X27.5903 Y7.9467
G01 X27.6086 Y7.9276
G01 X27.6436 Y7.8890
G01 X27.6786 Y7.9276
G01 X27.6969 Y7.9467
G01 X27.7160 Y7.9650
G01 X27.7714 Y8.0152
G01 X27.5158 Y8.0152
G00 Z2.0000
G00 X28.6172 Y5.6617
G01 F40.00
G01 Z-0.0500
G01 F35.00
G01 X28.6436 Y5.6611
G01 X28.6700 Y5.6617
G01 X28.7617 Y5.6664
G01 X28.7748 Y5.6675
G01 X28.8011 Y5.6708
G01 X28.8787 Y5.6823
G01 X28.9048 Y5.6868
G01 X28.9306 Y5.6926
G01 X29.0068 Y5.7117
G01 X29.0323 Y5.7188
G01 X29.0574 Y5.7270
G01 X29.1313 Y5.7535
G01 X29.1560 Y5.7630
G01 X29.1802 Y5.7737
G01 X29.2511 Y5.8073
G01 X29.2630 Y5.8131
G01 X29.2863 Y5.8256
G01 X29.3651 Y5.8726
G01 X29.3875 Y5.8867
G01 X29.4091 Y5.9020
G01 X29.4827 Y5.9568
G01 X29.5031 Y5.9735
G01 X29.5130 Y5.9823
G01 X29.5712 Y6.0350
G01 X29.5903 Y6.0533
G01 X29.6086 Y6.0724
G01 X29.6613 Y6.1306
G01 X29.6786 Y6.1506
G01 X29.6949 Y6.1715
G01 X29.7416 Y6.2345
G01 X29.7569 Y6.2561
G01 X29.7710 Y6.2785
G01 X29.8114 Y6.3458
G01 X29.8244 Y6.3688
G01 X29.8363 Y6.3925
G01 X29.8754 Y6.4755
G01 X29.8855 Y6.4999
G01 X29.9166 Y6.5862
G01 X29.9248 Y6.6113
G01 X29.9319 Y6.6368
G01 X29.9510 Y6.7130
G01 X29.9568 Y6.7388
G01 X29.9613 Y6.7649
G01 X29.9746 Y6.8556
G01 X29.9772 Y6.8819
G01 X29.9819 Y6.9736
G01 X29.9825 Y7.0000
G01 X29.9819 Y7.0264
G01 X29.9772 Y7.1181
G01 X29.9746 Y7.1444
G01 X29.9613 Y7.2351
G01 X29.9568 Y7.2612
G01 X29.9510 Y7.2870
G01 X29.9319 Y7.3632
G01 X29.9248 Y7.3887
G01 X29.9166 Y7.4138
G01 X29.8855 Y7.5001
G01 X29.8754 Y7.5245
G01 X29.8363 Y7.6075
G01 X29.8244 Y7.6312
G01 X29.8114 Y7.6542
G01 X29.7710 Y7.7215
G01 X29.7569 Y7.7439
G01 X29.7416 Y7.7655
G01 X29.6949 Y7.8285
G01 X29.6786 Y7.8494
G01 X29.6613 Y7.8694
G01 X29.6086 Y7.9276
G01 X29.5903 Y7.9467
G01 X29.5712 Y7.9650
G01 X29.5158 Y8.0152
G01 X31.6441 Y8.0152
G01 X31.6927 Y7.9496
G01 X31.7007 Y7.9391
G01 X31.7175 Y7.9186
G01 X31.7922 Y7.8360
G01 X31.8012 Y7.8263
G01 X31.8199 Y7.8076
G01 X31.9023 Y7.7327
G01 X31.9223 Y7.7154
G01 X31.9432 Y7.6991
G01 X32.0220 Y7.6407
G01 X32.0436 Y7.6255
G01 X32.0596 Y7.6153
G01 X32.0596 Y6.4920
G01 X32.0602 Y6.4656
G01 X32.0625 Y6.4229
G01 X32.0650 Y6.3966
G01 X32.0668 Y6.3835
G01 X32.0712 Y6.3544
G01 X32.0757 Y6.3283
G01 X32.0815 Y6.3025
G01 X32.0886 Y6.2739
G01 X32.0957 Y6.2484
G01 X32.1040 Y6.2233
G01 X32.1139 Y6.1956
G01 X32.1234 Y6.1709
G01 X32.1341 Y6.1467
G01 X32.1467 Y6.1201
G01 X32.1586 Y6.0965
G01 X32.1650 Y6.0849
G01 X32.1868 Y6.0482
G01 X32.2010 Y6.0258
G01 X32.2162 Y6.0042
G01 X32.2337 Y5.9806
G01 X32.2417 Y5.9700
G01 X32.2585 Y5.9496
G01 X32.2961 Y5.9082
G01 X32.8641 Y5.3399
G01 X32.8833 Y5.3217
G01 X32.9150 Y5.2931
G01 X32.9354 Y5.2763
G01 X32.9460 Y5.2683
G01 X32.9696 Y5.2508
G01 X32.9912 Y5.2356
G01 X33.0136 Y5.2214
G01 X33.0503 Y5.1996
G01 X33.0736 Y5.1871
G01 X33.0855 Y5.1813
G01 X33.1121 Y5.1687
G01 X33.1363 Y5.1580
G01 X33.1610 Y5.1485
G01 X33.2012 Y5.1343
G01 X33.2138 Y5.1303
G01 X33.2393 Y5.1232
G01 X33.2679 Y5.1161
G01 X33.2937 Y5.1103
G01 X33.3198 Y5.1058
G01 X33.3489 Y5.1014
G01 X33.3752 Y5.0982
G01 X33.4015 Y5.0962
G01 X33.4310 Y5.0948
G01 X33.4574 Y5.0942
G01 X42.1245 Y5.0942
G01 X42.1347 Y5.0782
G01 X42.1499 Y5.0566
G01 X42.2083 Y4.9778
G01 X42.2246 Y4.9569
G01 X42.2419 Y4.9369
G01 X42.3078 Y4.8642
G01 X42.3260 Y4.8450
G01 X42.3452 Y4.8268
G01 X42.4179 Y4.7609
G01 X42.4379 Y4.7436
G01 X42.4588 Y4.7273
G01 X42.5376 Y4.6689
G01 X42.5592 Y4.6537
G01 X42.5816 Y4.6395
G01 X42.6658 Y4.5890
G01 X42.6888 Y4.5760
G01 X42.7124 Y4.5641
G01 X42.8011 Y4.5222
G01 X42.8253 Y4.5114
G01 X42.8500 Y4.5019
G01 X42.9424 Y4.4689
G01 X42.9675 Y4.4606
G01 X42.9930 Y4.4535
G01 X43.0882 Y4.4297
G01 X43.1140 Y4.4239
G01 X43.1400 Y4.4193
G01 X43.2371 Y4.4049
G01 X43.2634 Y4.4017
G01 X43.2897 Y4.3998
G01 X43.3878 Y4.3949
G01 X43.4142 Y4.3943
G01 X43.4406 Y4.3949
G01 X43.5387 Y4.3998
G01 X43.5650 Y4.4017
G01 X43.5913 Y4.4049
G01 X43.6884 Y4.4193
G01 X43.7144 Y4.4239
G01 X43.7402 Y4.4297
G01 X43.8354 Y4.4535
G01 X43.8609 Y4.4606
G01 X43.8860 Y4.4689
G01 X43.9784 Y4.5019
G01 X44.0031 Y4.5114
G01 X44.0273 Y4.5222
G01 X44.1160 Y4.5641
G01 X44.1396 Y4.5760
G01 X44.1626 Y4.5890
G01 X44.2468 Y4.6395
G01 X44.2692 Y4.6537
G01 X44.2908 Y4.6689
G01 X44.3696 Y4.7273
G01 X44.3905 Y4.7436
G01 X44.4105 Y4.7609
G01 X44.4832 Y4.8268
G01 X44.5024 Y4.8450
G01 X44.5206 Y4.8642
G01 X44.5865 Y4.9369
G01 X44.6038 Y4.9569
G01 X44.6201 Y4.9778
G01 X44.6785 Y5.0566
G01 X44.6937 Y5.0782
G01 X44.7039 Y5.0942
G01 X45.3446 Y5.0942
G01 X45.3710 Y5.0948
G01 X45.4005 Y5.0962
G01 X45.4268 Y5.0982
G01 X45.4531 Y5.1014
G01 X45.4822 Y5.1058
G01 X45.5083 Y5.1103
G01 X45.5341 Y5.1161
G01 X45.5627 Y5.1232
G01 X45.5882 Y5.1303
G01 X45.6133 Y5.1386
G01 X45.6410 Y5.1485
G01 X45.6657 Y5.1580
G01 X45.6899 Y5.1687
G01 X45.7165 Y5.1813
G01 X45.7401 Y5.1932
G01 X45.7631 Y5.2063
G01 X45.7997 Y5.2283
G01 X45.8217 Y5.2430
G01 X45.8560 Y5.2683
G01 X45.8666 Y5.2763
G01 X45.8870 Y5.2931
G01 X45.9187 Y5.3217
G01 X45.9379 Y5.3399
G01 X51.6433 Y11.0453
G01 X51.6615 Y11.0645
G01 X51.6901 Y11.0962
G01 X51.7069 Y11.1166
G01 X51.7324 Y11.1508
G01 X51.7476 Y11.1724
G01 X51.7618 Y11.1948
G01 X51.7836 Y11.2315
G01 X51.7961 Y11.2548
G01 X51.8200 Y11.3054
G01 X51.8252 Y11.3175
G01 X51.8347 Y11.3422
G01 X51.8446 Y11.3699
G01 X51.8529 Y11.3950
G01 X51.8600 Y11.4205
G01 X51.8671 Y11.4491
G01 X51.8729 Y11.4749
G01 X51.8753 Y11.4879
G01 X51.8836 Y11.5432
G01 X51.8861 Y11.5695
G01 X51.8889 Y11.6254
G01 X51.8890 Y16.3783
G01 X51.9050 Y16.3885
G01 X51.9266 Y16.4037
G01 X52.0054 Y16.4621
G01 X52.0263 Y16.4784
G01 X52.0463 Y16.4957
G01 X52.1287 Y16.5706
G01 X52.1474 Y16.5893
G01 X52.1564 Y16.5990
G01 X52.2223 Y16.6717
G01 X52.2396 Y16.6917
G01 X52.2559 Y16.7126
G01 X52.3143 Y16.7914
G01 X52.3295 Y16.8130
G01 X52.3368 Y16.8241
G01 X52.4008 Y16.9310
G01 X52.4133 Y16.9543
G01 X52.4191 Y16.9662
G01 X52.4610 Y17.0549
G01 X52.4718 Y17.0791
G01 X52.4813 Y17.1038
G01 X52.5186 Y17.2087
G01 X52.5263 Y17.2340
G01 X52.5297 Y17.2468
G01 X52.5535 Y17.3420
G01 X52.5593 Y17.3678
G01 X52.5639 Y17.3938
G01 X52.5783 Y17.4909
G01 X52.5815 Y17.5172
G01 X52.5834 Y17.5435
G01 X52.5883 Y17.6416
G01 X52.5889 Y17.6680
G01 X52.5883 Y17.6944
G01 X52.5834 Y17.7925
G01 X52.5815 Y17.8188
G01 X52.5783 Y17.8451
G01 X52.5639 Y17.9422
G01 X52.5593 Y17.9682
G01 X52.5535 Y17.9940
G01 X52.5297 Y18.0892
G01 X52.5226 Y18.1147
G01 X52.5143 Y18.1398
G01 X52.4813 Y18.2322
G01 X52.4718 Y18.2569
G01 X52.4610 Y18.2811
G01 X52.4191 Y18.3698
G01 X52.4072 Y18.3934
G01 X52.3942 Y18.4164
G01 X52.3437 Y18.5006
G01 X52.3295 Y18.5230
G01 X52.3143 Y18.5446
G01 X52.2559 Y18.6234
G01 X52.2396 Y18.6443
G01 X52.2223 Y18.6643
G01 X52.1564 Y18.7370
G01 X52.1382 Y18.7562
G01 X52.1190 Y18.7744
G01 X52.0463 Y18.8403
G01 X52.0263 Y18.8576
G01 X52.0054 Y18.8739
G01 X51.9266 Y18.9323
G01 X51.9050 Y18.9475
G01 X51.8826 Y18.9617
G01 X51.7984 Y19.0122
G01 X51.7754 Y19.0252
G01 X51.7518 Y19.0371
G01 X51.6631 Y19.0790
G01 X51.6389 Y19.0898
G01 X51.6142 Y19.0993
G01 X51.5218 Y19.1323
G01 X51.4967 Y19.1406
G01 X51.4712 Y19.1477
G01 X51.3760 Y19.1715
G01 X51.3502 Y19.1773
G01 X51.3242 Y19.1819
G01 X51.2271 Y19.1963
G01 X51.2008 Y19.1995
G01 X51.1745 Y19.2014
G01 X51.0632 Y19.2067
G01 X51.0500 Y19.2069
G01 X51.0236 Y19.2063
G01 X50.9255 Y19.2014
G01 X50.8992 Y19.1995
G01 X50.8729 Y19.1963
G01 X50.7758 Y19.1819
G01 X50.7498 Y19.1773
G01 X50.7240 Y19.1715
G01 X50.6288 Y19.1477
G01 X50.6033 Y19.1406
G01 X50.5782 Y19.1323
G01 X50.4858 Y19.0993
G01 X50.4611 Y19.0898
G01 X50.4369 Y19.0790
G01 X50.3482 Y19.0371
G01 X50.3246 Y19.0252
G01 X50.3016 Y19.0122
G01 X50.2174 Y18.9617
G01 X50.1950 Y18.9475
G01 X50.1734 Y18.9323
G01 X50.0946 Y18.8739
G01 X50.0737 Y18.8576
G01 X50.0537 Y18.8403
G01 X49.9810 Y18.7744
G01 X49.9618 Y18.7562
G01 X49.9436 Y18.7370
G01 X49.8777 Y18.6643
G01 X49.8604 Y18.6443
G01 X49.8441 Y18.6234
G01 X49.7857 Y18.5446
G01 X49.7705 Y18.5230
G01 X49.7603 Y18.5071
G01 X48.3083 Y18.5070
G01 X38.5719 Y28.2435
G01 X38.5527 Y28.2617
G01 X38.5210 Y28.2903
G01 X38.5006 Y28.3071
G01 X38.4664 Y28.3326
G01 X38.4448 Y28.3478
G01 X38.4224 Y28.3620
G01 X38.3857 Y28.3838
G01 X38.3624 Y28.3963
G01 X38.3239 Y28.4147
G01 X38.2997 Y28.4254
G01 X38.2750 Y28.4349
G01 X38.2348 Y28.4491
G01 X38.2222 Y28.4531
G01 X38.1967 Y28.4602
G01 X38.1552 Y28.4704
G01 X38.1293 Y28.4755
G01 X38.0871 Y28.4820
G01 X38.0608 Y28.4852
G01 X38.0345 Y28.4872
G01 X38.0050 Y28.4886
G01 X37.9786 Y28.4892
G01 X35.1916 Y28.4892
G01 X35.1740 Y28.5161
G01 X35.1078 Y28.6056
G01 X35.0915 Y28.6265
G01 X35.0742 Y28.6465
G01 X35.0083 Y28.7192
G01 X34.9901 Y28.7384
G01 X34.9709 Y28.7566
G01 X34.8982 Y28.8225
G01 X34.8782 Y28.8398
G01 X34.8573 Y28.8561
G01 X34.7785 Y28.9145
G01 X34.7569 Y28.9297
G01 X34.7345 Y28.9439
G01 X34.6503 Y28.9944
G01 X34.6273 Y29.0074
G01 X34.6037 Y29.0193
G01 X34.5150 Y29.0612
G01 X34.4908 Y29.0720
G01 X34.4661 Y29.0815
G01 X34.3737 Y29.1145
G01 X34.3486 Y29.1228
G01 X34.3231 Y29.1299
G01 X34.2279 Y29.1537
G01 X34.2021 Y29.1595
G01 X34.1761 Y29.1641
G01 X34.0790 Y29.1785
G01 X34.0527 Y29.1817
G01 X34.0264 Y29.1836
G01 X33.9283 Y29.1885
G01 X33.9019 Y29.1891
G01 X33.8755 Y29.1885
G01 X33.7774 Y29.1836
G01 X33.7511 Y29.1817
G01 X33.7248 Y29.1785
G01 X33.6277 Y29.1641
G01 X33.6017 Y29.1595
G01 X33.5759 Y29.1537
G01 X33.4807 Y29.1299
G01 X33.4552 Y29.1228
G01 X33.4301 Y29.1145
G01 X33.3377 Y29.0815
G01 X33.3130 Y29.0720
G01 X33.2888 Y29.0612
G01 X33.2001 Y29.0193
G01 X33.1765 Y29.0074
G01 X33.1535 Y28.9944
G01 X33.0693 Y28.9439
G01 X33.0469 Y28.9297
G01 X33.0253 Y28.9145
G01 X32.9465 Y28.8561
G01 X32.9256 Y28.8398
G01 X32.9056 Y28.8225
G01 X32.8329 Y28.7566
G01 X32.8137 Y28.7384
G01 X32.7955 Y28.7192
G01 X32.7296 Y28.6465
G01 X32.7123 Y28.6265
G01 X32.6960 Y28.6056
G01 X32.6376 Y28.5268
G01 X32.6224 Y28.5052
G01 X32.6082 Y28.4828
G01 X32.5577 Y28.3986
G01 X32.5447 Y28.3756
G01 X32.5328 Y28.3520
G01 X32.4909 Y28.2633
G01 X32.4801 Y28.2391
G01 X32.4706 Y28.2144
G01 X32.4376 Y28.1220
G01 X32.4293 Y28.0969
G01 X32.4222 Y28.0714
G01 X32.3984 Y27.9762
G01 X32.3926 Y27.9504
G01 X32.3880 Y27.9244
G01 X32.3736 Y27.8273
G01 X32.3704 Y27.8010
G01 X32.3693 Y27.7879
G01 X32.3636 Y27.6766
G01 X32.3630 Y27.6502
G01 X32.3636 Y27.6238
G01 X32.3685 Y27.5257
G01 X32.3704 Y27.4994
G01 X32.3736 Y27.4731
G01 X32.3880 Y27.3760
G01 X32.3926 Y27.3500
G01 X32.3984 Y27.3242
G01 X32.4222 Y27.2290
G01 X32.4293 Y27.2035
G01 X32.4376 Y27.1784
G01 X32.4706 Y27.0860
G01 X32.4801 Y27.0613
G01 X32.4909 Y27.0371
G01 X32.5328 Y26.9484
G01 X32.5447 Y26.9248
G01 X32.5577 Y26.9018
G01 X32.6082 Y26.8176
G01 X32.6151 Y26.8063
G01 X32.6298 Y26.7843
G01 X32.6960 Y26.6948
G01 X32.7123 Y26.6739
G01 X32.7296 Y26.6539
G01 X32.7955 Y26.5812
G01 X32.8137 Y26.5620
G01 X32.8329 Y26.5438
G01 X32.9056 Y26.4779
G01 X32.9155 Y26.4691
G01 X32.9360 Y26.4523
G01 X33.0253 Y26.3859
G01 X33.0469 Y26.3707
G01 X33.0693 Y26.3565
G01 X33.1535 Y26.3060
G01 X33.1765 Y26.2930
G01 X33.2001 Y26.2811
G01 X33.2888 Y26.2392
G01 X33.3130 Y26.2284
G01 X33.3377 Y26.2189
G01 X33.4301 Y26.1859
G01 X33.4552 Y26.1776
G01 X33.4807 Y26.1705
G01 X33.5759 Y26.1467
G01 X33.6017 Y26.1409
G01 X33.6277 Y26.1363
G01 X33.7248 Y26.1219
G01 X33.7511 Y26.1187
G01 X33.7774 Y26.1168
G01 X33.8755 Y26.1119
G01 X33.9019 Y26.1113
G01 X33.9283 Y26.1119
G01 X34.0396 Y26.1176
G01 X34.0527 Y26.1187
G01 X34.0790 Y26.1219
G01 X34.1761 Y26.1363
G01 X34.2021 Y26.1409
G01 X34.2279 Y26.1467
G01 X34.3231 Y26.1705
G01 X34.3486 Y26.1776
G01 X34.3612 Y26.1816
G01 X34.4785 Y26.2235
G01 X34.4908 Y26.2284
G01 X34.5150 Y26.2392
G01 X34.6037 Y26.2811
G01 X34.6273 Y26.2930
G01 X34.6503 Y26.3060
G01 X34.7345 Y26.3565
G01 X34.7569 Y26.3707
G01 X34.7785 Y26.3859
G01 X34.8573 Y26.4443
G01 X34.8782 Y26.4606
G01 X34.8982 Y26.4779
G01 X34.9709 Y26.5438
G01 X34.9901 Y26.5620
G01 X35.0083 Y26.5812
G01 X35.0742 Y26.6539
G01 X35.0915 Y26.6739
G01 X35.1078 Y26.6948
G01 X35.1662 Y26.7736
G01 X35.1814 Y26.7952
G01 X35.1916 Y26.8111
G01 X37.6311 Y26.8112
G01 X47.3675 Y17.0747
G01 X47.3867 Y17.0565
G01 X47.4085 Y17.0367
G01 X47.4285 Y17.0194
G01 X47.4494 Y17.0031
G01 X47.4837 Y16.9778
G01 X47.5057 Y16.9631
G01 X47.5423 Y16.9411
G01 X47.5653 Y16.9280
G01 X47.5770 Y16.9219
G01 X47.6155 Y16.9035
G01 X47.6397 Y16.8928
G01 X47.6644 Y16.8833
G01 X47.7046 Y16.8691
G01 X47.7299 Y16.8614
G01 X47.7713 Y16.8509
G01 X47.7971 Y16.8451
G01 X47.8232 Y16.8406
G01 X47.8654 Y16.8344
G01 X47.8917 Y16.8319
G01 X47.9344 Y16.8296
G01 X47.9608 Y16.8290
G01 X49.7603 Y16.8290
G01 X49.7705 Y16.8130
G01 X49.7857 Y16.7914
G01 X49.8441 Y16.7126
G01 X49.8604 Y16.6917
G01 X49.8777 Y16.6717
G01 X49.9436 Y16.5990
G01 X49.9618 Y16.5798
G01 X49.9810 Y16.5616
G01 X50.0537 Y16.4957
G01 X50.0737 Y16.4784
G01 X50.0946 Y16.4621
G01 X50.1734 Y16.4037
G01 X50.1950 Y16.3885
G01 X50.2109 Y16.3783
G01 X50.2110 Y11.9861
G01 X44.9971 Y6.7722
G01 X44.7039 Y6.7722
G01 X44.6863 Y6.7991
G01 X44.6201 Y6.8886
G01 X44.6038 Y6.9095
G01 X44.5865 Y6.9295
G01 X44.5206 Y7.0022
G01 X44.5024 Y7.0214
G01 X44.4832 Y7.0396
G01 X44.4105 Y7.1055
G01 X44.3905 Y7.1228
G01 X44.3696 Y7.1391
G01 X44.2908 Y7.1975
G01 X44.2692 Y7.2127
G01 X44.2468 Y7.2269
G01 X44.1626 Y7.2774
G01 X44.1396 Y7.2904
G01 X44.1160 Y7.3023
G01 X44.0153 Y7.3497
G01 X43.9908 Y7.3599
G01 X43.9784 Y7.3645
G01 X43.8860 Y7.3975
G01 X43.8609 Y7.4058
G01 X43.8354 Y7.4129
G01 X43.7402 Y7.4367
G01 X43.7144 Y7.4425
G01 X43.6884 Y7.4471
G01 X43.5913 Y7.4615
G01 X43.5650 Y7.4647
G01 X43.5387 Y7.4666
G01 X43.4406 Y7.4715
G01 X43.4142 Y7.4721
G01 X43.3878 Y7.4715
G01 X43.2897 Y7.4666
G01 X43.2634 Y7.4647
G01 X43.2371 Y7.4615
G01 X43.1400 Y7.4471
G01 X43.1140 Y7.4425
G01 X43.0882 Y7.4367
G01 X42.9930 Y7.4129
G01 X42.9675 Y7.4058
G01 X42.9424 Y7.3975
G01 X42.8500 Y7.3645
G01 X42.8253 Y7.3550
G01 X42.8011 Y7.3442
G01 X42.7124 Y7.3023
G01 X42.6888 Y7.2904
G01 X42.6658 Y7.2774
G01 X42.5816 Y7.2269
G01 X42.5592 Y7.2127
G01 X42.5376 Y7.1975
G01 X42.4588 Y7.1391
G01 X42.4379 Y7.1228
G01 X42.4179 Y7.1055
G01 X42.3452 Y7.0396
G01 X42.3260 Y7.0214
G01 X42.3078 Y7.0022
G01 X42.2419 Y6.9295
G01 X42.2246 Y6.9095
G01 X42.2083 Y6.8886
G01 X42.1499 Y6.8098
G01 X42.1347 Y6.7882
G01 X42.1245 Y6.7723
G01 X33.8049 Y6.7722
G01 X33.7376 Y6.8395
G01 X33.7376 Y7.6153
G01 X33.7645 Y7.6329
G01 X33.8540 Y7.6991
G01 X33.8749 Y7.7154
G01 X33.8949 Y7.7327
G01 X33.9676 Y7.7986
G01 X33.9868 Y7.8168
G01 X34.0050 Y7.8360
G01 X34.0709 Y7.9087
G01 X34.0882 Y7.9287
G01 X34.1045 Y7.9496
G01 X34.1629 Y8.0284
G01 X34.1781 Y8.0500
G01 X34.1923 Y8.0724
G01 X34.2428 Y8.1566
G01 X34.2558 Y8.1796
G01 X34.2677 Y8.2032
G01 X34.3096 Y8.2919
G01 X34.3204 Y8.3161
G01 X34.3299 Y8.3408
G01 X34.3629 Y8.4332
G01 X34.3712 Y8.4583
G01 X34.3783 Y8.4838
G01 X34.4021 Y8.5790
G01 X34.4079 Y8.6048
G01 X34.4125 Y8.6308
G01 X34.4269 Y8.7279
G01 X34.4301 Y8.7542
G01 X34.4320 Y8.7805
G01 X34.4369 Y8.8786
G01 X34.4375 Y8.9050
G01 X34.4369 Y8.9314
G01 X34.4320 Y9.0295
G01 X34.4301 Y9.0558
G01 X34.4269 Y9.0821
G01 X34.4125 Y9.1792
G01 X34.4079 Y9.2052
G01 X34.4021 Y9.2310
G01 X34.3783 Y9.3262
G01 X34.3712 Y9.3517
G01 X34.3629 Y9.3768
G01 X34.3299 Y9.4692
G01 X34.3204 Y9.4939
G01 X34.3096 Y9.5181
G01 X34.2619 Y9.6187
G01 X34.2494 Y9.6420
G01 X34.2428 Y9.6534
G01 X34.1923 Y9.7376
G01 X34.1781 Y9.7600
G01 X34.1629 Y9.7816
G01 X34.1045 Y9.8604
G01 X34.0882 Y9.8813
G01 X34.0709 Y9.9013
G01 X34.0050 Y9.9740
G01 X33.9868 Y9.9932
G01 X33.9676 Y10.0114
G01 X33.8949 Y10.0773
G01 X33.8749 Y10.0946
G01 X33.8540 Y10.1109
G01 X33.7645 Y10.1771
G01 X33.7425 Y10.1918
G01 X33.7312 Y10.1987
G01 X33.6470 Y10.2492
G01 X33.6240 Y10.2622
G01 X33.6004 Y10.2741
G01 X33.5117 Y10.3160
G01 X33.4875 Y10.3268
G01 X33.4628 Y10.3363
G01 X33.3704 Y10.3693
G01 X33.3453 Y10.3776
G01 X33.3198 Y10.3847
G01 X33.2246 Y10.4085
G01 X33.1988 Y10.4143
G01 X33.1728 Y10.4189
G01 X33.0757 Y10.4333
G01 X33.0494 Y10.4365
G01 X33.0231 Y10.4384
G01 X32.9250 Y10.4433
G01 X32.8986 Y10.4439
G01 X32.8722 Y10.4433
G01 X32.7741 Y10.4384
G01 X32.7478 Y10.4365
G01 X32.7215 Y10.4333
G01 X32.6244 Y10.4189
G01 X32.5984 Y10.4143
G01 X32.5726 Y10.4085
G01 X32.4774 Y10.3847
G01 X32.4519 Y10.3776
G01 X32.4268 Y10.3693
G01 X32.3344 Y10.3363
G01 X32.3097 Y10.3268
G01 X32.2855 Y10.3160
G01 X32.1849 Y10.2683
G01 X32.1732 Y10.2622
G01 X32.1502 Y10.2492
G01 X32.0660 Y10.1987
G01 X32.0436 Y10.1845
G01 X32.0220 Y10.1693
G01 X31.9432 Y10.1109
G01 X31.9223 Y10.0946
G01 X31.9023 Y10.0773
G01 X31.8199 Y10.0024
G01 X31.8104 Y9.9932
G01 X31.7922 Y9.9740
G01 X31.7263 Y9.9013
G01 X31.7090 Y9.8813
G01 X31.7007 Y9.8709
G01 X31.6265 Y9.7709
G01 X31.6118 Y9.7489
G01 X31.5783 Y9.6933
G01 X20.3477 Y9.6932
G01 X20.3570 Y9.7570
G01 X20.3596 Y9.7833
G01 X20.3657 Y9.9078
G01 X20.3657 Y9.9342
G01 X20.3653 Y9.9474
G01 X20.3596 Y10.0587
G01 X20.3585 Y10.0718
G01 X20.3553 Y10.0981
G01 X20.3409 Y10.1952
G01 X20.3363 Y10.2212
G01 X20.3305 Y10.2470
G01 X20.3033 Y10.3550
G01 X20.2996 Y10.3677
G01 X20.2913 Y10.3928
G01 X20.2583 Y10.4852
G01 X20.2488 Y10.5099
G01 X20.2380 Y10.5341
G01 X20.1961 Y10.6228
G01 X20.1842 Y10.6464
G01 X20.1712 Y10.6694
G01 X20.1207 Y10.7536
G01 X20.1065 Y10.7760
G01 X20.0913 Y10.7976
G01 X20.0329 Y10.8764
G01 X20.0166 Y10.8973
G01 X20.0081 Y10.9074
G01 X19.9334 Y10.9900
G01 X19.9152 Y11.0092
G01 X19.9057 Y11.0184
G01 X19.8134 Y11.1021
G01 X19.8033 Y11.1106
G01 X19.7824 Y11.1269
G01 X19.6929 Y11.1931
G01 X19.6709 Y11.2078
G01 X19.6596 Y11.2147
G01 X19.5754 Y11.2652
G01 X19.5524 Y11.2782
G01 X19.5288 Y11.2901
G01 X19.4401 Y11.3320
G01 X19.4159 Y11.3428
G01 X19.3912 Y11.3523
G01 X19.2988 Y11.3853
G01 X19.2737 Y11.3936
G01 X19.2482 Y11.4007
G01 X19.1530 Y11.4245
G01 X19.1272 Y11.4303
G01 X19.1012 Y11.4349
G01 X19.0041 Y11.4493
G01 X18.9778 Y11.4525
G01 X18.9515 Y11.4544
G01 X18.8534 Y11.4593
G01 X18.8270 Y11.4599
G01 X18.8138 Y11.4597
G01 X18.7025 Y11.4544
G01 X18.6762 Y11.4525
G01 X18.6499 Y11.4493
G01 X18.5528 Y11.4349
G01 X18.5268 Y11.4303
G01 X18.5010 Y11.4245
G01 X18.4058 Y11.4007
G01 X18.3803 Y11.3936
G01 X18.3552 Y11.3853
G01 X18.2628 Y11.3523
G01 X18.2381 Y11.3428
G01 X18.2139 Y11.3320
G01 X18.1252 Y11.2901
G01 X18.1016 Y11.2782
G01 X18.0786 Y11.2652
G01 X17.9944 Y11.2147
G01 X17.9720 Y11.2005
G01 X17.9504 Y11.1853
G01 X17.8716 Y11.1269
G01 X17.8507 Y11.1106
G01 X17.8307 Y11.0933
G01 X17.7580 Y11.0274
G01 X17.7388 Y11.0092
G01 X17.7206 Y10.9900
G01 X17.6547 Y10.9173
G01 X17.6374 Y10.8973
G01 X17.6211 Y10.8764
G01 X17.5549 Y10.7869
G01 X17.5402 Y10.7649
G01 X17.5333 Y10.7536
G01 X17.4828 Y10.6694
G01 X17.4698 Y10.6464
G01 X17.4629 Y10.6331
G01 X12.8823 Y10.6330
G01 X12.8650 Y10.6579
G01 X12.8066 Y10.7367
G01 X12.7903 Y10.7576
G01 X12.7730 Y10.7776
G01 X12.7071 Y10.8503
G01 X12.6889 Y10.8695
G01 X12.6697 Y10.8877
G01 X12.5970 Y10.9536
G01 X12.5770 Y10.9709
G01 X12.5561 Y10.9872
G01 X12.4773 Y11.0456
G01 X12.4557 Y11.0608
G01 X12.4333 Y11.0750
G01 X12.3491 Y11.1255
G01 X12.3261 Y11.1385
G01 X12.3025 Y11.1504
G01 X12.2138 Y11.1923
G01 X12.1896 Y11.2031
G01 X12.1649 Y11.2126
G01 X12.0725 Y11.2456
G01 X12.0474 Y11.2539
G01 X12.0219 Y11.2610
G01 X11.9267 Y11.2848
G01 X11.9009 Y11.2906
G01 X11.8749 Y11.2952
G01 X11.7778 Y11.3096
G01 X11.7515 Y11.3128
G01 X11.7252 Y11.3147
G01 X11.6271 Y11.3196
G01 X11.6007 Y11.3202
G01 X11.5743 Y11.3196
G01 X11.4762 Y11.3147
G01 X11.4499 Y11.3128
G01 X11.4236 Y11.3096
G01 X11.3265 Y11.2952
G01 X11.3005 Y11.2906
G01 X11.2747 Y11.2848
G01 X11.1795 Y11.2610
G01 X11.1667 Y11.2576
G01 X11.1414 Y11.2499
G01 X11.0365 Y11.2126
G01 X11.0118 Y11.2031
G01 X10.9876 Y11.1923
G01 X10.8870 Y11.1446
G01 X10.8637 Y11.1321
G01 X10.8523 Y11.1255
G01 X10.7681 Y11.0750
G01 X10.7457 Y11.0608
G01 X10.7241 Y11.0456
G01 X10.6453 Y10.9872
G01 X10.6244 Y10.9709
G01 X10.6044 Y10.9536
G01 X10.5220 Y10.8787
G01 X10.5125 Y10.8695
G01 X10.4943 Y10.8503
G01 X10.4284 Y10.7776
G01 X10.4111 Y10.7576
G01 X10.3948 Y10.7367
G01 X10.3364 Y10.6579
G01 X10.3212 Y10.6363
G01 X10.3070 Y10.6139
G01 X10.2499 Y10.5183
G01 X10.2374 Y10.4950
G01 X10.2316 Y10.4831
G01 X10.1897 Y10.3944
G01 X10.1789 Y10.3702
G01 X10.1694 Y10.3455
G01 X10.1364 Y10.2531
G01 X10.1281 Y10.2280
G01 X10.1210 Y10.2025
G01 X10.0972 Y10.1073
G01 X10.0914 Y10.0815
G01 X10.0889 Y10.0685
G01 X10.0707 Y9.9453
G01 X10.0692 Y9.9321
G01 X10.0673 Y9.9058
G01 X10.0620 Y9.7945
G01 X10.0618 Y9.7813
G01 X10.0624 Y9.7549
G01 X10.0673 Y9.6568
G01 X10.0692 Y9.6305
G01 X10.0724 Y9.6042
G01 X10.0889 Y9.4941
G01 X10.0941 Y9.4681
G01 X10.0972 Y9.4553
G01 X10.1210 Y9.3601
G01 X10.1281 Y9.3346
G01 X10.1364 Y9.3095
G01 X10.1694 Y9.2171
G01 X10.1789 Y9.1924
G01 X10.1897 Y9.1682
G01 X10.2316 Y9.0795
G01 X10.2435 Y9.0559
G01 X10.2565 Y9.0329
G01 X10.3139 Y8.9374
G01 X10.3286 Y8.9154
G01 X10.3364 Y8.9047
G01 X10.3948 Y8.8259
G01 X10.4111 Y8.8050
G01 X10.4284 Y8.7850
G01 X10.4943 Y8.7123
G01 X10.5125 Y8.6931
G01 X10.5317 Y8.6749
G01 X10.6044 Y8.6090
G01 X10.6244 Y8.5917
G01 X10.6453 Y8.5754
G01 X10.7348 Y8.5092
G01 X10.7568 Y8.4945
G01 X10.7681 Y8.4876
G01 X10.8523 Y8.4371
G01 X10.8753 Y8.4241
G01 X10.8989 Y8.4122
G01 X10.9996 Y8.3648
G01 X11.0241 Y8.3546
G01 X11.0365 Y8.3500
G01 X11.1289 Y8.3170
G01 X11.1540 Y8.3087
G01 X11.1795 Y8.3016
G01 X11.2747 Y8.2778
G01 X11.2875 Y8.2747
G01 X11.3135 Y8.2695
G01 X11.4236 Y8.2530
G01 X11.4499 Y8.2498
G01 X11.4762 Y8.2479
G01 X11.5743 Y8.2430
G01 X11.6007 Y8.2424
G01 X11.6271 Y8.2430
G01 X11.7252 Y8.2479
G01 X11.7515 Y8.2498
G01 X11.7778 Y8.2530
G01 X11.8749 Y8.2674
G01 X11.9009 Y8.2720
G01 X11.9267 Y8.2778
G01 X12.0219 Y8.3016
G01 X12.0474 Y8.3087
G01 X12.0725 Y8.3170
G01 X12.1649 Y8.3500
G01 X12.1896 Y8.3595
G01 X12.2138 Y8.3703
G01 X12.3025 Y8.4122
G01 X12.3261 Y8.4241
G01 X12.3491 Y8.4371
G01 X12.4333 Y8.4876
G01 X12.4557 Y8.5018
G01 X12.4773 Y8.5170
G01 X12.5561 Y8.5754
G01 X12.5770 Y8.5917
G01 X12.5970 Y8.6090
G01 X12.6697 Y8.6749
G01 X12.6889 Y8.6931
G01 X12.7071 Y8.7123
G01 X12.7730 Y8.7850
G01 X12.7903 Y8.8050
G01 X12.7986 Y8.8154
G01 X12.8650 Y8.9047
G01 X12.8802 Y8.9263
G01 X12.8966 Y8.9523
G01 X17.6294 Y8.9548
G01 X17.6459 Y8.9346
G01 X17.6547 Y8.9247
G01 X17.7206 Y8.8520
G01 X17.7388 Y8.8328
G01 X17.7580 Y8.8146
G01 X17.8307 Y8.7487
G01 X17.8507 Y8.7314
G01 X17.8716 Y8.7151
G01 X17.9504 Y8.6567
G01 X17.9720 Y8.6415
G01 X17.9944 Y8.6273
G01 X18.0786 Y8.5768
G01 X18.0900 Y8.5702
G01 X18.1133 Y8.5577
G01 X18.2259 Y8.5045
G01 X18.2381 Y8.4992
G01 X18.2628 Y8.4897
G01 X18.3552 Y8.4567
G01 X18.3803 Y8.4484
G01 X18.4058 Y8.4413
G01 X18.5010 Y8.4175
G01 X18.5268 Y8.4117
G01 X18.5528 Y8.4071
G01 X18.6499 Y8.3927
G01 X18.6762 Y8.3895
G01 X18.7025 Y8.3876
G01 X18.8006 Y8.3827
G01 X18.8270 Y8.3821
G01 X18.8534 Y8.3827
G01 X18.9515 Y8.3876
G01 X18.9778 Y8.3895
G01 X19.0041 Y8.3927
G01 X19.1142 Y8.4092
G01 X19.1457 Y8.4157
G01 X19.3005 Y8.2609
G01 X19.3197 Y8.2427
G01 X19.3514 Y8.2141
G01 X19.3718 Y8.1973
G01 X19.4167 Y8.1640
G01 X19.4387 Y8.1493
G01 X19.4867 Y8.1206
G01 X19.5100 Y8.1081
G01 X19.5606 Y8.0842
G01 X19.5850 Y8.0741
G01 X19.6376 Y8.0553
G01 X19.6629 Y8.0476
G01 X19.7172 Y8.0340
G01 X19.7431 Y8.0289
G01 X19.7853 Y8.0224
G01 X19.8116 Y8.0192
G01 X19.8379 Y8.0172
G01 X19.8674 Y8.0158
G01 X19.8938 Y8.0152
G01 X23.3495 Y8.0152
G01 X23.3408 Y7.9939
G01 X23.3319 Y7.9690
G01 X23.3242 Y7.9437
G01 X23.3178 Y7.9181
G01 X23.3126 Y7.8921
G01 X23.3088 Y7.8660
G01 X23.3062 Y7.8396
G01 X23.3049 Y7.8132
G01 X23.3047 Y6.2000
G01 X23.3049 Y6.1868
G01 X23.3062 Y6.1604
G01 X23.3088 Y6.1340
G01 X23.3105 Y6.1209
G01 X23.3126 Y6.1079
G01 X23.3178 Y6.0819
G01 X23.3242 Y6.0563
G01 X23.3279 Y6.0436
G01 X23.3362 Y6.0185
G01 X23.3408 Y6.0061
G01 X23.3457 Y5.9938
G01 X23.3564 Y5.9696
G01 X23.3683 Y5.9460
G01 X23.3814 Y5.9230
G01 X23.3883 Y5.9117
G01 X23.3955 Y5.9006
G01 X23.4108 Y5.8790
G01 X23.4188 Y5.8685
G01 X23.4355 Y5.8480
G01 X23.4533 Y5.8284
G01 X23.4625 Y5.8189
G01 X23.4720 Y5.8097
G01 X23.4916 Y5.7919
G01 X23.5121 Y5.7752
G01 X23.5333 Y5.7594
G01 X23.5442 Y5.7519
G01 X23.5553 Y5.7447
G01 X23.5780 Y5.7311
G01 X23.5896 Y5.7247
G01 X23.6132 Y5.7128
G01 X23.6374 Y5.7021
G01 X23.6497 Y5.6972
G01 X23.6621 Y5.6926
G01 X23.6872 Y5.6843
G01 X23.7127 Y5.6773
G01 X23.7255 Y5.6742
G01 X23.7515 Y5.6690
G01 X23.7645 Y5.6669
G01 X23.7776 Y5.6652
G01 X23.8040 Y5.6626
G01 X23.8304 Y5.6613
G01 X23.8436 Y5.6611
G01 X25.4436 Y5.6611
G01 X25.4700 Y5.6617
G01 X25.4964 Y5.6637
G01 X25.5227 Y5.6669
G01 X25.5487 Y5.6715
G01 X25.5617 Y5.6742
G01 X25.5873 Y5.6806
G01 X25.6126 Y5.6883
G01 X25.6375 Y5.6972
G01 X25.6620 Y5.7073
G01 X25.6859 Y5.7186
G01 X25.6976 Y5.7247
G01 X25.7206 Y5.7378
G01 X25.7430 Y5.7519
G01 X25.7646 Y5.7672
G01 X25.7855 Y5.7834
G01 X25.7956 Y5.7919
G01 X25.8152 Y5.8097
G01 X25.8339 Y5.8284
G01 X25.8517 Y5.8480
G01 X25.8684 Y5.8685
G01 X25.8764 Y5.8790
G01 X25.8878 Y5.8950
G01 X25.8997 Y5.8867
G01 X25.9221 Y5.8726
G01 X26.0009 Y5.8256
G01 X26.0242 Y5.8131
G01 X26.1070 Y5.7737
G01 X26.1191 Y5.7682
G01 X26.1435 Y5.7581
G01 X26.2298 Y5.7270
G01 X26.2549 Y5.7188
G01 X26.2804 Y5.7117
G01 X26.3566 Y5.6926
G01 X26.3824 Y5.6868
G01 X26.4085 Y5.6823
G01 X26.4861 Y5.6708
G01 X26.5124 Y5.6675
G01 X26.5387 Y5.6656
G01 X26.6172 Y5.6617
G01 X26.6436 Y5.6611
G01 X26.6700 Y5.6617
G01 X26.7485 Y5.6656
G01 X26.7748 Y5.6675
G01 X26.8011 Y5.6708
G01 X26.8787 Y5.6823
G01 X26.9048 Y5.6868
G01 X26.9306 Y5.6926
G01 X27.0068 Y5.7117
G01 X27.0323 Y5.7188
G01 X27.0574 Y5.7270
G01 X27.1313 Y5.7535
G01 X27.1560 Y5.7630
G01 X27.1802 Y5.7737
G01 X27.2630 Y5.8131
G01 X27.2863 Y5.8256
G01 X27.2978 Y5.8322
G01 X27.3651 Y5.8726
G01 X27.3875 Y5.8867
G01 X27.4091 Y5.9020
G01 X27.4827 Y5.9568
G01 X27.5031 Y5.9735
G01 X27.5130 Y5.9823
G01 X27.5809 Y6.0440
G01 X27.5996 Y6.0627
G01 X27.6436 Y6.1110
G01 X27.6786 Y6.0724
G01 X27.6969 Y6.0533
G01 X27.7160 Y6.0350
G01 X27.7742 Y5.9823
G01 X27.7841 Y5.9735
G01 X27.8045 Y5.9568
G01 X27.8781 Y5.9020
G01 X27.8997 Y5.8867
G01 X27.9108 Y5.8795
G01 X28.0009 Y5.8256
G01 X28.0242 Y5.8131
G01 X28.1070 Y5.7737
G01 X28.1191 Y5.7682
G01 X28.1435 Y5.7581
G01 X28.2423 Y5.7227
G01 X28.2549 Y5.7188
G01 X28.2804 Y5.7117
G01 X28.3695 Y5.6896
G01 X28.3824 Y5.6868
G01 X28.4085 Y5.6823
G01 X28.4992 Y5.6690
G01 X28.5255 Y5.6664
G01 X28.6172 Y5.6617
G00 Z2.0000
G00 X36.9809 Y7.4397
G01 F40.00
G01 Z-0.0500
G01 F35.00
G01 X37.0073 Y7.4391
G01 X37.0337 Y7.4397
G01 X37.1254 Y7.4444
G01 X37.1517 Y7.4470
G01 X37.1648 Y7.4488
G01 X37.2424 Y7.4603
G01 X37.2685 Y7.4648
G01 X37.2943 Y7.4706
G01 X37.3705 Y7.4897
G01 X37.3960 Y7.4968
G01 X37.4211 Y7.5050
G01 X37.4950 Y7.5315
G01 X37.5197 Y7.5410
G01 X37.5439 Y7.5517
G01 X37.6148 Y7.5853
G01 X37.6385 Y7.5972
G01 X37.6615 Y7.6102
G01 X37.7401 Y7.6575
G01 X37.7631 Y7.6730
G01 X37.7745 Y7.6570
G01 X37.7825 Y7.6465
G01 X37.7992 Y7.6260
G01 X37.8170 Y7.6064
G01 X37.8262 Y7.5969
G01 X37.8454 Y7.5787
G01 X37.8654 Y7.5614
G01 X37.8863 Y7.5452
G01 X37.9079 Y7.5299
G01 X37.9190 Y7.5227
G01 X37.9417 Y7.5091
G01 X37.9650 Y7.4966
G01 X37.9769 Y7.4908
G01 X38.0011 Y7.4801
G01 X38.0258 Y7.4706
G01 X38.0509 Y7.4623
G01 X38.0764 Y7.4553
G01 X38.1022 Y7.4495
G01 X38.1152 Y7.4470
G01 X38.1413 Y7.4432
G01 X38.1677 Y7.4406
G01 X38.1809 Y7.4397
G01 X38.2073 Y7.4391
G01 X39.8073 Y7.4391
G01 X39.8337 Y7.4397
G01 X39.8469 Y7.4406
G01 X39.8733 Y7.4432
G01 X39.8994 Y7.4470
G01 X39.9124 Y7.4495
G01 X39.9382 Y7.4553
G01 X39.9510 Y7.4586
G01 X39.9637 Y7.4623
G01 X39.9888 Y7.4706
G01 X40.0012 Y7.4752
G01 X40.0257 Y7.4853
G01 X40.0496 Y7.4966
G01 X40.0613 Y7.5027
G01 X40.0843 Y7.5158
G01 X40.0956 Y7.5227
G01 X40.1067 Y7.5299
G01 X40.1283 Y7.5452
G01 X40.1492 Y7.5614
G01 X40.1692 Y7.5787
G01 X40.1789 Y7.5877
G01 X40.1976 Y7.6064
G01 X40.2154 Y7.6260
G01 X40.2321 Y7.6465
G01 X40.2479 Y7.6677
G01 X40.2626 Y7.6897
G01 X40.2695 Y7.7010
G01 X40.2826 Y7.7240
G01 X40.2945 Y7.7476
G01 X40.3052 Y7.7718
G01 X40.3101 Y7.7841
G01 X40.3190 Y7.8090
G01 X40.3267 Y7.8343
G01 X40.3300 Y7.8471
G01 X40.3358 Y7.8729
G01 X40.3404 Y7.8989
G01 X40.3436 Y7.9252
G01 X40.3456 Y7.9516
G01 X40.3462 Y7.9780
G01 X40.3462 Y9.5780
G01 X40.3456 Y9.6044
G01 X40.3447 Y9.6176
G01 X40.3421 Y9.6440
G01 X40.3383 Y9.6701
G01 X40.3358 Y9.6831
G01 X40.3331 Y9.6961
G01 X40.3267 Y9.7217
G01 X40.3230 Y9.7344
G01 X40.3147 Y9.7595
G01 X40.3101 Y9.7719
G01 X40.3000 Y9.7964
G01 X40.2945 Y9.8084
G01 X40.2826 Y9.8320
G01 X40.2695 Y9.8550
G01 X40.2626 Y9.8663
G01 X40.2479 Y9.8883
G01 X40.2401 Y9.8990
G01 X40.2239 Y9.9199
G01 X40.2066 Y9.9399
G01 X40.1976 Y9.9496
G01 X40.1789 Y9.9683
G01 X40.1593 Y9.9861
G01 X40.1388 Y10.0028
G01 X40.1283 Y10.0108
G01 X40.1067 Y10.0261
G01 X40.0843 Y10.0402
G01 X40.0613 Y10.0533
G01 X40.0377 Y10.0652
G01 X40.0135 Y10.0759
G01 X39.9888 Y10.0854
G01 X39.9637 Y10.0937
G01 X39.9382 Y10.1007
G01 X39.9124 Y10.1065
G01 X39.8864 Y10.1111
G01 X39.8733 Y10.1128
G01 X39.8469 Y10.1154
G01 X39.8205 Y10.1167
G01 X39.8073 Y10.1169
G01 X38.2073 Y10.1169
G01 X38.1941 Y10.1167
G01 X38.1677 Y10.1154
G01 X38.1413 Y10.1128
G01 X38.1152 Y10.1090
G01 X38.0892 Y10.1038
G01 X38.0636 Y10.0974
G01 X38.0383 Y10.0897
G01 X38.0134 Y10.0808
G01 X37.9889 Y10.0707
G01 X37.9650 Y10.0594
G01 X37.9533 Y10.0533
G01 X37.9303 Y10.0402
G01 X37.9079 Y10.0261
G01 X37.8863 Y10.0108
G01 X37.8654 Y9.9946
G01 X37.8553 Y9.9861
G01 X37.8357 Y9.9683
G01 X37.8170 Y9.9496
G01 X37.7992 Y9.9300
G01 X37.7825 Y9.9095
G01 X37.7745 Y9.8990
G01 X37.7631 Y9.8830
G01 X37.7401 Y9.8985
G01 X37.6615 Y9.9458
G01 X37.6385 Y9.9588
G01 X37.6148 Y9.9707
G01 X37.5439 Y10.0043
G01 X37.5197 Y10.0150
G01 X37.4950 Y10.0245
G01 X37.4211 Y10.0510
G01 X37.3960 Y10.0592
G01 X37.3705 Y10.0663
G01 X37.2943 Y10.0854
G01 X37.2685 Y10.0912
G01 X37.2424 Y10.0957
G01 X37.1648 Y10.1072
G01 X37.1385 Y10.1105
G01 X37.1122 Y10.1124
G01 X37.0205 Y10.1167
G01 X36.9941 Y10.1167
G01 X36.9024 Y10.1124
G01 X36.8761 Y10.1105
G01 X36.8498 Y10.1072
G01 X36.7591 Y10.0936
G01 X36.7332 Y10.0884
G01 X36.6441 Y10.0663
G01 X36.6186 Y10.0592
G01 X36.5935 Y10.0510
G01 X36.5196 Y10.0245
G01 X36.4949 Y10.0150
G01 X36.4707 Y10.0043
G01 X36.3998 Y9.9707
G01 X36.3761 Y9.9588
G01 X36.3531 Y9.9458
G01 X36.2858 Y9.9054
G01 X36.2634 Y9.8913
G01 X36.2418 Y9.8760
G01 X36.1788 Y9.8293
G01 X36.1579 Y9.8130
G01 X36.1379 Y9.7957
G01 X36.0700 Y9.7340
G01 X36.0606 Y9.7247
G01 X36.0423 Y9.7056
G01 X35.9896 Y9.6474
G01 X35.9723 Y9.6274
G01 X35.9560 Y9.6065
G01 X35.9093 Y9.5435
G01 X35.8940 Y9.5219
G01 X35.8799 Y9.4995
G01 X35.8329 Y9.4207
G01 X35.8265 Y9.4092
G01 X35.8146 Y9.3855
G01 X35.7810 Y9.3146
G01 X35.7703 Y9.2904
G01 X35.7608 Y9.2657
G01 X35.7343 Y9.1918
G01 X35.7261 Y9.1667
G01 X35.7190 Y9.1412
G01 X35.6969 Y9.0521
G01 X35.6941 Y9.0392
G01 X35.6896 Y9.0131
G01 X35.6781 Y8.9355
G01 X35.6748 Y8.9092
G01 X35.6729 Y8.8829
G01 X35.6690 Y8.8044
G01 X35.6684 Y8.7780
G01 X35.6690 Y8.7516
G01 X35.6729 Y8.6731
G01 X35.6748 Y8.6468
G01 X35.6781 Y8.6205
G01 X35.6896 Y8.5429
G01 X35.6941 Y8.5168
G01 X35.6999 Y8.4910
G01 X35.7224 Y8.4020
G01 X35.7300 Y8.3767
G01 X35.7608 Y8.2903
G01 X35.7703 Y8.2656
G01 X35.7810 Y8.2414
G01 X35.8146 Y8.1705
G01 X35.8265 Y8.1468
G01 X35.8395 Y8.1238
G01 X35.8868 Y8.0452
G01 X35.9015 Y8.0232
G01 X35.9560 Y7.9495
G01 X35.9723 Y7.9286
G01 X35.9896 Y7.9086
G01 X36.0513 Y7.8407
G01 X36.0700 Y7.8220
G01 X36.1379 Y7.7603
G01 X36.1579 Y7.7430
G01 X36.1788 Y7.7267
G01 X36.2418 Y7.6800
G01 X36.2634 Y7.6647
G01 X36.2858 Y7.6506
G01 X36.3531 Y7.6102
G01 X36.3761 Y7.5972
G01 X36.3998 Y7.5853
G01 X36.4707 Y7.5517
G01 X36.4949 Y7.5410
G01 X36.5196 Y7.5315
G01 X36.5935 Y7.5050
G01 X36.6186 Y7.4968
G01 X36.6441 Y7.4897
G01 X36.7332 Y7.4676
G01 X36.7591 Y7.4624
G01 X36.8498 Y7.4488
G01 X36.8761 Y7.4455
G01 X36.9024 Y7.4436
G01 X36.9809 Y7.4397
G00 Z2.0000
G00 X36.2640 Y21.2821
G01 F40.00
G01 Z-0.0500
G01 F35.00
G01 X36.2904 Y21.2827
G01 X36.3168 Y21.2847
G01 X36.3300 Y21.2862
G01 X36.3561 Y21.2900
G01 X36.3821 Y21.2952
G01 X36.4077 Y21.3016
G01 X36.4330 Y21.3093
G01 X36.4455 Y21.3136
G01 X36.4702 Y21.3231
G01 X36.4944 Y21.3338
G01 X36.5180 Y21.3457
G01 X36.5410 Y21.3588
G01 X36.5634 Y21.3729
G01 X36.5743 Y21.3804
G01 X36.5955 Y21.3962
G01 X36.6160 Y21.4129
G01 X36.6356 Y21.4307
G01 X36.6543 Y21.4494
G01 X36.6721 Y21.4690
G01 X36.6806 Y21.4791
G01 X36.6888 Y21.4895
G01 X36.7046 Y21.5107
G01 X36.7193 Y21.5327
G01 X36.7329 Y21.5554
G01 X36.7454 Y21.5787
G01 X36.7567 Y21.6026
G01 X36.7668 Y21.6271
G01 X36.7757 Y21.6520
G01 X36.7834 Y21.6773
G01 X36.7867 Y21.6901
G01 X36.7925 Y21.7159
G01 X36.7971 Y21.7419
G01 X36.7988 Y21.7550
G01 X36.8014 Y21.7814
G01 X36.8027 Y21.8078
G01 X36.8029 Y21.8210
G01 X36.8029 Y23.4210
G01 X36.8023 Y23.4474
G01 X36.8003 Y23.4738
G01 X36.7971 Y23.5001
G01 X36.7925 Y23.5261
G01 X36.7898 Y23.5391
G01 X36.7834 Y23.5647
G01 X36.7757 Y23.5900
G01 X36.7668 Y23.6149
G01 X36.7567 Y23.6394
G01 X36.7512 Y23.6514
G01 X36.7393 Y23.6750
G01 X36.7262 Y23.6980
G01 X36.7121 Y23.7204
G01 X36.6968 Y23.7420
G01 X36.6806 Y23.7629
G01 X36.6721 Y23.7730
G01 X36.6543 Y23.7926
G01 X36.6356 Y23.8113
G01 X36.6160 Y23.8291
G01 X36.5955 Y23.8458
G01 X36.5850 Y23.8538
G01 X36.5690 Y23.8652
G01 X36.5773 Y23.8771
G01 X36.5914 Y23.8995
G01 X36.6318 Y23.9668
G01 X36.6448 Y23.9898
G01 X36.6567 Y24.0135
G01 X36.6903 Y24.0844
G01 X36.7010 Y24.1086
G01 X36.7105 Y24.1333
G01 X36.7370 Y24.2072
G01 X36.7452 Y24.2323
G01 X36.7523 Y24.2578
G01 X36.7714 Y24.3340
G01 X36.7772 Y24.3598
G01 X36.7817 Y24.3859
G01 X36.7932 Y24.4635
G01 X36.7965 Y24.4898
G01 X36.7984 Y24.5161
G01 X36.8023 Y24.5946
G01 X36.8029 Y24.6210
G01 X36.8023 Y24.6474
G01 X36.7984 Y24.7259
G01 X36.7965 Y24.7522
G01 X36.7932 Y24.7785
G01 X36.7817 Y24.8561
G01 X36.7772 Y24.8822
G01 X36.7744 Y24.8951
G01 X36.7523 Y24.9842
G01 X36.7452 Y25.0097
G01 X36.7370 Y25.0348
G01 X36.7105 Y25.1087
G01 X36.7010 Y25.1334
G01 X36.6903 Y25.1576
G01 X36.6567 Y25.2285
G01 X36.6448 Y25.2522
G01 X36.6318 Y25.2752
G01 X36.5914 Y25.3425
G01 X36.5773 Y25.3649
G01 X36.5620 Y25.3865
G01 X36.5153 Y25.4495
G01 X36.4990 Y25.4704
G01 X36.4817 Y25.4904
G01 X36.4290 Y25.5486
G01 X36.4107 Y25.5677
G01 X36.3916 Y25.5860
G01 X36.3334 Y25.6387
G01 X36.3134 Y25.6560
G01 X36.2925 Y25.6723
G01 X36.2295 Y25.7190
G01 X36.2079 Y25.7343
G01 X36.1855 Y25.7484
G01 X36.1182 Y25.7888
G01 X36.0952 Y25.8018
G01 X36.0715 Y25.8137
G01 X36.0006 Y25.8473
G01 X35.9764 Y25.8580
G01 X35.9517 Y25.8675
G01 X35.8778 Y25.8940
G01 X35.8527 Y25.9022
G01 X35.8272 Y25.9093
G01 X35.7510 Y25.9284
G01 X35.7252 Y25.9342
G01 X35.6991 Y25.9387
G01 X35.6215 Y25.9502
G01 X35.5952 Y25.9535
G01 X35.5689 Y25.9554
G01 X35.4904 Y25.9593
G01 X35.4640 Y25.9599
G01 X35.4376 Y25.9593
G01 X35.3591 Y25.9554
G01 X35.3328 Y25.9535
G01 X35.3065 Y25.9502
G01 X35.2289 Y25.9387
G01 X35.2028 Y25.9342
G01 X35.1899 Y25.9314
G01 X35.1008 Y25.9093
G01 X35.0753 Y25.9022
G01 X35.0502 Y25.8940
G01 X34.9763 Y25.8675
G01 X34.9639 Y25.8629
G01 X34.9395 Y25.8528
G01 X34.8565 Y25.8137
G01 X34.8328 Y25.8018
G01 X34.8098 Y25.7888
G01 X34.7425 Y25.7484
G01 X34.7201 Y25.7343
G01 X34.6985 Y25.7190
G01 X34.6355 Y25.6723
G01 X34.6249 Y25.6642
G01 X34.6045 Y25.6475
G01 X34.5364 Y25.5860
G01 X34.5173 Y25.5677
G01 X34.4990 Y25.5486
G01 X34.4375 Y25.4805
G01 X34.4290 Y25.4704
G01 X34.4127 Y25.4495
G01 X34.3660 Y25.3865
G01 X34.3507 Y25.3649
G01 X34.3366 Y25.3425
G01 X34.2962 Y25.2752
G01 X34.2832 Y25.2522
G01 X34.2713 Y25.2285
G01 X34.2322 Y25.1455
G01 X34.2270 Y25.1334
G01 X34.2175 Y25.1087
G01 X34.1910 Y25.0348
G01 X34.1828 Y25.0097
G01 X34.1757 Y24.9842
G01 X34.1566 Y24.9080
G01 X34.1536 Y24.8951
G01 X34.1484 Y24.8692
G01 X34.1348 Y24.7785
G01 X34.1315 Y24.7522
G01 X34.1296 Y24.7259
G01 X34.1257 Y24.6474
G01 X34.1251 Y24.6210
G01 X34.1257 Y24.5946
G01 X34.1296 Y24.5161
G01 X34.1315 Y24.4898
G01 X34.1348 Y24.4635
G01 X34.1463 Y24.3859
G01 X34.1508 Y24.3598
G01 X34.1566 Y24.3340
G01 X34.1757 Y24.2578
G01 X34.1828 Y24.2323
G01 X34.1910 Y24.2072
G01 X34.2175 Y24.1333
G01 X34.2270 Y24.1086
G01 X34.2377 Y24.0844
G01 X34.2713 Y24.0135
G01 X34.2832 Y23.9898
G01 X34.2962 Y23.9668
G01 X34.3366 Y23.8995
G01 X34.3507 Y23.8771
G01 X34.3590 Y23.8652
G01 X34.3430 Y23.8538
G01 X34.3325 Y23.8458
G01 X34.3120 Y23.8291
G01 X34.2924 Y23.8113
G01 X34.2737 Y23.7926
G01 X34.2559 Y23.7730
G01 X34.2392 Y23.7525
G01 X34.2234 Y23.7313
G01 X34.2159 Y23.7204
G01 X34.2018 Y23.6980
G01 X34.1887 Y23.6750
G01 X34.1768 Y23.6514
G01 X34.1661 Y23.6272
G01 X34.1566 Y23.6025
G01 X34.1523 Y23.5900
G01 X34.1446 Y23.5647
G01 X34.1413 Y23.5519
G01 X34.1355 Y23.5261
G01 X34.1309 Y23.5001
G01 X34.1277 Y23.4738
G01 X34.1257 Y23.4474
G01 X34.1251 Y23.4210
G01 X34.1251 Y21.8210
G01 X34.1257 Y21.7946
G01 X34.1266 Y21.7814
G01 X34.1292 Y21.7550
G01 X34.1330 Y21.7289
G01 X34.1382 Y21.7029
G01 X34.1413 Y21.6901
G01 X34.1483 Y21.6646
G01 X34.1523 Y21.6520
G01 X34.1612 Y21.6271
G01 X34.1661 Y21.6148
G01 X34.1768 Y21.5906
G01 X34.1887 Y21.5670
G01 X34.2018 Y21.5440
G01 X34.2087 Y21.5327
G01 X34.2159 Y21.5216
G01 X34.2312 Y21.5000
G01 X34.2392 Y21.4895
G01 X34.2559 Y21.4690
G01 X34.2647 Y21.4591
G01 X34.2829 Y21.4399
G01 X34.2924 Y21.4307
G01 X34.3120 Y21.4129
G01 X34.3325 Y21.3962
G01 X34.3430 Y21.3882
G01 X34.3537 Y21.3804
G01 X34.3757 Y21.3657
G01 X34.3984 Y21.3521
G01 X34.4100 Y21.3457
G01 X34.4336 Y21.3338
G01 X34.4456 Y21.3283
G01 X34.4578 Y21.3231
G01 X34.4825 Y21.3136
G01 X34.4950 Y21.3093
G01 X34.5203 Y21.3016
G01 X34.5459 Y21.2952
G01 X34.5589 Y21.2925
G01 X34.5849 Y21.2879
G01 X34.6112 Y21.2847
G01 X34.6376 Y21.2827
G01 X34.6640 Y21.2821
G01 X36.2640 Y21.2821
G00 Z2.0000
G00 X52.2016 Y24.1087
G01 F40.00
G01 Z-0.0500
G01 F35.00
G01 X52.2280 Y24.1081
G01 X52.2412 Y24.1083
G01 X52.3461 Y24.1134
G01 X52.3724 Y24.1160
G01 X52.4631 Y24.1293
G01 X52.4892 Y24.1338
G01 X52.5021 Y24.1366
G01 X52.5912 Y24.1587
G01 X52.6167 Y24.1658
G01 X52.6418 Y24.1740
G01 X52.7157 Y24.2005
G01 X52.7404 Y24.2100
G01 X52.7646 Y24.2207
G01 X52.8355 Y24.2543
G01 X52.8592 Y24.2662
G01 X52.8822 Y24.2792
G01 X52.9495 Y24.3196
G01 X52.9719 Y24.3337
G01 X52.9935 Y24.3490
G01 X53.0565 Y24.3957
G01 X53.0774 Y24.4120
G01 X53.0974 Y24.4293
G01 X53.1556 Y24.4820
G01 X53.1747 Y24.5003
G01 X53.1930 Y24.5194
G01 X53.2457 Y24.5776
G01 X53.2630 Y24.5976
G01 X53.2793 Y24.6185
G01 X53.3260 Y24.6815
G01 X53.3413 Y24.7031
G01 X53.3554 Y24.7255
G01 X53.3958 Y24.7928
G01 X53.4088 Y24.8158
G01 X53.4207 Y24.8395
G01 X53.4598 Y24.9225
G01 X53.4699 Y24.9469
G01 X53.4745 Y24.9593
G01 X53.5010 Y25.0332
G01 X53.5092 Y25.0583
G01 X53.5163 Y25.0838
G01 X53.5354 Y25.1600
G01 X53.5412 Y25.1858
G01 X53.5457 Y25.2119
G01 X53.5572 Y25.2895
G01 X53.5605 Y25.3158
G01 X53.5624 Y25.3421
G01 X53.5663 Y25.4206
G01 X53.5669 Y25.4470
G01 X53.5663 Y25.4734
G01 X53.5624 Y25.5519
G01 X53.5605 Y25.5782
G01 X53.5572 Y25.6045
G01 X53.5457 Y25.6821
G01 X53.5412 Y25.7082
G01 X53.5354 Y25.7340
G01 X53.5163 Y25.8102
G01 X53.5092 Y25.8357
G01 X53.5010 Y25.8608
G01 X53.4745 Y25.9347
G01 X53.4650 Y25.9594
G01 X53.4543 Y25.9836
G01 X53.4207 Y26.0545
G01 X53.4088 Y26.0782
G01 X53.3958 Y26.1012
G01 X53.3554 Y26.1685
G01 X53.3413 Y26.1909
G01 X53.3330 Y26.2028
G01 X53.3490 Y26.2142
G01 X53.3595 Y26.2222
G01 X53.3800 Y26.2389
G01 X53.3996 Y26.2567
G01 X53.4183 Y26.2754
G01 X53.4361 Y26.2950
G01 X53.4528 Y26.3155
G01 X53.4608 Y26.3260
G01 X53.4761 Y26.3476
G01 X53.4902 Y26.3700
G01 X53.5033 Y26.3930
G01 X53.5152 Y26.4166
G01 X53.5259 Y26.4408
G01 X53.5308 Y26.4531
G01 X53.5397 Y26.4780
G01 X53.5474 Y26.5033
G01 X53.5507 Y26.5161
G01 X53.5565 Y26.5419
G01 X53.5611 Y26.5679
G01 X53.5643 Y26.5942
G01 X53.5663 Y26.6206
G01 X53.5669 Y26.6470
G01 X53.5669 Y28.2470
G01 X53.5663 Y28.2734
G01 X53.5654 Y28.2866
G01 X53.5628 Y28.3130
G01 X53.5590 Y28.3391
G01 X53.5565 Y28.3521
G01 X53.5507 Y28.3779
G01 X53.5437 Y28.4034
G01 X53.5354 Y28.4285
G01 X53.5308 Y28.4409
G01 X53.5207 Y28.4654
G01 X53.5152 Y28.4774
G01 X53.5033 Y28.5010
G01 X53.4902 Y28.5240
G01 X53.4833 Y28.5353
G01 X53.4686 Y28.5573
G01 X53.4608 Y28.5680
G01 X53.4446 Y28.5889
G01 X53.4361 Y28.5990
G01 X53.4183 Y28.6186
G01 X53.4091 Y28.6281
G01 X53.3899 Y28.6463
G01 X53.3699 Y28.6636
G01 X53.3490 Y28.6798
G01 X53.3274 Y28.6951
G01 X53.3163 Y28.7023
G01 X53.3050 Y28.7092
G01 X53.2820 Y28.7223
G01 X53.2584 Y28.7342
G01 X53.2464 Y28.7397
G01 X53.2219 Y28.7498
G01 X53.2095 Y28.7544
G01 X53.1844 Y28.7627
G01 X53.1717 Y28.7664
G01 X53.1461 Y28.7728
G01 X53.1331 Y28.7755
G01 X53.1071 Y28.7801
G01 X53.0808 Y28.7833
G01 X53.0544 Y28.7853
G01 X53.0280 Y28.7859
G01 X51.4280 Y28.7859
G01 X51.4016 Y28.7853
G01 X51.3752 Y28.7833
G01 X51.3489 Y28.7801
G01 X51.3229 Y28.7755
G01 X51.2971 Y28.7697
G01 X51.2843 Y28.7664
G01 X51.2716 Y28.7627
G01 X51.2465 Y28.7544
G01 X51.2341 Y28.7498
G01 X51.2096 Y28.7397
G01 X51.1857 Y28.7284
G01 X51.1740 Y28.7223
G01 X51.1510 Y28.7092
G01 X51.1397 Y28.7023
G01 X51.1177 Y28.6876
G01 X51.1070 Y28.6798
G01 X51.0861 Y28.6636
G01 X51.0760 Y28.6551
G01 X51.0564 Y28.6373
G01 X51.0469 Y28.6281
G01 X51.0287 Y28.6089
G01 X51.0199 Y28.5990
G01 X51.0114 Y28.5889
G01 X50.9952 Y28.5680
G01 X50.9799 Y28.5464
G01 X50.9727 Y28.5353
G01 X50.9658 Y28.5240
G01 X50.9527 Y28.5010
G01 X50.9408 Y28.4774
G01 X50.9353 Y28.4654
G01 X50.9252 Y28.4409
G01 X50.9206 Y28.4285
G01 X50.9163 Y28.4160
G01 X50.9086 Y28.3907
G01 X50.9053 Y28.3779
G01 X50.8995 Y28.3521
G01 X50.8949 Y28.3261
G01 X50.8917 Y28.2998
G01 X50.8897 Y28.2734
G01 X50.8891 Y28.2470
G01 X50.8891 Y26.6470
G01 X50.8897 Y26.6206
G01 X50.8917 Y26.5942
G01 X50.8949 Y26.5679
G01 X50.8995 Y26.5419
G01 X50.9053 Y26.5161
G01 X50.9123 Y26.4906
G01 X50.9163 Y26.4780
G01 X50.9252 Y26.4531
G01 X50.9301 Y26.4408
G01 X50.9408 Y26.4166
G01 X50.9527 Y26.3930
G01 X50.9658 Y26.3700
G01 X50.9799 Y26.3476
G01 X50.9952 Y26.3260
G01 X51.0032 Y26.3155
G01 X51.0199 Y26.2950
G01 X51.0377 Y26.2754
G01 X51.0564 Y26.2567
G01 X51.0760 Y26.2389
G01 X51.0965 Y26.2222
G01 X51.1070 Y26.2142
G01 X51.1230 Y26.2028
G01 X51.1147 Y26.1909
G01 X51.1006 Y26.1685
G01 X51.0602 Y26.1012
G01 X51.0472 Y26.0782
G01 X51.0353 Y26.0545
G01 X51.0017 Y25.9836
G01 X50.9910 Y25.9594
G01 X50.9815 Y25.9347
G01 X50.9550 Y25.8608
G01 X50.9468 Y25.8357
G01 X50.9397 Y25.8102
G01 X50.9176 Y25.7211
G01 X50.9148 Y25.7082
G01 X50.9103 Y25.6821
G01 X50.8988 Y25.6045
G01 X50.8955 Y25.5782
G01 X50.8936 Y25.5519
G01 X50.8897 Y25.4734
G01 X50.8893 Y25.4602
G01 X50.8893 Y25.4338
G01 X50.8936 Y25.3421
G01 X50.8955 Y25.3158
G01 X50.8970 Y25.3026
G01 X50.9103 Y25.2119
G01 X50.9148 Y25.1858
G01 X50.9206 Y25.1600
G01 X50.9397 Y25.0838
G01 X50.9468 Y25.0583
G01 X50.9550 Y25.0332
G01 X50.9815 Y24.9593
G01 X50.9910 Y24.9346
G01 X51.0017 Y24.9104
G01 X51.0353 Y24.8395
G01 X51.0411 Y24.8276
G01 X51.0536 Y24.8043
G01 X51.1006 Y24.7255
G01 X51.1147 Y24.7031
G01 X51.1300 Y24.6815
G01 X51.1767 Y24.6185
G01 X51.1930 Y24.5976
G01 X51.2103 Y24.5776
G01 X51.2630 Y24.5194
G01 X51.2813 Y24.5003
G01 X51.2907 Y24.4910
G01 X51.3586 Y24.4293
G01 X51.3786 Y24.4120
G01 X51.3995 Y24.3957
G01 X51.4625 Y24.3490
G01 X51.4841 Y24.3337
G01 X51.5065 Y24.3196
G01 X51.5738 Y24.2792
G01 X51.5968 Y24.2662
G01 X51.6205 Y24.2543
G01 X51.6914 Y24.2207
G01 X51.7156 Y24.2100
G01 X51.7403 Y24.2005
G01 X51.8142 Y24.1740
G01 X51.8393 Y24.1658
G01 X51.8648 Y24.1587
G01 X51.9539 Y24.1366
G01 X51.9798 Y24.1314
G01 X52.0705 Y24.1178
G01 X52.0968 Y24.1145
G01 X52.1231 Y24.1126
G01 X52.2016 Y24.1087
G00 Z2.0000
G00 X51.7256 Y3.8837
G01 F40.00
G01 Z-0.0500
G01 F35.00
G01 X51.7520 Y3.8831
G01 X51.7784 Y3.8837
G01 X51.8701 Y3.8884
G01 X51.8964 Y3.8910
G01 X51.9095 Y3.8928
G01 X51.9871 Y3.9043
G01 X52.0132 Y3.9088
G01 X52.0390 Y3.9146
G01 X52.1152 Y3.9337
G01 X52.1407 Y3.9408
G01 X52.1658 Y3.9490
G01 X52.2397 Y3.9755
G01 X52.2644 Y3.9850
G01 X52.2886 Y3.9957
G01 X52.3595 Y4.0293
G01 X52.3832 Y4.0412
G01 X52.4062 Y4.0542
G01 X52.4848 Y4.1015
G01 X52.5078 Y4.1170
G01 X52.5192 Y4.1010
G01 X52.5272 Y4.0905
G01 X52.5439 Y4.0700
G01 X52.5617 Y4.0504
G01 X52.5709 Y4.0409
G01 X52.5901 Y4.0227
G01 X52.6101 Y4.0054
G01 X52.6310 Y3.9892
G01 X52.6526 Y3.9739
G01 X52.6637 Y3.9667
G01 X52.6864 Y3.9531
G01 X52.7097 Y3.9406
G01 X52.7216 Y3.9348
G01 X52.7458 Y3.9241
G01 X52.7705 Y3.9146
G01 X52.7956 Y3.9063
G01 X52.8211 Y3.8993
G01 X52.8469 Y3.8935
G01 X52.8599 Y3.8910
G01 X52.8860 Y3.8872
G01 X52.9124 Y3.8846
G01 X52.9256 Y3.8837
G01 X52.9520 Y3.8831
G01 X54.5520 Y3.8831
G01 X54.5784 Y3.8837
G01 X54.5916 Y3.8846
G01 X54.6180 Y3.8872
G01 X54.6441 Y3.8910
G01 X54.6571 Y3.8935
G01 X54.6829 Y3.8993
G01 X54.6957 Y3.9026
G01 X54.7210 Y3.9103
G01 X54.7335 Y3.9146
G01 X54.7459 Y3.9192
G01 X54.7704 Y3.9293
G01 X54.7943 Y3.9406
G01 X54.8060 Y3.9467
G01 X54.8290 Y3.9598
G01 X54.8403 Y3.9667
G01 X54.8623 Y3.9814
G01 X54.8730 Y3.9892
G01 X54.8939 Y4.0054
G01 X54.9040 Y4.0139
G01 X54.9236 Y4.0317
G01 X54.9423 Y4.0504
G01 X54.9601 Y4.0700
G01 X54.9768 Y4.0905
G01 X54.9926 Y4.1117
G01 X55.0001 Y4.1226
G01 X55.0142 Y4.1450
G01 X55.0273 Y4.1680
G01 X55.0392 Y4.1916
G01 X55.0499 Y4.2158
G01 X55.0594 Y4.2405
G01 X55.0637 Y4.2530
G01 X55.0714 Y4.2783
G01 X55.0747 Y4.2911
G01 X55.0805 Y4.3169
G01 X55.0851 Y4.3429
G01 X55.0883 Y4.3692
G01 X55.0903 Y4.3956
G01 X55.0909 Y4.4220
G01 X55.0909 Y6.0220
G01 X55.0903 Y6.0484
G01 X55.0894 Y6.0616
G01 X55.0868 Y6.0880
G01 X55.0851 Y6.1011
G01 X55.0805 Y6.1271
G01 X55.0778 Y6.1401
G01 X55.0714 Y6.1657
G01 X55.0637 Y6.1910
G01 X55.0594 Y6.2035
G01 X55.0548 Y6.2159
G01 X55.0447 Y6.2404
G01 X55.0334 Y6.2643
G01 X55.0273 Y6.2760
G01 X55.0142 Y6.2990
G01 X55.0073 Y6.3103
G01 X54.9926 Y6.3323
G01 X54.9848 Y6.3430
G01 X54.9768 Y6.3535
G01 X54.9601 Y6.3740
G01 X54.9423 Y6.3936
G01 X54.9236 Y6.4123
G01 X54.9040 Y6.4301
G01 X54.8835 Y6.4468
G01 X54.8623 Y6.4626
G01 X54.8403 Y6.4773
G01 X54.8290 Y6.4842
G01 X54.8060 Y6.4973
G01 X54.7824 Y6.5092
G01 X54.7582 Y6.5199
G01 X54.7335 Y6.5294
G01 X54.7084 Y6.5377
G01 X54.6829 Y6.5447
G01 X54.6571 Y6.5505
G01 X54.6311 Y6.5551
G01 X54.6048 Y6.5583
G01 X54.5916 Y6.5594
G01 X54.5784 Y6.5603
G01 X54.5520 Y6.5609
G01 X52.9520 Y6.5609
G01 X52.9388 Y6.5607
G01 X52.9124 Y6.5594
G01 X52.8860 Y6.5568
G01 X52.8599 Y6.5530
G01 X52.8339 Y6.5478
G01 X52.8211 Y6.5447
G01 X52.7956 Y6.5377
G01 X52.7705 Y6.5294
G01 X52.7458 Y6.5199
G01 X52.7216 Y6.5092
G01 X52.6980 Y6.4973
G01 X52.6750 Y6.4842
G01 X52.6526 Y6.4701
G01 X52.6310 Y6.4548
G01 X52.6101 Y6.4386
G01 X52.6000 Y6.4301
G01 X52.5804 Y6.4123
G01 X52.5617 Y6.3936
G01 X52.5439 Y6.3740
G01 X52.5272 Y6.3535
G01 X52.5192 Y6.3430
G01 X52.5078 Y6.3270
G01 X52.4848 Y6.3425
G01 X52.4062 Y6.3898
G01 X52.3832 Y6.4028
G01 X52.3595 Y6.4147
G01 X52.2886 Y6.4483
G01 X52.2644 Y6.4590
G01 X52.2397 Y6.4685
G01 X52.1658 Y6.4950
G01 X52.1407 Y6.5032
G01 X52.1152 Y6.5103
G01 X52.0390 Y6.5294
G01 X52.0132 Y6.5352
G01 X51.9871 Y6.5397
G01 X51.9095 Y6.5512
G01 X51.8832 Y6.5545
G01 X51.8569 Y6.5564
G01 X51.7652 Y6.5607
G01 X51.7388 Y6.5607
G01 X51.6471 Y6.5564
G01 X51.6208 Y6.5545
G01 X51.5945 Y6.5512
G01 X51.5038 Y6.5376
G01 X51.4779 Y6.5324
G01 X51.3888 Y6.5103
G01 X51.3633 Y6.5032
G01 X51.3382 Y6.4950
G01 X51.2643 Y6.4685
G01 X51.2396 Y6.4590
G01 X51.2154 Y6.4483
G01 X51.1445 Y6.4147
G01 X51.1208 Y6.4028
G01 X51.0978 Y6.3898
G01 X51.0305 Y6.3494
G01 X51.0081 Y6.3353
G01 X50.9865 Y6.3200
G01 X50.9235 Y6.2733
G01 X50.9026 Y6.2570
G01 X50.8826 Y6.2397
G01 X50.8147 Y6.1780
G01 X50.8053 Y6.1687
G01 X50.7870 Y6.1496
G01 X50.7343 Y6.0914
G01 X50.7170 Y6.0714
G01 X50.7007 Y6.0505
G01 X50.6540 Y5.9875
G01 X50.6387 Y5.9659
G01 X50.6246 Y5.9435
G01 X50.5776 Y5.8647
G01 X50.5651 Y5.8414
G01 X50.5593 Y5.8295
G01 X50.5257 Y5.7586
G01 X50.5150 Y5.7344
G01 X50.5055 Y5.7097
G01 X50.4790 Y5.6358
G01 X50.4708 Y5.6107
G01 X50.4637 Y5.5852
G01 X50.4416 Y5.4961
G01 X50.4388 Y5.4832
G01 X50.4343 Y5.4571
G01 X50.4228 Y5.3795
G01 X50.4195 Y5.3532
G01 X50.4176 Y5.3269
G01 X50.4137 Y5.2484
G01 X50.4131 Y5.2220
G01 X50.4137 Y5.1956
G01 X50.4176 Y5.1171
G01 X50.4195 Y5.0908
G01 X50.4228 Y5.0645
G01 X50.4343 Y4.9869
G01 X50.4388 Y4.9608
G01 X50.4446 Y4.9350
G01 X50.4671 Y4.8460
G01 X50.4747 Y4.8207
G01 X50.5055 Y4.7343
G01 X50.5150 Y4.7096
G01 X50.5257 Y4.6854
G01 X50.5593 Y4.6145
G01 X50.5712 Y4.5908
G01 X50.5842 Y4.5678
G01 X50.6315 Y4.4892
G01 X50.6462 Y4.4672
G01 X50.7007 Y4.3935
G01 X50.7170 Y4.3726
G01 X50.7343 Y4.3526
G01 X50.7960 Y4.2847
G01 X50.8147 Y4.2660
G01 X50.8826 Y4.2043
G01 X50.9026 Y4.1870
G01 X50.9235 Y4.1707
G01 X50.9865 Y4.1240
G01 X51.0081 Y4.1087
G01 X51.0305 Y4.0946
G01 X51.0978 Y4.0542
G01 X51.1208 Y4.0412
G01 X51.1445 Y4.0293
G01 X51.2154 Y3.9957
G01 X51.2396 Y3.9850
G01 X51.2643 Y3.9755
G01 X51.3382 Y3.9490
G01 X51.3633 Y3.9408
G01 X51.3888 Y3.9337
G01 X51.4779 Y3.9116
G01 X51.5038 Y3.9064
G01 X51.5945 Y3.8928
G01 X51.6208 Y3.8895
G01 X51.6471 Y3.8876
G01 X51.7256 Y3.8837
G00 Z2.0000
M05
G00 Z2.0000
G00 Z15.00


