(G-CODE GENERATED BY FLATCAM v8.994 - www.flatcam.org - Version Date: 2020/11/7)

(Name: ADCandDAC-B_Cu.gbr_0.1268_iso8_cnc)
(Type: G-code from Geometry)
(Units: MM)

(Created on Чацвер, 26 лістапада 2020 at 10:10)

(This preprocessor is the default preprocessor used by FlatCAM.)
(It is made to work with MACH3 compatible motion controllers.)

(TOOL DIAMETER: 0.1268 mm)
(Feedrate_XY: 35.0 mm/min)
(Feedrate_Z: 40.0 mm/min)
(Feedrate rapids 1000.0 mm/min)

(Z_Cut: -0.05 mm)
(Z_Move: 2.0 mm)
(Z Start: None mm)
(Z End: 15.0 mm)
(X,Y End: None mm)
(Steps per circle: 64)
(Preprocessor Geometry: default)

(X range:    4.4360 ...   55.2811  mm)
(Y range:    3.6929 ...   29.3793  mm)

(Spindle Speed: 10000.0 RPM)
G21
G90
G94

G01 F35.00

M5
G00 Z15.0000
G00 X0.0000 Y0.0000
T2
M6    
(MSG, Change to Tool Dia = 0.1268)
M0
G00 Z15.0000

M03 S10000.0
G01 F35.00
G00 X8.6693 Y21.9977
G01 F40.00
G01 Z-0.0500
G01 F35.00
G01 X8.7051 Y21.9968
G01 X8.7230 Y21.9970
G01 X8.8389 Y22.0025
G01 X8.8746 Y22.0051
G01 X8.9101 Y22.0095
G01 X9.0072 Y22.0239
G01 X9.0424 Y22.0300
G01 X9.0773 Y22.0379
G01 X9.1725 Y22.0617
G01 X9.2070 Y22.0713
G01 X9.2410 Y22.0825
G01 X9.3502 Y22.1218
G01 X9.3832 Y22.1355
G01 X9.3995 Y22.1429
G01 X9.4882 Y22.1849
G01 X9.5202 Y22.2010
G01 X9.5513 Y22.2186
G01 X9.6355 Y22.2691
G01 X9.6657 Y22.2882
G01 X9.6950 Y22.3088
G01 X9.7881 Y22.3781
G01 X9.8157 Y22.4008
G01 X9.8291 Y22.4127
G01 X9.9018 Y22.4786
G01 X9.9278 Y22.5032
G01 X9.9524 Y22.5292
G01 X10.0183 Y22.6019
G01 X10.0417 Y22.6290
G01 X10.0637 Y22.6572
G01 X10.1222 Y22.7360
G01 X10.1428 Y22.7653
G01 X10.1619 Y22.7955
G01 X10.2124 Y22.8797
G01 X10.2214 Y22.8951
G01 X10.2383 Y22.9267
G01 X10.2881 Y23.0315
G01 X10.3026 Y23.0642
G01 X10.3155 Y23.0976
G01 X10.3485 Y23.1900
G01 X10.3597 Y23.2240
G01 X10.3693 Y23.2585
G01 X10.3931 Y23.3537
G01 X10.4010 Y23.3886
G01 X10.4071 Y23.4238
G01 X10.4215 Y23.5209
G01 X10.4259 Y23.5564
G01 X10.4285 Y23.5921
G01 X10.4333 Y23.6901
G01 X10.4342 Y23.7259
G01 X10.4333 Y23.7617
G01 X10.4274 Y23.8776
G01 X10.4239 Y23.9132
G01 X10.4071 Y24.0280
G01 X10.4010 Y24.0632
G01 X10.3931 Y24.0981
G01 X10.3647 Y24.2106
G01 X10.3543 Y24.2449
G01 X10.3155 Y24.3542
G01 X10.3026 Y24.3876
G01 X10.2881 Y24.4203
G01 X10.2461 Y24.5090
G01 X10.2300 Y24.5410
G01 X10.2124 Y24.5721
G01 X10.1619 Y24.6563
G01 X10.1428 Y24.6865
G01 X10.1222 Y24.7158
G01 X10.0637 Y24.7946
G01 X10.0417 Y24.8228
G01 X10.0183 Y24.8499
G01 X9.9524 Y24.9226
G01 X9.9278 Y24.9486
G01 X9.9018 Y24.9732
G01 X9.8157 Y25.0510
G01 X9.7881 Y25.0737
G01 X9.6950 Y25.1430
G01 X9.6657 Y25.1636
G01 X9.6355 Y25.1827
G01 X9.5513 Y25.2332
G01 X9.5202 Y25.2508
G01 X9.4882 Y25.2669
G01 X9.3995 Y25.3089
G01 X9.3668 Y25.3234
G01 X9.3334 Y25.3363
G01 X9.2410 Y25.3693
G01 X9.2070 Y25.3805
G01 X9.1725 Y25.3901
G01 X9.0599 Y25.4181
G01 X9.0248 Y25.4251
G01 X8.9101 Y25.4423
G01 X8.8746 Y25.4467
G01 X8.8389 Y25.4493
G01 X8.7230 Y25.4548
G01 X8.6872 Y25.4548
G01 X8.5713 Y25.4493
G01 X8.5356 Y25.4467
G01 X8.5001 Y25.4423
G01 X8.4030 Y25.4279
G01 X8.3678 Y25.4218
G01 X8.3329 Y25.4139
G01 X8.2377 Y25.3901
G01 X8.2032 Y25.3805
G01 X8.1692 Y25.3693
G01 X8.0600 Y25.3300
G01 X8.0434 Y25.3234
G01 X8.0107 Y25.3089
G01 X7.9220 Y25.2669
G01 X7.8900 Y25.2508
G01 X7.8589 Y25.2332
G01 X7.7747 Y25.1827
G01 X7.7469 Y25.1652
G01 X7.7287 Y25.1884
G01 X7.7172 Y25.2021
G01 X7.6931 Y25.2286
G01 X7.6678 Y25.2539
G01 X7.6413 Y25.2780
G01 X7.6137 Y25.3007
G01 X7.5849 Y25.3220
G01 X7.5552 Y25.3419
G01 X7.5245 Y25.3603
G01 X7.4929 Y25.3771
G01 X7.4606 Y25.3925
G01 X7.4275 Y25.4061
G01 X7.3938 Y25.4182
G01 X7.3596 Y25.4286
G01 X7.3423 Y25.4331
G01 X7.3073 Y25.4410
G01 X7.2721 Y25.4471
G01 X7.2366 Y25.4515
G01 X7.2009 Y25.4541
G01 X7.1651 Y25.4550
G01 X5.1651 Y25.4550
G01 X5.1472 Y25.4548
G01 X5.1115 Y25.4530
G01 X5.0759 Y25.4495
G01 X5.0405 Y25.4443
G01 X5.0054 Y25.4373
G01 X4.9706 Y25.4286
G01 X4.9535 Y25.4236
G01 X4.9195 Y25.4124
G01 X4.8861 Y25.3995
G01 X4.8534 Y25.3850
G01 X4.8214 Y25.3689
G01 X4.7903 Y25.3513
G01 X4.7600 Y25.3321
G01 X4.7308 Y25.3115
G01 X4.7026 Y25.2895
G01 X4.6889 Y25.2780
G01 X4.6624 Y25.2539
G01 X4.6371 Y25.2286
G01 X4.6130 Y25.2021
G01 X4.5903 Y25.1745
G01 X4.5690 Y25.1457
G01 X4.5589 Y25.1310
G01 X4.5491 Y25.1160
G01 X4.5307 Y25.0853
G01 X4.5139 Y25.0537
G01 X4.5060 Y25.0376
G01 X4.4985 Y25.0214
G01 X4.4849 Y24.9883
G01 X4.4786 Y24.9715
G01 X4.4674 Y24.9375
G01 X4.4579 Y24.9031
G01 X4.4537 Y24.8856
G01 X4.4500 Y24.8681
G01 X4.4439 Y24.8329
G01 X4.4415 Y24.8151
G01 X4.4380 Y24.7795
G01 X4.4362 Y24.7438
G01 X4.4360 Y24.7259
G01 X4.4360 Y22.7259
G01 X4.4369 Y22.6901
G01 X4.4395 Y22.6544
G01 X4.4415 Y22.6367
G01 X4.4467 Y22.6013
G01 X4.4537 Y22.5662
G01 X4.4624 Y22.5314
G01 X4.4728 Y22.4972
G01 X4.4786 Y22.4803
G01 X4.4915 Y22.4469
G01 X4.5060 Y22.4142
G01 X4.5221 Y22.3822
G01 X4.5397 Y22.3511
G01 X4.5589 Y22.3208
G01 X4.5690 Y22.3061
G01 X4.5903 Y22.2773
G01 X4.6130 Y22.2497
G01 X4.6371 Y22.2232
G01 X4.6624 Y22.1979
G01 X4.6889 Y22.1738
G01 X4.7165 Y22.1511
G01 X4.7308 Y22.1403
G01 X4.7600 Y22.1197
G01 X4.7750 Y22.1099
G01 X4.8057 Y22.0915
G01 X4.8214 Y22.0829
G01 X4.8534 Y22.0668
G01 X4.8861 Y22.0523
G01 X4.9027 Y22.0457
G01 X4.9364 Y22.0336
G01 X4.9535 Y22.0282
G01 X4.9879 Y22.0187
G01 X5.0054 Y22.0145
G01 X5.0405 Y22.0075
G01 X5.0581 Y22.0047
G01 X5.0759 Y22.0023
G01 X5.1115 Y21.9988
G01 X5.1293 Y21.9977
G01 X5.1651 Y21.9968
G01 X7.1651 Y21.9968
G01 X7.2009 Y21.9977
G01 X7.2366 Y22.0003
G01 X7.2721 Y22.0047
G01 X7.3073 Y22.0108
G01 X7.3248 Y22.0145
G01 X7.3596 Y22.0232
G01 X7.3938 Y22.0336
G01 X7.4275 Y22.0457
G01 X7.4441 Y22.0523
G01 X7.4768 Y22.0668
G01 X7.5088 Y22.0829
G01 X7.5245 Y22.0915
G01 X7.5552 Y22.1099
G01 X7.5849 Y22.1298
G01 X7.6137 Y22.1511
G01 X7.6413 Y22.1738
G01 X7.6678 Y22.1979
G01 X7.6931 Y22.2232
G01 X7.7172 Y22.2497
G01 X7.7287 Y22.2634
G01 X7.7469 Y22.2866
G01 X7.7747 Y22.2691
G01 X7.8589 Y22.2186
G01 X7.8900 Y22.2010
G01 X7.9220 Y22.1849
G01 X8.0107 Y22.1429
G01 X8.0270 Y22.1355
G01 X8.0600 Y22.1218
G01 X8.1692 Y22.0825
G01 X8.2032 Y22.0713
G01 X8.2377 Y22.0617
G01 X8.3503 Y22.0337
G01 X8.3854 Y22.0267
G01 X8.4030 Y22.0239
G01 X8.5001 Y22.0095
G01 X8.5356 Y22.0051
G01 X8.5713 Y22.0025
G01 X8.6693 Y21.9977
G00 Z2.0000
G00 X28.6078 Y5.4718
G01 F40.00
G01 Z-0.0500
G01 F35.00
G01 X28.6257 Y5.4711
G01 X28.6615 Y5.4711
G01 X28.7578 Y5.4756
G01 X28.7935 Y5.4783
G01 X28.8290 Y5.4826
G01 X28.9243 Y5.4970
G01 X28.9594 Y5.5040
G01 X28.9768 Y5.5081
G01 X29.0530 Y5.5272
G01 X29.0875 Y5.5367
G01 X29.1215 Y5.5480
G01 X29.2121 Y5.5807
G01 X29.2452 Y5.5943
G01 X29.3324 Y5.6354
G01 X29.3485 Y5.6432
G01 X29.3801 Y5.6601
G01 X29.4629 Y5.7095
G01 X29.4931 Y5.7286
G01 X29.5224 Y5.7492
G01 X29.5854 Y5.7960
G01 X29.6137 Y5.8180
G01 X29.6273 Y5.8295
G01 X29.6989 Y5.8941
G01 X29.7248 Y5.9188
G01 X29.7495 Y5.9447
G01 X29.8141 Y6.0163
G01 X29.8256 Y6.0299
G01 X29.8476 Y6.0582
G01 X29.8944 Y6.1212
G01 X29.9150 Y6.1505
G01 X29.9341 Y6.1807
G01 X29.9835 Y6.2635
G01 X29.9921 Y6.2792
G01 X30.0082 Y6.3112
G01 X30.0418 Y6.3821
G01 X30.0563 Y6.4148
G01 X30.0692 Y6.4482
G01 X30.1015 Y6.5391
G01 X30.1069 Y6.5561
G01 X30.1164 Y6.5906
G01 X30.1355 Y6.6668
G01 X30.1433 Y6.7017
G01 X30.1494 Y6.7369
G01 X30.1634 Y6.8323
G01 X30.1669 Y6.8680
G01 X30.1718 Y6.9642
G01 X30.1725 Y6.9821
G01 X30.1725 Y7.0179
G01 X30.1680 Y7.1142
G01 X30.1653 Y7.1499
G01 X30.1610 Y7.1854
G01 X30.1494 Y7.2631
G01 X30.1433 Y7.2983
G01 X30.1396 Y7.3158
G01 X30.1164 Y7.4094
G01 X30.1069 Y7.4439
G01 X30.0956 Y7.4779
G01 X30.0629 Y7.5685
G01 X30.0563 Y7.5852
G01 X30.0418 Y7.6179
G01 X30.0082 Y7.6888
G01 X29.9921 Y7.7208
G01 X29.9745 Y7.7519
G01 X29.9307 Y7.8250
G01 X31.5486 Y7.8250
G01 X31.5620 Y7.8081
G01 X31.5854 Y7.7810
G01 X31.6634 Y7.6951
G01 X31.6887 Y7.6698
G01 X31.7880 Y7.5799
G01 X31.8156 Y7.5572
G01 X31.8694 Y7.5171
G01 X31.8694 Y6.4920
G01 X31.8696 Y6.4741
G01 X31.8717 Y6.4268
G01 X31.8743 Y6.3911
G01 X31.8787 Y6.3556
G01 X31.8859 Y6.3088
G01 X31.8891 Y6.2912
G01 X31.8928 Y6.2737
G01 X31.9041 Y6.2277
G01 X31.9137 Y6.1932
G01 X31.9191 Y6.1762
G01 X31.9411 Y6.1147
G01 X31.9547 Y6.0817
G01 X31.9826 Y6.0227
G01 X31.9995 Y5.9911
G01 X32.0085 Y5.9757
G01 X32.0331 Y5.9352
G01 X32.0428 Y5.9202
G01 X32.0529 Y5.9054
G01 X32.0810 Y5.8673
G01 X32.0918 Y5.8530
G01 X32.1145 Y5.8254
G01 X32.1583 Y5.7770
G01 X32.7296 Y5.2054
G01 X32.7555 Y5.1807
G01 X32.7908 Y5.1491
G01 X32.8045 Y5.1376
G01 X32.8327 Y5.1156
G01 X32.8708 Y5.0875
G01 X32.8856 Y5.0774
G01 X32.9158 Y5.0583
G01 X32.9565 Y5.0341
G01 X32.9881 Y5.0172
G01 X33.0042 Y5.0094
G01 X33.0471 Y4.9893
G01 X33.0635 Y4.9823
G01 X33.0969 Y4.9694
G01 X33.1416 Y4.9537
G01 X33.1586 Y4.9483
G01 X33.1931 Y4.9387
G01 X33.2391 Y4.9274
G01 X33.2566 Y4.9237
G01 X33.2742 Y4.9205
G01 X33.3210 Y4.9133
G01 X33.3565 Y4.9089
G01 X33.3922 Y4.9063
G01 X33.4395 Y4.9042
G01 X33.4574 Y4.9040
G01 X42.0263 Y4.9040
G01 X42.0664 Y4.8502
G01 X42.0891 Y4.8226
G01 X42.1790 Y4.7233
G01 X42.1915 Y4.7105
G01 X42.2175 Y4.6859
G01 X42.3036 Y4.6081
G01 X42.3312 Y4.5854
G01 X42.3455 Y4.5746
G01 X42.4243 Y4.5161
G01 X42.4536 Y4.4955
G01 X42.4838 Y4.4764
G01 X42.5680 Y4.4259
G01 X42.5991 Y4.4083
G01 X42.6150 Y4.4000
G01 X42.7361 Y4.3428
G01 X42.7691 Y4.3291
G01 X42.7859 Y4.3228
G01 X42.8783 Y4.2898
G01 X42.9123 Y4.2786
G01 X42.9468 Y4.2690
G01 X43.0420 Y4.2452
G01 X43.0769 Y4.2373
G01 X43.0945 Y4.2340
G01 X43.2092 Y4.2168
G01 X43.2447 Y4.2124
G01 X43.2804 Y4.2098
G01 X43.3784 Y4.2050
G01 X43.4142 Y4.2041
G01 X43.4500 Y4.2050
G01 X43.5480 Y4.2098
G01 X43.5837 Y4.2124
G01 X43.6192 Y4.2168
G01 X43.7339 Y4.2340
G01 X43.7515 Y4.2373
G01 X43.7864 Y4.2452
G01 X43.8816 Y4.2690
G01 X43.9161 Y4.2786
G01 X43.9501 Y4.2898
G01 X44.0425 Y4.3228
G01 X44.0593 Y4.3291
G01 X44.0923 Y4.3428
G01 X44.2134 Y4.4000
G01 X44.2450 Y4.4169
G01 X44.2604 Y4.4259
G01 X44.3446 Y4.4764
G01 X44.3748 Y4.4955
G01 X44.4041 Y4.5161
G01 X44.4829 Y4.5746
G01 X44.5111 Y4.5966
G01 X44.5248 Y4.6081
G01 X44.6109 Y4.6859
G01 X44.6369 Y4.7105
G01 X44.6494 Y4.7233
G01 X44.7393 Y4.8226
G01 X44.7620 Y4.8502
G01 X44.8021 Y4.9040
G01 X45.3446 Y4.9040
G01 X45.3625 Y4.9042
G01 X45.4098 Y4.9063
G01 X45.4277 Y4.9074
G01 X45.4633 Y4.9109
G01 X45.5101 Y4.9176
G01 X45.5454 Y4.9237
G01 X45.5629 Y4.9274
G01 X45.6089 Y4.9387
G01 X45.6434 Y4.9483
G01 X45.6774 Y4.9595
G01 X45.7219 Y4.9757
G01 X45.7385 Y4.9823
G01 X45.7549 Y4.9893
G01 X45.7978 Y5.0094
G01 X45.8298 Y5.0255
G01 X45.8609 Y5.0431
G01 X45.9014 Y5.0677
G01 X45.9312 Y5.0875
G01 X45.9693 Y5.1156
G01 X45.9836 Y5.1264
G01 X46.0112 Y5.1491
G01 X46.0465 Y5.1807
G01 X46.0724 Y5.2054
G01 X51.7778 Y10.9108
G01 X51.8025 Y10.9367
G01 X51.8341 Y10.9720
G01 X51.8568 Y10.9996
G01 X51.8852 Y11.0375
G01 X51.9058 Y11.0668
G01 X51.9249 Y11.0970
G01 X51.9491 Y11.1377
G01 X51.9660 Y11.1693
G01 X51.9939 Y11.2283
G01 X52.0075 Y11.2613
G01 X52.0138 Y11.2781
G01 X52.0295 Y11.3228
G01 X52.0349 Y11.3398
G01 X52.0399 Y11.3570
G01 X52.0516 Y11.4029
G01 X52.0558 Y11.4203
G01 X52.0627 Y11.4554
G01 X52.0723 Y11.5199
G01 X52.0758 Y11.5555
G01 X52.0790 Y11.6207
G01 X52.0792 Y16.2801
G01 X52.1330 Y16.3202
G01 X52.1606 Y16.3429
G01 X52.2467 Y16.4207
G01 X52.2599 Y16.4328
G01 X52.2852 Y16.4581
G01 X52.3632 Y16.5440
G01 X52.3866 Y16.5711
G01 X52.4086 Y16.5993
G01 X52.4671 Y16.6781
G01 X52.4776 Y16.6926
G01 X52.4975 Y16.7224
G01 X52.5573 Y16.8218
G01 X52.5749 Y16.8529
G01 X52.5910 Y16.8849
G01 X52.6330 Y16.9736
G01 X52.6475 Y17.0063
G01 X52.6604 Y17.0397
G01 X52.6934 Y17.1321
G01 X52.7046 Y17.1661
G01 X52.7142 Y17.2006
G01 X52.7422 Y17.3132
G01 X52.7492 Y17.3483
G01 X52.7520 Y17.3659
G01 X52.7688 Y17.4807
G01 X52.7723 Y17.5163
G01 X52.7782 Y17.6322
G01 X52.7789 Y17.6501
G01 X52.7789 Y17.6859
G01 X52.7734 Y17.8018
G01 X52.7708 Y17.8375
G01 X52.7664 Y17.8730
G01 X52.7520 Y17.9701
G01 X52.7459 Y18.0053
G01 X52.7380 Y18.0402
G01 X52.7142 Y18.1354
G01 X52.7046 Y18.1699
G01 X52.6934 Y18.2039
G01 X52.6604 Y18.2963
G01 X52.6475 Y18.3297
G01 X52.6330 Y18.3624
G01 X52.5910 Y18.4511
G01 X52.5749 Y18.4831
G01 X52.5573 Y18.5142
G01 X52.5068 Y18.5984
G01 X52.4877 Y18.6286
G01 X52.4671 Y18.6579
G01 X52.3978 Y18.7510
G01 X52.3751 Y18.7786
G01 X52.3632 Y18.7920
G01 X52.2973 Y18.8647
G01 X52.2727 Y18.8907
G01 X52.2467 Y18.9153
G01 X52.1740 Y18.9812
G01 X52.1606 Y18.9931
G01 X52.1330 Y19.0158
G01 X52.0399 Y19.0851
G01 X52.0106 Y19.1057
G01 X51.9804 Y19.1248
G01 X51.8808 Y19.1843
G01 X51.8651 Y19.1929
G01 X51.8331 Y19.2090
G01 X51.7444 Y19.2510
G01 X51.7117 Y19.2655
G01 X51.6783 Y19.2784
G01 X51.5859 Y19.3114
G01 X51.5690 Y19.3172
G01 X51.5347 Y19.3276
G01 X51.4222 Y19.3560
G01 X51.3873 Y19.3639
G01 X51.3521 Y19.3700
G01 X51.2373 Y19.3868
G01 X51.2195 Y19.3888
G01 X51.1838 Y19.3914
G01 X51.0858 Y19.3962
G01 X51.0500 Y19.3971
G01 X51.0142 Y19.3962
G01 X50.9162 Y19.3914
G01 X50.8805 Y19.3888
G01 X50.8627 Y19.3868
G01 X50.7303 Y19.3672
G01 X50.7127 Y19.3639
G01 X50.6778 Y19.3560
G01 X50.5826 Y19.3322
G01 X50.5481 Y19.3226
G01 X50.5141 Y19.3114
G01 X50.4217 Y19.2784
G01 X50.3883 Y19.2655
G01 X50.3719 Y19.2584
G01 X50.2669 Y19.2090
G01 X50.2349 Y19.1929
G01 X50.2038 Y19.1753
G01 X50.1196 Y19.1248
G01 X50.0894 Y19.1057
G01 X50.0746 Y19.0956
G01 X49.9670 Y19.0158
G01 X49.9394 Y18.9931
G01 X49.9260 Y18.9812
G01 X49.8401 Y18.9032
G01 X49.8148 Y18.8779
G01 X49.7249 Y18.7786
G01 X49.7022 Y18.7510
G01 X49.6621 Y18.6972
G01 X48.3871 Y18.6972
G01 X38.7064 Y28.3780
G01 X38.6936 Y28.3905
G01 X38.6586 Y28.4224
G01 X38.6315 Y28.4458
G01 X38.6033 Y28.4678
G01 X38.5652 Y28.4959
G01 X38.5354 Y28.5157
G01 X38.4949 Y28.5403
G01 X38.4638 Y28.5579
G01 X38.4479 Y28.5662
G01 X38.4052 Y28.5866
G01 X38.3725 Y28.6011
G01 X38.3559 Y28.6077
G01 X38.3114 Y28.6239
G01 X38.2944 Y28.6297
G01 X38.2602 Y28.6401
G01 X38.2143 Y28.6518
G01 X38.1794 Y28.6597
G01 X38.1441 Y28.6658
G01 X38.0973 Y28.6725
G01 X38.0795 Y28.6745
G01 X38.0438 Y28.6771
G01 X37.9965 Y28.6792
G01 X37.9786 Y28.6794
G01 X35.2898 Y28.6794
G01 X35.2497 Y28.7332
G01 X35.2270 Y28.7608
G01 X35.1371 Y28.8601
G01 X35.1118 Y28.8854
G01 X35.0259 Y28.9634
G01 X34.9988 Y28.9868
G01 X34.9849 Y28.9980
G01 X34.8918 Y29.0673
G01 X34.8625 Y29.0879
G01 X34.8323 Y29.1070
G01 X34.7481 Y29.1575
G01 X34.7170 Y29.1751
G01 X34.6850 Y29.1912
G01 X34.5800 Y29.2406
G01 X34.5470 Y29.2543
G01 X34.4378 Y29.2936
G01 X34.4038 Y29.3048
G01 X34.3693 Y29.3144
G01 X34.2741 Y29.3382
G01 X34.2567 Y29.3424
G01 X34.2216 Y29.3494
G01 X34.1069 Y29.3666
G01 X34.0714 Y29.3710
G01 X34.0357 Y29.3736
G01 X33.9377 Y29.3784
G01 X33.9019 Y29.3793
G01 X33.8661 Y29.3784
G01 X33.7681 Y29.3736
G01 X33.7324 Y29.3710
G01 X33.7146 Y29.3690
G01 X33.5998 Y29.3522
G01 X33.5646 Y29.3461
G01 X33.5297 Y29.3382
G01 X33.4345 Y29.3144
G01 X33.4000 Y29.3048
G01 X33.3660 Y29.2936
G01 X33.2736 Y29.2606
G01 X33.2568 Y29.2543
G01 X33.2238 Y29.2406
G01 X33.1188 Y29.1912
G01 X33.0868 Y29.1751
G01 X33.0557 Y29.1575
G01 X32.9715 Y29.1070
G01 X32.9413 Y29.0879
G01 X32.9120 Y29.0673
G01 X32.8332 Y29.0088
G01 X32.8189 Y28.9980
G01 X32.7913 Y28.9753
G01 X32.7052 Y28.8975
G01 X32.6792 Y28.8729
G01 X32.6546 Y28.8469
G01 X32.5768 Y28.7608
G01 X32.5541 Y28.7332
G01 X32.5433 Y28.7189
G01 X32.4848 Y28.6401
G01 X32.4642 Y28.6108
G01 X32.4451 Y28.5806
G01 X32.3946 Y28.4964
G01 X32.3770 Y28.4653
G01 X32.3609 Y28.4333
G01 X32.3115 Y28.3283
G01 X32.3044 Y28.3119
G01 X32.2915 Y28.2785
G01 X32.2585 Y28.1861
G01 X32.2473 Y28.1521
G01 X32.2377 Y28.1176
G01 X32.2139 Y28.0224
G01 X32.2060 Y27.9875
G01 X32.1999 Y27.9523
G01 X32.1831 Y27.8375
G01 X32.1796 Y27.8019
G01 X32.1737 Y27.6860
G01 X32.1728 Y27.6502
G01 X32.1737 Y27.6144
G01 X32.1785 Y27.5164
G01 X32.1811 Y27.4807
G01 X32.1831 Y27.4629
G01 X32.1999 Y27.3481
G01 X32.2060 Y27.3129
G01 X32.2139 Y27.2780
G01 X32.2423 Y27.1655
G01 X32.2473 Y27.1483
G01 X32.2585 Y27.1143
G01 X32.2915 Y27.0219
G01 X32.3044 Y26.9885
G01 X32.3189 Y26.9558
G01 X32.3687 Y26.8510
G01 X32.3856 Y26.8194
G01 X32.4451 Y26.7198
G01 X32.4544 Y26.7046
G01 X32.4743 Y26.6748
G01 X32.5433 Y26.5815
G01 X32.5653 Y26.5533
G01 X32.5887 Y26.5262
G01 X32.6546 Y26.4535
G01 X32.6792 Y26.4275
G01 X32.7052 Y26.4029
G01 X32.7913 Y26.3251
G01 X32.8189 Y26.3024
G01 X32.9120 Y26.2331
G01 X32.9413 Y26.2125
G01 X32.9715 Y26.1934
G01 X33.0557 Y26.1429
G01 X33.0868 Y26.1253
G01 X33.1188 Y26.1092
G01 X33.2075 Y26.0672
G01 X33.2402 Y26.0527
G01 X33.2736 Y26.0398
G01 X33.3660 Y26.0068
G01 X33.4000 Y25.9956
G01 X33.4345 Y25.9860
G01 X33.5297 Y25.9622
G01 X33.5646 Y25.9543
G01 X33.5998 Y25.9482
G01 X33.6969 Y25.9338
G01 X33.7324 Y25.9294
G01 X33.7681 Y25.9268
G01 X33.8661 Y25.9220
G01 X33.9019 Y25.9211
G01 X33.9377 Y25.9220
G01 X34.0536 Y25.9279
G01 X34.0892 Y25.9314
G01 X34.1069 Y25.9338
G01 X34.2040 Y25.9482
G01 X34.2392 Y25.9543
G01 X34.2741 Y25.9622
G01 X34.3693 Y25.9860
G01 X34.4038 Y25.9956
G01 X34.4378 Y26.0068
G01 X34.5302 Y26.0398
G01 X34.5636 Y26.0527
G01 X34.5963 Y26.0672
G01 X34.6850 Y26.1092
G01 X34.7170 Y26.1253
G01 X34.7327 Y26.1339
G01 X34.8323 Y26.1934
G01 X34.8625 Y26.2125
G01 X34.8918 Y26.2331
G01 X34.9706 Y26.2916
G01 X34.9988 Y26.3136
G01 X35.0125 Y26.3251
G01 X35.0986 Y26.4029
G01 X35.1118 Y26.4150
G01 X35.1371 Y26.4403
G01 X35.2270 Y26.5396
G01 X35.2497 Y26.5672
G01 X35.2898 Y26.6210
G01 X37.5523 Y26.6210
G01 X47.2330 Y16.9402
G01 X47.2458 Y16.9277
G01 X47.2808 Y16.8958
G01 X47.3079 Y16.8724
G01 X47.3361 Y16.8504
G01 X47.3742 Y16.8223
G01 X47.4040 Y16.8025
G01 X47.4445 Y16.7779
G01 X47.4756 Y16.7603
G01 X47.4915 Y16.7520
G01 X47.5342 Y16.7316
G01 X47.5669 Y16.7171
G01 X47.6003 Y16.7042
G01 X47.6450 Y16.6885
G01 X47.6792 Y16.6781
G01 X47.6965 Y16.6735
G01 X47.7425 Y16.6622
G01 X47.7776 Y16.6553
G01 X47.8244 Y16.6481
G01 X47.8599 Y16.6437
G01 X47.8956 Y16.6411
G01 X47.9429 Y16.6390
G01 X47.9608 Y16.6388
G01 X49.6621 Y16.6388
G01 X49.7022 Y16.5850
G01 X49.7249 Y16.5574
G01 X49.8027 Y16.4713
G01 X49.8273 Y16.4453
G01 X49.8533 Y16.4207
G01 X49.9394 Y16.3429
G01 X49.9670 Y16.3202
G01 X50.0208 Y16.2801
G01 X50.0208 Y12.0649
G01 X44.9183 Y6.9624
G01 X44.8021 Y6.9624
G01 X44.7620 Y7.0162
G01 X44.7393 Y7.0438
G01 X44.6494 Y7.1431
G01 X44.6241 Y7.1684
G01 X44.5382 Y7.2464
G01 X44.5248 Y7.2583
G01 X44.4972 Y7.2810
G01 X44.3896 Y7.3608
G01 X44.3598 Y7.3807
G01 X44.3446 Y7.3900
G01 X44.2604 Y7.4405
G01 X44.2293 Y7.4581
G01 X44.1973 Y7.4742
G01 X44.1086 Y7.5162
G01 X44.0923 Y7.5236
G01 X44.0593 Y7.5373
G01 X43.9501 Y7.5766
G01 X43.9161 Y7.5878
G01 X43.8816 Y7.5974
G01 X43.7864 Y7.6212
G01 X43.7515 Y7.6291
G01 X43.7163 Y7.6352
G01 X43.6192 Y7.6496
G01 X43.5837 Y7.6540
G01 X43.5480 Y7.6566
G01 X43.4500 Y7.6614
G01 X43.4142 Y7.6623
G01 X43.3784 Y7.6614
G01 X43.2804 Y7.6566
G01 X43.2447 Y7.6540
G01 X43.2092 Y7.6496
G01 X43.0945 Y7.6324
G01 X43.0769 Y7.6291
G01 X43.0420 Y7.6212
G01 X42.9468 Y7.5974
G01 X42.9123 Y7.5878
G01 X42.8783 Y7.5766
G01 X42.7859 Y7.5436
G01 X42.7691 Y7.5373
G01 X42.7361 Y7.5236
G01 X42.6150 Y7.4664
G01 X42.5834 Y7.4495
G01 X42.5680 Y7.4405
G01 X42.4838 Y7.3900
G01 X42.4536 Y7.3709
G01 X42.4243 Y7.3503
G01 X42.3455 Y7.2918
G01 X42.3173 Y7.2698
G01 X42.3036 Y7.2583
G01 X42.2175 Y7.1805
G01 X42.2043 Y7.1684
G01 X42.1790 Y7.1431
G01 X42.0891 Y7.0438
G01 X42.0664 Y7.0162
G01 X42.0263 Y6.9624
G01 X33.9278 Y6.9624
G01 X33.9278 Y7.5171
G01 X33.9816 Y7.5572
G01 X34.0092 Y7.5799
G01 X34.0953 Y7.6577
G01 X34.1213 Y7.6823
G01 X34.1338 Y7.6951
G01 X34.2118 Y7.7810
G01 X34.2352 Y7.8081
G01 X34.2572 Y7.8363
G01 X34.3262 Y7.9296
G01 X34.3363 Y7.9444
G01 X34.3554 Y7.9746
G01 X34.4149 Y8.0742
G01 X34.4318 Y8.1058
G01 X34.4816 Y8.2106
G01 X34.4961 Y8.2433
G01 X34.5090 Y8.2767
G01 X34.5478 Y8.3860
G01 X34.5582 Y8.4203
G01 X34.5908 Y8.5502
G01 X34.5945 Y8.5677
G01 X34.6006 Y8.6029
G01 X34.6150 Y8.7000
G01 X34.6194 Y8.7355
G01 X34.6220 Y8.7712
G01 X34.6268 Y8.8692
G01 X34.6275 Y8.8871
G01 X34.6275 Y8.9229
G01 X34.6220 Y9.0388
G01 X34.6194 Y9.0745
G01 X34.6150 Y9.1100
G01 X34.6006 Y9.2071
G01 X34.5945 Y9.2423
G01 X34.5908 Y9.2598
G01 X34.5628 Y9.3724
G01 X34.5532 Y9.4069
G01 X34.5420 Y9.4409
G01 X34.5090 Y9.5333
G01 X34.4961 Y9.5667
G01 X34.4816 Y9.5994
G01 X34.4318 Y9.7042
G01 X34.4149 Y9.7358
G01 X34.3554 Y9.8354
G01 X34.3363 Y9.8656
G01 X34.3157 Y9.8949
G01 X34.2464 Y9.9880
G01 X34.2237 Y10.0156
G01 X34.1459 Y10.1017
G01 X34.1213 Y10.1277
G01 X34.0953 Y10.1523
G01 X34.0226 Y10.2182
G01 X33.9955 Y10.2416
G01 X33.9673 Y10.2636
G01 X33.8885 Y10.3221
G01 X33.8592 Y10.3427
G01 X33.8290 Y10.3618
G01 X33.7448 Y10.4123
G01 X33.7137 Y10.4299
G01 X33.6817 Y10.4460
G01 X33.5930 Y10.4880
G01 X33.5603 Y10.5025
G01 X33.5269 Y10.5154
G01 X33.4176 Y10.5542
G01 X33.3833 Y10.5646
G01 X33.2708 Y10.5930
G01 X33.2359 Y10.6009
G01 X33.2007 Y10.6070
G01 X33.1036 Y10.6214
G01 X33.0859 Y10.6238
G01 X33.0503 Y10.6273
G01 X32.9344 Y10.6332
G01 X32.8986 Y10.6341
G01 X32.8628 Y10.6332
G01 X32.7469 Y10.6273
G01 X32.7113 Y10.6238
G01 X32.6936 Y10.6214
G01 X32.5965 Y10.6070
G01 X32.5613 Y10.6009
G01 X32.5264 Y10.5930
G01 X32.4139 Y10.5646
G01 X32.3796 Y10.5542
G01 X32.2703 Y10.5154
G01 X32.2369 Y10.5025
G01 X32.2205 Y10.4954
G01 X32.1155 Y10.4460
G01 X32.0835 Y10.4299
G01 X32.0524 Y10.4123
G01 X31.9682 Y10.3618
G01 X31.9380 Y10.3427
G01 X31.9232 Y10.3326
G01 X31.8299 Y10.2636
G01 X31.8017 Y10.2416
G01 X31.7746 Y10.2182
G01 X31.6887 Y10.1402
G01 X31.6759 Y10.1277
G01 X31.6513 Y10.1017
G01 X31.5854 Y10.0290
G01 X31.5620 Y10.0019
G01 X31.5400 Y9.9737
G01 X31.4732 Y9.8835
G01 X24.6216 Y9.8834
G01 X24.6443 Y9.8987
G01 X24.6588 Y9.9092
G01 X24.7218 Y9.9560
G01 X24.7501 Y9.9780
G01 X24.7771 Y10.0014
G01 X24.8484 Y10.0663
G01 X24.8737 Y10.0916
G01 X24.8859 Y10.1047
G01 X24.9386 Y10.1629
G01 X24.9620 Y10.1899
G01 X24.9840 Y10.2182
G01 X25.0308 Y10.2812
G01 X25.0413 Y10.2957
G01 X25.0612 Y10.3255
G01 X25.1109 Y10.4081
G01 X25.1285 Y10.4392
G01 X25.1446 Y10.4712
G01 X25.1782 Y10.5421
G01 X25.1857 Y10.5584
G01 X25.1993 Y10.5915
G01 X25.2379 Y10.6991
G01 X25.2482 Y10.7333
G01 X25.2528 Y10.7506
G01 X25.2719 Y10.8268
G01 X25.2797 Y10.8617
G01 X25.2858 Y10.8969
G01 X25.2974 Y10.9746
G01 X25.2998 Y10.9923
G01 X25.3033 Y11.0280
G01 X25.3082 Y11.1242
G01 X25.3091 Y11.1600
G01 X25.3082 Y11.1958
G01 X25.3044 Y11.2742
G01 X25.3017 Y11.3099
G01 X25.2974 Y11.3454
G01 X25.2858 Y11.4231
G01 X25.2797 Y11.4583
G01 X25.2719 Y11.4932
G01 X25.2528 Y11.5694
G01 X25.2433 Y11.6039
G01 X25.2320 Y11.6379
G01 X25.1993 Y11.7285
G01 X25.1927 Y11.7452
G01 X25.1782 Y11.7779
G01 X25.1368 Y11.8649
G01 X25.1199 Y11.8965
G01 X25.0705 Y11.9793
G01 X25.0514 Y12.0095
G01 X25.0413 Y12.0243
G01 X24.9840 Y12.1018
G01 X24.9620 Y12.1301
G01 X24.9505 Y12.1437
G01 X24.9361 Y12.1600
G01 X24.9505 Y12.1763
G01 X24.9620 Y12.1899
G01 X24.9840 Y12.2182
G01 X25.0413 Y12.2957
G01 X25.0612 Y12.3255
G01 X25.1109 Y12.4081
G01 X25.1285 Y12.4392
G01 X25.1446 Y12.4712
G01 X25.1782 Y12.5421
G01 X25.1927 Y12.5748
G01 X25.2056 Y12.6082
G01 X25.2320 Y12.6821
G01 X25.2433 Y12.7161
G01 X25.2528 Y12.7506
G01 X25.2719 Y12.8268
G01 X25.2797 Y12.8617
G01 X25.2858 Y12.8969
G01 X25.2998 Y12.9923
G01 X25.3033 Y13.0280
G01 X25.3082 Y13.1242
G01 X25.3091 Y13.1600
G01 X25.3082 Y13.1958
G01 X25.3044 Y13.2742
G01 X25.3017 Y13.3099
G01 X25.2974 Y13.3454
G01 X25.2858 Y13.4231
G01 X25.2797 Y13.4583
G01 X25.2719 Y13.4932
G01 X25.2528 Y13.5694
G01 X25.2482 Y13.5867
G01 X25.2379 Y13.6209
G01 X25.2056 Y13.7118
G01 X25.1927 Y13.7452
G01 X25.1782 Y13.7779
G01 X25.1446 Y13.8488
G01 X25.1285 Y13.8808
G01 X25.1199 Y13.8965
G01 X25.0705 Y13.9793
G01 X25.0514 Y14.0095
G01 X25.0413 Y14.0243
G01 X24.9732 Y14.1161
G01 X24.9505 Y14.1437
G01 X24.9361 Y14.1600
G01 X24.9505 Y14.1763
G01 X24.9620 Y14.1899
G01 X24.9840 Y14.2182
G01 X25.0413 Y14.2957
G01 X25.0612 Y14.3255
G01 X25.1109 Y14.4081
G01 X25.1285 Y14.4392
G01 X25.1446 Y14.4712
G01 X25.1857 Y14.5584
G01 X25.1993 Y14.5915
G01 X25.2320 Y14.6821
G01 X25.2433 Y14.7161
G01 X25.2528 Y14.7506
G01 X25.2719 Y14.8268
G01 X25.2797 Y14.8617
G01 X25.2858 Y14.8969
G01 X25.2974 Y14.9746
G01 X25.3017 Y15.0101
G01 X25.3044 Y15.0458
G01 X25.3089 Y15.1421
G01 X25.3089 Y15.1779
G01 X25.3082 Y15.1958
G01 X25.3044 Y15.2742
G01 X25.3017 Y15.3099
G01 X25.2974 Y15.3454
G01 X25.2858 Y15.4231
G01 X25.2797 Y15.4583
G01 X25.2719 Y15.4932
G01 X25.2482 Y15.5867
G01 X25.2379 Y15.6209
G01 X25.2320 Y15.6379
G01 X25.2056 Y15.7118
G01 X25.1927 Y15.7452
G01 X25.1782 Y15.7779
G01 X25.1446 Y15.8488
G01 X25.1289 Y15.8802
G01 X25.1436 Y15.8975
G01 X25.1656 Y15.9257
G01 X25.1862 Y15.9549
G01 X25.1960 Y15.9699
G01 X25.2054 Y15.9852
G01 X25.2230 Y16.0163
G01 X25.2391 Y16.0483
G01 X25.2536 Y16.0810
G01 X25.2665 Y16.1144
G01 X25.2777 Y16.1484
G01 X25.2827 Y16.1655
G01 X25.2914 Y16.2003
G01 X25.2984 Y16.2354
G01 X25.3012 Y16.2530
G01 X25.3036 Y16.2708
G01 X25.3071 Y16.3064
G01 X25.3089 Y16.3421
G01 X25.3091 Y16.3600
G01 X25.3091 Y17.9600
G01 X25.3082 Y17.9958
G01 X25.3056 Y18.0315
G01 X25.3012 Y18.0670
G01 X25.2984 Y18.0846
G01 X25.2914 Y18.1197
G01 X25.2827 Y18.1545
G01 X25.2777 Y18.1716
G01 X25.2665 Y18.2056
G01 X25.2536 Y18.2390
G01 X25.2391 Y18.2717
G01 X25.2230 Y18.3037
G01 X25.2144 Y18.3194
G01 X25.1960 Y18.3501
G01 X25.1761 Y18.3798
G01 X25.1656 Y18.3943
G01 X25.1436 Y18.4225
G01 X25.1202 Y18.4496
G01 X25.0956 Y18.4756
G01 X25.0696 Y18.5002
G01 X25.0425 Y18.5236
G01 X25.0143 Y18.5456
G01 X24.9998 Y18.5561
G01 X24.9701 Y18.5760
G01 X24.9394 Y18.5944
G01 X24.9078 Y18.6112
G01 X24.8917 Y18.6191
G01 X24.8755 Y18.6266
G01 X24.8424 Y18.6402
G01 X24.8087 Y18.6523
G01 X24.7745 Y18.6627
G01 X24.7572 Y18.6672
G01 X24.7222 Y18.6751
G01 X24.6870 Y18.6812
G01 X24.6515 Y18.6856
G01 X24.6158 Y18.6882
G01 X24.5800 Y18.6891
G01 X22.9800 Y18.6891
G01 X22.9621 Y18.6889
G01 X22.9264 Y18.6871
G01 X22.8908 Y18.6836
G01 X22.8730 Y18.6812
G01 X22.8378 Y18.6751
G01 X22.8028 Y18.6672
G01 X22.7855 Y18.6627
G01 X22.7513 Y18.6523
G01 X22.7176 Y18.6402
G01 X22.6845 Y18.6266
G01 X22.6683 Y18.6191
G01 X22.6522 Y18.6112
G01 X22.6206 Y18.5944
G01 X22.5899 Y18.5760
G01 X22.5749 Y18.5662
G01 X22.5602 Y18.5561
G01 X22.5314 Y18.5348
G01 X22.5175 Y18.5236
G01 X22.4904 Y18.5002
G01 X22.4773 Y18.4880
G01 X22.4520 Y18.4627
G01 X22.4279 Y18.4362
G01 X22.4164 Y18.4225
G01 X22.4052 Y18.4086
G01 X22.3839 Y18.3798
G01 X22.3640 Y18.3501
G01 X22.3546 Y18.3348
G01 X22.3370 Y18.3037
G01 X22.3288 Y18.2878
G01 X22.3134 Y18.2555
G01 X22.3064 Y18.2390
G01 X22.2935 Y18.2056
G01 X22.2823 Y18.1716
G01 X22.2773 Y18.1545
G01 X22.2728 Y18.1372
G01 X22.2649 Y18.1022
G01 X22.2588 Y18.0670
G01 X22.2544 Y18.0315
G01 X22.2518 Y17.9958
G01 X22.2509 Y17.9600
G01 X22.2509 Y16.3600
G01 X22.2518 Y16.3242
G01 X22.2529 Y16.3064
G01 X22.2564 Y16.2708
G01 X22.2588 Y16.2530
G01 X22.2616 Y16.2354
G01 X22.2686 Y16.2003
G01 X22.2773 Y16.1655
G01 X22.2823 Y16.1484
G01 X22.2935 Y16.1144
G01 X22.3064 Y16.0810
G01 X22.3209 Y16.0483
G01 X22.3370 Y16.0163
G01 X22.3546 Y15.9852
G01 X22.3640 Y15.9699
G01 X22.3738 Y15.9549
G01 X22.3944 Y15.9257
G01 X22.4164 Y15.8975
G01 X22.4311 Y15.8802
G01 X22.4154 Y15.8488
G01 X22.3818 Y15.7779
G01 X22.3673 Y15.7452
G01 X22.3544 Y15.7118
G01 X22.3280 Y15.6379
G01 X22.3221 Y15.6209
G01 X22.3118 Y15.5867
G01 X22.2881 Y15.4932
G01 X22.2803 Y15.4583
G01 X22.2742 Y15.4231
G01 X22.2626 Y15.3454
G01 X22.2583 Y15.3099
G01 X22.2556 Y15.2742
G01 X22.2518 Y15.1958
G01 X22.2511 Y15.1779
G01 X22.2511 Y15.1421
G01 X22.2556 Y15.0458
G01 X22.2583 Y15.0101
G01 X22.2626 Y14.9746
G01 X22.2742 Y14.8969
G01 X22.2803 Y14.8617
G01 X22.2881 Y14.8268
G01 X22.3072 Y14.7506
G01 X22.3167 Y14.7161
G01 X22.3280 Y14.6821
G01 X22.3607 Y14.5915
G01 X22.3743 Y14.5584
G01 X22.4154 Y14.4712
G01 X22.4315 Y14.4392
G01 X22.4491 Y14.4081
G01 X22.4988 Y14.3255
G01 X22.5187 Y14.2957
G01 X22.5760 Y14.2182
G01 X22.5980 Y14.1899
G01 X22.6095 Y14.1763
G01 X22.6239 Y14.1600
G01 X22.6095 Y14.1437
G01 X22.5868 Y14.1161
G01 X22.5187 Y14.0243
G01 X22.4988 Y13.9945
G01 X22.4895 Y13.9793
G01 X22.4401 Y13.8965
G01 X22.4232 Y13.8649
G01 X22.4154 Y13.8488
G01 X22.3818 Y13.7779
G01 X22.3673 Y13.7452
G01 X22.3544 Y13.7118
G01 X22.3221 Y13.6209
G01 X22.3118 Y13.5867
G01 X22.3072 Y13.5694
G01 X22.2881 Y13.4932
G01 X22.2803 Y13.4583
G01 X22.2742 Y13.4231
G01 X22.2602 Y13.3277
G01 X22.2567 Y13.2920
G01 X22.2556 Y13.2742
G01 X22.2511 Y13.1779
G01 X22.2511 Y13.1421
G01 X22.2556 Y13.0458
G01 X22.2583 Y13.0101
G01 X22.2626 Y12.9746
G01 X22.2770 Y12.8793
G01 X22.2840 Y12.8442
G01 X22.3072 Y12.7506
G01 X22.3167 Y12.7161
G01 X22.3280 Y12.6821
G01 X22.3544 Y12.6082
G01 X22.3673 Y12.5748
G01 X22.3818 Y12.5421
G01 X22.4154 Y12.4712
G01 X22.4315 Y12.4392
G01 X22.4491 Y12.4081
G01 X22.4988 Y12.3255
G01 X22.5187 Y12.2957
G01 X22.5760 Y12.2182
G01 X22.5980 Y12.1899
G01 X22.6095 Y12.1763
G01 X22.6239 Y12.1600
G01 X22.6095 Y12.1437
G01 X22.5868 Y12.1161
G01 X22.5187 Y12.0243
G01 X22.4988 Y11.9945
G01 X22.4895 Y11.9793
G01 X22.4401 Y11.8965
G01 X22.4232 Y11.8649
G01 X22.4154 Y11.8488
G01 X22.3818 Y11.7779
G01 X22.3673 Y11.7452
G01 X22.3544 Y11.7118
G01 X22.3221 Y11.6209
G01 X22.3118 Y11.5867
G01 X22.3072 Y11.5694
G01 X22.2881 Y11.4932
G01 X22.2803 Y11.4583
G01 X22.2742 Y11.4231
G01 X22.2626 Y11.3454
G01 X22.2583 Y11.3099
G01 X22.2556 Y11.2742
G01 X22.2518 Y11.1958
G01 X22.2509 Y11.1600
G01 X22.2518 Y11.1242
G01 X22.2567 Y11.0280
G01 X22.2583 Y11.0101
G01 X22.2626 Y10.9746
G01 X22.2742 Y10.8969
G01 X22.2803 Y10.8617
G01 X22.2881 Y10.8268
G01 X22.3072 Y10.7506
G01 X22.3167 Y10.7161
G01 X22.3280 Y10.6821
G01 X22.3544 Y10.6082
G01 X22.3607 Y10.5915
G01 X22.3743 Y10.5584
G01 X22.4232 Y10.4551
G01 X22.4315 Y10.4392
G01 X22.4491 Y10.4081
G01 X22.4895 Y10.3407
G01 X22.5086 Y10.3105
G01 X22.5292 Y10.2812
G01 X22.5760 Y10.2182
G01 X22.5980 Y10.1899
G01 X22.6095 Y10.1763
G01 X22.6863 Y10.0916
G01 X22.7116 Y10.0663
G01 X22.7247 Y10.0541
G01 X22.7829 Y10.0014
G01 X22.8099 Y9.9780
G01 X22.8382 Y9.9560
G01 X22.9012 Y9.9092
G01 X22.9157 Y9.8987
G01 X22.9384 Y9.8834
G01 X20.5551 Y9.8834
G01 X20.5559 Y9.9031
G01 X20.5559 Y9.9389
G01 X20.5493 Y10.0727
G01 X20.5458 Y10.1083
G01 X20.5434 Y10.1260
G01 X20.5262 Y10.2407
G01 X20.5229 Y10.2583
G01 X20.5150 Y10.2932
G01 X20.4912 Y10.3884
G01 X20.4816 Y10.4229
G01 X20.4704 Y10.4569
G01 X20.4311 Y10.5661
G01 X20.4174 Y10.5991
G01 X20.4100 Y10.6154
G01 X20.3680 Y10.7041
G01 X20.3519 Y10.7361
G01 X20.3343 Y10.7672
G01 X20.2838 Y10.8514
G01 X20.2647 Y10.8816
G01 X20.2441 Y10.9109
G01 X20.1856 Y10.9897
G01 X20.1636 Y11.0179
G01 X20.1402 Y11.0450
G01 X20.0622 Y11.1309
G01 X20.0497 Y11.1437
G01 X20.0237 Y11.1683
G01 X19.9510 Y11.2342
G01 X19.9239 Y11.2576
G01 X19.8957 Y11.2796
G01 X19.8169 Y11.3381
G01 X19.7876 Y11.3587
G01 X19.7574 Y11.3778
G01 X19.6732 Y11.4283
G01 X19.6421 Y11.4459
G01 X19.6101 Y11.4620
G01 X19.5214 Y11.5040
G01 X19.4887 Y11.5185
G01 X19.4553 Y11.5314
G01 X19.3629 Y11.5644
G01 X19.3289 Y11.5756
G01 X19.2944 Y11.5852
G01 X19.1992 Y11.6090
G01 X19.1643 Y11.6169
G01 X19.1291 Y11.6230
G01 X19.0320 Y11.6374
G01 X18.9965 Y11.6418
G01 X18.9608 Y11.6444
G01 X18.8449 Y11.6499
G01 X18.8270 Y11.6501
G01 X18.7912 Y11.6492
G01 X18.6932 Y11.6444
G01 X18.6575 Y11.6418
G01 X18.6220 Y11.6374
G01 X18.5073 Y11.6202
G01 X18.4897 Y11.6169
G01 X18.4548 Y11.6090
G01 X18.3596 Y11.5852
G01 X18.3251 Y11.5756
G01 X18.2911 Y11.5644
G01 X18.1819 Y11.5251
G01 X18.1489 Y11.5114
G01 X18.1326 Y11.5040
G01 X18.0278 Y11.4542
G01 X17.9962 Y11.4373
G01 X17.8966 Y11.3778
G01 X17.8664 Y11.3587
G01 X17.8371 Y11.3381
G01 X17.7583 Y11.2796
G01 X17.7301 Y11.2576
G01 X17.7164 Y11.2461
G01 X17.6171 Y11.1562
G01 X17.5918 Y11.1309
G01 X17.5138 Y11.0450
G01 X17.4904 Y11.0179
G01 X17.4792 Y11.0040
G01 X17.3994 Y10.8964
G01 X17.3795 Y10.8666
G01 X17.3533 Y10.8233
G01 X12.9792 Y10.8232
G01 X12.9485 Y10.8643
G01 X12.9258 Y10.8919
G01 X12.8359 Y10.9912
G01 X12.8106 Y11.0165
G01 X12.7247 Y11.0945
G01 X12.6976 Y11.1179
G01 X12.6837 Y11.1291
G01 X12.5906 Y11.1984
G01 X12.5613 Y11.2190
G01 X12.5311 Y11.2381
G01 X12.4469 Y11.2886
G01 X12.4158 Y11.3062
G01 X12.3838 Y11.3223
G01 X12.2788 Y11.3717
G01 X12.2458 Y11.3854
G01 X12.1366 Y11.4247
G01 X12.1026 Y11.4359
G01 X12.0681 Y11.4455
G01 X11.9729 Y11.4693
G01 X11.9555 Y11.4735
G01 X11.9204 Y11.4805
G01 X11.8057 Y11.4977
G01 X11.7702 Y11.5021
G01 X11.7345 Y11.5047
G01 X11.6186 Y11.5102
G01 X11.6007 Y11.5104
G01 X11.5649 Y11.5095
G01 X11.4669 Y11.5047
G01 X11.4312 Y11.5021
G01 X11.3957 Y11.4977
G01 X11.2986 Y11.4833
G01 X11.2634 Y11.4772
G01 X11.2459 Y11.4735
G01 X11.1333 Y11.4455
G01 X11.0988 Y11.4359
G01 X11.0648 Y11.4247
G01 X10.9556 Y11.3854
G01 X10.9390 Y11.3788
G01 X10.9063 Y11.3643
G01 X10.8176 Y11.3223
G01 X10.7856 Y11.3062
G01 X10.7545 Y11.2886
G01 X10.6551 Y11.2288
G01 X10.6253 Y11.2089
G01 X10.5320 Y11.1399
G01 X10.5038 Y11.1179
G01 X10.4767 Y11.0945
G01 X10.4040 Y11.0286
G01 X10.3780 Y11.0040
G01 X10.3534 Y10.9780
G01 X10.2756 Y10.8919
G01 X10.2529 Y10.8643
G01 X10.2421 Y10.8500
G01 X10.1731 Y10.7567
G01 X10.1532 Y10.7269
G01 X10.0934 Y10.6275
G01 X10.0758 Y10.5964
G01 X10.0597 Y10.5644
G01 X10.0103 Y10.4594
G01 X9.9966 Y10.4264
G01 X9.9573 Y10.3172
G01 X9.9461 Y10.2832
G01 X9.9365 Y10.2487
G01 X9.9085 Y10.1361
G01 X9.9015 Y10.1010
G01 X9.8843 Y9.9863
G01 X9.8799 Y9.9508
G01 X9.8784 Y9.9330
G01 X9.8725 Y9.8171
G01 X9.8716 Y9.7813
G01 X9.8725 Y9.7455
G01 X9.8773 Y9.6475
G01 X9.8799 Y9.6118
G01 X9.8819 Y9.5940
G01 X9.8987 Y9.4792
G01 X9.9048 Y9.4440
G01 X9.9127 Y9.4091
G01 X9.9365 Y9.3139
G01 X9.9461 Y9.2794
G01 X9.9573 Y9.2454
G01 X9.9903 Y9.1530
G01 X10.0032 Y9.1196
G01 X10.0177 Y9.0869
G01 X10.0597 Y8.9982
G01 X10.0758 Y8.9662
G01 X10.0844 Y8.9505
G01 X10.1439 Y8.8509
G01 X10.1630 Y8.8207
G01 X10.1836 Y8.7914
G01 X10.2421 Y8.7126
G01 X10.2641 Y8.6844
G01 X10.2875 Y8.6573
G01 X10.3534 Y8.5846
G01 X10.3780 Y8.5586
G01 X10.4040 Y8.5340
G01 X10.4767 Y8.4681
G01 X10.5038 Y8.4447
G01 X10.5177 Y8.4335
G01 X10.6108 Y8.3642
G01 X10.6401 Y8.3436
G01 X10.6703 Y8.3245
G01 X10.7545 Y8.2740
G01 X10.7699 Y8.2650
G01 X10.8015 Y8.2481
G01 X10.9063 Y8.1983
G01 X10.9226 Y8.1909
G01 X10.9556 Y8.1772
G01 X11.0817 Y8.1321
G01 X11.1160 Y8.1217
G01 X11.1333 Y8.1171
G01 X11.2285 Y8.0933
G01 X11.2634 Y8.0854
G01 X11.2986 Y8.0793
G01 X11.4134 Y8.0625
G01 X11.4312 Y8.0605
G01 X11.4669 Y8.0579
G01 X11.5828 Y8.0524
G01 X11.6186 Y8.0524
G01 X11.7345 Y8.0579
G01 X11.7702 Y8.0605
G01 X11.8057 Y8.0649
G01 X11.9204 Y8.0821
G01 X11.9555 Y8.0891
G01 X12.0681 Y8.1171
G01 X12.1026 Y8.1267
G01 X12.1366 Y8.1379
G01 X12.2290 Y8.1709
G01 X12.2624 Y8.1838
G01 X12.2951 Y8.1983
G01 X12.3999 Y8.2481
G01 X12.4315 Y8.2650
G01 X12.5311 Y8.3245
G01 X12.5613 Y8.3436
G01 X12.5906 Y8.3642
G01 X12.6694 Y8.4227
G01 X12.6976 Y8.4447
G01 X12.7247 Y8.4681
G01 X12.7974 Y8.5340
G01 X12.8234 Y8.5586
G01 X12.8480 Y8.5846
G01 X12.9258 Y8.6707
G01 X12.9485 Y8.6983
G01 X12.9961 Y8.7621
G01 X17.5432 Y8.7645
G01 X17.5918 Y8.7111
G01 X17.6171 Y8.6858
G01 X17.7164 Y8.5959
G01 X17.7440 Y8.5732
G01 X17.7583 Y8.5624
G01 X17.8516 Y8.4934
G01 X17.8664 Y8.4833
G01 X17.8966 Y8.4642
G01 X17.9808 Y8.4137
G01 X18.0119 Y8.3961
G01 X18.0439 Y8.3800
G01 X18.1326 Y8.3380
G01 X18.1653 Y8.3235
G01 X18.1987 Y8.3106
G01 X18.3080 Y8.2718
G01 X18.3423 Y8.2614
G01 X18.3596 Y8.2568
G01 X18.4548 Y8.2330
G01 X18.4897 Y8.2251
G01 X18.5249 Y8.2190
G01 X18.6397 Y8.2022
G01 X18.6575 Y8.2002
G01 X18.6932 Y8.1976
G01 X18.8091 Y8.1921
G01 X18.8449 Y8.1921
G01 X18.9787 Y8.1987
G01 X19.0143 Y8.2022
G01 X19.0806 Y8.2118
G01 X19.1788 Y8.1139
G01 X19.2138 Y8.0820
G01 X19.2409 Y8.0586
G01 X19.2691 Y8.0366
G01 X19.3072 Y8.0085
G01 X19.3370 Y7.9887
G01 X19.3775 Y7.9641
G01 X19.4086 Y7.9465
G01 X19.4406 Y7.9304
G01 X19.4835 Y7.9103
G01 X19.5165 Y7.8967
G01 X19.5333 Y7.8904
G01 X19.5780 Y7.8747
G01 X19.6122 Y7.8643
G01 X19.6755 Y7.8484
G01 X19.7106 Y7.8415
G01 X19.7574 Y7.8343
G01 X19.7929 Y7.8299
G01 X19.8286 Y7.8273
G01 X19.8759 Y7.8252
G01 X19.8938 Y7.8250
G01 X23.1150 Y7.8250
G01 X23.1145 Y7.8000
G01 X23.1145 Y6.2000
G01 X23.1154 Y6.1642
G01 X23.1165 Y6.1464
G01 X23.1200 Y6.1108
G01 X23.1252 Y6.0754
G01 X23.1322 Y6.0403
G01 X23.1409 Y6.0055
G01 X23.1459 Y5.9884
G01 X23.1571 Y5.9544
G01 X23.1700 Y5.9210
G01 X23.1845 Y5.8883
G01 X23.1924 Y5.8722
G01 X23.2092 Y5.8406
G01 X23.2182 Y5.8252
G01 X23.2374 Y5.7949
G01 X23.2475 Y5.7802
G01 X23.2688 Y5.7514
G01 X23.2915 Y5.7238
G01 X23.3034 Y5.7104
G01 X23.3280 Y5.6844
G01 X23.3409 Y5.6720
G01 X23.3540 Y5.6598
G01 X23.3811 Y5.6364
G01 X23.4093 Y5.6144
G01 X23.4238 Y5.6039
G01 X23.4535 Y5.5840
G01 X23.4842 Y5.5656
G01 X23.4999 Y5.5570
G01 X23.5319 Y5.5409
G01 X23.5646 Y5.5264
G01 X23.5812 Y5.5198
G01 X23.6149 Y5.5077
G01 X23.6320 Y5.5023
G01 X23.6664 Y5.4928
G01 X23.6839 Y5.4886
G01 X23.7014 Y5.4849
G01 X23.7366 Y5.4788
G01 X23.7721 Y5.4744
G01 X23.7900 Y5.4729
G01 X23.8257 Y5.4711
G01 X25.4436 Y5.4709
G01 X25.4794 Y5.4718
G01 X25.4972 Y5.4729
G01 X25.5328 Y5.4764
G01 X25.5506 Y5.4788
G01 X25.5858 Y5.4849
G01 X25.6033 Y5.4886
G01 X25.6381 Y5.4973
G01 X25.6552 Y5.5023
G01 X25.6892 Y5.5135
G01 X25.7226 Y5.5264
G01 X25.7391 Y5.5334
G01 X25.7714 Y5.5488
G01 X25.8030 Y5.5656
G01 X25.8337 Y5.5840
G01 X25.8487 Y5.5938
G01 X25.8779 Y5.6144
G01 X25.9061 Y5.6364
G01 X25.9234 Y5.6511
G01 X25.9548 Y5.6354
G01 X26.0257 Y5.6018
G01 X26.0584 Y5.5873
G01 X26.0918 Y5.5744
G01 X26.1657 Y5.5480
G01 X26.1997 Y5.5367
G01 X26.2169 Y5.5318
G01 X26.3104 Y5.5081
G01 X26.3453 Y5.5003
G01 X26.3805 Y5.4942
G01 X26.4759 Y5.4802
G01 X26.4937 Y5.4783
G01 X26.5294 Y5.4756
G01 X26.6078 Y5.4718
G01 X26.6436 Y5.4709
G01 X26.6794 Y5.4718
G01 X26.7756 Y5.4767
G01 X26.8113 Y5.4802
G01 X26.9067 Y5.4942
G01 X26.9419 Y5.5003
G01 X26.9768 Y5.5081
G01 X27.0530 Y5.5272
G01 X27.0875 Y5.5367
G01 X27.1215 Y5.5480
G01 X27.1954 Y5.5744
G01 X27.2288 Y5.5873
G01 X27.2615 Y5.6018
G01 X27.3324 Y5.6354
G01 X27.3644 Y5.6515
G01 X27.3955 Y5.6691
G01 X27.4781 Y5.7188
G01 X27.5079 Y5.7387
G01 X27.5854 Y5.7960
G01 X27.6137 Y5.8180
G01 X27.6273 Y5.8295
G01 X27.6436 Y5.8439
G01 X27.6599 Y5.8295
G01 X27.6735 Y5.8180
G01 X27.7018 Y5.7960
G01 X27.7793 Y5.7387
G01 X27.7941 Y5.7286
G01 X27.8243 Y5.7095
G01 X27.9071 Y5.6601
G01 X27.9387 Y5.6432
G01 X28.0257 Y5.6018
G01 X28.0420 Y5.5943
G01 X28.0751 Y5.5807
G01 X28.1657 Y5.5480
G01 X28.1997 Y5.5367
G01 X28.2342 Y5.5272
G01 X28.3104 Y5.5081
G01 X28.3453 Y5.5003
G01 X28.3805 Y5.4942
G01 X28.4582 Y5.4826
G01 X28.4937 Y5.4783
G01 X28.5294 Y5.4756
G01 X28.6078 Y5.4718
G00 Z2.0000
G00 X36.9715 Y7.2498
G01 F40.00
G01 Z-0.0500
G01 F35.00
G01 X36.9894 Y7.2491
G01 X37.0252 Y7.2491
G01 X37.1215 Y7.2536
G01 X37.1572 Y7.2563
G01 X37.1927 Y7.2606
G01 X37.2704 Y7.2722
G01 X37.3056 Y7.2783
G01 X37.3231 Y7.2820
G01 X37.4167 Y7.3052
G01 X37.4512 Y7.3147
G01 X37.4852 Y7.3260
G01 X37.5591 Y7.3524
G01 X37.5758 Y7.3587
G01 X37.6089 Y7.3723
G01 X37.6961 Y7.4134
G01 X37.7275 Y7.4291
G01 X37.7448 Y7.4144
G01 X37.7730 Y7.3924
G01 X37.7875 Y7.3819
G01 X37.8172 Y7.3620
G01 X37.8479 Y7.3436
G01 X37.8795 Y7.3268
G01 X37.9118 Y7.3114
G01 X37.9283 Y7.3044
G01 X37.9617 Y7.2915
G01 X37.9957 Y7.2803
G01 X38.0128 Y7.2753
G01 X38.0476 Y7.2666
G01 X38.0651 Y7.2629
G01 X38.1003 Y7.2568
G01 X38.1181 Y7.2544
G01 X38.1537 Y7.2509
G01 X38.1715 Y7.2498
G01 X38.2073 Y7.2489
G01 X39.8073 Y7.2489
G01 X39.8431 Y7.2498
G01 X39.8788 Y7.2524
G01 X39.9143 Y7.2568
G01 X39.9319 Y7.2596
G01 X39.9670 Y7.2666
G01 X40.0018 Y7.2753
G01 X40.0189 Y7.2803
G01 X40.0360 Y7.2857
G01 X40.0697 Y7.2978
G01 X40.1028 Y7.3114
G01 X40.1190 Y7.3189
G01 X40.1510 Y7.3350
G01 X40.1667 Y7.3436
G01 X40.1821 Y7.3526
G01 X40.2124 Y7.3718
G01 X40.2416 Y7.3924
G01 X40.2698 Y7.4144
G01 X40.2969 Y7.4378
G01 X40.3229 Y7.4624
G01 X40.3475 Y7.4884
G01 X40.3709 Y7.5155
G01 X40.3821 Y7.5294
G01 X40.4034 Y7.5582
G01 X40.4233 Y7.5879
G01 X40.4417 Y7.6186
G01 X40.4585 Y7.6502
G01 X40.4739 Y7.6825
G01 X40.4875 Y7.7156
G01 X40.4938 Y7.7324
G01 X40.5050 Y7.7664
G01 X40.5145 Y7.8008
G01 X40.5224 Y7.8358
G01 X40.5285 Y7.8710
G01 X40.5329 Y7.9065
G01 X40.5355 Y7.9422
G01 X40.5364 Y7.9780
G01 X40.5364 Y9.5780
G01 X40.5355 Y9.6138
G01 X40.5344 Y9.6316
G01 X40.5309 Y9.6672
G01 X40.5285 Y9.6850
G01 X40.5224 Y9.7202
G01 X40.5145 Y9.7552
G01 X40.5050 Y9.7896
G01 X40.4996 Y9.8067
G01 X40.4938 Y9.8236
G01 X40.4809 Y9.8570
G01 X40.4664 Y9.8897
G01 X40.4585 Y9.9058
G01 X40.4417 Y9.9374
G01 X40.4327 Y9.9528
G01 X40.4135 Y9.9831
G01 X40.4034 Y9.9978
G01 X40.3929 Y10.0123
G01 X40.3709 Y10.0405
G01 X40.3594 Y10.0542
G01 X40.3353 Y10.0807
G01 X40.3100 Y10.1060
G01 X40.2835 Y10.1301
G01 X40.2559 Y10.1528
G01 X40.2271 Y10.1741
G01 X40.1974 Y10.1940
G01 X40.1667 Y10.2124
G01 X40.1351 Y10.2292
G01 X40.1028 Y10.2446
G01 X40.0697 Y10.2582
G01 X40.0360 Y10.2703
G01 X40.0018 Y10.2807
G01 X39.9670 Y10.2894
G01 X39.9319 Y10.2964
G01 X39.8965 Y10.3016
G01 X39.8609 Y10.3051
G01 X39.8431 Y10.3062
G01 X39.8073 Y10.3071
G01 X38.2073 Y10.3071
G01 X38.1894 Y10.3069
G01 X38.1537 Y10.3051
G01 X38.1358 Y10.3036
G01 X38.1003 Y10.2992
G01 X38.0827 Y10.2964
G01 X38.0476 Y10.2894
G01 X38.0128 Y10.2807
G01 X37.9786 Y10.2703
G01 X37.9617 Y10.2645
G01 X37.9283 Y10.2516
G01 X37.8956 Y10.2371
G01 X37.8636 Y10.2210
G01 X37.8479 Y10.2124
G01 X37.8172 Y10.1940
G01 X37.8022 Y10.1842
G01 X37.7730 Y10.1636
G01 X37.7448 Y10.1416
G01 X37.7275 Y10.1269
G01 X37.6961 Y10.1426
G01 X37.6089 Y10.1837
G01 X37.5925 Y10.1907
G01 X37.5591 Y10.2036
G01 X37.4852 Y10.2300
G01 X37.4512 Y10.2413
G01 X37.4167 Y10.2508
G01 X37.3405 Y10.2699
G01 X37.3056 Y10.2777
G01 X37.2880 Y10.2810
G01 X37.1927 Y10.2954
G01 X37.1572 Y10.2997
G01 X37.1215 Y10.3024
G01 X37.0431 Y10.3062
G01 X37.0073 Y10.3071
G01 X36.9894 Y10.3069
G01 X36.8931 Y10.3024
G01 X36.8574 Y10.2997
G01 X36.8219 Y10.2954
G01 X36.7442 Y10.2838
G01 X36.7090 Y10.2777
G01 X36.6741 Y10.2699
G01 X36.5979 Y10.2508
G01 X36.5634 Y10.2413
G01 X36.5294 Y10.2300
G01 X36.4555 Y10.2036
G01 X36.4221 Y10.1907
G01 X36.3894 Y10.1762
G01 X36.3024 Y10.1348
G01 X36.2708 Y10.1179
G01 X36.1880 Y10.0685
G01 X36.1578 Y10.0494
G01 X36.1285 Y10.0288
G01 X36.0655 Y9.9820
G01 X36.0372 Y9.9600
G01 X36.0102 Y9.9366
G01 X35.9520 Y9.8839
G01 X35.9261 Y9.8592
G01 X35.9014 Y9.8333
G01 X35.8487 Y9.7751
G01 X35.8368 Y9.7617
G01 X35.8141 Y9.7341
G01 X35.7565 Y9.6568
G01 X35.7359 Y9.6275
G01 X35.7168 Y9.5973
G01 X35.6674 Y9.5145
G01 X35.6505 Y9.4829
G01 X35.6427 Y9.4668
G01 X35.6091 Y9.3959
G01 X35.5946 Y9.3632
G01 X35.5817 Y9.3298
G01 X35.5553 Y9.2559
G01 X35.5440 Y9.2219
G01 X35.5345 Y9.1874
G01 X35.5113 Y9.0938
G01 X35.5043 Y9.0587
G01 X35.5015 Y9.0411
G01 X35.4899 Y8.9634
G01 X35.4856 Y8.9279
G01 X35.4829 Y8.8922
G01 X35.4791 Y8.8138
G01 X35.4782 Y8.7780
G01 X35.4791 Y8.7422
G01 X35.4829 Y8.6638
G01 X35.4856 Y8.6281
G01 X35.4899 Y8.5926
G01 X35.5043 Y8.4973
G01 X35.5113 Y8.4622
G01 X35.5345 Y8.3686
G01 X35.5440 Y8.3341
G01 X35.5553 Y8.3001
G01 X35.5817 Y8.2262
G01 X35.5946 Y8.1928
G01 X35.6091 Y8.1601
G01 X35.6505 Y8.0731
G01 X35.6674 Y8.0415
G01 X35.6764 Y8.0261
G01 X35.7261 Y7.9435
G01 X35.7460 Y7.9137
G01 X35.8033 Y7.8362
G01 X35.8253 Y7.8079
G01 X35.8487 Y7.7809
G01 X35.9136 Y7.7096
G01 X35.9389 Y7.6843
G01 X36.0102 Y7.6194
G01 X36.0372 Y7.5960
G01 X36.0655 Y7.5740
G01 X36.1285 Y7.5272
G01 X36.1578 Y7.5066
G01 X36.1880 Y7.4875
G01 X36.2554 Y7.4471
G01 X36.2865 Y7.4295
G01 X36.3185 Y7.4134
G01 X36.3894 Y7.3798
G01 X36.4221 Y7.3653
G01 X36.4555 Y7.3524
G01 X36.5294 Y7.3260
G01 X36.5634 Y7.3147
G01 X36.5979 Y7.3052
G01 X36.6915 Y7.2820
G01 X36.7266 Y7.2750
G01 X36.8219 Y7.2606
G01 X36.8574 Y7.2563
G01 X36.8931 Y7.2536
G01 X36.9715 Y7.2498
G00 Z2.0000
G00 X36.2640 Y21.0919
G01 F40.00
G01 Z-0.0500
G01 F35.00
G01 X36.2998 Y21.0928
G01 X36.3355 Y21.0954
G01 X36.3710 Y21.0998
G01 X36.3886 Y21.1026
G01 X36.4062 Y21.1059
G01 X36.4412 Y21.1138
G01 X36.4756 Y21.1233
G01 X36.5096 Y21.1345
G01 X36.5430 Y21.1474
G01 X36.5757 Y21.1619
G01 X36.6077 Y21.1780
G01 X36.6234 Y21.1866
G01 X36.6541 Y21.2050
G01 X36.6838 Y21.2249
G01 X36.7126 Y21.2462
G01 X36.7402 Y21.2689
G01 X36.7536 Y21.2808
G01 X36.7796 Y21.3054
G01 X36.8042 Y21.3314
G01 X36.8276 Y21.3585
G01 X36.8496 Y21.3867
G01 X36.8702 Y21.4159
G01 X36.8894 Y21.4462
G01 X36.8984 Y21.4616
G01 X36.9070 Y21.4773
G01 X36.9231 Y21.5093
G01 X36.9376 Y21.5420
G01 X36.9505 Y21.5754
G01 X36.9617 Y21.6094
G01 X36.9712 Y21.6438
G01 X36.9754 Y21.6613
G01 X36.9824 Y21.6964
G01 X36.9876 Y21.7318
G01 X36.9911 Y21.7674
G01 X36.9929 Y21.8031
G01 X36.9931 Y21.8210
G01 X36.9931 Y23.4210
G01 X36.9922 Y23.4568
G01 X36.9911 Y23.4746
G01 X36.9876 Y23.5102
G01 X36.9852 Y23.5280
G01 X36.9791 Y23.5632
G01 X36.9712 Y23.5982
G01 X36.9617 Y23.6326
G01 X36.9563 Y23.6497
G01 X36.9505 Y23.6666
G01 X36.9376 Y23.7000
G01 X36.9231 Y23.7327
G01 X36.9152 Y23.7488
G01 X36.8984 Y23.7804
G01 X36.8800 Y23.8111
G01 X36.8702 Y23.8261
G01 X36.8496 Y23.8553
G01 X36.8276 Y23.8835
G01 X36.8129 Y23.9008
G01 X36.8286 Y23.9322
G01 X36.8622 Y24.0031
G01 X36.8767 Y24.0358
G01 X36.8896 Y24.0692
G01 X36.9160 Y24.1431
G01 X36.9273 Y24.1771
G01 X36.9368 Y24.2116
G01 X36.9559 Y24.2878
G01 X36.9637 Y24.3227
G01 X36.9698 Y24.3579
G01 X36.9814 Y24.4356
G01 X36.9838 Y24.4533
G01 X36.9873 Y24.4890
G01 X36.9922 Y24.5852
G01 X36.9931 Y24.6210
G01 X36.9922 Y24.6568
G01 X36.9873 Y24.7530
G01 X36.9838 Y24.7887
G01 X36.9698 Y24.8841
G01 X36.9637 Y24.9193
G01 X36.9600 Y24.9368
G01 X36.9368 Y25.0304
G01 X36.9273 Y25.0649
G01 X36.9160 Y25.0989
G01 X36.8896 Y25.1728
G01 X36.8767 Y25.2062
G01 X36.8622 Y25.2389
G01 X36.8286 Y25.3098
G01 X36.8125 Y25.3418
G01 X36.7949 Y25.3729
G01 X36.7545 Y25.4403
G01 X36.7354 Y25.4705
G01 X36.7148 Y25.4998
G01 X36.6680 Y25.5628
G01 X36.6460 Y25.5911
G01 X36.6226 Y25.6181
G01 X36.5699 Y25.6763
G01 X36.5452 Y25.7022
G01 X36.5193 Y25.7269
G01 X36.4611 Y25.7796
G01 X36.4341 Y25.8030
G01 X36.4058 Y25.8250
G01 X36.3428 Y25.8718
G01 X36.3135 Y25.8924
G01 X36.2833 Y25.9115
G01 X36.2159 Y25.9519
G01 X36.1848 Y25.9695
G01 X36.1528 Y25.9856
G01 X36.0819 Y26.0192
G01 X36.0492 Y26.0337
G01 X36.0158 Y26.0466
G01 X35.9419 Y26.0730
G01 X35.9079 Y26.0843
G01 X35.8734 Y26.0938
G01 X35.7972 Y26.1129
G01 X35.7623 Y26.1207
G01 X35.7271 Y26.1268
G01 X35.6494 Y26.1384
G01 X35.6139 Y26.1427
G01 X35.5782 Y26.1454
G01 X35.4998 Y26.1492
G01 X35.4640 Y26.1501
G01 X35.4282 Y26.1492
G01 X35.3498 Y26.1454
G01 X35.3141 Y26.1427
G01 X35.2786 Y26.1384
G01 X35.2009 Y26.1268
G01 X35.1657 Y26.1207
G01 X35.1482 Y26.1170
G01 X35.0546 Y26.0938
G01 X35.0201 Y26.0843
G01 X34.9861 Y26.0730
G01 X34.9122 Y26.0466
G01 X34.8788 Y26.0337
G01 X34.8624 Y26.0267
G01 X34.7752 Y25.9856
G01 X34.7432 Y25.9695
G01 X34.7121 Y25.9519
G01 X34.6295 Y25.9022
G01 X34.5997 Y25.8823
G01 X34.5852 Y25.8718
G01 X34.5222 Y25.8250
G01 X34.4939 Y25.8030
G01 X34.4669 Y25.7796
G01 X34.4087 Y25.7269
G01 X34.3828 Y25.7022
G01 X34.3703 Y25.6894
G01 X34.3054 Y25.6181
G01 X34.2820 Y25.5911
G01 X34.2600 Y25.5628
G01 X34.2027 Y25.4853
G01 X34.1828 Y25.4555
G01 X34.1735 Y25.4403
G01 X34.1331 Y25.3729
G01 X34.1155 Y25.3418
G01 X34.0994 Y25.3098
G01 X34.0583 Y25.2226
G01 X34.0447 Y25.1895
G01 X34.0120 Y25.0989
G01 X34.0007 Y25.0649
G01 X33.9958 Y25.0477
G01 X33.9721 Y24.9542
G01 X33.9643 Y24.9193
G01 X33.9582 Y24.8841
G01 X33.9466 Y24.8064
G01 X33.9423 Y24.7709
G01 X33.9396 Y24.7352
G01 X33.9358 Y24.6568
G01 X33.9349 Y24.6210
G01 X33.9358 Y24.5852
G01 X33.9396 Y24.5068
G01 X33.9423 Y24.4711
G01 X33.9466 Y24.4356
G01 X33.9582 Y24.3579
G01 X33.9643 Y24.3227
G01 X33.9721 Y24.2878
G01 X33.9912 Y24.2116
G01 X34.0007 Y24.1771
G01 X34.0120 Y24.1431
G01 X34.0384 Y24.0692
G01 X34.0513 Y24.0358
G01 X34.0658 Y24.0031
G01 X34.0994 Y23.9322
G01 X34.1151 Y23.9008
G01 X34.1004 Y23.8835
G01 X34.0784 Y23.8553
G01 X34.0679 Y23.8408
G01 X34.0480 Y23.8111
G01 X34.0296 Y23.7804
G01 X34.0210 Y23.7647
G01 X34.0049 Y23.7327
G01 X33.9904 Y23.7000
G01 X33.9775 Y23.6666
G01 X33.9717 Y23.6497
G01 X33.9613 Y23.6155
G01 X33.9526 Y23.5807
G01 X33.9456 Y23.5456
G01 X33.9428 Y23.5280
G01 X33.9384 Y23.4925
G01 X33.9369 Y23.4746
G01 X33.9351 Y23.4389
G01 X33.9349 Y23.4210
G01 X33.9349 Y21.8210
G01 X33.9358 Y21.7852
G01 X33.9369 Y21.7674
G01 X33.9404 Y21.7318
G01 X33.9456 Y21.6964
G01 X33.9526 Y21.6613
G01 X33.9613 Y21.6265
G01 X33.9663 Y21.6094
G01 X33.9717 Y21.5923
G01 X33.9838 Y21.5586
G01 X33.9974 Y21.5255
G01 X34.0128 Y21.4932
G01 X34.0210 Y21.4773
G01 X34.0296 Y21.4616
G01 X34.0480 Y21.4309
G01 X34.0679 Y21.4012
G01 X34.0892 Y21.3724
G01 X34.1004 Y21.3585
G01 X34.1119 Y21.3448
G01 X34.1360 Y21.3183
G01 X34.1613 Y21.2930
G01 X34.1744 Y21.2808
G01 X34.1878 Y21.2689
G01 X34.2154 Y21.2462
G01 X34.2442 Y21.2249
G01 X34.2589 Y21.2148
G01 X34.2892 Y21.1956
G01 X34.3046 Y21.1866
G01 X34.3362 Y21.1698
G01 X34.3523 Y21.1619
G01 X34.3850 Y21.1474
G01 X34.4184 Y21.1345
G01 X34.4353 Y21.1287
G01 X34.4524 Y21.1233
G01 X34.4868 Y21.1138
G01 X34.5218 Y21.1059
G01 X34.5570 Y21.0998
G01 X34.5748 Y21.0974
G01 X34.6104 Y21.0939
G01 X34.6461 Y21.0921
G01 X36.2640 Y21.0919
G00 Z2.0000
G00 X52.1922 Y23.9188
G01 F40.00
G01 Z-0.0500
G01 F35.00
G01 X52.2280 Y23.9179
G01 X52.2459 Y23.9181
G01 X52.3600 Y23.9237
G01 X52.3957 Y23.9272
G01 X52.4911 Y23.9412
G01 X52.5263 Y23.9473
G01 X52.5438 Y23.9510
G01 X52.6374 Y23.9742
G01 X52.6719 Y23.9837
G01 X52.7059 Y23.9950
G01 X52.7798 Y24.0214
G01 X52.8132 Y24.0343
G01 X52.8459 Y24.0488
G01 X52.9168 Y24.0824
G01 X52.9488 Y24.0985
G01 X52.9799 Y24.1161
G01 X53.0473 Y24.1565
G01 X53.0775 Y24.1756
G01 X53.1068 Y24.1962
G01 X53.1698 Y24.2430
G01 X53.1981 Y24.2650
G01 X53.2251 Y24.2884
G01 X53.2833 Y24.3411
G01 X53.3092 Y24.3658
G01 X53.3339 Y24.3917
G01 X53.3866 Y24.4499
G01 X53.4100 Y24.4769
G01 X53.4320 Y24.5052
G01 X53.4788 Y24.5682
G01 X53.4994 Y24.5975
G01 X53.5185 Y24.6277
G01 X53.5589 Y24.6951
G01 X53.5765 Y24.7262
G01 X53.5926 Y24.7582
G01 X53.6337 Y24.8454
G01 X53.6473 Y24.8785
G01 X53.6800 Y24.9691
G01 X53.6913 Y25.0031
G01 X53.7008 Y25.0376
G01 X53.7199 Y25.1138
G01 X53.7277 Y25.1487
G01 X53.7338 Y25.1839
G01 X53.7454 Y25.2616
G01 X53.7497 Y25.2971
G01 X53.7524 Y25.3328
G01 X53.7569 Y25.4291
G01 X53.7569 Y25.4649
G01 X53.7524 Y25.5612
G01 X53.7497 Y25.5969
G01 X53.7454 Y25.6324
G01 X53.7338 Y25.7101
G01 X53.7277 Y25.7453
G01 X53.7199 Y25.7802
G01 X53.7008 Y25.8564
G01 X53.6913 Y25.8909
G01 X53.6800 Y25.9249
G01 X53.6536 Y25.9988
G01 X53.6407 Y26.0322
G01 X53.6262 Y26.0649
G01 X53.5926 Y26.1358
G01 X53.5769 Y26.1672
G01 X53.5916 Y26.1845
G01 X53.6136 Y26.2127
G01 X53.6241 Y26.2272
G01 X53.6440 Y26.2569
G01 X53.6624 Y26.2876
G01 X53.6792 Y26.3192
G01 X53.6871 Y26.3353
G01 X53.7016 Y26.3680
G01 X53.7145 Y26.4014
G01 X53.7203 Y26.4183
G01 X53.7307 Y26.4525
G01 X53.7394 Y26.4873
G01 X53.7431 Y26.5048
G01 X53.7492 Y26.5400
G01 X53.7516 Y26.5578
G01 X53.7551 Y26.5934
G01 X53.7569 Y26.6291
G01 X53.7571 Y26.6470
G01 X53.7571 Y28.2470
G01 X53.7562 Y28.2828
G01 X53.7551 Y28.3006
G01 X53.7516 Y28.3362
G01 X53.7492 Y28.3540
G01 X53.7431 Y28.3892
G01 X53.7352 Y28.4242
G01 X53.7307 Y28.4415
G01 X53.7203 Y28.4757
G01 X53.7145 Y28.4926
G01 X53.7016 Y28.5260
G01 X53.6871 Y28.5587
G01 X53.6792 Y28.5748
G01 X53.6710 Y28.5907
G01 X53.6534 Y28.6218
G01 X53.6342 Y28.6521
G01 X53.6241 Y28.6668
G01 X53.6136 Y28.6813
G01 X53.5916 Y28.7095
G01 X53.5682 Y28.7366
G01 X53.5560 Y28.7497
G01 X53.5307 Y28.7750
G01 X53.5176 Y28.7872
G01 X53.5042 Y28.7991
G01 X53.4766 Y28.8218
G01 X53.4623 Y28.8326
G01 X53.4331 Y28.8532
G01 X53.4028 Y28.8724
G01 X53.3717 Y28.8900
G01 X53.3558 Y28.8982
G01 X53.3235 Y28.9136
G01 X53.3070 Y28.9206
G01 X53.2736 Y28.9335
G01 X53.2567 Y28.9393
G01 X53.2225 Y28.9497
G01 X53.1877 Y28.9584
G01 X53.1702 Y28.9621
G01 X53.1350 Y28.9682
G01 X53.0995 Y28.9726
G01 X53.0638 Y28.9752
G01 X53.0280 Y28.9761
G01 X51.4280 Y28.9761
G01 X51.3922 Y28.9752
G01 X51.3565 Y28.9726
G01 X51.3210 Y28.9682
G01 X51.2858 Y28.9621
G01 X51.2683 Y28.9584
G01 X51.2508 Y28.9542
G01 X51.2164 Y28.9447
G01 X51.1993 Y28.9393
G01 X51.1656 Y28.9272
G01 X51.1325 Y28.9136
G01 X51.1163 Y28.9061
G01 X51.0843 Y28.8900
G01 X51.0686 Y28.8814
G01 X51.0379 Y28.8630
G01 X51.0229 Y28.8532
G01 X51.0082 Y28.8431
G01 X50.9794 Y28.8218
G01 X50.9518 Y28.7991
G01 X50.9384 Y28.7872
G01 X50.9253 Y28.7750
G01 X50.9000 Y28.7497
G01 X50.8878 Y28.7366
G01 X50.8644 Y28.7095
G01 X50.8532 Y28.6956
G01 X50.8319 Y28.6668
G01 X50.8218 Y28.6521
G01 X50.8026 Y28.6218
G01 X50.7850 Y28.5907
G01 X50.7689 Y28.5587
G01 X50.7614 Y28.5425
G01 X50.7544 Y28.5260
G01 X50.7415 Y28.4926
G01 X50.7357 Y28.4757
G01 X50.7253 Y28.4415
G01 X50.7166 Y28.4067
G01 X50.7129 Y28.3892
G01 X50.7068 Y28.3540
G01 X50.7024 Y28.3185
G01 X50.6998 Y28.2828
G01 X50.6989 Y28.2470
G01 X50.6989 Y26.6470
G01 X50.6998 Y26.6112
G01 X50.7009 Y26.5934
G01 X50.7044 Y26.5578
G01 X50.7068 Y26.5400
G01 X50.7129 Y26.5048
G01 X50.7166 Y26.4873
G01 X50.7253 Y26.4525
G01 X50.7303 Y26.4354
G01 X50.7415 Y26.4014
G01 X50.7544 Y26.3680
G01 X50.7689 Y26.3353
G01 X50.7850 Y26.3033
G01 X50.7936 Y26.2876
G01 X50.8120 Y26.2569
G01 X50.8319 Y26.2272
G01 X50.8424 Y26.2127
G01 X50.8644 Y26.1845
G01 X50.8791 Y26.1672
G01 X50.8634 Y26.1358
G01 X50.8298 Y26.0649
G01 X50.8153 Y26.0322
G01 X50.8024 Y25.9988
G01 X50.7760 Y25.9249
G01 X50.7647 Y25.8909
G01 X50.7552 Y25.8564
G01 X50.7361 Y25.7802
G01 X50.7283 Y25.7453
G01 X50.7222 Y25.7101
G01 X50.7106 Y25.6324
G01 X50.7063 Y25.5969
G01 X50.7036 Y25.5612
G01 X50.6998 Y25.4828
G01 X50.6989 Y25.4470
G01 X50.6998 Y25.4112
G01 X50.7036 Y25.3328
G01 X50.7063 Y25.2971
G01 X50.7106 Y25.2616
G01 X50.7222 Y25.1839
G01 X50.7283 Y25.1487
G01 X50.7361 Y25.1138
G01 X50.7552 Y25.0376
G01 X50.7598 Y25.0203
G01 X50.7701 Y24.9861
G01 X50.8024 Y24.8952
G01 X50.8153 Y24.8618
G01 X50.8298 Y24.8291
G01 X50.8634 Y24.7582
G01 X50.8795 Y24.7262
G01 X50.8971 Y24.6951
G01 X50.9468 Y24.6125
G01 X50.9667 Y24.5827
G01 X51.0240 Y24.5052
G01 X51.0460 Y24.4769
G01 X51.0694 Y24.4499
G01 X51.1343 Y24.3786
G01 X51.1596 Y24.3533
G01 X51.2309 Y24.2884
G01 X51.2579 Y24.2650
G01 X51.2862 Y24.2430
G01 X51.3492 Y24.1962
G01 X51.3785 Y24.1756
G01 X51.4087 Y24.1565
G01 X51.4761 Y24.1161
G01 X51.5072 Y24.0985
G01 X51.5392 Y24.0824
G01 X51.6101 Y24.0488
G01 X51.6428 Y24.0343
G01 X51.6762 Y24.0214
G01 X51.7501 Y23.9950
G01 X51.7841 Y23.9837
G01 X51.8186 Y23.9742
G01 X51.9122 Y23.9510
G01 X51.9473 Y23.9440
G01 X52.0426 Y23.9296
G01 X52.0781 Y23.9253
G01 X52.1138 Y23.9226
G01 X52.1922 Y23.9188
G00 Z2.0000
G00 X51.7162 Y3.6938
G01 F40.00
G01 Z-0.0500
G01 F35.00
G01 X51.7520 Y3.6929
G01 X51.7699 Y3.6931
G01 X51.8662 Y3.6976
G01 X51.9019 Y3.7003
G01 X51.9374 Y3.7046
G01 X52.0151 Y3.7162
G01 X52.0503 Y3.7223
G01 X52.0678 Y3.7260
G01 X52.1614 Y3.7492
G01 X52.1959 Y3.7587
G01 X52.2299 Y3.7700
G01 X52.3038 Y3.7964
G01 X52.3372 Y3.8093
G01 X52.3536 Y3.8163
G01 X52.4408 Y3.8574
G01 X52.4722 Y3.8731
G01 X52.4895 Y3.8584
G01 X52.5177 Y3.8364
G01 X52.5322 Y3.8259
G01 X52.5619 Y3.8060
G01 X52.5926 Y3.7876
G01 X52.6242 Y3.7708
G01 X52.6565 Y3.7554
G01 X52.6730 Y3.7484
G01 X52.7064 Y3.7355
G01 X52.7404 Y3.7243
G01 X52.7748 Y3.7148
G01 X52.7923 Y3.7106
G01 X52.8274 Y3.7036
G01 X52.8450 Y3.7008
G01 X52.8628 Y3.6984
G01 X52.8984 Y3.6949
G01 X52.9162 Y3.6938
G01 X52.9520 Y3.6929
G01 X54.5520 Y3.6929
G01 X54.5878 Y3.6938
G01 X54.6235 Y3.6964
G01 X54.6590 Y3.7008
G01 X54.6766 Y3.7036
G01 X54.7117 Y3.7106
G01 X54.7465 Y3.7193
G01 X54.7636 Y3.7243
G01 X54.7807 Y3.7297
G01 X54.8144 Y3.7418
G01 X54.8475 Y3.7554
G01 X54.8637 Y3.7629
G01 X54.8957 Y3.7790
G01 X54.9114 Y3.7876
G01 X54.9421 Y3.8060
G01 X54.9571 Y3.8158
G01 X54.9863 Y3.8364
G01 X55.0145 Y3.8584
G01 X55.0282 Y3.8699
G01 X55.0547 Y3.8940
G01 X55.0800 Y3.9193
G01 X55.1041 Y3.9458
G01 X55.1268 Y3.9734
G01 X55.1481 Y4.0022
G01 X55.1680 Y4.0319
G01 X55.1864 Y4.0626
G01 X55.2032 Y4.0942
G01 X55.2186 Y4.1265
G01 X55.2322 Y4.1596
G01 X55.2443 Y4.1933
G01 X55.2547 Y4.2275
G01 X55.2592 Y4.2448
G01 X55.2671 Y4.2798
G01 X55.2732 Y4.3150
G01 X55.2776 Y4.3505
G01 X55.2802 Y4.3862
G01 X55.2811 Y4.4220
G01 X55.2811 Y6.0220
G01 X55.2809 Y6.0399
G01 X55.2791 Y6.0756
G01 X55.2756 Y6.1112
G01 X55.2732 Y6.1290
G01 X55.2671 Y6.1642
G01 X55.2634 Y6.1817
G01 X55.2547 Y6.2165
G01 X55.2497 Y6.2336
G01 X55.2385 Y6.2676
G01 X55.2322 Y6.2844
G01 X55.2186 Y6.3175
G01 X55.2111 Y6.3337
G01 X55.1950 Y6.3657
G01 X55.1864 Y6.3814
G01 X55.1680 Y6.4121
G01 X55.1481 Y6.4418
G01 X55.1376 Y6.4563
G01 X55.1156 Y6.4845
G01 X55.0922 Y6.5116
G01 X55.0676 Y6.5376
G01 X55.0416 Y6.5622
G01 X55.0145 Y6.5856
G01 X55.0006 Y6.5968
G01 X54.9718 Y6.6181
G01 X54.9421 Y6.6380
G01 X54.9114 Y6.6564
G01 X54.8798 Y6.6732
G01 X54.8475 Y6.6886
G01 X54.8144 Y6.7022
G01 X54.7807 Y6.7143
G01 X54.7465 Y6.7247
G01 X54.7117 Y6.7334
G01 X54.6766 Y6.7404
G01 X54.6412 Y6.7456
G01 X54.6056 Y6.7491
G01 X54.5878 Y6.7502
G01 X54.5520 Y6.7511
G01 X52.9520 Y6.7511
G01 X52.9341 Y6.7509
G01 X52.8984 Y6.7491
G01 X52.8628 Y6.7456
G01 X52.8274 Y6.7404
G01 X52.8098 Y6.7371
G01 X52.7748 Y6.7292
G01 X52.7404 Y6.7197
G01 X52.7233 Y6.7143
G01 X52.7064 Y6.7085
G01 X52.6730 Y6.6956
G01 X52.6403 Y6.6811
G01 X52.6083 Y6.6650
G01 X52.5926 Y6.6564
G01 X52.5619 Y6.6380
G01 X52.5322 Y6.6181
G01 X52.5177 Y6.6076
G01 X52.4895 Y6.5856
G01 X52.4722 Y6.5709
G01 X52.4408 Y6.5866
G01 X52.3536 Y6.6277
G01 X52.3372 Y6.6347
G01 X52.3038 Y6.6476
G01 X52.2299 Y6.6740
G01 X52.1959 Y6.6853
G01 X52.1614 Y6.6948
G01 X52.0852 Y6.7139
G01 X52.0503 Y6.7217
G01 X52.0327 Y6.7250
G01 X51.9374 Y6.7394
G01 X51.9019 Y6.7437
G01 X51.8662 Y6.7464
G01 X51.7878 Y6.7502
G01 X51.7699 Y6.7509
G01 X51.7341 Y6.7509
G01 X51.6378 Y6.7464
G01 X51.6021 Y6.7437
G01 X51.5666 Y6.7394
G01 X51.4889 Y6.7278
G01 X51.4537 Y6.7217
G01 X51.4188 Y6.7139
G01 X51.3426 Y6.6948
G01 X51.3081 Y6.6853
G01 X51.2741 Y6.6740
G01 X51.2002 Y6.6476
G01 X51.1668 Y6.6347
G01 X51.1341 Y6.6202
G01 X51.0471 Y6.5788
G01 X51.0155 Y6.5619
G01 X50.9327 Y6.5125
G01 X50.9025 Y6.4934
G01 X50.8732 Y6.4728
G01 X50.8102 Y6.4260
G01 X50.7819 Y6.4040
G01 X50.7549 Y6.3806
G01 X50.6967 Y6.3279
G01 X50.6708 Y6.3032
G01 X50.6461 Y6.2773
G01 X50.5934 Y6.2191
G01 X50.5815 Y6.2057
G01 X50.5588 Y6.1781
G01 X50.5012 Y6.1008
G01 X50.4806 Y6.0715
G01 X50.4615 Y6.0413
G01 X50.4121 Y5.9585
G01 X50.3952 Y5.9269
G01 X50.3874 Y5.9108
G01 X50.3538 Y5.8399
G01 X50.3393 Y5.8072
G01 X50.3264 Y5.7738
G01 X50.3000 Y5.6999
G01 X50.2887 Y5.6659
G01 X50.2792 Y5.6314
G01 X50.2560 Y5.5378
G01 X50.2523 Y5.5203
G01 X50.2462 Y5.4851
G01 X50.2346 Y5.4074
G01 X50.2303 Y5.3719
G01 X50.2276 Y5.3362
G01 X50.2238 Y5.2578
G01 X50.2229 Y5.2220
G01 X50.2238 Y5.1862
G01 X50.2276 Y5.1078
G01 X50.2303 Y5.0721
G01 X50.2346 Y5.0366
G01 X50.2490 Y4.9413
G01 X50.2560 Y4.9062
G01 X50.2792 Y4.8126
G01 X50.2887 Y4.7781
G01 X50.3000 Y4.7441
G01 X50.3264 Y4.6702
G01 X50.3393 Y4.6368
G01 X50.3538 Y4.6041
G01 X50.3952 Y4.5171
G01 X50.4121 Y4.4855
G01 X50.4211 Y4.4701
G01 X50.4708 Y4.3875
G01 X50.4907 Y4.3577
G01 X50.5480 Y4.2802
G01 X50.5700 Y4.2519
G01 X50.5934 Y4.2249
G01 X50.6583 Y4.1536
G01 X50.6836 Y4.1283
G01 X50.7549 Y4.0634
G01 X50.7819 Y4.0400
G01 X50.8102 Y4.0180
G01 X50.8732 Y3.9712
G01 X50.9025 Y3.9506
G01 X50.9327 Y3.9315
G01 X51.0001 Y3.8911
G01 X51.0312 Y3.8735
G01 X51.0632 Y3.8574
G01 X51.1341 Y3.8238
G01 X51.1668 Y3.8093
G01 X51.2002 Y3.7964
G01 X51.2741 Y3.7700
G01 X51.3081 Y3.7587
G01 X51.3426 Y3.7492
G01 X51.4362 Y3.7260
G01 X51.4713 Y3.7190
G01 X51.5666 Y3.7046
G01 X51.6021 Y3.7003
G01 X51.6378 Y3.6976
G01 X51.7162 Y3.6938
G00 Z2.0000
M05
G00 Z2.0000
G00 Z15.00


