(G-CODE GENERATED BY FLATCAM v8.994 - www.flatcam.org - Version Date: 2020/11/7)

(Name: ADCandDAC-B_Cu.gbr_0.1268_iso4_cnc)
(Type: G-code from Geometry)
(Units: MM)

(Created on Чацвер, 26 лістапада 2020 at 10:09)

(This preprocessor is the default preprocessor used by FlatCAM.)
(It is made to work with MACH3 compatible motion controllers.)

(TOOL DIAMETER: 0.1268 mm)
(Feedrate_XY: 35.0 mm/min)
(Feedrate_Z: 40.0 mm/min)
(Feedrate rapids 1000.0 mm/min)

(Z_Cut: -0.05 mm)
(Z_Move: 2.0 mm)
(Z Start: None mm)
(Z End: 15.0 mm)
(X,Y End: None mm)
(Steps per circle: 64)
(Preprocessor Geometry: default)

(X range:    4.8164 ...   54.9007  mm)
(Y range:    4.0733 ...   28.9989  mm)

(Spindle Speed: 10000.0 RPM)
G21
G90
G94

G01 F35.00

M5
G00 Z15.0000
G00 X0.0000 Y0.0000
T2
M6    
(MSG, Change to Tool Dia = 0.1268)
M0
G00 Z15.0000

M03 S10000.0
G01 F35.00
G00 X12.7752 Y10.4428
G01 F40.00
G01 Z-0.0500
G01 F35.00
G01 X12.7313 Y10.5161
G01 X12.7221 Y10.5306
G01 X12.7122 Y10.5446
G01 X12.6538 Y10.6234
G01 X12.6377 Y10.6435
G01 X12.5662 Y10.7226
G01 X12.5544 Y10.7350
G01 X12.5420 Y10.7468
G01 X12.4693 Y10.8127
G01 X12.4496 Y10.8292
G01 X12.3640 Y10.8928
G01 X12.3500 Y10.9027
G01 X12.3355 Y10.9119
G01 X12.2514 Y10.9623
G01 X12.2365 Y10.9707
G01 X12.2212 Y10.9784
G01 X12.1325 Y11.0204
G01 X12.1168 Y11.0273
G01 X12.1009 Y11.0335
G01 X12.0085 Y11.0666
G01 X11.9840 Y11.0743
G01 X11.8805 Y11.1003
G01 X11.8638 Y11.1041
G01 X11.8470 Y11.1070
G01 X11.7499 Y11.1214
G01 X11.7329 Y11.1235
G01 X11.7158 Y11.1248
G01 X11.6178 Y11.1296
G01 X11.6007 Y11.1300
G01 X11.5836 Y11.1296
G01 X11.4856 Y11.1248
G01 X11.4685 Y11.1235
G01 X11.4515 Y11.1214
G01 X11.3544 Y11.1070
G01 X11.3376 Y11.1041
G01 X11.3209 Y11.1003
G01 X11.2257 Y11.0765
G01 X11.2092 Y11.0719
G01 X11.1929 Y11.0666
G01 X11.1005 Y11.0335
G01 X11.0846 Y11.0273
G01 X11.0689 Y11.0204
G01 X10.9802 Y10.9784
G01 X10.9574 Y10.9666
G01 X10.8659 Y10.9119
G01 X10.8514 Y10.9027
G01 X10.8374 Y10.8928
G01 X10.7586 Y10.8344
G01 X10.7451 Y10.8239
G01 X10.7321 Y10.8127
G01 X10.6594 Y10.7468
G01 X10.6470 Y10.7350
G01 X10.6352 Y10.7226
G01 X10.5693 Y10.6499
G01 X10.5581 Y10.6369
G01 X10.5476 Y10.6234
G01 X10.4892 Y10.5446
G01 X10.4793 Y10.5306
G01 X10.4701 Y10.5161
G01 X10.4197 Y10.4320
G01 X10.4113 Y10.4171
G01 X10.4036 Y10.4018
G01 X10.3616 Y10.3131
G01 X10.3547 Y10.2974
G01 X10.3485 Y10.2815
G01 X10.3154 Y10.1891
G01 X10.3101 Y10.1728
G01 X10.3055 Y10.1563
G01 X10.2817 Y10.0611
G01 X10.2779 Y10.0444
G01 X10.2750 Y10.0276
G01 X10.2606 Y9.9305
G01 X10.2585 Y9.9135
G01 X10.2572 Y9.8964
G01 X10.2524 Y9.7984
G01 X10.2520 Y9.7813
G01 X10.2524 Y9.7642
G01 X10.2572 Y9.6662
G01 X10.2585 Y9.6491
G01 X10.2606 Y9.6321
G01 X10.2750 Y9.5350
G01 X10.2779 Y9.5182
G01 X10.2817 Y9.5015
G01 X10.3055 Y9.4063
G01 X10.3101 Y9.3898
G01 X10.3154 Y9.3735
G01 X10.3485 Y9.2811
G01 X10.3547 Y9.2652
G01 X10.3616 Y9.2495
G01 X10.4036 Y9.1608
G01 X10.4154 Y9.1380
G01 X10.4701 Y9.0465
G01 X10.4793 Y9.0320
G01 X10.4892 Y9.0180
G01 X10.5476 Y8.9392
G01 X10.5581 Y8.9257
G01 X10.5693 Y8.9127
G01 X10.6352 Y8.8400
G01 X10.6470 Y8.8276
G01 X10.6594 Y8.8158
G01 X10.7321 Y8.7499
G01 X10.7451 Y8.7387
G01 X10.7586 Y8.7282
G01 X10.8374 Y8.6698
G01 X10.8514 Y8.6599
G01 X10.8659 Y8.6507
G01 X10.9500 Y8.6003
G01 X10.9649 Y8.5919
G01 X10.9802 Y8.5842
G01 X11.0689 Y8.5422
G01 X11.0846 Y8.5353
G01 X11.1005 Y8.5291
G01 X11.1929 Y8.4960
G01 X11.2092 Y8.4907
G01 X11.2257 Y8.4861
G01 X11.3209 Y8.4623
G01 X11.3376 Y8.4585
G01 X11.3544 Y8.4556
G01 X11.4515 Y8.4412
G01 X11.4685 Y8.4391
G01 X11.4856 Y8.4378
G01 X11.5836 Y8.4330
G01 X11.6007 Y8.4326
G01 X11.6178 Y8.4330
G01 X11.7158 Y8.4378
G01 X11.7329 Y8.4391
G01 X11.7499 Y8.4412
G01 X11.8470 Y8.4556
G01 X11.8638 Y8.4585
G01 X11.8805 Y8.4623
G01 X11.9757 Y8.4861
G01 X11.9922 Y8.4907
G01 X12.0085 Y8.4960
G01 X12.1089 Y8.5321
G01 X12.1325 Y8.5422
G01 X12.2212 Y8.5842
G01 X12.2365 Y8.5919
G01 X12.2514 Y8.6003
G01 X12.3355 Y8.6507
G01 X12.3500 Y8.6599
G01 X12.3640 Y8.6698
G01 X12.4428 Y8.7282
G01 X12.4563 Y8.7387
G01 X12.4693 Y8.7499
G01 X12.5420 Y8.8158
G01 X12.5544 Y8.8276
G01 X12.5662 Y8.8400
G01 X12.6321 Y8.9127
G01 X12.6433 Y8.9257
G01 X12.6538 Y8.9392
G01 X12.7122 Y9.0180
G01 X12.7221 Y9.0320
G01 X12.7313 Y9.0465
G01 X12.7817 Y9.1306
G01 X12.7884 Y9.1424
G01 X17.7248 Y9.1450
G01 X17.7739 Y9.0789
G01 X17.7844 Y9.0654
G01 X17.7956 Y9.0524
G01 X17.8615 Y8.9797
G01 X17.8733 Y8.9673
G01 X17.8857 Y8.9555
G01 X17.9584 Y8.8896
G01 X17.9714 Y8.8784
G01 X17.9849 Y8.8679
G01 X18.0637 Y8.8095
G01 X18.0777 Y8.7996
G01 X18.0922 Y8.7904
G01 X18.1763 Y8.7400
G01 X18.1912 Y8.7316
G01 X18.2065 Y8.7239
G01 X18.3030 Y8.6783
G01 X18.3268 Y8.6688
G01 X18.4192 Y8.6357
G01 X18.4355 Y8.6304
G01 X18.4520 Y8.6258
G01 X18.5472 Y8.6020
G01 X18.5723 Y8.5966
G01 X18.6778 Y8.5809
G01 X18.6948 Y8.5788
G01 X18.7119 Y8.5775
G01 X18.8099 Y8.5727
G01 X18.8270 Y8.5723
G01 X18.8441 Y8.5727
G01 X18.9421 Y8.5775
G01 X18.9592 Y8.5788
G01 X18.9762 Y8.5809
G01 X19.0733 Y8.5953
G01 X19.0901 Y8.5982
G01 X19.1068 Y8.6020
G01 X19.2040 Y8.6263
G01 X19.4411 Y8.3894
G01 X19.4692 Y8.3638
G01 X19.4822 Y8.3526
G01 X19.4957 Y8.3421
G01 X19.5193 Y8.3246
G01 X19.5333 Y8.3147
G01 X19.5478 Y8.3055
G01 X19.5804 Y8.2861
G01 X19.6032 Y8.2743
G01 X19.6298 Y8.2617
G01 X19.6455 Y8.2547
G01 X19.6615 Y8.2486
G01 X19.6892 Y8.2387
G01 X19.7137 Y8.2309
G01 X19.7505 Y8.2216
G01 X19.7672 Y8.2178
G01 X19.7841 Y8.2149
G01 X19.8132 Y8.2106
G01 X19.8387 Y8.2077
G01 X19.8767 Y8.2058
G01 X19.8938 Y8.2054
G01 X31.7469 Y8.2054
G01 X31.7725 Y8.1629
G01 X31.7820 Y8.1486
G01 X31.8507 Y8.0561
G01 X31.8672 Y8.0364
G01 X31.9331 Y7.9637
G01 X31.9511 Y7.9453
G01 X32.0300 Y7.8736
G01 X32.0430 Y7.8624
G01 X32.0565 Y7.8519
G01 X32.1353 Y7.7935
G01 X32.1493 Y7.7836
G01 X32.1638 Y7.7744
G01 X32.2497 Y7.7229
G01 X32.2498 Y6.4920
G01 X32.2502 Y6.4749
G01 X32.2516 Y6.4455
G01 X32.2538 Y6.4199
G01 X32.2607 Y6.3738
G01 X32.2640 Y6.3570
G01 X32.2753 Y6.3119
G01 X32.2831 Y6.2874
G01 X32.2930 Y6.2597
G01 X32.2991 Y6.2437
G01 X32.3061 Y6.2280
G01 X32.3187 Y6.2014
G01 X32.3264 Y6.1861
G01 X32.3348 Y6.1712
G01 X32.3544 Y6.1387
G01 X32.3690 Y6.1175
G01 X32.3865 Y6.0939
G01 X32.3970 Y6.0804
G01 X32.4082 Y6.0674
G01 X32.4338 Y6.0393
G01 X32.9986 Y5.4744
G01 X33.0110 Y5.4626
G01 X33.0328 Y5.4428
G01 X33.0458 Y5.4316
G01 X33.0593 Y5.4211
G01 X33.0829 Y5.4036
G01 X33.1041 Y5.3890
G01 X33.1440 Y5.3651
G01 X33.1668 Y5.3533
G01 X33.1934 Y5.3407
G01 X33.2091 Y5.3337
G01 X33.2251 Y5.3276
G01 X33.2528 Y5.3177
G01 X33.2690 Y5.3123
G01 X33.2855 Y5.3077
G01 X33.3141 Y5.3006
G01 X33.3308 Y5.2968
G01 X33.3477 Y5.2939
G01 X33.3768 Y5.2896
G01 X33.4023 Y5.2867
G01 X33.4403 Y5.2848
G01 X33.4574 Y5.2844
G01 X42.2321 Y5.2844
G01 X42.2836 Y5.1984
G01 X42.2928 Y5.1839
G01 X42.3027 Y5.1699
G01 X42.3611 Y5.0911
G01 X42.3716 Y5.0776
G01 X42.3828 Y5.0646
G01 X42.4545 Y4.9857
G01 X42.4729 Y4.9677
G01 X42.5456 Y4.9018
G01 X42.5586 Y4.8906
G01 X42.5721 Y4.8801
G01 X42.6509 Y4.8217
G01 X42.6649 Y4.8118
G01 X42.6794 Y4.8026
G01 X42.7635 Y4.7522
G01 X42.7784 Y4.7438
G01 X42.7937 Y4.7361
G01 X42.8824 Y4.6941
G01 X42.8981 Y4.6872
G01 X42.9140 Y4.6810
G01 X43.0145 Y4.6452
G01 X43.0392 Y4.6380
G01 X43.1344 Y4.6142
G01 X43.1511 Y4.6104
G01 X43.1679 Y4.6075
G01 X43.2650 Y4.5931
G01 X43.2820 Y4.5910
G01 X43.2991 Y4.5897
G01 X43.3971 Y4.5849
G01 X43.4142 Y4.5845
G01 X43.4313 Y4.5849
G01 X43.5293 Y4.5897
G01 X43.5464 Y4.5910
G01 X43.5634 Y4.5931
G01 X43.6605 Y4.6075
G01 X43.6773 Y4.6104
G01 X43.6940 Y4.6142
G01 X43.7892 Y4.6380
G01 X43.8057 Y4.6426
G01 X43.8220 Y4.6479
G01 X43.9144 Y4.6810
G01 X43.9303 Y4.6872
G01 X43.9460 Y4.6941
G01 X44.0347 Y4.7361
G01 X44.0500 Y4.7438
G01 X44.0649 Y4.7522
G01 X44.1490 Y4.8026
G01 X44.1635 Y4.8118
G01 X44.1775 Y4.8217
G01 X44.2631 Y4.8853
G01 X44.2828 Y4.9018
G01 X44.3555 Y4.9677
G01 X44.3679 Y4.9795
G01 X44.3797 Y4.9919
G01 X44.4456 Y5.0646
G01 X44.4568 Y5.0776
G01 X44.4673 Y5.0911
G01 X44.5257 Y5.1699
G01 X44.5356 Y5.1839
G01 X44.5448 Y5.1984
G01 X44.5963 Y5.2843
G01 X45.3446 Y5.2844
G01 X45.3617 Y5.2848
G01 X45.3911 Y5.2862
G01 X45.4167 Y5.2884
G01 X45.4543 Y5.2939
G01 X45.4712 Y5.2968
G01 X45.4879 Y5.3006
G01 X45.5247 Y5.3099
G01 X45.5492 Y5.3177
G01 X45.5850 Y5.3306
G01 X45.6008 Y5.3371
G01 X45.6352 Y5.3533
G01 X45.6505 Y5.3610
G01 X45.6654 Y5.3694
G01 X45.6979 Y5.3890
G01 X45.7121 Y5.3985
G01 X45.7427 Y5.4211
G01 X45.7628 Y5.4371
G01 X45.7910 Y5.4626
G01 X45.8034 Y5.4744
G01 X51.5088 Y11.1798
G01 X51.5206 Y11.1922
G01 X51.5404 Y11.2140
G01 X51.5516 Y11.2270
G01 X51.5621 Y11.2405
G01 X51.5796 Y11.2641
G01 X51.5895 Y11.2781
G01 X51.5987 Y11.2926
G01 X51.6181 Y11.3252
G01 X51.6299 Y11.3480
G01 X51.6425 Y11.3746
G01 X51.6495 Y11.3903
G01 X51.6556 Y11.4063
G01 X51.6655 Y11.4340
G01 X51.6709 Y11.4502
G01 X51.6755 Y11.4667
G01 X51.6846 Y11.5036
G01 X51.6893 Y11.5289
G01 X51.6936 Y11.5580
G01 X51.6957 Y11.5750
G01 X51.6970 Y11.5921
G01 X51.6987 Y11.6300
G01 X51.6988 Y16.4859
G01 X51.7848 Y16.5374
G01 X51.7993 Y16.5466
G01 X51.8133 Y16.5565
G01 X51.8921 Y16.6149
G01 X51.9056 Y16.6254
G01 X51.9186 Y16.6366
G01 X51.9975 Y16.7083
G01 X52.0155 Y16.7267
G01 X52.0814 Y16.7994
G01 X52.0926 Y16.8124
G01 X52.1031 Y16.8259
G01 X52.1615 Y16.9047
G01 X52.1714 Y16.9187
G01 X52.1806 Y16.9332
G01 X52.2310 Y17.0173
G01 X52.2394 Y17.0322
G01 X52.2471 Y17.0475
G01 X52.2891 Y17.1362
G01 X52.2960 Y17.1519
G01 X52.3022 Y17.1678
G01 X52.3380 Y17.2683
G01 X52.3452 Y17.2930
G01 X52.3690 Y17.3882
G01 X52.3728 Y17.4049
G01 X52.3757 Y17.4217
G01 X52.3901 Y17.5188
G01 X52.3922 Y17.5358
G01 X52.3935 Y17.5529
G01 X52.3983 Y17.6509
G01 X52.3987 Y17.6680
G01 X52.3983 Y17.6851
G01 X52.3935 Y17.7831
G01 X52.3922 Y17.8002
G01 X52.3901 Y17.8172
G01 X52.3757 Y17.9143
G01 X52.3728 Y17.9311
G01 X52.3690 Y17.9478
G01 X52.3452 Y18.0430
G01 X52.3406 Y18.0595
G01 X52.3353 Y18.0758
G01 X52.3022 Y18.1682
G01 X52.2960 Y18.1841
G01 X52.2891 Y18.1998
G01 X52.2434 Y18.2962
G01 X52.2310 Y18.3187
G01 X52.1806 Y18.4028
G01 X52.1714 Y18.4173
G01 X52.1615 Y18.4313
G01 X52.1031 Y18.5101
G01 X52.0926 Y18.5236
G01 X52.0814 Y18.5366
G01 X52.0155 Y18.6093
G01 X52.0037 Y18.6217
G01 X51.9913 Y18.6335
G01 X51.9186 Y18.6994
G01 X51.9056 Y18.7106
G01 X51.8921 Y18.7211
G01 X51.8064 Y18.7846
G01 X51.7848 Y18.7986
G01 X51.7007 Y18.8490
G01 X51.6858 Y18.8574
G01 X51.6705 Y18.8651
G01 X51.5818 Y18.9071
G01 X51.5661 Y18.9140
G01 X51.5502 Y18.9202
G01 X51.4578 Y18.9533
G01 X51.4415 Y18.9586
G01 X51.4250 Y18.9632
G01 X51.3298 Y18.9870
G01 X51.3131 Y18.9908
G01 X51.2963 Y18.9937
G01 X51.1992 Y19.0081
G01 X51.1822 Y19.0102
G01 X51.1651 Y19.0115
G01 X51.0671 Y19.0163
G01 X51.0500 Y19.0167
G01 X51.0329 Y19.0163
G01 X50.9349 Y19.0115
G01 X50.9178 Y19.0102
G01 X50.9008 Y19.0081
G01 X50.8037 Y18.9937
G01 X50.7869 Y18.9908
G01 X50.7702 Y18.9870
G01 X50.6750 Y18.9632
G01 X50.6585 Y18.9586
G01 X50.6422 Y18.9533
G01 X50.5498 Y18.9202
G01 X50.5339 Y18.9140
G01 X50.5182 Y18.9071
G01 X50.4295 Y18.8651
G01 X50.4142 Y18.8574
G01 X50.3993 Y18.8490
G01 X50.3152 Y18.7986
G01 X50.3007 Y18.7894
G01 X50.2867 Y18.7795
G01 X50.2079 Y18.7211
G01 X50.1944 Y18.7106
G01 X50.1814 Y18.6994
G01 X50.1087 Y18.6335
G01 X50.0963 Y18.6217
G01 X50.0845 Y18.6093
G01 X50.0186 Y18.5366
G01 X50.0074 Y18.5236
G01 X49.9969 Y18.5101
G01 X49.9385 Y18.4313
G01 X49.9286 Y18.4173
G01 X49.9194 Y18.4028
G01 X49.8679 Y18.3169
G01 X48.2296 Y18.3168
G01 X38.4374 Y28.1090
G01 X38.4250 Y28.1208
G01 X38.4032 Y28.1406
G01 X38.3902 Y28.1518
G01 X38.3767 Y28.1623
G01 X38.3531 Y28.1798
G01 X38.3391 Y28.1897
G01 X38.3246 Y28.1989
G01 X38.2920 Y28.2183
G01 X38.2769 Y28.2264
G01 X38.2426 Y28.2427
G01 X38.2269 Y28.2497
G01 X38.2109 Y28.2558
G01 X38.1751 Y28.2685
G01 X38.1505 Y28.2757
G01 X38.1136 Y28.2848
G01 X38.0968 Y28.2881
G01 X38.0592 Y28.2938
G01 X38.0422 Y28.2959
G01 X38.0251 Y28.2972
G01 X37.9872 Y28.2989
G01 X35.0840 Y28.2990
G01 X35.0325 Y28.3850
G01 X35.0233 Y28.3995
G01 X35.0134 Y28.4135
G01 X34.9550 Y28.4923
G01 X34.9445 Y28.5058
G01 X34.9333 Y28.5188
G01 X34.8616 Y28.5977
G01 X34.8432 Y28.6157
G01 X34.7705 Y28.6816
G01 X34.7575 Y28.6928
G01 X34.7440 Y28.7033
G01 X34.6652 Y28.7617
G01 X34.6512 Y28.7716
G01 X34.6367 Y28.7808
G01 X34.5526 Y28.8312
G01 X34.5377 Y28.8396
G01 X34.5224 Y28.8473
G01 X34.4337 Y28.8893
G01 X34.4180 Y28.8962
G01 X34.4021 Y28.9024
G01 X34.3016 Y28.9382
G01 X34.2769 Y28.9454
G01 X34.1817 Y28.9692
G01 X34.1650 Y28.9730
G01 X34.1482 Y28.9759
G01 X34.0511 Y28.9903
G01 X34.0341 Y28.9924
G01 X34.0170 Y28.9937
G01 X33.9190 Y28.9985
G01 X33.9019 Y28.9989
G01 X33.8848 Y28.9985
G01 X33.7868 Y28.9937
G01 X33.7697 Y28.9924
G01 X33.7527 Y28.9903
G01 X33.6556 Y28.9759
G01 X33.6388 Y28.9730
G01 X33.6221 Y28.9692
G01 X33.5269 Y28.9454
G01 X33.5104 Y28.9408
G01 X33.4941 Y28.9355
G01 X33.4017 Y28.9024
G01 X33.3858 Y28.8962
G01 X33.3701 Y28.8893
G01 X33.2814 Y28.8473
G01 X33.2661 Y28.8396
G01 X33.2512 Y28.8312
G01 X33.1671 Y28.7808
G01 X33.1526 Y28.7716
G01 X33.1386 Y28.7617
G01 X33.0598 Y28.7033
G01 X33.0463 Y28.6928
G01 X33.0333 Y28.6816
G01 X32.9606 Y28.6157
G01 X32.9482 Y28.6039
G01 X32.9364 Y28.5915
G01 X32.8705 Y28.5188
G01 X32.8593 Y28.5058
G01 X32.8488 Y28.4923
G01 X32.7904 Y28.4135
G01 X32.7805 Y28.3995
G01 X32.7713 Y28.3850
G01 X32.7209 Y28.3009
G01 X32.7125 Y28.2860
G01 X32.7048 Y28.2707
G01 X32.6628 Y28.1820
G01 X32.6559 Y28.1663
G01 X32.6497 Y28.1504
G01 X32.6166 Y28.0580
G01 X32.6113 Y28.0417
G01 X32.6067 Y28.0252
G01 X32.5829 Y27.9300
G01 X32.5775 Y27.9049
G01 X32.5618 Y27.7994
G01 X32.5597 Y27.7824
G01 X32.5584 Y27.7653
G01 X32.5536 Y27.6673
G01 X32.5532 Y27.6502
G01 X32.5536 Y27.6331
G01 X32.5590 Y27.5265
G01 X32.5618 Y27.5010
G01 X32.5762 Y27.4039
G01 X32.5791 Y27.3871
G01 X32.5829 Y27.3704
G01 X32.6067 Y27.2752
G01 X32.6113 Y27.2587
G01 X32.6166 Y27.2424
G01 X32.6497 Y27.1500
G01 X32.6559 Y27.1341
G01 X32.6628 Y27.1184
G01 X32.7048 Y27.0297
G01 X32.7166 Y27.0069
G01 X32.7713 Y26.9154
G01 X32.7805 Y26.9009
G01 X32.7904 Y26.8869
G01 X32.8488 Y26.8081
G01 X32.8593 Y26.7946
G01 X32.8705 Y26.7816
G01 X32.9364 Y26.7089
G01 X32.9482 Y26.6965
G01 X32.9606 Y26.6847
G01 X33.0333 Y26.6188
G01 X33.0463 Y26.6076
G01 X33.0598 Y26.5971
G01 X33.1386 Y26.5387
G01 X33.1526 Y26.5288
G01 X33.1671 Y26.5196
G01 X33.2512 Y26.4692
G01 X33.2661 Y26.4608
G01 X33.2814 Y26.4531
G01 X33.3701 Y26.4111
G01 X33.3858 Y26.4042
G01 X33.4017 Y26.3980
G01 X33.4941 Y26.3649
G01 X33.5104 Y26.3596
G01 X33.5269 Y26.3550
G01 X33.6221 Y26.3312
G01 X33.6388 Y26.3274
G01 X33.6556 Y26.3245
G01 X33.7527 Y26.3101
G01 X33.7697 Y26.3080
G01 X33.7868 Y26.3067
G01 X33.8848 Y26.3019
G01 X33.9019 Y26.3015
G01 X33.9190 Y26.3019
G01 X34.0170 Y26.3067
G01 X34.0341 Y26.3080
G01 X34.0511 Y26.3101
G01 X34.1482 Y26.3245
G01 X34.1650 Y26.3274
G01 X34.1817 Y26.3312
G01 X34.2769 Y26.3550
G01 X34.2934 Y26.3596
G01 X34.3097 Y26.3649
G01 X34.4021 Y26.3980
G01 X34.4180 Y26.4042
G01 X34.4337 Y26.4111
G01 X34.5224 Y26.4531
G01 X34.5377 Y26.4608
G01 X34.5526 Y26.4692
G01 X34.6367 Y26.5196
G01 X34.6512 Y26.5288
G01 X34.6652 Y26.5387
G01 X34.7440 Y26.5971
G01 X34.7575 Y26.6076
G01 X34.7705 Y26.6188
G01 X34.8432 Y26.6847
G01 X34.8556 Y26.6965
G01 X34.8674 Y26.7089
G01 X34.9333 Y26.7816
G01 X34.9445 Y26.7946
G01 X34.9550 Y26.8081
G01 X35.0134 Y26.8869
G01 X35.0280 Y26.9081
G01 X35.0840 Y27.0013
G01 X37.7098 Y27.0014
G01 X47.5020 Y17.2092
G01 X47.5144 Y17.1974
G01 X47.5362 Y17.1776
G01 X47.5492 Y17.1664
G01 X47.5627 Y17.1559
G01 X47.5863 Y17.1384
G01 X47.6003 Y17.1285
G01 X47.6148 Y17.1193
G01 X47.6400 Y17.1042
G01 X47.6625 Y17.0918
G01 X47.6968 Y17.0755
G01 X47.7125 Y17.0685
G01 X47.7285 Y17.0624
G01 X47.7562 Y17.0525
G01 X47.7724 Y17.0471
G01 X47.7889 Y17.0425
G01 X47.8175 Y17.0354
G01 X47.8342 Y17.0316
G01 X47.8511 Y17.0287
G01 X47.8887 Y17.0232
G01 X47.9057 Y17.0215
G01 X47.9437 Y17.0196
G01 X47.9608 Y17.0192
G01 X49.8679 Y17.0192
G01 X49.9194 Y16.9332
G01 X49.9286 Y16.9187
G01 X49.9385 Y16.9047
G01 X49.9969 Y16.8259
G01 X50.0074 Y16.8124
G01 X50.0186 Y16.7994
G01 X50.0845 Y16.7267
G01 X50.0963 Y16.7143
G01 X50.1087 Y16.7025
G01 X50.1814 Y16.6366
G01 X50.1944 Y16.6254
G01 X50.2079 Y16.6149
G01 X50.2867 Y16.5565
G01 X50.3007 Y16.5466
G01 X50.3152 Y16.5374
G01 X50.4011 Y16.4859
G01 X50.4012 Y11.9074
G01 X45.0758 Y6.5820
G01 X44.5963 Y6.5820
G01 X44.5448 Y6.6680
G01 X44.5356 Y6.6825
G01 X44.5257 Y6.6965
G01 X44.4673 Y6.7753
G01 X44.4568 Y6.7888
G01 X44.4456 Y6.8018
G01 X44.3797 Y6.8745
G01 X44.3679 Y6.8869
G01 X44.3555 Y6.8987
G01 X44.2828 Y6.9646
G01 X44.2698 Y6.9758
G01 X44.2563 Y6.9863
G01 X44.1775 Y7.0447
G01 X44.1635 Y7.0546
G01 X44.1490 Y7.0638
G01 X44.0649 Y7.1142
G01 X44.0500 Y7.1226
G01 X44.0347 Y7.1303
G01 X43.9460 Y7.1723
G01 X43.9303 Y7.1792
G01 X43.9144 Y7.1854
G01 X43.8220 Y7.2185
G01 X43.8057 Y7.2238
G01 X43.7892 Y7.2284
G01 X43.6940 Y7.2522
G01 X43.6773 Y7.2560
G01 X43.6605 Y7.2589
G01 X43.5634 Y7.2733
G01 X43.5464 Y7.2754
G01 X43.5293 Y7.2767
G01 X43.4313 Y7.2815
G01 X43.4142 Y7.2819
G01 X43.3971 Y7.2815
G01 X43.2991 Y7.2767
G01 X43.2820 Y7.2754
G01 X43.2650 Y7.2733
G01 X43.1679 Y7.2589
G01 X43.1511 Y7.2560
G01 X43.1344 Y7.2522
G01 X43.0392 Y7.2284
G01 X43.0227 Y7.2238
G01 X43.0064 Y7.2185
G01 X42.9140 Y7.1854
G01 X42.8981 Y7.1792
G01 X42.8824 Y7.1723
G01 X42.7937 Y7.1303
G01 X42.7784 Y7.1226
G01 X42.7635 Y7.1142
G01 X42.6794 Y7.0638
G01 X42.6649 Y7.0546
G01 X42.6509 Y7.0447
G01 X42.5721 Y6.9863
G01 X42.5586 Y6.9758
G01 X42.5456 Y6.9646
G01 X42.4729 Y6.8987
G01 X42.4605 Y6.8869
G01 X42.4487 Y6.8745
G01 X42.3828 Y6.8018
G01 X42.3716 Y6.7888
G01 X42.3611 Y6.7753
G01 X42.3027 Y6.6965
G01 X42.2928 Y6.6825
G01 X42.2836 Y6.6680
G01 X42.2321 Y6.5821
G01 X33.7262 Y6.5820
G01 X33.5474 Y6.7608
G01 X33.5474 Y7.7229
G01 X33.6334 Y7.7744
G01 X33.6479 Y7.7836
G01 X33.6619 Y7.7935
G01 X33.7407 Y7.8519
G01 X33.7542 Y7.8624
G01 X33.7672 Y7.8736
G01 X33.8461 Y7.9453
G01 X33.8641 Y7.9637
G01 X33.9300 Y8.0364
G01 X33.9412 Y8.0494
G01 X33.9517 Y8.0629
G01 X34.0101 Y8.1417
G01 X34.0200 Y8.1557
G01 X34.0292 Y8.1702
G01 X34.0796 Y8.2543
G01 X34.0880 Y8.2692
G01 X34.0957 Y8.2845
G01 X34.1377 Y8.3732
G01 X34.1446 Y8.3889
G01 X34.1508 Y8.4048
G01 X34.1866 Y8.5053
G01 X34.1938 Y8.5300
G01 X34.2176 Y8.6252
G01 X34.2214 Y8.6419
G01 X34.2243 Y8.6587
G01 X34.2387 Y8.7558
G01 X34.2408 Y8.7728
G01 X34.2421 Y8.7899
G01 X34.2469 Y8.8879
G01 X34.2473 Y8.9050
G01 X34.2469 Y8.9221
G01 X34.2421 Y9.0201
G01 X34.2408 Y9.0372
G01 X34.2387 Y9.0542
G01 X34.2243 Y9.1513
G01 X34.2214 Y9.1681
G01 X34.2176 Y9.1848
G01 X34.1938 Y9.2800
G01 X34.1892 Y9.2965
G01 X34.1839 Y9.3128
G01 X34.1508 Y9.4052
G01 X34.1446 Y9.4211
G01 X34.1377 Y9.4368
G01 X34.0957 Y9.5255
G01 X34.0880 Y9.5408
G01 X34.0796 Y9.5557
G01 X34.0292 Y9.6398
G01 X34.0200 Y9.6543
G01 X34.0101 Y9.6683
G01 X33.9517 Y9.7471
G01 X33.9412 Y9.7606
G01 X33.9300 Y9.7736
G01 X33.8583 Y9.8525
G01 X33.8399 Y9.8705
G01 X33.7672 Y9.9364
G01 X33.7542 Y9.9476
G01 X33.7407 Y9.9581
G01 X33.6619 Y10.0165
G01 X33.6479 Y10.0264
G01 X33.6334 Y10.0356
G01 X33.5493 Y10.0860
G01 X33.5344 Y10.0944
G01 X33.5191 Y10.1021
G01 X33.4304 Y10.1441
G01 X33.4147 Y10.1510
G01 X33.3988 Y10.1572
G01 X33.2983 Y10.1930
G01 X33.2736 Y10.2002
G01 X33.1784 Y10.2240
G01 X33.1617 Y10.2278
G01 X33.1449 Y10.2307
G01 X33.0393 Y10.2463
G01 X33.0137 Y10.2485
G01 X32.9157 Y10.2533
G01 X32.8986 Y10.2537
G01 X32.8815 Y10.2533
G01 X32.7835 Y10.2485
G01 X32.7664 Y10.2472
G01 X32.7494 Y10.2451
G01 X32.6523 Y10.2307
G01 X32.6355 Y10.2278
G01 X32.6188 Y10.2240
G01 X32.5236 Y10.2002
G01 X32.5071 Y10.1956
G01 X32.4908 Y10.1903
G01 X32.3984 Y10.1572
G01 X32.3825 Y10.1510
G01 X32.3668 Y10.1441
G01 X32.2781 Y10.1021
G01 X32.2553 Y10.0903
G01 X32.1638 Y10.0356
G01 X32.1493 Y10.0264
G01 X32.1353 Y10.0165
G01 X32.0565 Y9.9581
G01 X32.0430 Y9.9476
G01 X32.0300 Y9.9364
G01 X31.9573 Y9.8705
G01 X31.9389 Y9.8525
G01 X31.8672 Y9.7736
G01 X31.8560 Y9.7606
G01 X31.8455 Y9.7471
G01 X31.7820 Y9.6614
G01 X31.7680 Y9.6398
G01 X31.7133 Y9.5483
G01 X31.7052 Y9.5332
G01 X31.6908 Y9.5031
G01 X20.1626 Y9.5030
G01 X20.1217 Y9.5440
G01 X20.1480 Y9.6495
G01 X20.1527 Y9.6747
G01 X20.1671 Y9.7718
G01 X20.1692 Y9.7888
G01 X20.1705 Y9.8059
G01 X20.1753 Y9.9039
G01 X20.1757 Y9.9210
G01 X20.1753 Y9.9381
G01 X20.1705 Y10.0361
G01 X20.1692 Y10.0532
G01 X20.1671 Y10.0702
G01 X20.1527 Y10.1673
G01 X20.1480 Y10.1925
G01 X20.1222 Y10.2960
G01 X20.1176 Y10.3125
G01 X20.1123 Y10.3288
G01 X20.0792 Y10.4212
G01 X20.0730 Y10.4371
G01 X20.0661 Y10.4528
G01 X20.0241 Y10.5415
G01 X20.0164 Y10.5568
G01 X20.0080 Y10.5717
G01 X19.9576 Y10.6558
G01 X19.9436 Y10.6774
G01 X19.8801 Y10.7631
G01 X19.8696 Y10.7766
G01 X19.8584 Y10.7896
G01 X19.7925 Y10.8623
G01 X19.7807 Y10.8747
G01 X19.7683 Y10.8865
G01 X19.6956 Y10.9524
G01 X19.6826 Y10.9636
G01 X19.6691 Y10.9741
G01 X19.5903 Y11.0325
G01 X19.5763 Y11.0424
G01 X19.5618 Y11.0516
G01 X19.4777 Y11.1020
G01 X19.4628 Y11.1104
G01 X19.4475 Y11.1181
G01 X19.3510 Y11.1637
G01 X19.3272 Y11.1732
G01 X19.2348 Y11.2063
G01 X19.2185 Y11.2116
G01 X19.2020 Y11.2162
G01 X19.1068 Y11.2400
G01 X19.0901 Y11.2438
G01 X19.0733 Y11.2467
G01 X18.9762 Y11.2611
G01 X18.9592 Y11.2632
G01 X18.9421 Y11.2645
G01 X18.8441 Y11.2693
G01 X18.8270 Y11.2697
G01 X18.8099 Y11.2693
G01 X18.7119 Y11.2645
G01 X18.6948 Y11.2632
G01 X18.6778 Y11.2611
G01 X18.5807 Y11.2467
G01 X18.5639 Y11.2438
G01 X18.5472 Y11.2400
G01 X18.4520 Y11.2162
G01 X18.4355 Y11.2116
G01 X18.4192 Y11.2063
G01 X18.3268 Y11.1732
G01 X18.3109 Y11.1670
G01 X18.2952 Y11.1601
G01 X18.2065 Y11.1181
G01 X18.1912 Y11.1104
G01 X18.1763 Y11.1020
G01 X18.0922 Y11.0516
G01 X18.0777 Y11.0424
G01 X18.0637 Y11.0325
G01 X17.9849 Y10.9741
G01 X17.9714 Y10.9636
G01 X17.9584 Y10.9524
G01 X17.8857 Y10.8865
G01 X17.8733 Y10.8747
G01 X17.8615 Y10.8623
G01 X17.7956 Y10.7896
G01 X17.7844 Y10.7766
G01 X17.7739 Y10.7631
G01 X17.7155 Y10.6843
G01 X17.7056 Y10.6703
G01 X17.6964 Y10.6558
G01 X17.6460 Y10.5717
G01 X17.6376 Y10.5568
G01 X17.6299 Y10.5415
G01 X17.5834 Y10.4429
G01 X12.7752 Y10.4428
G00 Z2.0000
G00 X23.7629 Y10.0117
G01 F40.00
G01 Z-0.0500
G01 F35.00
G01 X23.7800 Y10.0113
G01 X23.7971 Y10.0117
G01 X23.8755 Y10.0156
G01 X23.8926 Y10.0168
G01 X23.9096 Y10.0189
G01 X23.9957 Y10.0318
G01 X24.0208 Y10.0371
G01 X24.0970 Y10.0562
G01 X24.1134 Y10.0608
G01 X24.1297 Y10.0661
G01 X24.2036 Y10.0926
G01 X24.2275 Y10.1021
G01 X24.3062 Y10.1392
G01 X24.3215 Y10.1469
G01 X24.3364 Y10.1554
G01 X24.4037 Y10.1957
G01 X24.4252 Y10.2097
G01 X24.5020 Y10.2667
G01 X24.5217 Y10.2832
G01 X24.5799 Y10.3359
G01 X24.5923 Y10.3477
G01 X24.6041 Y10.3601
G01 X24.6568 Y10.4183
G01 X24.6680 Y10.4313
G01 X24.6785 Y10.4448
G01 X24.7253 Y10.5078
G01 X24.7351 Y10.5218
G01 X24.7443 Y10.5363
G01 X24.7846 Y10.6036
G01 X24.7931 Y10.6185
G01 X24.8008 Y10.6338
G01 X24.8343 Y10.7048
G01 X24.8413 Y10.7204
G01 X24.8474 Y10.7364
G01 X24.8739 Y10.8103
G01 X24.8792 Y10.8266
G01 X24.8838 Y10.8430
G01 X24.9029 Y10.9192
G01 X24.9066 Y10.9359
G01 X24.9096 Y10.9528
G01 X24.9211 Y11.0304
G01 X24.9232 Y11.0474
G01 X24.9244 Y11.0645
G01 X24.9283 Y11.1429
G01 X24.9287 Y11.1600
G01 X24.9283 Y11.1771
G01 X24.9244 Y11.2555
G01 X24.9232 Y11.2726
G01 X24.9211 Y11.2896
G01 X24.9096 Y11.3672
G01 X24.9066 Y11.3841
G01 X24.9029 Y11.4008
G01 X24.8838 Y11.4770
G01 X24.8792 Y11.4934
G01 X24.8739 Y11.5097
G01 X24.8474 Y11.5836
G01 X24.8413 Y11.5996
G01 X24.8343 Y11.6152
G01 X24.8008 Y11.6862
G01 X24.7931 Y11.7015
G01 X24.7846 Y11.7164
G01 X24.7443 Y11.7837
G01 X24.7351 Y11.7982
G01 X24.7253 Y11.8122
G01 X24.6785 Y11.8752
G01 X24.6680 Y11.8887
G01 X24.6568 Y11.9017
G01 X24.6041 Y11.9599
G01 X24.5923 Y11.9723
G01 X24.5799 Y11.9841
G01 X24.5217 Y12.0368
G01 X24.5087 Y12.0480
G01 X24.4952 Y12.0585
G01 X24.4322 Y12.1053
G01 X24.4182 Y12.1151
G01 X24.4037 Y12.1243
G01 X24.3441 Y12.1600
G01 X24.4037 Y12.1957
G01 X24.4182 Y12.2049
G01 X24.4322 Y12.2147
G01 X24.4952 Y12.2615
G01 X24.5087 Y12.2720
G01 X24.5217 Y12.2832
G01 X24.5799 Y12.3359
G01 X24.5923 Y12.3477
G01 X24.6041 Y12.3601
G01 X24.6568 Y12.4183
G01 X24.6680 Y12.4313
G01 X24.6785 Y12.4448
G01 X24.7253 Y12.5078
G01 X24.7351 Y12.5218
G01 X24.7443 Y12.5363
G01 X24.7846 Y12.6036
G01 X24.7931 Y12.6185
G01 X24.8008 Y12.6338
G01 X24.8343 Y12.7048
G01 X24.8413 Y12.7204
G01 X24.8474 Y12.7364
G01 X24.8739 Y12.8103
G01 X24.8816 Y12.8348
G01 X24.9049 Y12.9275
G01 X24.9096 Y12.9528
G01 X24.9211 Y13.0304
G01 X24.9232 Y13.0474
G01 X24.9244 Y13.0645
G01 X24.9283 Y13.1429
G01 X24.9287 Y13.1600
G01 X24.9283 Y13.1771
G01 X24.9244 Y13.2555
G01 X24.9232 Y13.2726
G01 X24.9211 Y13.2896
G01 X24.9096 Y13.3672
G01 X24.9066 Y13.3841
G01 X24.9029 Y13.4008
G01 X24.8838 Y13.4770
G01 X24.8792 Y13.4934
G01 X24.8739 Y13.5097
G01 X24.8474 Y13.5836
G01 X24.8413 Y13.5996
G01 X24.8343 Y13.6152
G01 X24.8008 Y13.6862
G01 X24.7889 Y13.7090
G01 X24.7443 Y13.7837
G01 X24.7351 Y13.7982
G01 X24.7253 Y13.8122
G01 X24.6785 Y13.8752
G01 X24.6680 Y13.8887
G01 X24.6568 Y13.9017
G01 X24.6041 Y13.9599
G01 X24.5923 Y13.9723
G01 X24.5799 Y13.9841
G01 X24.5217 Y14.0368
G01 X24.5087 Y14.0480
G01 X24.4952 Y14.0585
G01 X24.4322 Y14.1053
G01 X24.4182 Y14.1151
G01 X24.4037 Y14.1243
G01 X24.3441 Y14.1600
G01 X24.4037 Y14.1957
G01 X24.4182 Y14.2049
G01 X24.4322 Y14.2147
G01 X24.4952 Y14.2615
G01 X24.5153 Y14.2776
G01 X24.5861 Y14.3418
G01 X24.6041 Y14.3601
G01 X24.6568 Y14.4183
G01 X24.6680 Y14.4313
G01 X24.6785 Y14.4448
G01 X24.7253 Y14.5078
G01 X24.7398 Y14.5290
G01 X24.7889 Y14.6110
G01 X24.8008 Y14.6338
G01 X24.8343 Y14.7048
G01 X24.8413 Y14.7204
G01 X24.8474 Y14.7364
G01 X24.8739 Y14.8103
G01 X24.8792 Y14.8266
G01 X24.8838 Y14.8430
G01 X24.9029 Y14.9192
G01 X24.9066 Y14.9359
G01 X24.9096 Y14.9528
G01 X24.9211 Y15.0304
G01 X24.9239 Y15.0559
G01 X24.9283 Y15.1429
G01 X24.9287 Y15.1600
G01 X24.9283 Y15.1771
G01 X24.9244 Y15.2555
G01 X24.9232 Y15.2726
G01 X24.9211 Y15.2896
G01 X24.9096 Y15.3672
G01 X24.9066 Y15.3841
G01 X24.9029 Y15.4008
G01 X24.8838 Y15.4770
G01 X24.8767 Y15.5016
G01 X24.8444 Y15.5916
G01 X24.8343 Y15.6152
G01 X24.8008 Y15.6862
G01 X24.7931 Y15.7015
G01 X24.7846 Y15.7164
G01 X24.7443 Y15.7837
G01 X24.7303 Y15.8052
G01 X24.6785 Y15.8752
G01 X24.6624 Y15.8953
G01 X24.5982 Y15.9661
G01 X24.5861 Y15.9782
G01 X24.5498 Y16.0113
G01 X24.5886 Y16.0114
G01 X24.6057 Y16.0122
G01 X24.6227 Y16.0139
G01 X24.6396 Y16.0164
G01 X24.6564 Y16.0198
G01 X24.6730 Y16.0239
G01 X24.6894 Y16.0289
G01 X24.7134 Y16.0378
G01 X24.7291 Y16.0448
G01 X24.7444 Y16.0525
G01 X24.7593 Y16.0609
G01 X24.7737 Y16.0701
G01 X24.7877 Y16.0799
G01 X24.8012 Y16.0905
G01 X24.8142 Y16.1016
G01 X24.8266 Y16.1134
G01 X24.8384 Y16.1258
G01 X24.8495 Y16.1388
G01 X24.8601 Y16.1523
G01 X24.8746 Y16.1734
G01 X24.8834 Y16.1881
G01 X24.8915 Y16.2032
G01 X24.8988 Y16.2187
G01 X24.9053 Y16.2345
G01 X24.9111 Y16.2506
G01 X24.9161 Y16.2670
G01 X24.9202 Y16.2836
G01 X24.9236 Y16.3004
G01 X24.9261 Y16.3173
G01 X24.9278 Y16.3343
G01 X24.9286 Y16.3514
G01 X24.9287 Y17.9600
G01 X24.9278 Y17.9857
G01 X24.9249 Y18.0112
G01 X24.9202 Y18.0364
G01 X24.9161 Y18.0530
G01 X24.9111 Y18.0694
G01 X24.9053 Y18.0855
G01 X24.8988 Y18.1013
G01 X24.8875 Y18.1244
G01 X24.8746 Y18.1466
G01 X24.8651 Y18.1608
G01 X24.8549 Y18.1745
G01 X24.8384 Y18.1942
G01 X24.8204 Y18.2125
G01 X24.8012 Y18.2295
G01 X24.7877 Y18.2401
G01 X24.7737 Y18.2499
G01 X24.7519 Y18.2634
G01 X24.7368 Y18.2715
G01 X24.7213 Y18.2788
G01 X24.6975 Y18.2883
G01 X24.6730 Y18.2961
G01 X24.6564 Y18.3002
G01 X24.6396 Y18.3036
G01 X24.6142 Y18.3070
G01 X24.5971 Y18.3083
G01 X24.5800 Y18.3087
G01 X22.9800 Y18.3087
G01 X22.9543 Y18.3078
G01 X22.9288 Y18.3049
G01 X22.9036 Y18.3002
G01 X22.8870 Y18.2961
G01 X22.8706 Y18.2911
G01 X22.8545 Y18.2853
G01 X22.8387 Y18.2788
G01 X22.8156 Y18.2675
G01 X22.7934 Y18.2546
G01 X22.7723 Y18.2401
G01 X22.7522 Y18.2240
G01 X22.7396 Y18.2125
G01 X22.7275 Y18.2004
G01 X22.7105 Y18.1812
G01 X22.6999 Y18.1677
G01 X22.6901 Y18.1537
G01 X22.6766 Y18.1319
G01 X22.6685 Y18.1168
G01 X22.6612 Y18.1013
G01 X22.6547 Y18.0855
G01 X22.6489 Y18.0694
G01 X22.6418 Y18.0447
G01 X22.6364 Y18.0196
G01 X22.6330 Y17.9942
G01 X22.6317 Y17.9771
G01 X22.6313 Y17.9600
G01 X22.6313 Y16.3600
G01 X22.6317 Y16.3429
G01 X22.6330 Y16.3258
G01 X22.6351 Y16.3088
G01 X22.6380 Y16.2920
G01 X22.6418 Y16.2753
G01 X22.6463 Y16.2588
G01 X22.6517 Y16.2425
G01 X22.6578 Y16.2266
G01 X22.6648 Y16.2109
G01 X22.6725 Y16.1956
G01 X22.6854 Y16.1734
G01 X22.6949 Y16.1592
G01 X22.7051 Y16.1455
G01 X22.7216 Y16.1258
G01 X22.7334 Y16.1134
G01 X22.7458 Y16.1016
G01 X22.7588 Y16.0905
G01 X22.7723 Y16.0799
G01 X22.7863 Y16.0701
G01 X22.8007 Y16.0609
G01 X22.8232 Y16.0485
G01 X22.8387 Y16.0412
G01 X22.8545 Y16.0347
G01 X22.8706 Y16.0289
G01 X22.8870 Y16.0239
G01 X22.9120 Y16.0180
G01 X22.9288 Y16.0151
G01 X22.9458 Y16.0130
G01 X22.9714 Y16.0114
G01 X23.0102 Y16.0113
G01 X22.9739 Y15.9782
G01 X22.9618 Y15.9661
G01 X22.8976 Y15.8953
G01 X22.8815 Y15.8752
G01 X22.8347 Y15.8122
G01 X22.8202 Y15.7910
G01 X22.7711 Y15.7090
G01 X22.7592 Y15.6862
G01 X22.7257 Y15.6152
G01 X22.7187 Y15.5996
G01 X22.7126 Y15.5836
G01 X22.6833 Y15.5016
G01 X22.6762 Y15.4770
G01 X22.6571 Y15.4008
G01 X22.6534 Y15.3841
G01 X22.6504 Y15.3672
G01 X22.6389 Y15.2896
G01 X22.6368 Y15.2726
G01 X22.6356 Y15.2555
G01 X22.6314 Y15.1686
G01 X22.6317 Y15.1429
G01 X22.6356 Y15.0645
G01 X22.6368 Y15.0474
G01 X22.6389 Y15.0304
G01 X22.6504 Y14.9528
G01 X22.6534 Y14.9359
G01 X22.6571 Y14.9192
G01 X22.6762 Y14.8430
G01 X22.6808 Y14.8266
G01 X22.6861 Y14.8103
G01 X22.7126 Y14.7364
G01 X22.7187 Y14.7204
G01 X22.7257 Y14.7048
G01 X22.7592 Y14.6338
G01 X22.7669 Y14.6185
G01 X22.7754 Y14.6036
G01 X22.8157 Y14.5363
G01 X22.8297 Y14.5148
G01 X22.8815 Y14.4448
G01 X22.8920 Y14.4313
G01 X22.9032 Y14.4183
G01 X22.9559 Y14.3601
G01 X22.9677 Y14.3477
G01 X22.9801 Y14.3359
G01 X23.0447 Y14.2776
G01 X23.0648 Y14.2615
G01 X23.1278 Y14.2147
G01 X23.1418 Y14.2049
G01 X23.1563 Y14.1957
G01 X23.2159 Y14.1600
G01 X23.1563 Y14.1243
G01 X23.1418 Y14.1151
G01 X23.1278 Y14.1053
G01 X23.0648 Y14.0585
G01 X23.0447 Y14.0424
G01 X22.9801 Y13.9841
G01 X22.9677 Y13.9723
G01 X22.9559 Y13.9599
G01 X22.9032 Y13.9017
G01 X22.8920 Y13.8887
G01 X22.8815 Y13.8752
G01 X22.8297 Y13.8052
G01 X22.8157 Y13.7837
G01 X22.7754 Y13.7164
G01 X22.7669 Y13.7015
G01 X22.7592 Y13.6862
G01 X22.7257 Y13.6152
G01 X22.7187 Y13.5996
G01 X22.7126 Y13.5836
G01 X22.6861 Y13.5097
G01 X22.6808 Y13.4934
G01 X22.6762 Y13.4770
G01 X22.6571 Y13.4008
G01 X22.6518 Y13.3757
G01 X22.6389 Y13.2896
G01 X22.6368 Y13.2726
G01 X22.6356 Y13.2555
G01 X22.6317 Y13.1771
G01 X22.6313 Y13.1600
G01 X22.6317 Y13.1429
G01 X22.6356 Y13.0645
G01 X22.6368 Y13.0474
G01 X22.6389 Y13.0304
G01 X22.6504 Y12.9528
G01 X22.6534 Y12.9359
G01 X22.6571 Y12.9192
G01 X22.6762 Y12.8430
G01 X22.6808 Y12.8266
G01 X22.6861 Y12.8103
G01 X22.7156 Y12.7284
G01 X22.7257 Y12.7048
G01 X22.7592 Y12.6338
G01 X22.7669 Y12.6185
G01 X22.7754 Y12.6036
G01 X22.8202 Y12.5290
G01 X22.8347 Y12.5078
G01 X22.8815 Y12.4448
G01 X22.8920 Y12.4313
G01 X22.9032 Y12.4183
G01 X22.9559 Y12.3601
G01 X22.9677 Y12.3477
G01 X22.9801 Y12.3359
G01 X23.0383 Y12.2832
G01 X23.0513 Y12.2720
G01 X23.0648 Y12.2615
G01 X23.1278 Y12.2147
G01 X23.1418 Y12.2049
G01 X23.1563 Y12.1957
G01 X23.2159 Y12.1600
G01 X23.1563 Y12.1243
G01 X23.1418 Y12.1151
G01 X23.1278 Y12.1053
G01 X23.0580 Y12.0533
G01 X23.0383 Y12.0368
G01 X22.9801 Y11.9841
G01 X22.9618 Y11.9661
G01 X22.9032 Y11.9017
G01 X22.8920 Y11.8887
G01 X22.8815 Y11.8752
G01 X22.8347 Y11.8122
G01 X22.8249 Y11.7982
G01 X22.8157 Y11.7837
G01 X22.7754 Y11.7164
G01 X22.7630 Y11.6939
G01 X22.7257 Y11.6152
G01 X22.7187 Y11.5996
G01 X22.7126 Y11.5836
G01 X22.6861 Y11.5097
G01 X22.6808 Y11.4934
G01 X22.6762 Y11.4770
G01 X22.6571 Y11.4008
G01 X22.6534 Y11.3841
G01 X22.6504 Y11.3672
G01 X22.6389 Y11.2896
G01 X22.6368 Y11.2726
G01 X22.6356 Y11.2555
G01 X22.6317 Y11.1771
G01 X22.6313 Y11.1600
G01 X22.6317 Y11.1429
G01 X22.6361 Y11.0559
G01 X22.6389 Y11.0304
G01 X22.6504 Y10.9528
G01 X22.6534 Y10.9359
G01 X22.6571 Y10.9192
G01 X22.6762 Y10.8430
G01 X22.6808 Y10.8266
G01 X22.6861 Y10.8103
G01 X22.7126 Y10.7364
G01 X22.7187 Y10.7204
G01 X22.7257 Y10.7048
G01 X22.7592 Y10.6338
G01 X22.7669 Y10.6185
G01 X22.7754 Y10.6036
G01 X22.8157 Y10.5363
G01 X22.8249 Y10.5218
G01 X22.8347 Y10.5078
G01 X22.8815 Y10.4448
G01 X22.8920 Y10.4313
G01 X22.9032 Y10.4183
G01 X22.9559 Y10.3601
G01 X22.9677 Y10.3477
G01 X22.9801 Y10.3359
G01 X23.0383 Y10.2832
G01 X23.0513 Y10.2720
G01 X23.0648 Y10.2615
G01 X23.1348 Y10.2097
G01 X23.1563 Y10.1957
G01 X23.2236 Y10.1554
G01 X23.2385 Y10.1469
G01 X23.2538 Y10.1392
G01 X23.3248 Y10.1057
G01 X23.3484 Y10.0956
G01 X23.4303 Y10.0661
G01 X23.4466 Y10.0608
G01 X23.4630 Y10.0562
G01 X23.5392 Y10.0371
G01 X23.5559 Y10.0334
G01 X23.5728 Y10.0304
G01 X23.6504 Y10.0189
G01 X23.6674 Y10.0168
G01 X23.6845 Y10.0156
G01 X23.7629 Y10.0117
G00 Z2.0000
G00 X28.6265 Y5.8517
G01 F40.00
G01 Z-0.0500
G01 F35.00
G01 X28.6522 Y5.8514
G01 X28.7477 Y5.8561
G01 X28.7732 Y5.8589
G01 X28.8508 Y5.8704
G01 X28.8761 Y5.8751
G01 X28.9606 Y5.8962
G01 X28.9770 Y5.9008
G01 X28.9933 Y5.9061
G01 X29.0672 Y5.9326
G01 X29.0832 Y5.9387
G01 X29.0988 Y5.9457
G01 X29.1698 Y5.9792
G01 X29.1851 Y5.9869
G01 X29.2000 Y5.9954
G01 X29.2673 Y6.0357
G01 X29.2818 Y6.0449
G01 X29.2958 Y6.0547
G01 X29.3588 Y6.1015
G01 X29.3723 Y6.1120
G01 X29.3853 Y6.1232
G01 X29.4435 Y6.1759
G01 X29.4559 Y6.1877
G01 X29.4677 Y6.2001
G01 X29.5204 Y6.2583
G01 X29.5316 Y6.2713
G01 X29.5421 Y6.2848
G01 X29.5889 Y6.3478
G01 X29.5987 Y6.3618
G01 X29.6079 Y6.3763
G01 X29.6482 Y6.4436
G01 X29.6567 Y6.4585
G01 X29.6644 Y6.4738
G01 X29.7015 Y6.5525
G01 X29.7110 Y6.5764
G01 X29.7375 Y6.6503
G01 X29.7428 Y6.6666
G01 X29.7474 Y6.6830
G01 X29.7665 Y6.7592
G01 X29.7702 Y6.7759
G01 X29.7732 Y6.7928
G01 X29.7847 Y6.8704
G01 X29.7868 Y6.8874
G01 X29.7880 Y6.9045
G01 X29.7919 Y6.9829
G01 X29.7923 Y7.0000
G01 X29.7919 Y7.0171
G01 X29.7880 Y7.0955
G01 X29.7868 Y7.1126
G01 X29.7847 Y7.1296
G01 X29.7732 Y7.2072
G01 X29.7685 Y7.2325
G01 X29.7474 Y7.3170
G01 X29.7428 Y7.3334
G01 X29.7375 Y7.3497
G01 X29.7110 Y7.4236
G01 X29.7049 Y7.4396
G01 X29.6979 Y7.4552
G01 X29.6644 Y7.5262
G01 X29.6567 Y7.5415
G01 X29.6482 Y7.5564
G01 X29.6079 Y7.6237
G01 X29.5987 Y7.6382
G01 X29.5889 Y7.6522
G01 X29.5421 Y7.7152
G01 X29.5316 Y7.7287
G01 X29.5204 Y7.7417
G01 X29.4677 Y7.7999
G01 X29.4559 Y7.8123
G01 X29.4435 Y7.8241
G01 X29.3853 Y7.8768
G01 X29.3723 Y7.8880
G01 X29.3588 Y7.8985
G01 X29.2888 Y7.9503
G01 X29.2673 Y7.9643
G01 X29.2000 Y8.0046
G01 X29.1851 Y8.0131
G01 X29.1698 Y8.0208
G01 X29.0988 Y8.0543
G01 X29.0832 Y8.0613
G01 X29.0672 Y8.0674
G01 X28.9933 Y8.0939
G01 X28.9770 Y8.0992
G01 X28.9606 Y8.1038
G01 X28.8844 Y8.1229
G01 X28.8677 Y8.1266
G01 X28.8508 Y8.1296
G01 X28.7732 Y8.1411
G01 X28.7562 Y8.1432
G01 X28.7391 Y8.1444
G01 X28.6607 Y8.1483
G01 X28.6350 Y8.1486
G01 X28.5395 Y8.1439
G01 X28.5140 Y8.1411
G01 X28.4364 Y8.1296
G01 X28.4111 Y8.1249
G01 X28.3266 Y8.1038
G01 X28.3102 Y8.0992
G01 X28.2939 Y8.0939
G01 X28.2200 Y8.0674
G01 X28.2040 Y8.0613
G01 X28.1884 Y8.0543
G01 X28.1174 Y8.0208
G01 X28.1021 Y8.0131
G01 X28.0872 Y8.0046
G01 X28.0199 Y7.9643
G01 X28.0054 Y7.9551
G01 X27.9914 Y7.9453
G01 X27.9284 Y7.8985
G01 X27.9149 Y7.8880
G01 X27.9019 Y7.8768
G01 X27.8437 Y7.8241
G01 X27.8313 Y7.8123
G01 X27.8195 Y7.7999
G01 X27.7668 Y7.7417
G01 X27.7556 Y7.7287
G01 X27.7451 Y7.7152
G01 X27.6983 Y7.6522
G01 X27.6885 Y7.6382
G01 X27.6793 Y7.6237
G01 X27.6436 Y7.5641
G01 X27.6079 Y7.6237
G01 X27.5987 Y7.6382
G01 X27.5889 Y7.6522
G01 X27.5421 Y7.7152
G01 X27.5260 Y7.7353
G01 X27.4677 Y7.7999
G01 X27.4559 Y7.8123
G01 X27.4435 Y7.8241
G01 X27.3853 Y7.8768
G01 X27.3723 Y7.8880
G01 X27.3588 Y7.8985
G01 X27.2958 Y7.9453
G01 X27.2818 Y7.9551
G01 X27.2673 Y7.9643
G01 X27.2000 Y8.0046
G01 X27.1851 Y8.0131
G01 X27.1698 Y8.0208
G01 X27.0988 Y8.0543
G01 X27.0832 Y8.0613
G01 X27.0672 Y8.0674
G01 X26.9933 Y8.0939
G01 X26.9770 Y8.0992
G01 X26.9606 Y8.1038
G01 X26.8844 Y8.1229
G01 X26.8677 Y8.1266
G01 X26.8508 Y8.1296
G01 X26.7732 Y8.1411
G01 X26.7562 Y8.1432
G01 X26.7391 Y8.1444
G01 X26.6607 Y8.1483
G01 X26.6436 Y8.1487
G01 X26.6265 Y8.1483
G01 X26.5481 Y8.1444
G01 X26.5310 Y8.1432
G01 X26.5140 Y8.1411
G01 X26.4364 Y8.1296
G01 X26.4195 Y8.1266
G01 X26.4028 Y8.1229
G01 X26.3266 Y8.1038
G01 X26.3020 Y8.0967
G01 X26.2120 Y8.0644
G01 X26.1884 Y8.0543
G01 X26.1174 Y8.0208
G01 X26.1021 Y8.0131
G01 X26.0872 Y8.0046
G01 X26.0199 Y7.9643
G01 X25.9984 Y7.9503
G01 X25.9284 Y7.8985
G01 X25.9083 Y7.8824
G01 X25.8375 Y7.8182
G01 X25.8254 Y7.8061
G01 X25.7923 Y7.7698
G01 X25.7922 Y7.8086
G01 X25.7914 Y7.8257
G01 X25.7897 Y7.8427
G01 X25.7872 Y7.8596
G01 X25.7838 Y7.8764
G01 X25.7797 Y7.8930
G01 X25.7747 Y7.9094
G01 X25.7689 Y7.9255
G01 X25.7624 Y7.9413
G01 X25.7551 Y7.9568
G01 X25.7470 Y7.9719
G01 X25.7382 Y7.9866
G01 X25.7287 Y8.0008
G01 X25.7185 Y8.0145
G01 X25.7076 Y8.0278
G01 X25.6961 Y8.0404
G01 X25.6840 Y8.0525
G01 X25.6714 Y8.0640
G01 X25.6581 Y8.0749
G01 X25.6444 Y8.0851
G01 X25.6302 Y8.0946
G01 X25.6155 Y8.1034
G01 X25.6004 Y8.1115
G01 X25.5849 Y8.1188
G01 X25.5691 Y8.1253
G01 X25.5530 Y8.1311
G01 X25.5366 Y8.1361
G01 X25.5200 Y8.1402
G01 X25.5032 Y8.1436
G01 X25.4863 Y8.1461
G01 X25.4693 Y8.1478
G01 X25.4436 Y8.1487
G01 X23.8436 Y8.1487
G01 X23.8265 Y8.1483
G01 X23.8094 Y8.1470
G01 X23.7840 Y8.1436
G01 X23.7672 Y8.1402
G01 X23.7424 Y8.1337
G01 X23.7181 Y8.1253
G01 X23.7023 Y8.1188
G01 X23.6792 Y8.1075
G01 X23.6570 Y8.0946
G01 X23.6359 Y8.0801
G01 X23.6158 Y8.0640
G01 X23.6032 Y8.0525
G01 X23.5852 Y8.0342
G01 X23.5687 Y8.0145
G01 X23.5585 Y8.0008
G01 X23.5445 Y7.9793
G01 X23.5321 Y7.9568
G01 X23.5214 Y7.9334
G01 X23.5153 Y7.9175
G01 X23.5099 Y7.9012
G01 X23.5054 Y7.8847
G01 X23.5016 Y7.8680
G01 X23.4975 Y7.8427
G01 X23.4958 Y7.8257
G01 X23.4950 Y7.8086
G01 X23.4949 Y6.2000
G01 X23.4953 Y6.1829
G01 X23.4966 Y6.1658
G01 X23.5000 Y6.1404
G01 X23.5054 Y6.1153
G01 X23.5125 Y6.0906
G01 X23.5183 Y6.0745
G01 X23.5248 Y6.0587
G01 X23.5361 Y6.0356
G01 X23.5490 Y6.0134
G01 X23.5635 Y5.9923
G01 X23.5796 Y5.9722
G01 X23.5970 Y5.9534
G01 X23.6158 Y5.9360
G01 X23.6291 Y5.9251
G01 X23.6499 Y5.9101
G01 X23.6717 Y5.8966
G01 X23.6945 Y5.8848
G01 X23.7102 Y5.8778
G01 X23.7261 Y5.8717
G01 X23.7424 Y5.8663
G01 X23.7589 Y5.8618
G01 X23.7756 Y5.8580
G01 X23.7924 Y5.8551
G01 X23.8094 Y5.8530
G01 X23.8265 Y5.8517
G01 X23.8436 Y5.8513
G01 X25.4436 Y5.8513
G01 X25.4693 Y5.8522
G01 X25.4863 Y5.8539
G01 X25.5032 Y5.8564
G01 X25.5283 Y5.8618
G01 X25.5448 Y5.8663
G01 X25.5611 Y5.8717
G01 X25.5770 Y5.8778
G01 X25.5927 Y5.8848
G01 X25.6080 Y5.8925
G01 X25.6229 Y5.9009
G01 X25.6373 Y5.9101
G01 X25.6513 Y5.9199
G01 X25.6714 Y5.9360
G01 X25.6840 Y5.9475
G01 X25.6961 Y5.9596
G01 X25.7076 Y5.9722
G01 X25.7185 Y5.9855
G01 X25.7287 Y5.9992
G01 X25.7382 Y6.0134
G01 X25.7470 Y6.0281
G01 X25.7551 Y6.0432
G01 X25.7624 Y6.0587
G01 X25.7689 Y6.0745
G01 X25.7773 Y6.0988
G01 X25.7838 Y6.1236
G01 X25.7872 Y6.1404
G01 X25.7897 Y6.1573
G01 X25.7914 Y6.1743
G01 X25.7922 Y6.1914
G01 X25.7923 Y6.2302
G01 X25.8254 Y6.1939
G01 X25.8375 Y6.1818
G01 X25.9083 Y6.1176
G01 X25.9284 Y6.1015
G01 X25.9984 Y6.0497
G01 X26.0199 Y6.0357
G01 X26.0872 Y5.9954
G01 X26.1021 Y5.9869
G01 X26.1174 Y5.9792
G01 X26.1884 Y5.9457
G01 X26.2120 Y5.9356
G01 X26.3020 Y5.9033
G01 X26.3266 Y5.8962
G01 X26.4028 Y5.8771
G01 X26.4195 Y5.8734
G01 X26.4364 Y5.8704
G01 X26.5140 Y5.8589
G01 X26.5310 Y5.8568
G01 X26.5481 Y5.8556
G01 X26.6265 Y5.8517
G01 X26.6436 Y5.8513
G01 X26.6607 Y5.8517
G01 X26.7391 Y5.8556
G01 X26.7562 Y5.8568
G01 X26.7732 Y5.8589
G01 X26.8508 Y5.8704
G01 X26.8677 Y5.8734
G01 X26.8844 Y5.8771
G01 X26.9606 Y5.8962
G01 X26.9852 Y5.9033
G01 X27.0672 Y5.9326
G01 X27.0832 Y5.9387
G01 X27.0988 Y5.9457
G01 X27.1698 Y5.9792
G01 X27.1851 Y5.9869
G01 X27.2000 Y5.9954
G01 X27.2673 Y6.0357
G01 X27.2818 Y6.0449
G01 X27.2958 Y6.0547
G01 X27.3588 Y6.1015
G01 X27.3723 Y6.1120
G01 X27.3853 Y6.1232
G01 X27.4435 Y6.1759
G01 X27.4559 Y6.1877
G01 X27.4677 Y6.2001
G01 X27.5260 Y6.2647
G01 X27.5421 Y6.2848
G01 X27.5889 Y6.3478
G01 X27.5987 Y6.3618
G01 X27.6079 Y6.3763
G01 X27.6436 Y6.4359
G01 X27.6793 Y6.3763
G01 X27.6885 Y6.3618
G01 X27.6983 Y6.3478
G01 X27.7451 Y6.2848
G01 X27.7556 Y6.2713
G01 X27.7668 Y6.2583
G01 X27.8195 Y6.2001
G01 X27.8313 Y6.1877
G01 X27.8437 Y6.1759
G01 X27.9019 Y6.1232
G01 X27.9149 Y6.1120
G01 X27.9284 Y6.1015
G01 X27.9914 Y6.0547
G01 X28.0054 Y6.0449
G01 X28.0199 Y6.0357
G01 X28.0872 Y5.9954
G01 X28.1021 Y5.9869
G01 X28.1174 Y5.9792
G01 X28.1884 Y5.9457
G01 X28.2040 Y5.9387
G01 X28.2200 Y5.9326
G01 X28.2939 Y5.9061
G01 X28.3184 Y5.8984
G01 X28.4111 Y5.8751
G01 X28.4364 Y5.8704
G01 X28.5140 Y5.8589
G01 X28.5310 Y5.8568
G01 X28.5481 Y5.8556
G01 X28.6265 Y5.8517
G00 Z2.0000
G00 X36.9902 Y7.6297
G01 F40.00
G01 Z-0.0500
G01 F35.00
G01 X37.0073 Y7.6293
G01 X37.0244 Y7.6297
G01 X37.1028 Y7.6336
G01 X37.1199 Y7.6348
G01 X37.1369 Y7.6369
G01 X37.2145 Y7.6484
G01 X37.2314 Y7.6514
G01 X37.2481 Y7.6551
G01 X37.3243 Y7.6742
G01 X37.3407 Y7.6788
G01 X37.3570 Y7.6841
G01 X37.4309 Y7.7106
G01 X37.4548 Y7.7201
G01 X37.5335 Y7.7572
G01 X37.5488 Y7.7649
G01 X37.5637 Y7.7734
G01 X37.6310 Y7.8137
G01 X37.6525 Y7.8277
G01 X37.7225 Y7.8795
G01 X37.7426 Y7.8956
G01 X37.8134 Y7.9598
G01 X37.8255 Y7.9719
G01 X37.8586 Y8.0082
G01 X37.8587 Y7.9694
G01 X37.8595 Y7.9523
G01 X37.8612 Y7.9353
G01 X37.8653 Y7.9100
G01 X37.8691 Y7.8933
G01 X37.8736 Y7.8768
G01 X37.8820 Y7.8525
G01 X37.8885 Y7.8367
G01 X37.8958 Y7.8212
G01 X37.9039 Y7.8061
G01 X37.9127 Y7.7914
G01 X37.9222 Y7.7772
G01 X37.9324 Y7.7635
G01 X37.9433 Y7.7502
G01 X37.9548 Y7.7376
G01 X37.9669 Y7.7255
G01 X37.9795 Y7.7140
G01 X37.9928 Y7.7031
G01 X38.0065 Y7.6929
G01 X38.0207 Y7.6834
G01 X38.0354 Y7.6746
G01 X38.0582 Y7.6628
G01 X38.0739 Y7.6558
G01 X38.0898 Y7.6497
G01 X38.1061 Y7.6443
G01 X38.1226 Y7.6398
G01 X38.1393 Y7.6360
G01 X38.1561 Y7.6331
G01 X38.1816 Y7.6302
G01 X38.2073 Y7.6293
G01 X39.8159 Y7.6294
G01 X39.8415 Y7.6310
G01 X39.8669 Y7.6344
G01 X39.8920 Y7.6398
G01 X39.9167 Y7.6469
G01 X39.9407 Y7.6558
G01 X39.9641 Y7.6665
G01 X39.9866 Y7.6789
G01 X40.0081 Y7.6929
G01 X40.0285 Y7.7085
G01 X40.0415 Y7.7196
G01 X40.0539 Y7.7314
G01 X40.0657 Y7.7438
G01 X40.0822 Y7.7635
G01 X40.0924 Y7.7772
G01 X40.1019 Y7.7914
G01 X40.1148 Y7.8136
G01 X40.1261 Y7.8367
G01 X40.1326 Y7.8525
G01 X40.1384 Y7.8686
G01 X40.1434 Y7.8850
G01 X40.1493 Y7.9100
G01 X40.1522 Y7.9268
G01 X40.1543 Y7.9438
G01 X40.1556 Y7.9609
G01 X40.1560 Y7.9780
G01 X40.1559 Y9.5866
G01 X40.1543 Y9.6122
G01 X40.1509 Y9.6376
G01 X40.1455 Y9.6627
G01 X40.1384 Y9.6874
G01 X40.1295 Y9.7114
G01 X40.1188 Y9.7348
G01 X40.1064 Y9.7573
G01 X40.0924 Y9.7788
G01 X40.0822 Y9.7925
G01 X40.0657 Y9.8122
G01 X40.0539 Y9.8246
G01 X40.0415 Y9.8364
G01 X40.0285 Y9.8475
G01 X40.0081 Y9.8631
G01 X39.9939 Y9.8726
G01 X39.9792 Y9.8814
G01 X39.9641 Y9.8895
G01 X39.9486 Y9.8968
G01 X39.9248 Y9.9063
G01 X39.9085 Y9.9117
G01 X39.8920 Y9.9162
G01 X39.8753 Y9.9200
G01 X39.8500 Y9.9241
G01 X39.8330 Y9.9258
G01 X39.8073 Y9.9267
G01 X38.2073 Y9.9267
G01 X38.1902 Y9.9263
G01 X38.1731 Y9.9250
G01 X38.1561 Y9.9229
G01 X38.1393 Y9.9200
G01 X38.1226 Y9.9162
G01 X38.1061 Y9.9117
G01 X38.0898 Y9.9063
G01 X38.0739 Y9.9002
G01 X38.0582 Y9.8932
G01 X38.0429 Y9.8855
G01 X38.0280 Y9.8771
G01 X38.0136 Y9.8679
G01 X37.9996 Y9.8581
G01 X37.9861 Y9.8475
G01 X37.9731 Y9.8364
G01 X37.9607 Y9.8246
G01 X37.9489 Y9.8122
G01 X37.9378 Y9.7992
G01 X37.9272 Y9.7857
G01 X37.9174 Y9.7717
G01 X37.9082 Y9.7573
G01 X37.8998 Y9.7424
G01 X37.8921 Y9.7271
G01 X37.8851 Y9.7114
G01 X37.8790 Y9.6955
G01 X37.8736 Y9.6792
G01 X37.8691 Y9.6627
G01 X37.8653 Y9.6460
G01 X37.8612 Y9.6207
G01 X37.8595 Y9.6037
G01 X37.8587 Y9.5866
G01 X37.8586 Y9.5478
G01 X37.8255 Y9.5841
G01 X37.8134 Y9.5962
G01 X37.7490 Y9.6548
G01 X37.7293 Y9.6713
G01 X37.6595 Y9.7233
G01 X37.6455 Y9.7331
G01 X37.6310 Y9.7423
G01 X37.5637 Y9.7826
G01 X37.5412 Y9.7950
G01 X37.4625 Y9.8323
G01 X37.4469 Y9.8393
G01 X37.4309 Y9.8454
G01 X37.3570 Y9.8719
G01 X37.3407 Y9.8772
G01 X37.3243 Y9.8818
G01 X37.2481 Y9.9009
G01 X37.2314 Y9.9046
G01 X37.2145 Y9.9076
G01 X37.1284 Y9.9202
G01 X37.1028 Y9.9224
G01 X37.0244 Y9.9263
G01 X37.0073 Y9.9267
G01 X36.9902 Y9.9263
G01 X36.9118 Y9.9224
G01 X36.8947 Y9.9212
G01 X36.8777 Y9.9191
G01 X36.8001 Y9.9076
G01 X36.7832 Y9.9046
G01 X36.7665 Y9.9009
G01 X36.6903 Y9.8818
G01 X36.6739 Y9.8772
G01 X36.6576 Y9.8719
G01 X36.5757 Y9.8424
G01 X36.5521 Y9.8323
G01 X36.4811 Y9.7988
G01 X36.4658 Y9.7911
G01 X36.4509 Y9.7826
G01 X36.3836 Y9.7423
G01 X36.3621 Y9.7283
G01 X36.2921 Y9.6765
G01 X36.2786 Y9.6660
G01 X36.2656 Y9.6548
G01 X36.2074 Y9.6021
G01 X36.1891 Y9.5841
G01 X36.1305 Y9.5197
G01 X36.1193 Y9.5067
G01 X36.1088 Y9.4932
G01 X36.0620 Y9.4302
G01 X36.0522 Y9.4162
G01 X36.0430 Y9.4017
G01 X36.0027 Y9.3344
G01 X35.9942 Y9.3195
G01 X35.9865 Y9.3042
G01 X35.9530 Y9.2332
G01 X35.9460 Y9.2176
G01 X35.9399 Y9.2016
G01 X35.9134 Y9.1277
G01 X35.9081 Y9.1114
G01 X35.9035 Y9.0950
G01 X35.8824 Y9.0105
G01 X35.8777 Y8.9852
G01 X35.8662 Y8.9076
G01 X35.8641 Y8.8906
G01 X35.8629 Y8.8735
G01 X35.8590 Y8.7951
G01 X35.8586 Y8.7780
G01 X35.8590 Y8.7609
G01 X35.8629 Y8.6825
G01 X35.8641 Y8.6654
G01 X35.8662 Y8.6484
G01 X35.8777 Y8.5708
G01 X35.8807 Y8.5539
G01 X35.8844 Y8.5372
G01 X35.9035 Y8.4610
G01 X35.9081 Y8.4446
G01 X35.9134 Y8.4283
G01 X35.9399 Y8.3544
G01 X35.9460 Y8.3384
G01 X35.9530 Y8.3228
G01 X35.9865 Y8.2518
G01 X35.9942 Y8.2365
G01 X36.0027 Y8.2216
G01 X36.0430 Y8.1543
G01 X36.0522 Y8.1398
G01 X36.0620 Y8.1258
G01 X36.1088 Y8.0628
G01 X36.1193 Y8.0493
G01 X36.1305 Y8.0363
G01 X36.1832 Y7.9781
G01 X36.2012 Y7.9598
G01 X36.2656 Y7.9012
G01 X36.2786 Y7.8900
G01 X36.2921 Y7.8795
G01 X36.3551 Y7.8327
G01 X36.3691 Y7.8229
G01 X36.3836 Y7.8137
G01 X36.4509 Y7.7734
G01 X36.4658 Y7.7649
G01 X36.4811 Y7.7572
G01 X36.5521 Y7.7237
G01 X36.5677 Y7.7167
G01 X36.5837 Y7.7106
G01 X36.6576 Y7.6841
G01 X36.6739 Y7.6788
G01 X36.6903 Y7.6742
G01 X36.7665 Y7.6551
G01 X36.7916 Y7.6498
G01 X36.8777 Y7.6369
G01 X36.8947 Y7.6348
G01 X36.9118 Y7.6336
G01 X36.9902 Y7.6297
G00 Z2.0000
G00 X36.2640 Y21.4723
G01 F40.00
G01 Z-0.0500
G01 F35.00
G01 X36.2811 Y21.4727
G01 X36.2982 Y21.4740
G01 X36.3152 Y21.4761
G01 X36.3320 Y21.4790
G01 X36.3570 Y21.4849
G01 X36.3734 Y21.4899
G01 X36.3895 Y21.4957
G01 X36.4131 Y21.5058
G01 X36.4284 Y21.5135
G01 X36.4433 Y21.5219
G01 X36.4577 Y21.5311
G01 X36.4717 Y21.5409
G01 X36.4852 Y21.5515
G01 X36.4982 Y21.5626
G01 X36.5106 Y21.5744
G01 X36.5224 Y21.5868
G01 X36.5389 Y21.6065
G01 X36.5491 Y21.6202
G01 X36.5586 Y21.6344
G01 X36.5674 Y21.6491
G01 X36.5755 Y21.6642
G01 X36.5828 Y21.6797
G01 X36.5893 Y21.6955
G01 X36.5977 Y21.7198
G01 X36.6022 Y21.7363
G01 X36.6060 Y21.7530
G01 X36.6089 Y21.7698
G01 X36.6110 Y21.7868
G01 X36.6123 Y21.8039
G01 X36.6127 Y21.8210
G01 X36.6127 Y23.4210
G01 X36.6123 Y23.4381
G01 X36.6110 Y23.4552
G01 X36.6089 Y23.4722
G01 X36.6060 Y23.4890
G01 X36.6001 Y23.5140
G01 X36.5951 Y23.5304
G01 X36.5893 Y23.5465
G01 X36.5828 Y23.5623
G01 X36.5755 Y23.5778
G01 X36.5674 Y23.5929
G01 X36.5586 Y23.6076
G01 X36.5491 Y23.6218
G01 X36.5389 Y23.6355
G01 X36.5224 Y23.6552
G01 X36.5106 Y23.6676
G01 X36.4982 Y23.6794
G01 X36.4852 Y23.6905
G01 X36.4717 Y23.7011
G01 X36.4577 Y23.7109
G01 X36.4433 Y23.7201
G01 X36.4284 Y23.7285
G01 X36.4131 Y23.7362
G01 X36.3974 Y23.7432
G01 X36.3815 Y23.7493
G01 X36.3570 Y23.7571
G01 X36.3404 Y23.7612
G01 X36.3236 Y23.7646
G01 X36.2982 Y23.7680
G01 X36.2726 Y23.7696
G01 X36.2338 Y23.7697
G01 X36.2701 Y23.8028
G01 X36.2822 Y23.8149
G01 X36.3464 Y23.8857
G01 X36.3625 Y23.9058
G01 X36.4093 Y23.9688
G01 X36.4238 Y23.9900
G01 X36.4686 Y24.0646
G01 X36.4771 Y24.0795
G01 X36.4848 Y24.0948
G01 X36.5183 Y24.1658
G01 X36.5253 Y24.1814
G01 X36.5314 Y24.1974
G01 X36.5579 Y24.2713
G01 X36.5656 Y24.2958
G01 X36.5869 Y24.3802
G01 X36.5906 Y24.3969
G01 X36.5936 Y24.4138
G01 X36.6051 Y24.4914
G01 X36.6072 Y24.5084
G01 X36.6084 Y24.5255
G01 X36.6123 Y24.6039
G01 X36.6127 Y24.6210
G01 X36.6123 Y24.6381
G01 X36.6084 Y24.7165
G01 X36.6072 Y24.7336
G01 X36.6051 Y24.7506
G01 X36.5936 Y24.8282
G01 X36.5906 Y24.8451
G01 X36.5869 Y24.8618
G01 X36.5656 Y24.9462
G01 X36.5579 Y24.9707
G01 X36.5314 Y25.0446
G01 X36.5253 Y25.0606
G01 X36.5183 Y25.0762
G01 X36.4848 Y25.1472
G01 X36.4771 Y25.1625
G01 X36.4686 Y25.1774
G01 X36.4283 Y25.2447
G01 X36.4191 Y25.2592
G01 X36.4093 Y25.2732
G01 X36.3625 Y25.3362
G01 X36.3520 Y25.3497
G01 X36.3408 Y25.3627
G01 X36.2881 Y25.4209
G01 X36.2763 Y25.4333
G01 X36.2639 Y25.4451
G01 X36.2057 Y25.4978
G01 X36.1927 Y25.5090
G01 X36.1792 Y25.5195
G01 X36.1162 Y25.5663
G01 X36.1022 Y25.5761
G01 X36.0877 Y25.5853
G01 X36.0204 Y25.6256
G01 X36.0055 Y25.6341
G01 X35.9902 Y25.6418
G01 X35.9192 Y25.6753
G01 X35.9036 Y25.6823
G01 X35.8876 Y25.6884
G01 X35.8137 Y25.7149
G01 X35.7974 Y25.7202
G01 X35.7810 Y25.7248
G01 X35.7048 Y25.7439
G01 X35.6881 Y25.7476
G01 X35.6712 Y25.7506
G01 X35.5936 Y25.7621
G01 X35.5766 Y25.7642
G01 X35.5595 Y25.7654
G01 X35.4811 Y25.7693
G01 X35.4640 Y25.7697
G01 X35.4469 Y25.7693
G01 X35.3685 Y25.7654
G01 X35.3514 Y25.7642
G01 X35.3344 Y25.7621
G01 X35.2568 Y25.7506
G01 X35.2399 Y25.7476
G01 X35.2232 Y25.7439
G01 X35.1388 Y25.7226
G01 X35.1143 Y25.7149
G01 X35.0404 Y25.6884
G01 X35.0244 Y25.6823
G01 X35.0088 Y25.6753
G01 X34.9378 Y25.6418
G01 X34.9225 Y25.6341
G01 X34.9076 Y25.6256
G01 X34.8403 Y25.5853
G01 X34.8258 Y25.5761
G01 X34.8118 Y25.5663
G01 X34.7488 Y25.5195
G01 X34.7353 Y25.5090
G01 X34.7223 Y25.4978
G01 X34.6641 Y25.4451
G01 X34.6517 Y25.4333
G01 X34.6399 Y25.4209
G01 X34.5872 Y25.3627
G01 X34.5760 Y25.3497
G01 X34.5655 Y25.3362
G01 X34.5187 Y25.2732
G01 X34.5089 Y25.2592
G01 X34.4997 Y25.2447
G01 X34.4594 Y25.1774
G01 X34.4509 Y25.1625
G01 X34.4432 Y25.1472
G01 X34.4097 Y25.0762
G01 X34.4027 Y25.0606
G01 X34.3966 Y25.0446
G01 X34.3701 Y24.9707
G01 X34.3648 Y24.9544
G01 X34.3602 Y24.9380
G01 X34.3411 Y24.8618
G01 X34.3374 Y24.8451
G01 X34.3344 Y24.8282
G01 X34.3229 Y24.7506
G01 X34.3208 Y24.7336
G01 X34.3196 Y24.7165
G01 X34.3157 Y24.6381
G01 X34.3153 Y24.6210
G01 X34.3157 Y24.6039
G01 X34.3196 Y24.5255
G01 X34.3208 Y24.5084
G01 X34.3229 Y24.4914
G01 X34.3344 Y24.4138
G01 X34.3374 Y24.3969
G01 X34.3411 Y24.3802
G01 X34.3602 Y24.3040
G01 X34.3673 Y24.2794
G01 X34.3966 Y24.1974
G01 X34.4027 Y24.1814
G01 X34.4097 Y24.1658
G01 X34.4432 Y24.0948
G01 X34.4551 Y24.0720
G01 X34.5042 Y23.9900
G01 X34.5187 Y23.9688
G01 X34.5655 Y23.9058
G01 X34.5816 Y23.8857
G01 X34.6458 Y23.8149
G01 X34.6579 Y23.8028
G01 X34.6942 Y23.7697
G01 X34.6554 Y23.7696
G01 X34.6383 Y23.7688
G01 X34.6213 Y23.7671
G01 X34.5960 Y23.7630
G01 X34.5793 Y23.7592
G01 X34.5628 Y23.7547
G01 X34.5465 Y23.7493
G01 X34.5306 Y23.7432
G01 X34.5149 Y23.7362
G01 X34.4996 Y23.7285
G01 X34.4774 Y23.7156
G01 X34.4632 Y23.7061
G01 X34.4495 Y23.6959
G01 X34.4362 Y23.6850
G01 X34.4236 Y23.6735
G01 X34.4115 Y23.6614
G01 X34.4000 Y23.6488
G01 X34.3891 Y23.6355
G01 X34.3789 Y23.6218
G01 X34.3649 Y23.6003
G01 X34.3565 Y23.5854
G01 X34.3488 Y23.5701
G01 X34.3418 Y23.5544
G01 X34.3357 Y23.5385
G01 X34.3303 Y23.5222
G01 X34.3258 Y23.5057
G01 X34.3204 Y23.4806
G01 X34.3179 Y23.4637
G01 X34.3162 Y23.4467
G01 X34.3153 Y23.4210
G01 X34.3153 Y21.8210
G01 X34.3162 Y21.7953
G01 X34.3179 Y21.7783
G01 X34.3220 Y21.7530
G01 X34.3279 Y21.7280
G01 X34.3357 Y21.7035
G01 X34.3452 Y21.6797
G01 X34.3565 Y21.6566
G01 X34.3694 Y21.6344
G01 X34.3839 Y21.6133
G01 X34.4000 Y21.5932
G01 X34.4174 Y21.5744
G01 X34.4362 Y21.5570
G01 X34.4563 Y21.5409
G01 X34.4774 Y21.5264
G01 X34.4996 Y21.5135
G01 X34.5227 Y21.5022
G01 X34.5465 Y21.4927
G01 X34.5710 Y21.4849
G01 X34.5960 Y21.4790
G01 X34.6213 Y21.4749
G01 X34.6469 Y21.4727
G01 X34.6640 Y21.4723
G01 X36.2640 Y21.4723
G00 Z2.0000
G00 X52.2109 Y24.2987
G01 F40.00
G01 Z-0.0500
G01 F35.00
G01 X52.2366 Y24.2984
G01 X52.3321 Y24.3031
G01 X52.3576 Y24.3059
G01 X52.4352 Y24.3174
G01 X52.4605 Y24.3221
G01 X52.5450 Y24.3432
G01 X52.5614 Y24.3478
G01 X52.5777 Y24.3531
G01 X52.6516 Y24.3796
G01 X52.6676 Y24.3857
G01 X52.6832 Y24.3927
G01 X52.7542 Y24.4262
G01 X52.7695 Y24.4339
G01 X52.7844 Y24.4424
G01 X52.8517 Y24.4827
G01 X52.8662 Y24.4919
G01 X52.8802 Y24.5017
G01 X52.9432 Y24.5485
G01 X52.9567 Y24.5590
G01 X52.9697 Y24.5702
G01 X53.0279 Y24.6229
G01 X53.0403 Y24.6347
G01 X53.0521 Y24.6471
G01 X53.1048 Y24.7053
G01 X53.1160 Y24.7183
G01 X53.1265 Y24.7318
G01 X53.1733 Y24.7948
G01 X53.1831 Y24.8088
G01 X53.1923 Y24.8233
G01 X53.2326 Y24.8906
G01 X53.2411 Y24.9055
G01 X53.2488 Y24.9208
G01 X53.2859 Y24.9995
G01 X53.2954 Y25.0234
G01 X53.3219 Y25.0973
G01 X53.3272 Y25.1136
G01 X53.3318 Y25.1300
G01 X53.3509 Y25.2062
G01 X53.3546 Y25.2229
G01 X53.3576 Y25.2398
G01 X53.3691 Y25.3174
G01 X53.3712 Y25.3344
G01 X53.3724 Y25.3515
G01 X53.3763 Y25.4299
G01 X53.3767 Y25.4470
G01 X53.3763 Y25.4641
G01 X53.3724 Y25.5425
G01 X53.3712 Y25.5596
G01 X53.3691 Y25.5766
G01 X53.3576 Y25.6542
G01 X53.3546 Y25.6711
G01 X53.3509 Y25.6878
G01 X53.3318 Y25.7640
G01 X53.3247 Y25.7886
G01 X53.2954 Y25.8706
G01 X53.2893 Y25.8866
G01 X53.2823 Y25.9022
G01 X53.2488 Y25.9732
G01 X53.2369 Y25.9960
G01 X53.1878 Y26.0780
G01 X53.1733 Y26.0992
G01 X53.1265 Y26.1622
G01 X53.1104 Y26.1823
G01 X53.0462 Y26.2531
G01 X53.0341 Y26.2652
G01 X52.9978 Y26.2983
G01 X53.0366 Y26.2984
G01 X53.0537 Y26.2992
G01 X53.0707 Y26.3009
G01 X53.0876 Y26.3034
G01 X53.1044 Y26.3068
G01 X53.1210 Y26.3109
G01 X53.1374 Y26.3159
G01 X53.1535 Y26.3217
G01 X53.1693 Y26.3282
G01 X53.1848 Y26.3355
G01 X53.1999 Y26.3436
G01 X53.2146 Y26.3524
G01 X53.2288 Y26.3619
G01 X53.2425 Y26.3721
G01 X53.2558 Y26.3830
G01 X53.2684 Y26.3945
G01 X53.2864 Y26.4128
G01 X53.2975 Y26.4258
G01 X53.3081 Y26.4393
G01 X53.3179 Y26.4533
G01 X53.3271 Y26.4677
G01 X53.3355 Y26.4826
G01 X53.3432 Y26.4979
G01 X53.3502 Y26.5136
G01 X53.3563 Y26.5295
G01 X53.3617 Y26.5458
G01 X53.3662 Y26.5623
G01 X53.3700 Y26.5790
G01 X53.3729 Y26.5958
G01 X53.3750 Y26.6128
G01 X53.3763 Y26.6299
G01 X53.3767 Y26.6470
G01 X53.3767 Y28.2470
G01 X53.3758 Y28.2727
G01 X53.3729 Y28.2982
G01 X53.3700 Y28.3150
G01 X53.3662 Y28.3317
G01 X53.3591 Y28.3564
G01 X53.3502 Y28.3804
G01 X53.3395 Y28.4038
G01 X53.3271 Y28.4263
G01 X53.3131 Y28.4478
G01 X53.2975 Y28.4682
G01 X53.2805 Y28.4874
G01 X53.2622 Y28.5054
G01 X53.2425 Y28.5219
G01 X53.2217 Y28.5369
G01 X53.1999 Y28.5504
G01 X53.1848 Y28.5585
G01 X53.1693 Y28.5658
G01 X53.1455 Y28.5753
G01 X53.1210 Y28.5831
G01 X53.0960 Y28.5890
G01 X53.0792 Y28.5919
G01 X53.0622 Y28.5940
G01 X53.0451 Y28.5953
G01 X53.0280 Y28.5957
G01 X51.4280 Y28.5957
G01 X51.4023 Y28.5948
G01 X51.3768 Y28.5919
G01 X51.3516 Y28.5872
G01 X51.3268 Y28.5807
G01 X51.3025 Y28.5723
G01 X51.2789 Y28.5622
G01 X51.2636 Y28.5545
G01 X51.2487 Y28.5461
G01 X51.2272 Y28.5321
G01 X51.2068 Y28.5165
G01 X51.1876 Y28.4995
G01 X51.1696 Y28.4812
G01 X51.1531 Y28.4615
G01 X51.1381 Y28.4407
G01 X51.1289 Y28.4263
G01 X51.1205 Y28.4114
G01 X51.1092 Y28.3883
G01 X51.0997 Y28.3645
G01 X51.0919 Y28.3400
G01 X51.0860 Y28.3150
G01 X51.0831 Y28.2982
G01 X51.0810 Y28.2812
G01 X51.0797 Y28.2641
G01 X51.0793 Y28.2470
G01 X51.0793 Y26.6470
G01 X51.0797 Y26.6299
G01 X51.0810 Y26.6128
G01 X51.0844 Y26.5874
G01 X51.0898 Y26.5623
G01 X51.0943 Y26.5458
G01 X51.0997 Y26.5295
G01 X51.1058 Y26.5136
G01 X51.1128 Y26.4979
G01 X51.1205 Y26.4826
G01 X51.1289 Y26.4677
G01 X51.1381 Y26.4533
G01 X51.1479 Y26.4393
G01 X51.1585 Y26.4258
G01 X51.1696 Y26.4128
G01 X51.1876 Y26.3945
G01 X51.2002 Y26.3830
G01 X51.2135 Y26.3721
G01 X51.2272 Y26.3619
G01 X51.2414 Y26.3524
G01 X51.2561 Y26.3436
G01 X51.2712 Y26.3355
G01 X51.2867 Y26.3282
G01 X51.3025 Y26.3217
G01 X51.3268 Y26.3133
G01 X51.3433 Y26.3088
G01 X51.3600 Y26.3050
G01 X51.3853 Y26.3009
G01 X51.4023 Y26.2992
G01 X51.4194 Y26.2984
G01 X51.4582 Y26.2983
G01 X51.4219 Y26.2652
G01 X51.4098 Y26.2531
G01 X51.3456 Y26.1823
G01 X51.3295 Y26.1622
G01 X51.2827 Y26.0992
G01 X51.2682 Y26.0780
G01 X51.2234 Y26.0034
G01 X51.2149 Y25.9885
G01 X51.2072 Y25.9732
G01 X51.1737 Y25.9022
G01 X51.1667 Y25.8866
G01 X51.1606 Y25.8706
G01 X51.1341 Y25.7967
G01 X51.1264 Y25.7722
G01 X51.1051 Y25.6878
G01 X51.1014 Y25.6711
G01 X51.0984 Y25.6542
G01 X51.0869 Y25.5766
G01 X51.0848 Y25.5596
G01 X51.0836 Y25.5425
G01 X51.0797 Y25.4641
G01 X51.0793 Y25.4470
G01 X51.0797 Y25.4299
G01 X51.0836 Y25.3515
G01 X51.0848 Y25.3344
G01 X51.0869 Y25.3174
G01 X51.0984 Y25.2398
G01 X51.1014 Y25.2229
G01 X51.1051 Y25.2062
G01 X51.1264 Y25.1218
G01 X51.1341 Y25.0973
G01 X51.1606 Y25.0234
G01 X51.1667 Y25.0074
G01 X51.1737 Y24.9918
G01 X51.2072 Y24.9208
G01 X51.2149 Y24.9055
G01 X51.2234 Y24.8906
G01 X51.2637 Y24.8233
G01 X51.2729 Y24.8088
G01 X51.2827 Y24.7948
G01 X51.3295 Y24.7318
G01 X51.3400 Y24.7183
G01 X51.3512 Y24.7053
G01 X51.4039 Y24.6471
G01 X51.4219 Y24.6288
G01 X51.4863 Y24.5702
G01 X51.4993 Y24.5590
G01 X51.5128 Y24.5485
G01 X51.5758 Y24.5017
G01 X51.5898 Y24.4919
G01 X51.6043 Y24.4827
G01 X51.6716 Y24.4424
G01 X51.6865 Y24.4339
G01 X51.7018 Y24.4262
G01 X51.7728 Y24.3927
G01 X51.7884 Y24.3857
G01 X51.8044 Y24.3796
G01 X51.8783 Y24.3531
G01 X51.8946 Y24.3478
G01 X51.9110 Y24.3432
G01 X51.9872 Y24.3241
G01 X52.0123 Y24.3188
G01 X52.0984 Y24.3059
G01 X52.1154 Y24.3038
G01 X52.1325 Y24.3026
G01 X52.2109 Y24.2987
G00 Z2.0000
G00 X51.7349 Y4.0737
G01 F40.00
G01 Z-0.0500
G01 F35.00
G01 X51.7520 Y4.0733
G01 X51.7691 Y4.0737
G01 X51.8475 Y4.0776
G01 X51.8646 Y4.0788
G01 X51.8816 Y4.0809
G01 X51.9592 Y4.0924
G01 X51.9761 Y4.0954
G01 X51.9928 Y4.0991
G01 X52.0690 Y4.1182
G01 X52.0854 Y4.1228
G01 X52.1017 Y4.1281
G01 X52.1756 Y4.1546
G01 X52.1995 Y4.1641
G01 X52.2782 Y4.2012
G01 X52.2935 Y4.2089
G01 X52.3084 Y4.2174
G01 X52.3757 Y4.2577
G01 X52.3972 Y4.2717
G01 X52.4672 Y4.3235
G01 X52.4873 Y4.3396
G01 X52.5581 Y4.4038
G01 X52.5702 Y4.4159
G01 X52.6033 Y4.4522
G01 X52.6034 Y4.4134
G01 X52.6042 Y4.3963
G01 X52.6059 Y4.3793
G01 X52.6100 Y4.3540
G01 X52.6138 Y4.3373
G01 X52.6183 Y4.3208
G01 X52.6267 Y4.2965
G01 X52.6332 Y4.2807
G01 X52.6405 Y4.2652
G01 X52.6486 Y4.2501
G01 X52.6574 Y4.2354
G01 X52.6669 Y4.2212
G01 X52.6771 Y4.2075
G01 X52.6880 Y4.1942
G01 X52.6995 Y4.1816
G01 X52.7116 Y4.1695
G01 X52.7242 Y4.1580
G01 X52.7375 Y4.1471
G01 X52.7512 Y4.1369
G01 X52.7654 Y4.1274
G01 X52.7801 Y4.1186
G01 X52.8029 Y4.1068
G01 X52.8186 Y4.0998
G01 X52.8345 Y4.0937
G01 X52.8508 Y4.0883
G01 X52.8673 Y4.0838
G01 X52.8840 Y4.0800
G01 X52.9008 Y4.0771
G01 X52.9263 Y4.0742
G01 X52.9520 Y4.0733
G01 X54.5606 Y4.0734
G01 X54.5862 Y4.0750
G01 X54.6116 Y4.0784
G01 X54.6367 Y4.0838
G01 X54.6614 Y4.0909
G01 X54.6854 Y4.0998
G01 X54.7088 Y4.1105
G01 X54.7313 Y4.1229
G01 X54.7528 Y4.1369
G01 X54.7732 Y4.1525
G01 X54.7862 Y4.1636
G01 X54.7986 Y4.1754
G01 X54.8160 Y4.1942
G01 X54.8269 Y4.2075
G01 X54.8371 Y4.2212
G01 X54.8466 Y4.2354
G01 X54.8595 Y4.2576
G01 X54.8672 Y4.2729
G01 X54.8742 Y4.2886
G01 X54.8831 Y4.3126
G01 X54.8881 Y4.3290
G01 X54.8922 Y4.3456
G01 X54.8956 Y4.3624
G01 X54.8981 Y4.3793
G01 X54.9003 Y4.4049
G01 X54.9007 Y4.4220
G01 X54.9006 Y6.0306
G01 X54.8990 Y6.0562
G01 X54.8956 Y6.0816
G01 X54.8902 Y6.1067
G01 X54.8831 Y6.1314
G01 X54.8742 Y6.1554
G01 X54.8635 Y6.1788
G01 X54.8511 Y6.2013
G01 X54.8371 Y6.2228
G01 X54.8269 Y6.2365
G01 X54.8104 Y6.2562
G01 X54.7986 Y6.2686
G01 X54.7862 Y6.2804
G01 X54.7732 Y6.2915
G01 X54.7597 Y6.3021
G01 X54.7457 Y6.3119
G01 X54.7239 Y6.3254
G01 X54.7088 Y6.3335
G01 X54.6933 Y6.3408
G01 X54.6695 Y6.3503
G01 X54.6532 Y6.3557
G01 X54.6284 Y6.3622
G01 X54.6116 Y6.3656
G01 X54.5947 Y6.3681
G01 X54.5777 Y6.3698
G01 X54.5520 Y6.3707
G01 X52.9520 Y6.3707
G01 X52.9349 Y6.3703
G01 X52.9178 Y6.3690
G01 X52.9008 Y6.3669
G01 X52.8840 Y6.3640
G01 X52.8673 Y6.3602
G01 X52.8508 Y6.3557
G01 X52.8345 Y6.3503
G01 X52.8186 Y6.3442
G01 X52.8029 Y6.3372
G01 X52.7876 Y6.3295
G01 X52.7727 Y6.3211
G01 X52.7583 Y6.3119
G01 X52.7443 Y6.3021
G01 X52.7308 Y6.2915
G01 X52.7178 Y6.2804
G01 X52.7054 Y6.2686
G01 X52.6936 Y6.2562
G01 X52.6825 Y6.2432
G01 X52.6719 Y6.2297
G01 X52.6621 Y6.2157
G01 X52.6529 Y6.2013
G01 X52.6445 Y6.1864
G01 X52.6368 Y6.1711
G01 X52.6298 Y6.1554
G01 X52.6237 Y6.1395
G01 X52.6183 Y6.1232
G01 X52.6118 Y6.0984
G01 X52.6084 Y6.0816
G01 X52.6059 Y6.0647
G01 X52.6042 Y6.0477
G01 X52.6034 Y6.0306
G01 X52.6033 Y5.9918
G01 X52.5702 Y6.0281
G01 X52.5581 Y6.0402
G01 X52.4937 Y6.0988
G01 X52.4740 Y6.1153
G01 X52.4042 Y6.1673
G01 X52.3902 Y6.1771
G01 X52.3757 Y6.1863
G01 X52.3084 Y6.2266
G01 X52.2859 Y6.2390
G01 X52.2072 Y6.2763
G01 X52.1916 Y6.2833
G01 X52.1756 Y6.2894
G01 X52.1017 Y6.3159
G01 X52.0854 Y6.3212
G01 X52.0690 Y6.3258
G01 X51.9928 Y6.3449
G01 X51.9761 Y6.3486
G01 X51.9592 Y6.3516
G01 X51.8731 Y6.3642
G01 X51.8475 Y6.3664
G01 X51.7691 Y6.3703
G01 X51.7520 Y6.3707
G01 X51.7349 Y6.3703
G01 X51.6565 Y6.3664
G01 X51.6394 Y6.3652
G01 X51.6224 Y6.3631
G01 X51.5448 Y6.3516
G01 X51.5279 Y6.3486
G01 X51.5112 Y6.3449
G01 X51.4350 Y6.3258
G01 X51.4186 Y6.3212
G01 X51.4023 Y6.3159
G01 X51.3204 Y6.2864
G01 X51.2968 Y6.2763
G01 X51.2258 Y6.2428
G01 X51.2105 Y6.2351
G01 X51.1956 Y6.2266
G01 X51.1283 Y6.1863
G01 X51.1068 Y6.1723
G01 X51.0368 Y6.1205
G01 X51.0233 Y6.1100
G01 X51.0103 Y6.0988
G01 X50.9521 Y6.0461
G01 X50.9338 Y6.0281
G01 X50.8752 Y5.9637
G01 X50.8640 Y5.9507
G01 X50.8535 Y5.9372
G01 X50.8067 Y5.8742
G01 X50.7969 Y5.8602
G01 X50.7877 Y5.8457
G01 X50.7474 Y5.7784
G01 X50.7389 Y5.7635
G01 X50.7312 Y5.7482
G01 X50.6977 Y5.6772
G01 X50.6907 Y5.6616
G01 X50.6846 Y5.6456
G01 X50.6581 Y5.5717
G01 X50.6528 Y5.5554
G01 X50.6482 Y5.5390
G01 X50.6271 Y5.4545
G01 X50.6224 Y5.4292
G01 X50.6109 Y5.3516
G01 X50.6088 Y5.3346
G01 X50.6076 Y5.3175
G01 X50.6037 Y5.2391
G01 X50.6033 Y5.2220
G01 X50.6037 Y5.2049
G01 X50.6076 Y5.1265
G01 X50.6088 Y5.1094
G01 X50.6109 Y5.0924
G01 X50.6224 Y5.0148
G01 X50.6254 Y4.9979
G01 X50.6291 Y4.9812
G01 X50.6482 Y4.9050
G01 X50.6528 Y4.8886
G01 X50.6581 Y4.8723
G01 X50.6846 Y4.7984
G01 X50.6907 Y4.7824
G01 X50.6977 Y4.7668
G01 X50.7312 Y4.6958
G01 X50.7389 Y4.6805
G01 X50.7474 Y4.6656
G01 X50.7877 Y4.5983
G01 X50.7969 Y4.5838
G01 X50.8067 Y4.5698
G01 X50.8535 Y4.5068
G01 X50.8640 Y4.4933
G01 X50.8752 Y4.4803
G01 X50.9279 Y4.4221
G01 X50.9459 Y4.4038
G01 X51.0103 Y4.3452
G01 X51.0233 Y4.3340
G01 X51.0368 Y4.3235
G01 X51.0998 Y4.2767
G01 X51.1138 Y4.2669
G01 X51.1283 Y4.2577
G01 X51.1956 Y4.2174
G01 X51.2105 Y4.2089
G01 X51.2258 Y4.2012
G01 X51.2968 Y4.1677
G01 X51.3124 Y4.1607
G01 X51.3284 Y4.1546
G01 X51.4023 Y4.1281
G01 X51.4186 Y4.1228
G01 X51.4350 Y4.1182
G01 X51.5112 Y4.0991
G01 X51.5363 Y4.0938
G01 X51.6224 Y4.0809
G01 X51.6394 Y4.0788
G01 X51.6565 Y4.0776
G01 X51.7349 Y4.0737
G00 Z2.0000
G00 X8.6880 Y22.3776
G01 F40.00
G01 Z-0.0500
G01 F35.00
G01 X8.7137 Y22.3773
G01 X8.8202 Y22.3824
G01 X8.8373 Y22.3837
G01 X8.8543 Y22.3858
G01 X8.9514 Y22.4002
G01 X8.9682 Y22.4031
G01 X8.9849 Y22.4069
G01 X9.0801 Y22.4307
G01 X9.0966 Y22.4353
G01 X9.1129 Y22.4406
G01 X9.2053 Y22.4737
G01 X9.2212 Y22.4799
G01 X9.2369 Y22.4868
G01 X9.3256 Y22.5288
G01 X9.3484 Y22.5406
G01 X9.4399 Y22.5953
G01 X9.4544 Y22.6045
G01 X9.4684 Y22.6144
G01 X9.5472 Y22.6728
G01 X9.5607 Y22.6833
G01 X9.5737 Y22.6945
G01 X9.6464 Y22.7604
G01 X9.6588 Y22.7722
G01 X9.6706 Y22.7846
G01 X9.7365 Y22.8573
G01 X9.7477 Y22.8703
G01 X9.7582 Y22.8838
G01 X9.8166 Y22.9626
G01 X9.8265 Y22.9766
G01 X9.8357 Y22.9911
G01 X9.8904 Y23.0826
G01 X9.9022 Y23.1054
G01 X9.9442 Y23.1941
G01 X9.9511 Y23.2098
G01 X9.9573 Y23.2257
G01 X9.9904 Y23.3181
G01 X9.9957 Y23.3344
G01 X10.0003 Y23.3509
G01 X10.0241 Y23.4461
G01 X10.0279 Y23.4628
G01 X10.0308 Y23.4796
G01 X10.0452 Y23.5767
G01 X10.0473 Y23.5937
G01 X10.0486 Y23.6108
G01 X10.0537 Y23.7173
G01 X10.0534 Y23.7430
G01 X10.0486 Y23.8410
G01 X10.0473 Y23.8581
G01 X10.0452 Y23.8751
G01 X10.0308 Y23.9722
G01 X10.0279 Y23.9890
G01 X10.0241 Y24.0057
G01 X10.0003 Y24.1009
G01 X9.9957 Y24.1174
G01 X9.9904 Y24.1337
G01 X9.9573 Y24.2261
G01 X9.9511 Y24.2420
G01 X9.9442 Y24.2577
G01 X9.8985 Y24.3541
G01 X9.8861 Y24.3766
G01 X9.8357 Y24.4607
G01 X9.8265 Y24.4752
G01 X9.8166 Y24.4892
G01 X9.7582 Y24.5680
G01 X9.7477 Y24.5815
G01 X9.7365 Y24.5945
G01 X9.6706 Y24.6672
G01 X9.6588 Y24.6796
G01 X9.6464 Y24.6914
G01 X9.5737 Y24.7573
G01 X9.5607 Y24.7685
G01 X9.5472 Y24.7790
G01 X9.4684 Y24.8374
G01 X9.4544 Y24.8473
G01 X9.4399 Y24.8565
G01 X9.3558 Y24.9069
G01 X9.3409 Y24.9153
G01 X9.3256 Y24.9230
G01 X9.2369 Y24.9650
G01 X9.2212 Y24.9719
G01 X9.2053 Y24.9781
G01 X9.1129 Y25.0112
G01 X9.0966 Y25.0165
G01 X9.0801 Y25.0211
G01 X8.9849 Y25.0449
G01 X8.9682 Y25.0487
G01 X8.9514 Y25.0516
G01 X8.8458 Y25.0672
G01 X8.8202 Y25.0694
G01 X8.7222 Y25.0742
G01 X8.7051 Y25.0746
G01 X8.6880 Y25.0742
G01 X8.5900 Y25.0694
G01 X8.5729 Y25.0681
G01 X8.5559 Y25.0660
G01 X8.4504 Y25.0503
G01 X8.4253 Y25.0449
G01 X8.3301 Y25.0211
G01 X8.3136 Y25.0165
G01 X8.2973 Y25.0112
G01 X8.2049 Y24.9781
G01 X8.1890 Y24.9719
G01 X8.1733 Y24.9650
G01 X8.0846 Y24.9230
G01 X8.0693 Y24.9153
G01 X8.0544 Y24.9069
G01 X7.9703 Y24.8565
G01 X7.9558 Y24.8473
G01 X7.9418 Y24.8374
G01 X7.8630 Y24.7790
G01 X7.8495 Y24.7685
G01 X7.8365 Y24.7573
G01 X7.7638 Y24.6914
G01 X7.7514 Y24.6796
G01 X7.7396 Y24.6672
G01 X7.6737 Y24.5945
G01 X7.6625 Y24.5815
G01 X7.6520 Y24.5680
G01 X7.5936 Y24.4892
G01 X7.5837 Y24.4752
G01 X7.5745 Y24.4607
G01 X7.5241 Y24.3766
G01 X7.5138 Y24.3581
G01 X7.5138 Y24.7259
G01 X7.5134 Y24.7430
G01 X7.5112 Y24.7686
G01 X7.5087 Y24.7855
G01 X7.5053 Y24.8023
G01 X7.4988 Y24.8271
G01 X7.4904 Y24.8514
G01 X7.4803 Y24.8750
G01 X7.4726 Y24.8903
G01 X7.4597 Y24.9125
G01 X7.4502 Y24.9267
G01 X7.4400 Y24.9404
G01 X7.4235 Y24.9601
G01 X7.4055 Y24.9784
G01 X7.3929 Y24.9899
G01 X7.3728 Y25.0060
G01 X7.3588 Y25.0158
G01 X7.3370 Y25.0293
G01 X7.3219 Y25.0374
G01 X7.2985 Y25.0481
G01 X7.2826 Y25.0542
G01 X7.2581 Y25.0620
G01 X7.2415 Y25.0661
G01 X7.2247 Y25.0695
G01 X7.1993 Y25.0729
G01 X7.1822 Y25.0742
G01 X7.1651 Y25.0746
G01 X5.1651 Y25.0746
G01 X5.1394 Y25.0737
G01 X5.1224 Y25.0720
G01 X5.0971 Y25.0679
G01 X5.0804 Y25.0641
G01 X5.0557 Y25.0570
G01 X5.0396 Y25.0512
G01 X5.0238 Y25.0447
G01 X5.0007 Y25.0334
G01 X4.9858 Y25.0250
G01 X4.9714 Y25.0158
G01 X4.9574 Y25.0060
G01 X4.9439 Y24.9954
G01 X4.9247 Y24.9784
G01 X4.9126 Y24.9663
G01 X4.9011 Y24.9537
G01 X4.8902 Y24.9404
G01 X4.8752 Y24.9196
G01 X4.8617 Y24.8978
G01 X4.8499 Y24.8750
G01 X4.8398 Y24.8514
G01 X4.8314 Y24.8271
G01 X4.8249 Y24.8023
G01 X4.8202 Y24.7771
G01 X4.8181 Y24.7601
G01 X4.8165 Y24.7345
G01 X4.8164 Y22.7259
G01 X4.8168 Y22.7088
G01 X4.8181 Y22.6917
G01 X4.8215 Y22.6663
G01 X4.8249 Y22.6495
G01 X4.8290 Y22.6329
G01 X4.8368 Y22.6084
G01 X4.8429 Y22.5925
G01 X4.8536 Y22.5691
G01 X4.8617 Y22.5540
G01 X4.8752 Y22.5322
G01 X4.8850 Y22.5182
G01 X4.9011 Y22.4981
G01 X4.9126 Y22.4855
G01 X4.9247 Y22.4734
G01 X4.9439 Y22.4564
G01 X4.9574 Y22.4458
G01 X4.9714 Y22.4360
G01 X4.9932 Y22.4225
G01 X5.0160 Y22.4107
G01 X5.0396 Y22.4006
G01 X5.0639 Y22.3922
G01 X5.0887 Y22.3857
G01 X5.1139 Y22.3810
G01 X5.1309 Y22.3789
G01 X5.1565 Y22.3773
G01 X7.1651 Y22.3772
G01 X7.1822 Y22.3776
G01 X7.2078 Y22.3798
G01 X7.2331 Y22.3839
G01 X7.2498 Y22.3877
G01 X7.2745 Y22.3948
G01 X7.2906 Y22.4006
G01 X7.3142 Y22.4107
G01 X7.3295 Y22.4184
G01 X7.3517 Y22.4313
G01 X7.3659 Y22.4408
G01 X7.3796 Y22.4510
G01 X7.3993 Y22.4675
G01 X7.4176 Y22.4855
G01 X7.4291 Y22.4981
G01 X7.4452 Y22.5182
G01 X7.4550 Y22.5322
G01 X7.4642 Y22.5466
G01 X7.4726 Y22.5615
G01 X7.4839 Y22.5846
G01 X7.4904 Y22.6004
G01 X7.4988 Y22.6247
G01 X7.5033 Y22.6412
G01 X7.5071 Y22.6579
G01 X7.5112 Y22.6832
G01 X7.5134 Y22.7088
G01 X7.5138 Y22.7259
G01 X7.5138 Y23.0937
G01 X7.5241 Y23.0752
G01 X7.5745 Y22.9911
G01 X7.5837 Y22.9766
G01 X7.5936 Y22.9626
G01 X7.6520 Y22.8838
G01 X7.6625 Y22.8703
G01 X7.6737 Y22.8573
G01 X7.7396 Y22.7846
G01 X7.7514 Y22.7722
G01 X7.7638 Y22.7604
G01 X7.8365 Y22.6945
G01 X7.8495 Y22.6833
G01 X7.8630 Y22.6728
G01 X7.9418 Y22.6144
G01 X7.9558 Y22.6045
G01 X7.9703 Y22.5953
G01 X8.0544 Y22.5449
G01 X8.0693 Y22.5365
G01 X8.0846 Y22.5288
G01 X8.1733 Y22.4868
G01 X8.1890 Y22.4799
G01 X8.2049 Y22.4737
G01 X8.2973 Y22.4406
G01 X8.3136 Y22.4353
G01 X8.3301 Y22.4307
G01 X8.4253 Y22.4069
G01 X8.4420 Y22.4031
G01 X8.4588 Y22.4002
G01 X8.5559 Y22.3858
G01 X8.5729 Y22.3837
G01 X8.5900 Y22.3824
G01 X8.6880 Y22.3776
G00 Z2.0000
M05
G00 Z2.0000
G00 Z15.00


