(G-CODE GENERATED BY FLATCAM v8.994 - www.flatcam.org - Version Date: 2020/11/7)

(Name: ADCandDAC-B_Cu.gbr_0.1268_iso3_cnc)
(Type: G-code from Geometry)
(Units: MM)

(Created on Чацвер, 26 лістапада 2020 at 10:08)

(This preprocessor is the default preprocessor used by FlatCAM.)
(It is made to work with MACH3 compatible motion controllers.)

(TOOL DIAMETER: 0.1268 mm)
(Feedrate_XY: 35.0 mm/min)
(Feedrate_Z: 40.0 mm/min)
(Feedrate rapids 1000.0 mm/min)

(Z_Cut: -0.05 mm)
(Z_Move: 2.0 mm)
(Z Start: None mm)
(Z End: 15.0 mm)
(X,Y End: None mm)
(Steps per circle: 64)
(Preprocessor Geometry: default)

(X range:    4.9115 ...   54.8056  mm)
(Y range:    4.1684 ...   28.9038  mm)

(Spindle Speed: 10000.0 RPM)
G21
G90
G94

G01 F35.00

M5
G00 Z15.0000
G00 X0.0000 Y0.0000
T2
M6    
(MSG, Change to Tool Dia = 0.1268)
M0
G00 Z15.0000

M03 S10000.0
G01 F35.00
G00 X12.7182 Y10.3477
G01 F40.00
G01 Z-0.0500
G01 F35.00
G01 X12.7091 Y10.3667
G01 X12.7033 Y10.3777
G01 X12.6464 Y10.4725
G01 X12.6359 Y10.4879
G01 X12.5774 Y10.5668
G01 X12.5697 Y10.5766
G01 X12.5616 Y10.5860
G01 X12.4957 Y10.6587
G01 X12.4871 Y10.6677
G01 X12.4781 Y10.6763
G01 X12.4054 Y10.7422
G01 X12.3960 Y10.7503
G01 X12.3862 Y10.7580
G01 X12.3073 Y10.8165
G01 X12.2972 Y10.8236
G01 X12.2866 Y10.8303
G01 X12.2025 Y10.8807
G01 X12.1916 Y10.8869
G01 X12.1805 Y10.8925
G01 X12.0918 Y10.9344
G01 X12.0804 Y10.9395
G01 X12.0688 Y10.9440
G01 X11.9764 Y10.9770
G01 X11.9646 Y10.9809
G01 X11.9526 Y10.9842
G01 X11.8574 Y11.0081
G01 X11.8453 Y11.0108
G01 X11.8330 Y11.0129
G01 X11.7359 Y11.0273
G01 X11.7236 Y11.0289
G01 X11.7112 Y11.0298
G01 X11.6131 Y11.0346
G01 X11.6007 Y11.0349
G01 X11.5883 Y11.0346
G01 X11.4902 Y11.0298
G01 X11.4778 Y11.0289
G01 X11.4655 Y11.0273
G01 X11.3684 Y11.0129
G01 X11.3561 Y11.0108
G01 X11.3440 Y11.0081
G01 X11.2488 Y10.9842
G01 X11.2368 Y10.9809
G01 X11.2250 Y10.9770
G01 X11.1326 Y10.9440
G01 X11.1210 Y10.9395
G01 X11.1096 Y10.9344
G01 X11.0209 Y10.8925
G01 X11.0098 Y10.8869
G01 X10.9989 Y10.8807
G01 X10.9148 Y10.8303
G01 X10.9042 Y10.8236
G01 X10.8941 Y10.8165
G01 X10.8152 Y10.7580
G01 X10.8054 Y10.7503
G01 X10.7960 Y10.7422
G01 X10.7233 Y10.6763
G01 X10.7143 Y10.6677
G01 X10.7057 Y10.6587
G01 X10.6398 Y10.5860
G01 X10.6317 Y10.5766
G01 X10.6240 Y10.5668
G01 X10.5655 Y10.4879
G01 X10.5584 Y10.4778
G01 X10.5517 Y10.4672
G01 X10.5013 Y10.3831
G01 X10.4951 Y10.3722
G01 X10.4895 Y10.3611
G01 X10.4476 Y10.2724
G01 X10.4425 Y10.2610
G01 X10.4380 Y10.2494
G01 X10.4050 Y10.1570
G01 X10.4011 Y10.1452
G01 X10.3978 Y10.1332
G01 X10.3739 Y10.0380
G01 X10.3712 Y10.0259
G01 X10.3691 Y10.0136
G01 X10.3547 Y9.9165
G01 X10.3531 Y9.9042
G01 X10.3522 Y9.8918
G01 X10.3474 Y9.7937
G01 X10.3471 Y9.7813
G01 X10.3474 Y9.7689
G01 X10.3522 Y9.6708
G01 X10.3531 Y9.6584
G01 X10.3547 Y9.6461
G01 X10.3691 Y9.5490
G01 X10.3712 Y9.5367
G01 X10.3739 Y9.5246
G01 X10.3978 Y9.4294
G01 X10.4011 Y9.4174
G01 X10.4050 Y9.4056
G01 X10.4380 Y9.3132
G01 X10.4425 Y9.3016
G01 X10.4476 Y9.2902
G01 X10.4895 Y9.2015
G01 X10.4951 Y9.1904
G01 X10.5013 Y9.1795
G01 X10.5517 Y9.0954
G01 X10.5584 Y9.0848
G01 X10.5655 Y9.0747
G01 X10.6240 Y8.9958
G01 X10.6317 Y8.9860
G01 X10.6398 Y8.9766
G01 X10.7057 Y8.9039
G01 X10.7143 Y8.8949
G01 X10.7233 Y8.8863
G01 X10.7960 Y8.8204
G01 X10.8054 Y8.8123
G01 X10.8152 Y8.8046
G01 X10.8941 Y8.7461
G01 X10.9042 Y8.7390
G01 X10.9148 Y8.7323
G01 X10.9989 Y8.6819
G01 X11.0098 Y8.6757
G01 X11.0209 Y8.6701
G01 X11.1096 Y8.6282
G01 X11.1210 Y8.6231
G01 X11.1326 Y8.6186
G01 X11.2250 Y8.5856
G01 X11.2368 Y8.5817
G01 X11.2488 Y8.5784
G01 X11.3440 Y8.5545
G01 X11.3561 Y8.5518
G01 X11.3684 Y8.5497
G01 X11.4655 Y8.5353
G01 X11.4778 Y8.5337
G01 X11.4902 Y8.5328
G01 X11.5883 Y8.5280
G01 X11.6007 Y8.5277
G01 X11.6131 Y8.5280
G01 X11.7112 Y8.5328
G01 X11.7236 Y8.5337
G01 X11.7359 Y8.5353
G01 X11.8330 Y8.5497
G01 X11.8453 Y8.5518
G01 X11.8574 Y8.5545
G01 X11.9526 Y8.5784
G01 X11.9646 Y8.5817
G01 X11.9764 Y8.5856
G01 X12.0688 Y8.6186
G01 X12.0804 Y8.6231
G01 X12.0918 Y8.6282
G01 X12.1805 Y8.6701
G01 X12.1916 Y8.6757
G01 X12.2025 Y8.6819
G01 X12.2919 Y8.7356
G01 X12.3073 Y8.7461
G01 X12.3862 Y8.8046
G01 X12.3960 Y8.8123
G01 X12.4054 Y8.8204
G01 X12.4781 Y8.8863
G01 X12.4871 Y8.8949
G01 X12.4957 Y8.9039
G01 X12.5657 Y8.9813
G01 X12.5774 Y8.9958
G01 X12.6359 Y9.0747
G01 X12.6464 Y9.0901
G01 X12.7033 Y9.1849
G01 X12.7119 Y9.2015
G01 X12.7302 Y9.2402
G01 X17.7749 Y9.2403
G01 X17.7847 Y9.2245
G01 X17.7918 Y9.2144
G01 X17.8503 Y9.1355
G01 X17.8580 Y9.1257
G01 X17.8661 Y9.1163
G01 X17.9320 Y9.0436
G01 X17.9406 Y9.0346
G01 X17.9496 Y9.0260
G01 X18.0223 Y8.9601
G01 X18.0317 Y8.9520
G01 X18.0415 Y8.9443
G01 X18.1204 Y8.8858
G01 X18.1305 Y8.8787
G01 X18.1411 Y8.8720
G01 X18.2252 Y8.8216
G01 X18.2361 Y8.8154
G01 X18.2472 Y8.8098
G01 X18.3415 Y8.7653
G01 X18.3589 Y8.7583
G01 X18.4513 Y8.7253
G01 X18.4631 Y8.7214
G01 X18.4751 Y8.7181
G01 X18.5703 Y8.6942
G01 X18.5824 Y8.6915
G01 X18.5947 Y8.6894
G01 X18.6918 Y8.6750
G01 X18.7041 Y8.6734
G01 X18.7165 Y8.6725
G01 X18.8208 Y8.6675
G01 X18.8394 Y8.6677
G01 X18.9375 Y8.6725
G01 X18.9499 Y8.6734
G01 X18.9622 Y8.6750
G01 X19.0654 Y8.6903
G01 X19.0837 Y8.6942
G01 X19.1849 Y8.7196
G01 X19.1968 Y8.7233
G01 X19.2299 Y8.7350
G01 X19.5067 Y8.4583
G01 X19.5425 Y8.4261
G01 X19.5810 Y8.3973
G01 X19.5914 Y8.3904
G01 X19.6219 Y8.3720
G01 X19.6383 Y8.3630
G01 X19.6819 Y8.3426
G01 X19.7212 Y8.3282
G01 X19.7390 Y8.3226
G01 X19.7858 Y8.3111
G01 X19.8272 Y8.3046
G01 X19.8457 Y8.3026
G01 X19.8938 Y8.3005
G01 X31.8008 Y8.3005
G01 X31.8496 Y8.2191
G01 X31.8563 Y8.2085
G01 X31.8634 Y8.1984
G01 X31.9219 Y8.1195
G01 X31.9296 Y8.1097
G01 X31.9377 Y8.1003
G01 X32.0036 Y8.0276
G01 X32.0166 Y8.0142
G01 X32.0939 Y7.9441
G01 X32.1033 Y7.9360
G01 X32.1131 Y7.9283
G01 X32.1970 Y7.8662
G01 X32.2127 Y7.8560
G01 X32.3022 Y7.8024
G01 X32.3132 Y7.7966
G01 X32.3448 Y7.7815
G01 X32.3449 Y6.4920
G01 X32.3452 Y6.4796
G01 X32.3470 Y6.4439
G01 X32.3490 Y6.4254
G01 X32.3555 Y6.3840
G01 X32.3654 Y6.3433
G01 X32.3706 Y6.3253
G01 X32.3847 Y6.2859
G01 X32.3920 Y6.2687
G01 X32.4074 Y6.2365
G01 X32.4132 Y6.2255
G01 X32.4315 Y6.1949
G01 X32.4382 Y6.1844
G01 X32.4453 Y6.1742
G01 X32.4705 Y6.1407
G01 X32.5027 Y6.1049
G01 X33.0703 Y5.5373
G01 X33.1013 Y5.5092
G01 X33.1159 Y5.4975
G01 X33.1498 Y5.4728
G01 X33.1855 Y5.4510
G01 X33.2019 Y5.4420
G01 X33.2398 Y5.4241
G01 X33.2571 Y5.4171
G01 X33.2967 Y5.4033
G01 X33.3087 Y5.4000
G01 X33.3494 Y5.3901
G01 X33.3908 Y5.3836
G01 X33.4093 Y5.3816
G01 X33.4574 Y5.3795
G01 X42.2907 Y5.3795
G01 X42.3058 Y5.3478
G01 X42.3116 Y5.3368
G01 X42.3652 Y5.2473
G01 X42.3754 Y5.2316
G01 X42.4375 Y5.1477
G01 X42.4452 Y5.1379
G01 X42.4533 Y5.1285
G01 X42.5234 Y5.0512
G01 X42.5368 Y5.0382
G01 X42.6095 Y4.9723
G01 X42.6189 Y4.9642
G01 X42.6287 Y4.9565
G01 X42.7076 Y4.8980
G01 X42.7177 Y4.8909
G01 X42.7283 Y4.8842
G01 X42.8124 Y4.8338
G01 X42.8288 Y4.8248
G01 X42.9231 Y4.7801
G01 X42.9345 Y4.7750
G01 X42.9461 Y4.7705
G01 X43.0385 Y4.7375
G01 X43.0503 Y4.7336
G01 X43.0623 Y4.7303
G01 X43.1575 Y4.7064
G01 X43.1696 Y4.7037
G01 X43.1819 Y4.7016
G01 X43.2790 Y4.6872
G01 X43.2913 Y4.6856
G01 X43.3037 Y4.6847
G01 X43.4018 Y4.6799
G01 X43.4142 Y4.6796
G01 X43.4266 Y4.6799
G01 X43.5247 Y4.6847
G01 X43.5371 Y4.6856
G01 X43.5494 Y4.6872
G01 X43.6465 Y4.7016
G01 X43.6588 Y4.7037
G01 X43.6709 Y4.7064
G01 X43.7661 Y4.7303
G01 X43.7781 Y4.7336
G01 X43.7899 Y4.7375
G01 X43.8823 Y4.7705
G01 X43.8939 Y4.7750
G01 X43.9053 Y4.7801
G01 X43.9940 Y4.8220
G01 X44.0051 Y4.8276
G01 X44.0160 Y4.8338
G01 X44.1001 Y4.8842
G01 X44.1107 Y4.8909
G01 X44.1208 Y4.8980
G01 X44.2046 Y4.9603
G01 X44.2189 Y4.9723
G01 X44.2916 Y5.0382
G01 X44.3006 Y5.0468
G01 X44.3092 Y5.0558
G01 X44.3751 Y5.1285
G01 X44.3871 Y5.1428
G01 X44.4494 Y5.2266
G01 X44.4599 Y5.2420
G01 X44.5168 Y5.3368
G01 X44.5226 Y5.3478
G01 X44.5377 Y5.3794
G01 X45.3446 Y5.3795
G01 X45.3865 Y5.3812
G01 X45.4051 Y5.3828
G01 X45.4526 Y5.3901
G01 X45.4933 Y5.4000
G01 X45.5113 Y5.4052
G01 X45.5565 Y5.4216
G01 X45.5945 Y5.4392
G01 X45.6056 Y5.4448
G01 X45.6417 Y5.4661
G01 X45.6522 Y5.4728
G01 X45.6624 Y5.4799
G01 X45.6910 Y5.5013
G01 X45.7007 Y5.5092
G01 X45.7362 Y5.5416
G01 X51.4416 Y11.2470
G01 X51.4699 Y11.2779
G01 X51.4781 Y11.2873
G01 X51.4857 Y11.2971
G01 X51.5104 Y11.3310
G01 X51.5354 Y11.3721
G01 X51.5440 Y11.3887
G01 X51.5616 Y11.4267
G01 X51.5760 Y11.4660
G01 X51.5799 Y11.4779
G01 X51.5918 Y11.5245
G01 X51.5952 Y11.5428
G01 X51.6011 Y11.5843
G01 X51.6037 Y11.6324
G01 X51.6037 Y16.5445
G01 X51.6354 Y16.5596
G01 X51.6464 Y16.5654
G01 X51.7359 Y16.6190
G01 X51.7516 Y16.6292
G01 X51.8355 Y16.6913
G01 X51.8453 Y16.6990
G01 X51.8547 Y16.7071
G01 X51.9320 Y16.7772
G01 X51.9450 Y16.7906
G01 X52.0109 Y16.8633
G01 X52.0190 Y16.8727
G01 X52.0267 Y16.8825
G01 X52.0852 Y16.9614
G01 X52.0923 Y16.9715
G01 X52.0990 Y16.9821
G01 X52.1494 Y17.0662
G01 X52.1584 Y17.0826
G01 X52.2031 Y17.1769
G01 X52.2082 Y17.1883
G01 X52.2127 Y17.1999
G01 X52.2457 Y17.2923
G01 X52.2496 Y17.3041
G01 X52.2529 Y17.3161
G01 X52.2768 Y17.4113
G01 X52.2795 Y17.4234
G01 X52.2816 Y17.4357
G01 X52.2960 Y17.5328
G01 X52.2976 Y17.5451
G01 X52.2985 Y17.5575
G01 X52.3033 Y17.6556
G01 X52.3036 Y17.6680
G01 X52.3033 Y17.6804
G01 X52.2985 Y17.7785
G01 X52.2976 Y17.7909
G01 X52.2960 Y17.8032
G01 X52.2816 Y17.9003
G01 X52.2795 Y17.9126
G01 X52.2768 Y17.9247
G01 X52.2529 Y18.0199
G01 X52.2496 Y18.0319
G01 X52.2457 Y18.0437
G01 X52.2127 Y18.1361
G01 X52.2082 Y18.1477
G01 X52.2031 Y18.1591
G01 X52.1612 Y18.2478
G01 X52.1556 Y18.2589
G01 X52.1494 Y18.2698
G01 X52.0990 Y18.3539
G01 X52.0923 Y18.3645
G01 X52.0852 Y18.3746
G01 X52.0267 Y18.4535
G01 X52.0190 Y18.4633
G01 X52.0109 Y18.4727
G01 X51.9450 Y18.5454
G01 X51.9364 Y18.5544
G01 X51.9274 Y18.5630
G01 X51.8547 Y18.6289
G01 X51.8453 Y18.6370
G01 X51.8355 Y18.6447
G01 X51.7566 Y18.7032
G01 X51.7465 Y18.7103
G01 X51.7359 Y18.7170
G01 X51.6518 Y18.7674
G01 X51.6409 Y18.7736
G01 X51.6298 Y18.7792
G01 X51.5411 Y18.8211
G01 X51.5297 Y18.8262
G01 X51.5181 Y18.8307
G01 X51.4257 Y18.8637
G01 X51.4139 Y18.8676
G01 X51.4019 Y18.8709
G01 X51.3067 Y18.8948
G01 X51.2946 Y18.8975
G01 X51.2823 Y18.8996
G01 X51.1852 Y18.9140
G01 X51.1667 Y18.9161
G01 X51.0624 Y18.9213
G01 X51.0500 Y18.9216
G01 X51.0376 Y18.9213
G01 X50.9395 Y18.9165
G01 X50.9271 Y18.9156
G01 X50.9148 Y18.9140
G01 X50.8177 Y18.8996
G01 X50.8054 Y18.8975
G01 X50.7933 Y18.8948
G01 X50.6981 Y18.8709
G01 X50.6861 Y18.8676
G01 X50.6743 Y18.8637
G01 X50.5819 Y18.8307
G01 X50.5703 Y18.8262
G01 X50.5589 Y18.8211
G01 X50.4702 Y18.7792
G01 X50.4536 Y18.7706
G01 X50.3641 Y18.7170
G01 X50.3535 Y18.7103
G01 X50.3434 Y18.7032
G01 X50.2645 Y18.6447
G01 X50.2547 Y18.6370
G01 X50.2453 Y18.6289
G01 X50.1726 Y18.5630
G01 X50.1592 Y18.5500
G01 X50.0891 Y18.4727
G01 X50.0810 Y18.4633
G01 X50.0733 Y18.4535
G01 X50.0112 Y18.3696
G01 X50.0010 Y18.3539
G01 X49.9474 Y18.2644
G01 X49.9416 Y18.2534
G01 X49.9265 Y18.2218
G01 X48.1902 Y18.2217
G01 X38.3702 Y28.0418
G01 X38.3393 Y28.0701
G01 X38.3299 Y28.0783
G01 X38.2964 Y28.1035
G01 X38.2862 Y28.1106
G01 X38.2757 Y28.1173
G01 X38.2451 Y28.1356
G01 X38.2341 Y28.1414
G01 X38.1905 Y28.1618
G01 X38.1453 Y28.1782
G01 X38.1334 Y28.1818
G01 X38.0988 Y28.1906
G01 X38.0866 Y28.1933
G01 X38.0744 Y28.1954
G01 X38.0329 Y28.2013
G01 X37.9848 Y28.2039
G01 X35.0254 Y28.2039
G01 X35.0103 Y28.2356
G01 X35.0045 Y28.2466
G01 X34.9509 Y28.3361
G01 X34.9407 Y28.3518
G01 X34.8786 Y28.4357
G01 X34.8709 Y28.4455
G01 X34.8628 Y28.4549
G01 X34.7927 Y28.5322
G01 X34.7793 Y28.5452
G01 X34.7066 Y28.6111
G01 X34.6972 Y28.6192
G01 X34.6874 Y28.6269
G01 X34.6085 Y28.6854
G01 X34.5984 Y28.6925
G01 X34.5878 Y28.6992
G01 X34.5037 Y28.7496
G01 X34.4873 Y28.7586
G01 X34.3930 Y28.8033
G01 X34.3816 Y28.8084
G01 X34.3700 Y28.8129
G01 X34.2776 Y28.8459
G01 X34.2658 Y28.8498
G01 X34.2538 Y28.8531
G01 X34.1586 Y28.8770
G01 X34.1465 Y28.8797
G01 X34.1342 Y28.8818
G01 X34.0371 Y28.8962
G01 X34.0248 Y28.8978
G01 X34.0124 Y28.8987
G01 X33.9143 Y28.9035
G01 X33.9019 Y28.9038
G01 X33.8895 Y28.9035
G01 X33.7914 Y28.8987
G01 X33.7790 Y28.8978
G01 X33.7667 Y28.8962
G01 X33.6696 Y28.8818
G01 X33.6573 Y28.8797
G01 X33.6452 Y28.8770
G01 X33.5500 Y28.8531
G01 X33.5380 Y28.8498
G01 X33.5262 Y28.8459
G01 X33.4338 Y28.8129
G01 X33.4222 Y28.8084
G01 X33.4108 Y28.8033
G01 X33.3221 Y28.7614
G01 X33.3110 Y28.7558
G01 X33.3001 Y28.7496
G01 X33.2160 Y28.6992
G01 X33.2054 Y28.6925
G01 X33.1953 Y28.6854
G01 X33.1164 Y28.6269
G01 X33.1066 Y28.6192
G01 X33.0972 Y28.6111
G01 X33.0245 Y28.5452
G01 X33.0155 Y28.5366
G01 X33.0069 Y28.5276
G01 X32.9410 Y28.4549
G01 X32.9329 Y28.4455
G01 X32.9252 Y28.4357
G01 X32.8667 Y28.3568
G01 X32.8596 Y28.3467
G01 X32.8529 Y28.3361
G01 X32.8025 Y28.2520
G01 X32.7963 Y28.2411
G01 X32.7907 Y28.2300
G01 X32.7488 Y28.1413
G01 X32.7437 Y28.1299
G01 X32.7392 Y28.1183
G01 X32.7062 Y28.0259
G01 X32.7023 Y28.0141
G01 X32.6990 Y28.0021
G01 X32.6751 Y27.9069
G01 X32.6724 Y27.8948
G01 X32.6703 Y27.8825
G01 X32.6559 Y27.7854
G01 X32.6543 Y27.7731
G01 X32.6534 Y27.7607
G01 X32.6486 Y27.6626
G01 X32.6483 Y27.6502
G01 X32.6486 Y27.6378
G01 X32.6534 Y27.5397
G01 X32.6543 Y27.5273
G01 X32.6559 Y27.5150
G01 X32.6703 Y27.4179
G01 X32.6724 Y27.4056
G01 X32.6751 Y27.3935
G01 X32.6990 Y27.2983
G01 X32.7023 Y27.2863
G01 X32.7062 Y27.2745
G01 X32.7392 Y27.1821
G01 X32.7437 Y27.1705
G01 X32.7488 Y27.1591
G01 X32.7907 Y27.0704
G01 X32.7963 Y27.0593
G01 X32.8025 Y27.0484
G01 X32.8529 Y26.9643
G01 X32.8596 Y26.9537
G01 X32.8667 Y26.9436
G01 X32.9252 Y26.8647
G01 X32.9329 Y26.8549
G01 X32.9410 Y26.8455
G01 X33.0069 Y26.7728
G01 X33.0155 Y26.7638
G01 X33.0245 Y26.7552
G01 X33.0972 Y26.6893
G01 X33.1066 Y26.6812
G01 X33.1164 Y26.6735
G01 X33.1953 Y26.6150
G01 X33.2054 Y26.6079
G01 X33.2160 Y26.6012
G01 X33.3001 Y26.5508
G01 X33.3110 Y26.5446
G01 X33.3221 Y26.5390
G01 X33.4108 Y26.4971
G01 X33.4222 Y26.4920
G01 X33.4338 Y26.4875
G01 X33.5262 Y26.4545
G01 X33.5380 Y26.4506
G01 X33.5500 Y26.4473
G01 X33.6452 Y26.4234
G01 X33.6573 Y26.4207
G01 X33.6696 Y26.4186
G01 X33.7667 Y26.4042
G01 X33.7790 Y26.4026
G01 X33.7914 Y26.4017
G01 X33.8895 Y26.3969
G01 X33.9019 Y26.3966
G01 X33.9143 Y26.3969
G01 X34.0124 Y26.4017
G01 X34.0248 Y26.4026
G01 X34.0371 Y26.4042
G01 X34.1342 Y26.4186
G01 X34.1465 Y26.4207
G01 X34.1586 Y26.4234
G01 X34.2538 Y26.4473
G01 X34.2658 Y26.4506
G01 X34.2776 Y26.4545
G01 X34.3700 Y26.4875
G01 X34.3816 Y26.4920
G01 X34.3930 Y26.4971
G01 X34.4817 Y26.5390
G01 X34.4928 Y26.5446
G01 X34.5037 Y26.5508
G01 X34.5878 Y26.6012
G01 X34.6035 Y26.6114
G01 X34.6874 Y26.6735
G01 X34.6972 Y26.6812
G01 X34.7066 Y26.6893
G01 X34.7793 Y26.7552
G01 X34.7883 Y26.7638
G01 X34.7969 Y26.7728
G01 X34.8669 Y26.8502
G01 X34.8786 Y26.8647
G01 X34.9371 Y26.9436
G01 X34.9476 Y26.9590
G01 X35.0045 Y27.0538
G01 X35.0103 Y27.0648
G01 X35.0254 Y27.0964
G01 X37.7492 Y27.0965
G01 X47.5692 Y17.2764
G01 X47.6001 Y17.2481
G01 X47.6095 Y17.2399
G01 X47.6193 Y17.2323
G01 X47.6532 Y17.2076
G01 X47.6889 Y17.1858
G01 X47.7053 Y17.1768
G01 X47.7489 Y17.1564
G01 X47.7882 Y17.1420
G01 X47.8001 Y17.1381
G01 X47.8406 Y17.1276
G01 X47.8589 Y17.1238
G01 X47.8942 Y17.1184
G01 X47.9065 Y17.1169
G01 X47.9189 Y17.1160
G01 X47.9608 Y17.1143
G01 X49.9265 Y17.1143
G01 X49.9416 Y17.0826
G01 X49.9474 Y17.0716
G01 X50.0010 Y16.9821
G01 X50.0112 Y16.9664
G01 X50.0733 Y16.8825
G01 X50.0810 Y16.8727
G01 X50.0891 Y16.8633
G01 X50.1550 Y16.7906
G01 X50.1636 Y16.7816
G01 X50.1726 Y16.7730
G01 X50.2453 Y16.7071
G01 X50.2547 Y16.6990
G01 X50.2645 Y16.6913
G01 X50.3484 Y16.6292
G01 X50.3641 Y16.6190
G01 X50.4536 Y16.5654
G01 X50.4646 Y16.5596
G01 X50.4962 Y16.5445
G01 X50.4963 Y11.8680
G01 X45.1152 Y6.4869
G01 X44.5377 Y6.4869
G01 X44.5226 Y6.5186
G01 X44.5168 Y6.5296
G01 X44.4599 Y6.6244
G01 X44.4494 Y6.6398
G01 X44.3909 Y6.7187
G01 X44.3792 Y6.7332
G01 X44.3092 Y6.8106
G01 X44.3006 Y6.8196
G01 X44.2916 Y6.8282
G01 X44.2189 Y6.8941
G01 X44.2095 Y6.9022
G01 X44.1997 Y6.9099
G01 X44.1208 Y6.9684
G01 X44.1054 Y6.9789
G01 X44.0160 Y7.0326
G01 X44.0051 Y7.0388
G01 X43.9940 Y7.0444
G01 X43.9053 Y7.0863
G01 X43.8939 Y7.0914
G01 X43.8823 Y7.0959
G01 X43.7899 Y7.1289
G01 X43.7781 Y7.1328
G01 X43.7661 Y7.1361
G01 X43.6709 Y7.1600
G01 X43.6588 Y7.1627
G01 X43.6465 Y7.1648
G01 X43.5494 Y7.1792
G01 X43.5371 Y7.1808
G01 X43.5247 Y7.1817
G01 X43.4266 Y7.1865
G01 X43.4142 Y7.1868
G01 X43.4018 Y7.1865
G01 X43.3037 Y7.1817
G01 X43.2913 Y7.1808
G01 X43.2790 Y7.1792
G01 X43.1819 Y7.1648
G01 X43.1696 Y7.1627
G01 X43.1575 Y7.1600
G01 X43.0623 Y7.1361
G01 X43.0503 Y7.1328
G01 X43.0385 Y7.1289
G01 X42.9461 Y7.0959
G01 X42.9345 Y7.0914
G01 X42.9231 Y7.0863
G01 X42.8344 Y7.0444
G01 X42.8233 Y7.0388
G01 X42.8124 Y7.0326
G01 X42.7230 Y6.9789
G01 X42.7076 Y6.9684
G01 X42.6287 Y6.9099
G01 X42.6189 Y6.9022
G01 X42.6095 Y6.8941
G01 X42.5368 Y6.8282
G01 X42.5278 Y6.8196
G01 X42.5192 Y6.8106
G01 X42.4492 Y6.7332
G01 X42.4375 Y6.7187
G01 X42.3790 Y6.6398
G01 X42.3685 Y6.6244
G01 X42.3116 Y6.5296
G01 X42.3058 Y6.5186
G01 X42.2907 Y6.4870
G01 X33.6868 Y6.4869
G01 X33.4523 Y6.7214
G01 X33.4523 Y7.7815
G01 X33.4840 Y7.7966
G01 X33.4950 Y7.8024
G01 X33.5845 Y7.8560
G01 X33.6002 Y7.8662
G01 X33.6841 Y7.9283
G01 X33.6939 Y7.9360
G01 X33.7033 Y7.9441
G01 X33.7806 Y8.0142
G01 X33.7936 Y8.0276
G01 X33.8595 Y8.1003
G01 X33.8676 Y8.1097
G01 X33.8753 Y8.1195
G01 X33.9338 Y8.1984
G01 X33.9409 Y8.2085
G01 X33.9476 Y8.2191
G01 X33.9980 Y8.3032
G01 X34.0070 Y8.3196
G01 X34.0517 Y8.4139
G01 X34.0568 Y8.4253
G01 X34.0613 Y8.4369
G01 X34.0943 Y8.5293
G01 X34.0982 Y8.5411
G01 X34.1015 Y8.5531
G01 X34.1254 Y8.6483
G01 X34.1281 Y8.6604
G01 X34.1302 Y8.6727
G01 X34.1446 Y8.7698
G01 X34.1462 Y8.7821
G01 X34.1471 Y8.7945
G01 X34.1519 Y8.8926
G01 X34.1522 Y8.9050
G01 X34.1519 Y8.9174
G01 X34.1471 Y9.0155
G01 X34.1462 Y9.0279
G01 X34.1446 Y9.0402
G01 X34.1293 Y9.1434
G01 X34.1254 Y9.1617
G01 X34.1015 Y9.2569
G01 X34.0982 Y9.2689
G01 X34.0943 Y9.2807
G01 X34.0613 Y9.3731
G01 X34.0568 Y9.3847
G01 X34.0517 Y9.3961
G01 X34.0098 Y9.4848
G01 X34.0042 Y9.4959
G01 X33.9980 Y9.5068
G01 X33.9476 Y9.5909
G01 X33.9409 Y9.6015
G01 X33.9338 Y9.6116
G01 X33.8753 Y9.6905
G01 X33.8676 Y9.7003
G01 X33.8595 Y9.7097
G01 X33.7936 Y9.7824
G01 X33.7850 Y9.7914
G01 X33.7760 Y9.8000
G01 X33.7033 Y9.8659
G01 X33.6939 Y9.8740
G01 X33.6841 Y9.8817
G01 X33.6052 Y9.9402
G01 X33.5951 Y9.9473
G01 X33.5845 Y9.9540
G01 X33.5004 Y10.0044
G01 X33.4895 Y10.0106
G01 X33.4784 Y10.0162
G01 X33.3897 Y10.0581
G01 X33.3783 Y10.0632
G01 X33.3667 Y10.0677
G01 X33.2743 Y10.1007
G01 X33.2625 Y10.1046
G01 X33.2505 Y10.1079
G01 X33.1553 Y10.1318
G01 X33.1432 Y10.1345
G01 X33.1309 Y10.1366
G01 X33.0277 Y10.1519
G01 X33.0091 Y10.1535
G01 X32.9110 Y10.1583
G01 X32.8986 Y10.1586
G01 X32.8862 Y10.1583
G01 X32.7881 Y10.1535
G01 X32.7757 Y10.1526
G01 X32.7634 Y10.1510
G01 X32.6663 Y10.1366
G01 X32.6540 Y10.1345
G01 X32.6419 Y10.1318
G01 X32.5467 Y10.1079
G01 X32.5347 Y10.1046
G01 X32.5229 Y10.1007
G01 X32.4305 Y10.0677
G01 X32.4189 Y10.0632
G01 X32.4075 Y10.0581
G01 X32.3188 Y10.0162
G01 X32.3022 Y10.0076
G01 X32.2127 Y9.9540
G01 X32.2021 Y9.9473
G01 X32.1920 Y9.9402
G01 X32.1131 Y9.8817
G01 X32.1033 Y9.8740
G01 X32.0939 Y9.8659
G01 X32.0212 Y9.8000
G01 X32.0122 Y9.7914
G01 X32.0036 Y9.7824
G01 X31.9377 Y9.7097
G01 X31.9296 Y9.7003
G01 X31.9219 Y9.6905
G01 X31.8634 Y9.6116
G01 X31.8563 Y9.6015
G01 X31.8496 Y9.5909
G01 X31.7992 Y9.5068
G01 X31.7930 Y9.4959
G01 X31.7874 Y9.4848
G01 X31.7511 Y9.4080
G01 X20.1232 Y9.4079
G01 X20.0130 Y9.5181
G01 X20.0247 Y9.5512
G01 X20.0284 Y9.5631
G01 X20.0552 Y9.6703
G01 X20.0586 Y9.6887
G01 X20.0730 Y9.7858
G01 X20.0751 Y9.8043
G01 X20.0803 Y9.9086
G01 X20.0806 Y9.9210
G01 X20.0803 Y9.9334
G01 X20.0755 Y10.0315
G01 X20.0746 Y10.0439
G01 X20.0730 Y10.0562
G01 X20.0586 Y10.1533
G01 X20.0552 Y10.1717
G01 X20.0299 Y10.2729
G01 X20.0266 Y10.2849
G01 X20.0227 Y10.2967
G01 X19.9897 Y10.3891
G01 X19.9852 Y10.4007
G01 X19.9801 Y10.4121
G01 X19.9382 Y10.5008
G01 X19.9326 Y10.5119
G01 X19.9264 Y10.5228
G01 X19.8760 Y10.6069
G01 X19.8693 Y10.6175
G01 X19.8622 Y10.6276
G01 X19.8037 Y10.7065
G01 X19.7960 Y10.7163
G01 X19.7879 Y10.7257
G01 X19.7220 Y10.7984
G01 X19.7134 Y10.8074
G01 X19.7044 Y10.8160
G01 X19.6317 Y10.8819
G01 X19.6223 Y10.8900
G01 X19.6125 Y10.8977
G01 X19.5336 Y10.9562
G01 X19.5235 Y10.9633
G01 X19.5129 Y10.9700
G01 X19.4288 Y11.0204
G01 X19.4179 Y11.0266
G01 X19.4068 Y11.0322
G01 X19.3181 Y11.0741
G01 X19.3067 Y11.0792
G01 X19.2951 Y11.0837
G01 X19.2027 Y11.1167
G01 X19.1909 Y11.1206
G01 X19.1789 Y11.1239
G01 X19.0837 Y11.1478
G01 X19.0716 Y11.1505
G01 X19.0593 Y11.1526
G01 X18.9622 Y11.1670
G01 X18.9499 Y11.1686
G01 X18.9375 Y11.1695
G01 X18.8394 Y11.1743
G01 X18.8270 Y11.1746
G01 X18.8146 Y11.1743
G01 X18.7165 Y11.1695
G01 X18.7041 Y11.1686
G01 X18.6918 Y11.1670
G01 X18.5947 Y11.1526
G01 X18.5824 Y11.1505
G01 X18.5703 Y11.1478
G01 X18.4751 Y11.1239
G01 X18.4631 Y11.1206
G01 X18.4513 Y11.1167
G01 X18.3589 Y11.0837
G01 X18.3473 Y11.0792
G01 X18.3359 Y11.0741
G01 X18.2472 Y11.0322
G01 X18.2361 Y11.0266
G01 X18.2252 Y11.0204
G01 X18.1411 Y10.9700
G01 X18.1254 Y10.9598
G01 X18.0415 Y10.8977
G01 X18.0317 Y10.8900
G01 X18.0223 Y10.8819
G01 X17.9496 Y10.8160
G01 X17.9406 Y10.8074
G01 X17.9320 Y10.7984
G01 X17.8661 Y10.7257
G01 X17.8541 Y10.7114
G01 X17.7918 Y10.6276
G01 X17.7847 Y10.6175
G01 X17.7780 Y10.6069
G01 X17.7244 Y10.5174
G01 X17.7158 Y10.5008
G01 X17.6713 Y10.4065
G01 X17.6643 Y10.3891
G01 X17.6495 Y10.3478
G01 X12.7182 Y10.3477
G00 Z2.0000
G00 X23.7676 Y10.1067
G01 F40.00
G01 Z-0.0500
G01 F35.00
G01 X23.7800 Y10.1064
G01 X23.7924 Y10.1067
G01 X23.8709 Y10.1106
G01 X23.8833 Y10.1115
G01 X23.8956 Y10.1130
G01 X23.9733 Y10.1245
G01 X23.9855 Y10.1266
G01 X23.9977 Y10.1294
G01 X24.0738 Y10.1484
G01 X24.0858 Y10.1518
G01 X24.0977 Y10.1557
G01 X24.1716 Y10.1821
G01 X24.1832 Y10.1866
G01 X24.1946 Y10.1916
G01 X24.2655 Y10.2252
G01 X24.2767 Y10.2308
G01 X24.2875 Y10.2369
G01 X24.3548 Y10.2773
G01 X24.3653 Y10.2840
G01 X24.3755 Y10.2911
G01 X24.4386 Y10.3379
G01 X24.4484 Y10.3456
G01 X24.4578 Y10.3537
G01 X24.5160 Y10.4064
G01 X24.5250 Y10.4150
G01 X24.5336 Y10.4240
G01 X24.5863 Y10.4822
G01 X24.5944 Y10.4916
G01 X24.6021 Y10.5014
G01 X24.6489 Y10.5645
G01 X24.6560 Y10.5747
G01 X24.6627 Y10.5852
G01 X24.7031 Y10.6525
G01 X24.7092 Y10.6633
G01 X24.7148 Y10.6745
G01 X24.7484 Y10.7454
G01 X24.7534 Y10.7568
G01 X24.7579 Y10.7684
G01 X24.7843 Y10.8423
G01 X24.7882 Y10.8542
G01 X24.7916 Y10.8662
G01 X24.8106 Y10.9423
G01 X24.8134 Y10.9545
G01 X24.8155 Y10.9667
G01 X24.8270 Y11.0444
G01 X24.8285 Y11.0567
G01 X24.8294 Y11.0691
G01 X24.8333 Y11.1476
G01 X24.8336 Y11.1600
G01 X24.8333 Y11.1724
G01 X24.8294 Y11.2509
G01 X24.8285 Y11.2633
G01 X24.8270 Y11.2756
G01 X24.8155 Y11.3533
G01 X24.8134 Y11.3655
G01 X24.8106 Y11.3777
G01 X24.7916 Y11.4538
G01 X24.7882 Y11.4658
G01 X24.7843 Y11.4777
G01 X24.7579 Y11.5516
G01 X24.7534 Y11.5632
G01 X24.7484 Y11.5746
G01 X24.7148 Y11.6455
G01 X24.7092 Y11.6567
G01 X24.7031 Y11.6675
G01 X24.6627 Y11.7348
G01 X24.6560 Y11.7453
G01 X24.6489 Y11.7555
G01 X24.6021 Y11.8186
G01 X24.5944 Y11.8284
G01 X24.5863 Y11.8378
G01 X24.5336 Y11.8960
G01 X24.5250 Y11.9050
G01 X24.5160 Y11.9136
G01 X24.4578 Y11.9663
G01 X24.4484 Y11.9744
G01 X24.4386 Y11.9821
G01 X24.3755 Y12.0289
G01 X24.3653 Y12.0360
G01 X24.3548 Y12.0427
G01 X24.2875 Y12.0831
G01 X24.2767 Y12.0892
G01 X24.2655 Y12.0948
G01 X24.1946 Y12.1284
G01 X24.1832 Y12.1334
G01 X24.1716 Y12.1379
G01 X24.1098 Y12.1600
G01 X24.1716 Y12.1821
G01 X24.1832 Y12.1866
G01 X24.1946 Y12.1916
G01 X24.2711 Y12.2279
G01 X24.2875 Y12.2369
G01 X24.3548 Y12.2773
G01 X24.3705 Y12.2875
G01 X24.4386 Y12.3379
G01 X24.4484 Y12.3456
G01 X24.4578 Y12.3537
G01 X24.5160 Y12.4064
G01 X24.5250 Y12.4150
G01 X24.5336 Y12.4240
G01 X24.5863 Y12.4822
G01 X24.5983 Y12.4965
G01 X24.6489 Y12.5645
G01 X24.6560 Y12.5747
G01 X24.6627 Y12.5852
G01 X24.7031 Y12.6525
G01 X24.7092 Y12.6633
G01 X24.7148 Y12.6745
G01 X24.7484 Y12.7454
G01 X24.7534 Y12.7568
G01 X24.7579 Y12.7684
G01 X24.7843 Y12.8423
G01 X24.7882 Y12.8542
G01 X24.7916 Y12.8662
G01 X24.8106 Y12.9423
G01 X24.8134 Y12.9545
G01 X24.8155 Y12.9667
G01 X24.8270 Y13.0444
G01 X24.8291 Y13.0629
G01 X24.8333 Y13.1476
G01 X24.8336 Y13.1600
G01 X24.8333 Y13.1724
G01 X24.8294 Y13.2509
G01 X24.8285 Y13.2633
G01 X24.8270 Y13.2756
G01 X24.8155 Y13.3533
G01 X24.8134 Y13.3655
G01 X24.8106 Y13.3777
G01 X24.7916 Y13.4538
G01 X24.7882 Y13.4658
G01 X24.7843 Y13.4777
G01 X24.7579 Y13.5516
G01 X24.7534 Y13.5632
G01 X24.7484 Y13.5746
G01 X24.7148 Y13.6455
G01 X24.7092 Y13.6567
G01 X24.7031 Y13.6675
G01 X24.6627 Y13.7348
G01 X24.6560 Y13.7453
G01 X24.6489 Y13.7555
G01 X24.6021 Y13.8186
G01 X24.5944 Y13.8284
G01 X24.5863 Y13.8378
G01 X24.5336 Y13.8960
G01 X24.5250 Y13.9050
G01 X24.5160 Y13.9136
G01 X24.4578 Y13.9663
G01 X24.4484 Y13.9744
G01 X24.4386 Y13.9821
G01 X24.3755 Y14.0289
G01 X24.3653 Y14.0360
G01 X24.3548 Y14.0427
G01 X24.2875 Y14.0831
G01 X24.2767 Y14.0892
G01 X24.2655 Y14.0948
G01 X24.1946 Y14.1284
G01 X24.1832 Y14.1334
G01 X24.1716 Y14.1379
G01 X24.1098 Y14.1600
G01 X24.1716 Y14.1821
G01 X24.1832 Y14.1866
G01 X24.1946 Y14.1916
G01 X24.2655 Y14.2252
G01 X24.2767 Y14.2308
G01 X24.2875 Y14.2369
G01 X24.3548 Y14.2773
G01 X24.3653 Y14.2840
G01 X24.3755 Y14.2911
G01 X24.4386 Y14.3379
G01 X24.4484 Y14.3456
G01 X24.4578 Y14.3537
G01 X24.5160 Y14.4064
G01 X24.5250 Y14.4150
G01 X24.5336 Y14.4240
G01 X24.5863 Y14.4822
G01 X24.5944 Y14.4916
G01 X24.6021 Y14.5014
G01 X24.6489 Y14.5645
G01 X24.6560 Y14.5747
G01 X24.6627 Y14.5852
G01 X24.7031 Y14.6525
G01 X24.7092 Y14.6633
G01 X24.7148 Y14.6745
G01 X24.7484 Y14.7454
G01 X24.7534 Y14.7568
G01 X24.7579 Y14.7684
G01 X24.7843 Y14.8423
G01 X24.7882 Y14.8542
G01 X24.7916 Y14.8662
G01 X24.8106 Y14.9423
G01 X24.8134 Y14.9545
G01 X24.8155 Y14.9667
G01 X24.8278 Y15.0505
G01 X24.8294 Y15.0691
G01 X24.8333 Y15.1476
G01 X24.8336 Y15.1600
G01 X24.8333 Y15.1724
G01 X24.8294 Y15.2509
G01 X24.8285 Y15.2633
G01 X24.8270 Y15.2756
G01 X24.8155 Y15.3533
G01 X24.8134 Y15.3655
G01 X24.8106 Y15.3777
G01 X24.7916 Y15.4538
G01 X24.7882 Y15.4658
G01 X24.7843 Y15.4777
G01 X24.7579 Y15.5516
G01 X24.7534 Y15.5632
G01 X24.7484 Y15.5746
G01 X24.7148 Y15.6455
G01 X24.7062 Y15.6621
G01 X24.6627 Y15.7348
G01 X24.6560 Y15.7453
G01 X24.6489 Y15.7555
G01 X24.6021 Y15.8186
G01 X24.5944 Y15.8284
G01 X24.5863 Y15.8378
G01 X24.5336 Y15.8960
G01 X24.5206 Y15.9094
G01 X24.4578 Y15.9663
G01 X24.4484 Y15.9744
G01 X24.4386 Y15.9821
G01 X24.3705 Y16.0325
G01 X24.3548 Y16.0427
G01 X24.2821 Y16.0862
G01 X24.2711 Y16.0921
G01 X24.2410 Y16.1064
G01 X24.5862 Y16.1065
G01 X24.6049 Y16.1076
G01 X24.6234 Y16.1101
G01 X24.6416 Y16.1140
G01 X24.6536 Y16.1173
G01 X24.6654 Y16.1212
G01 X24.6828 Y16.1282
G01 X24.6995 Y16.1363
G01 X24.7104 Y16.1425
G01 X24.7260 Y16.1527
G01 X24.7409 Y16.1640
G01 X24.7549 Y16.1763
G01 X24.7637 Y16.1851
G01 X24.7760 Y16.1991
G01 X24.7837 Y16.2089
G01 X24.7943 Y16.2243
G01 X24.8037 Y16.2405
G01 X24.8118 Y16.2572
G01 X24.8188 Y16.2746
G01 X24.8227 Y16.2864
G01 X24.8274 Y16.3044
G01 X24.8299 Y16.3166
G01 X24.8324 Y16.3351
G01 X24.8333 Y16.3476
G01 X24.8336 Y16.3600
G01 X24.8336 Y17.9600
G01 X24.8329 Y17.9787
G01 X24.8317 Y17.9910
G01 X24.8287 Y18.0095
G01 X24.8260 Y18.0216
G01 X24.8227 Y18.0336
G01 X24.8188 Y18.0454
G01 X24.8143 Y18.0570
G01 X24.8065 Y18.0740
G01 X24.7975 Y18.0904
G01 X24.7873 Y18.1060
G01 X24.7760 Y18.1209
G01 X24.7679 Y18.1303
G01 X24.7593 Y18.1393
G01 X24.7456 Y18.1520
G01 X24.7360 Y18.1599
G01 X24.7260 Y18.1673
G01 X24.7104 Y18.1775
G01 X24.6995 Y18.1837
G01 X24.6884 Y18.1893
G01 X24.6770 Y18.1943
G01 X24.6654 Y18.1988
G01 X24.6476 Y18.2044
G01 X24.6356 Y18.2074
G01 X24.6234 Y18.2099
G01 X24.6049 Y18.2124
G01 X24.5924 Y18.2133
G01 X24.5800 Y18.2136
G01 X22.9800 Y18.2136
G01 X22.9676 Y18.2133
G01 X22.9490 Y18.2117
G01 X22.9366 Y18.2099
G01 X22.9244 Y18.2074
G01 X22.9064 Y18.2027
G01 X22.8887 Y18.1966
G01 X22.8716 Y18.1893
G01 X22.8605 Y18.1837
G01 X22.8496 Y18.1775
G01 X22.8340 Y18.1673
G01 X22.8191 Y18.1560
G01 X22.8097 Y18.1479
G01 X22.8007 Y18.1393
G01 X22.7880 Y18.1256
G01 X22.7801 Y18.1160
G01 X22.7727 Y18.1060
G01 X22.7657 Y18.0957
G01 X22.7593 Y18.0850
G01 X22.7507 Y18.0684
G01 X22.7457 Y18.0570
G01 X22.7412 Y18.0454
G01 X22.7356 Y18.0276
G01 X22.7313 Y18.0095
G01 X22.7291 Y17.9972
G01 X22.7276 Y17.9849
G01 X22.7267 Y17.9724
G01 X22.7264 Y17.9600
G01 X22.7264 Y16.3600
G01 X22.7271 Y16.3413
G01 X22.7291 Y16.3228
G01 X22.7326 Y16.3044
G01 X22.7373 Y16.2864
G01 X22.7412 Y16.2746
G01 X22.7482 Y16.2572
G01 X22.7563 Y16.2405
G01 X22.7625 Y16.2296
G01 X22.7691 Y16.2191
G01 X22.7801 Y16.2040
G01 X22.7880 Y16.1944
G01 X22.8007 Y16.1807
G01 X22.8144 Y16.1680
G01 X22.8240 Y16.1601
G01 X22.8340 Y16.1527
G01 X22.8496 Y16.1425
G01 X22.8605 Y16.1363
G01 X22.8772 Y16.1282
G01 X22.8946 Y16.1212
G01 X22.9064 Y16.1173
G01 X22.9244 Y16.1126
G01 X22.9428 Y16.1091
G01 X22.9551 Y16.1076
G01 X22.9738 Y16.1065
G01 X23.3190 Y16.1064
G01 X23.2889 Y16.0921
G01 X23.2779 Y16.0862
G01 X23.2052 Y16.0427
G01 X23.1895 Y16.0325
G01 X23.1214 Y15.9821
G01 X23.1116 Y15.9744
G01 X23.1022 Y15.9663
G01 X23.0394 Y15.9094
G01 X23.0264 Y15.8960
G01 X22.9737 Y15.8378
G01 X22.9656 Y15.8284
G01 X22.9579 Y15.8186
G01 X22.9111 Y15.7555
G01 X22.9040 Y15.7453
G01 X22.8973 Y15.7348
G01 X22.8569 Y15.6675
G01 X22.8479 Y15.6511
G01 X22.8116 Y15.5746
G01 X22.8066 Y15.5632
G01 X22.8021 Y15.5516
G01 X22.7757 Y15.4777
G01 X22.7718 Y15.4658
G01 X22.7684 Y15.4538
G01 X22.7494 Y15.3777
G01 X22.7466 Y15.3655
G01 X22.7445 Y15.3533
G01 X22.7330 Y15.2756
G01 X22.7315 Y15.2633
G01 X22.7306 Y15.2509
G01 X22.7267 Y15.1724
G01 X22.7264 Y15.1600
G01 X22.7267 Y15.1476
G01 X22.7306 Y15.0691
G01 X22.7315 Y15.0567
G01 X22.7330 Y15.0444
G01 X22.7445 Y14.9667
G01 X22.7466 Y14.9545
G01 X22.7494 Y14.9423
G01 X22.7684 Y14.8662
G01 X22.7718 Y14.8542
G01 X22.7757 Y14.8423
G01 X22.8021 Y14.7684
G01 X22.8066 Y14.7568
G01 X22.8116 Y14.7454
G01 X22.8452 Y14.6745
G01 X22.8508 Y14.6633
G01 X22.8569 Y14.6525
G01 X22.8973 Y14.5852
G01 X22.9040 Y14.5747
G01 X22.9111 Y14.5645
G01 X22.9579 Y14.5014
G01 X22.9656 Y14.4916
G01 X22.9737 Y14.4822
G01 X23.0264 Y14.4240
G01 X23.0350 Y14.4150
G01 X23.0440 Y14.4064
G01 X23.1022 Y14.3537
G01 X23.1116 Y14.3456
G01 X23.1214 Y14.3379
G01 X23.1845 Y14.2911
G01 X23.1947 Y14.2840
G01 X23.2052 Y14.2773
G01 X23.2725 Y14.2369
G01 X23.2833 Y14.2308
G01 X23.2945 Y14.2252
G01 X23.3654 Y14.1916
G01 X23.3768 Y14.1866
G01 X23.3884 Y14.1821
G01 X23.4502 Y14.1600
G01 X23.3884 Y14.1379
G01 X23.3768 Y14.1334
G01 X23.3654 Y14.1284
G01 X23.2945 Y14.0948
G01 X23.2833 Y14.0892
G01 X23.2725 Y14.0831
G01 X23.2052 Y14.0427
G01 X23.1947 Y14.0360
G01 X23.1845 Y14.0289
G01 X23.1214 Y13.9821
G01 X23.1116 Y13.9744
G01 X23.1022 Y13.9663
G01 X23.0440 Y13.9136
G01 X23.0350 Y13.9050
G01 X23.0264 Y13.8960
G01 X22.9737 Y13.8378
G01 X22.9656 Y13.8284
G01 X22.9579 Y13.8186
G01 X22.9111 Y13.7555
G01 X22.9040 Y13.7453
G01 X22.8973 Y13.7348
G01 X22.8569 Y13.6675
G01 X22.8508 Y13.6567
G01 X22.8452 Y13.6455
G01 X22.8116 Y13.5746
G01 X22.8066 Y13.5632
G01 X22.8021 Y13.5516
G01 X22.7757 Y13.4777
G01 X22.7718 Y13.4658
G01 X22.7684 Y13.4538
G01 X22.7479 Y13.3716
G01 X22.7445 Y13.3533
G01 X22.7330 Y13.2756
G01 X22.7315 Y13.2633
G01 X22.7306 Y13.2509
G01 X22.7267 Y13.1724
G01 X22.7264 Y13.1600
G01 X22.7267 Y13.1476
G01 X22.7306 Y13.0691
G01 X22.7315 Y13.0567
G01 X22.7330 Y13.0444
G01 X22.7445 Y12.9667
G01 X22.7466 Y12.9545
G01 X22.7494 Y12.9423
G01 X22.7684 Y12.8662
G01 X22.7718 Y12.8542
G01 X22.7757 Y12.8423
G01 X22.8021 Y12.7684
G01 X22.8066 Y12.7568
G01 X22.8116 Y12.7454
G01 X22.8452 Y12.6745
G01 X22.8538 Y12.6579
G01 X22.8973 Y12.5852
G01 X22.9040 Y12.5747
G01 X22.9111 Y12.5645
G01 X22.9579 Y12.5014
G01 X22.9656 Y12.4916
G01 X22.9737 Y12.4822
G01 X23.0264 Y12.4240
G01 X23.0350 Y12.4150
G01 X23.0440 Y12.4064
G01 X23.1022 Y12.3537
G01 X23.1116 Y12.3456
G01 X23.1214 Y12.3379
G01 X23.1845 Y12.2911
G01 X23.1947 Y12.2840
G01 X23.2052 Y12.2773
G01 X23.2725 Y12.2369
G01 X23.2833 Y12.2308
G01 X23.2945 Y12.2252
G01 X23.3654 Y12.1916
G01 X23.3768 Y12.1866
G01 X23.3884 Y12.1821
G01 X23.4502 Y12.1600
G01 X23.3884 Y12.1379
G01 X23.3768 Y12.1334
G01 X23.3654 Y12.1284
G01 X23.2945 Y12.0948
G01 X23.2833 Y12.0892
G01 X23.2725 Y12.0831
G01 X23.2052 Y12.0427
G01 X23.1947 Y12.0360
G01 X23.1845 Y12.0289
G01 X23.1165 Y11.9783
G01 X23.1022 Y11.9663
G01 X23.0440 Y11.9136
G01 X23.0350 Y11.9050
G01 X23.0264 Y11.8960
G01 X22.9737 Y11.8378
G01 X22.9656 Y11.8284
G01 X22.9579 Y11.8186
G01 X22.9111 Y11.7555
G01 X22.9006 Y11.7401
G01 X22.8569 Y11.6675
G01 X22.8508 Y11.6567
G01 X22.8452 Y11.6455
G01 X22.8116 Y11.5746
G01 X22.8066 Y11.5632
G01 X22.8021 Y11.5516
G01 X22.7757 Y11.4777
G01 X22.7718 Y11.4658
G01 X22.7684 Y11.4538
G01 X22.7494 Y11.3777
G01 X22.7466 Y11.3655
G01 X22.7445 Y11.3533
G01 X22.7330 Y11.2756
G01 X22.7315 Y11.2633
G01 X22.7306 Y11.2509
G01 X22.7267 Y11.1724
G01 X22.7264 Y11.1600
G01 X22.7267 Y11.1476
G01 X22.7306 Y11.0691
G01 X22.7322 Y11.0505
G01 X22.7445 Y10.9667
G01 X22.7466 Y10.9545
G01 X22.7494 Y10.9423
G01 X22.7684 Y10.8662
G01 X22.7718 Y10.8542
G01 X22.7757 Y10.8423
G01 X22.8021 Y10.7684
G01 X22.8066 Y10.7568
G01 X22.8116 Y10.7454
G01 X22.8452 Y10.6745
G01 X22.8508 Y10.6633
G01 X22.8569 Y10.6525
G01 X22.8973 Y10.5852
G01 X22.9040 Y10.5747
G01 X22.9111 Y10.5645
G01 X22.9579 Y10.5014
G01 X22.9656 Y10.4916
G01 X22.9737 Y10.4822
G01 X23.0264 Y10.4240
G01 X23.0350 Y10.4150
G01 X23.0440 Y10.4064
G01 X23.1022 Y10.3537
G01 X23.1116 Y10.3456
G01 X23.1214 Y10.3379
G01 X23.1845 Y10.2911
G01 X23.1947 Y10.2840
G01 X23.2052 Y10.2773
G01 X23.2725 Y10.2369
G01 X23.2833 Y10.2308
G01 X23.2945 Y10.2252
G01 X23.3654 Y10.1916
G01 X23.3768 Y10.1866
G01 X23.3884 Y10.1821
G01 X23.4623 Y10.1557
G01 X23.4742 Y10.1518
G01 X23.4862 Y10.1484
G01 X23.5623 Y10.1294
G01 X23.5745 Y10.1266
G01 X23.5867 Y10.1245
G01 X23.6644 Y10.1130
G01 X23.6767 Y10.1115
G01 X23.6891 Y10.1106
G01 X23.7676 Y10.1067
G00 Z2.0000
G00 X28.6312 Y5.9467
G01 F40.00
G01 Z-0.0500
G01 F35.00
G01 X28.6436 Y5.9464
G01 X28.6560 Y5.9467
G01 X28.7345 Y5.9506
G01 X28.7469 Y5.9515
G01 X28.7592 Y5.9530
G01 X28.8369 Y5.9645
G01 X28.8491 Y5.9666
G01 X28.8613 Y5.9694
G01 X28.9374 Y5.9884
G01 X28.9494 Y5.9918
G01 X28.9613 Y5.9957
G01 X29.0352 Y6.0221
G01 X29.0468 Y6.0266
G01 X29.0582 Y6.0316
G01 X29.1291 Y6.0652
G01 X29.1403 Y6.0708
G01 X29.1511 Y6.0769
G01 X29.2184 Y6.1173
G01 X29.2289 Y6.1240
G01 X29.2391 Y6.1311
G01 X29.3022 Y6.1779
G01 X29.3120 Y6.1856
G01 X29.3214 Y6.1937
G01 X29.3796 Y6.2464
G01 X29.3886 Y6.2550
G01 X29.3972 Y6.2640
G01 X29.4499 Y6.3222
G01 X29.4580 Y6.3316
G01 X29.4657 Y6.3414
G01 X29.5125 Y6.4045
G01 X29.5196 Y6.4147
G01 X29.5263 Y6.4252
G01 X29.5667 Y6.4925
G01 X29.5728 Y6.5033
G01 X29.5784 Y6.5145
G01 X29.6120 Y6.5854
G01 X29.6170 Y6.5968
G01 X29.6215 Y6.6084
G01 X29.6479 Y6.6823
G01 X29.6518 Y6.6942
G01 X29.6552 Y6.7062
G01 X29.6742 Y6.7823
G01 X29.6770 Y6.7945
G01 X29.6791 Y6.8067
G01 X29.6906 Y6.8844
G01 X29.6921 Y6.8967
G01 X29.6930 Y6.9091
G01 X29.6969 Y6.9876
G01 X29.6972 Y7.0000
G01 X29.6969 Y7.0124
G01 X29.6930 Y7.0909
G01 X29.6921 Y7.1033
G01 X29.6906 Y7.1156
G01 X29.6791 Y7.1933
G01 X29.6770 Y7.2055
G01 X29.6742 Y7.2177
G01 X29.6552 Y7.2938
G01 X29.6518 Y7.3058
G01 X29.6479 Y7.3177
G01 X29.6215 Y7.3916
G01 X29.6170 Y7.4032
G01 X29.6120 Y7.4146
G01 X29.5784 Y7.4855
G01 X29.5728 Y7.4967
G01 X29.5667 Y7.5075
G01 X29.5263 Y7.5748
G01 X29.5196 Y7.5853
G01 X29.5125 Y7.5955
G01 X29.4657 Y7.6586
G01 X29.4580 Y7.6684
G01 X29.4499 Y7.6778
G01 X29.3972 Y7.7360
G01 X29.3886 Y7.7450
G01 X29.3796 Y7.7536
G01 X29.3214 Y7.8063
G01 X29.3120 Y7.8144
G01 X29.3022 Y7.8221
G01 X29.2391 Y7.8689
G01 X29.2289 Y7.8760
G01 X29.2184 Y7.8827
G01 X29.1511 Y7.9231
G01 X29.1403 Y7.9292
G01 X29.1291 Y7.9348
G01 X29.0582 Y7.9684
G01 X29.0410 Y7.9757
G01 X28.9613 Y8.0043
G01 X28.9494 Y8.0082
G01 X28.9374 Y8.0116
G01 X28.8613 Y8.0306
G01 X28.8491 Y8.0334
G01 X28.8369 Y8.0355
G01 X28.7592 Y8.0470
G01 X28.7469 Y8.0485
G01 X28.7345 Y8.0494
G01 X28.6560 Y8.0533
G01 X28.6436 Y8.0536
G01 X28.6312 Y8.0533
G01 X28.5527 Y8.0494
G01 X28.5403 Y8.0485
G01 X28.5280 Y8.0470
G01 X28.4503 Y8.0355
G01 X28.4381 Y8.0334
G01 X28.4259 Y8.0306
G01 X28.3498 Y8.0116
G01 X28.3378 Y8.0082
G01 X28.3259 Y8.0043
G01 X28.2520 Y7.9779
G01 X28.2404 Y7.9734
G01 X28.2290 Y7.9684
G01 X28.1581 Y7.9348
G01 X28.1469 Y7.9292
G01 X28.1361 Y7.9231
G01 X28.0688 Y7.8827
G01 X28.0583 Y7.8760
G01 X28.0481 Y7.8689
G01 X27.9850 Y7.8221
G01 X27.9752 Y7.8144
G01 X27.9658 Y7.8063
G01 X27.9076 Y7.7536
G01 X27.8986 Y7.7450
G01 X27.8900 Y7.7360
G01 X27.8373 Y7.6778
G01 X27.8292 Y7.6684
G01 X27.8215 Y7.6586
G01 X27.7747 Y7.5955
G01 X27.7676 Y7.5853
G01 X27.7609 Y7.5748
G01 X27.7205 Y7.5075
G01 X27.7144 Y7.4967
G01 X27.7088 Y7.4855
G01 X27.6752 Y7.4146
G01 X27.6702 Y7.4032
G01 X27.6657 Y7.3916
G01 X27.6436 Y7.3298
G01 X27.6215 Y7.3916
G01 X27.6170 Y7.4032
G01 X27.6120 Y7.4146
G01 X27.5784 Y7.4855
G01 X27.5728 Y7.4967
G01 X27.5667 Y7.5075
G01 X27.5263 Y7.5748
G01 X27.5196 Y7.5853
G01 X27.5125 Y7.5955
G01 X27.4657 Y7.6586
G01 X27.4580 Y7.6684
G01 X27.4499 Y7.6778
G01 X27.3972 Y7.7360
G01 X27.3886 Y7.7450
G01 X27.3796 Y7.7536
G01 X27.3214 Y7.8063
G01 X27.3120 Y7.8144
G01 X27.3022 Y7.8221
G01 X27.2391 Y7.8689
G01 X27.2289 Y7.8760
G01 X27.2184 Y7.8827
G01 X27.1511 Y7.9231
G01 X27.1403 Y7.9292
G01 X27.1291 Y7.9348
G01 X27.0582 Y7.9684
G01 X27.0468 Y7.9734
G01 X27.0352 Y7.9779
G01 X26.9613 Y8.0043
G01 X26.9494 Y8.0082
G01 X26.9374 Y8.0116
G01 X26.8613 Y8.0306
G01 X26.8491 Y8.0334
G01 X26.8369 Y8.0355
G01 X26.7592 Y8.0470
G01 X26.7469 Y8.0485
G01 X26.7345 Y8.0494
G01 X26.6560 Y8.0533
G01 X26.6436 Y8.0536
G01 X26.6312 Y8.0533
G01 X26.5527 Y8.0494
G01 X26.5403 Y8.0485
G01 X26.5280 Y8.0470
G01 X26.4503 Y8.0355
G01 X26.4381 Y8.0334
G01 X26.4259 Y8.0306
G01 X26.3498 Y8.0116
G01 X26.3378 Y8.0082
G01 X26.3259 Y8.0043
G01 X26.2520 Y7.9779
G01 X26.2404 Y7.9734
G01 X26.2290 Y7.9684
G01 X26.1581 Y7.9348
G01 X26.1415 Y7.9262
G01 X26.0688 Y7.8827
G01 X26.0583 Y7.8760
G01 X26.0481 Y7.8689
G01 X25.9850 Y7.8221
G01 X25.9752 Y7.8144
G01 X25.9658 Y7.8063
G01 X25.9076 Y7.7536
G01 X25.8942 Y7.7406
G01 X25.8373 Y7.6778
G01 X25.8292 Y7.6684
G01 X25.8215 Y7.6586
G01 X25.7711 Y7.5905
G01 X25.7609 Y7.5748
G01 X25.7174 Y7.5021
G01 X25.7115 Y7.4911
G01 X25.6972 Y7.4610
G01 X25.6971 Y7.8062
G01 X25.6965 Y7.8187
G01 X25.6953 Y7.8310
G01 X25.6923 Y7.8495
G01 X25.6880 Y7.8676
G01 X25.6824 Y7.8854
G01 X25.6754 Y7.9028
G01 X25.6701 Y7.9140
G01 X25.6611 Y7.9304
G01 X25.6545 Y7.9409
G01 X25.6435 Y7.9560
G01 X25.6356 Y7.9656
G01 X25.6229 Y7.9793
G01 X25.6092 Y7.9920
G01 X25.5947 Y8.0037
G01 X25.5845 Y8.0109
G01 X25.5740 Y8.0175
G01 X25.5576 Y8.0265
G01 X25.5464 Y8.0318
G01 X25.5290 Y8.0388
G01 X25.5112 Y8.0444
G01 X25.4931 Y8.0487
G01 X25.4808 Y8.0509
G01 X25.4685 Y8.0524
G01 X25.4560 Y8.0533
G01 X25.4436 Y8.0536
G01 X23.8436 Y8.0536
G01 X23.8249 Y8.0529
G01 X23.8064 Y8.0509
G01 X23.7880 Y8.0474
G01 X23.7700 Y8.0427
G01 X23.7582 Y8.0388
G01 X23.7408 Y8.0318
G01 X23.7241 Y8.0237
G01 X23.7079 Y8.0143
G01 X23.6925 Y8.0037
G01 X23.6780 Y7.9920
G01 X23.6643 Y7.9793
G01 X23.6557 Y7.9703
G01 X23.6437 Y7.9560
G01 X23.6327 Y7.9409
G01 X23.6229 Y7.9250
G01 X23.6143 Y7.9084
G01 X23.6070 Y7.8913
G01 X23.6009 Y7.8736
G01 X23.5976 Y7.8616
G01 X23.5949 Y7.8495
G01 X23.5927 Y7.8372
G01 X23.5912 Y7.8249
G01 X23.5903 Y7.8124
G01 X23.5900 Y7.8000
G01 X23.5900 Y6.2000
G01 X23.5907 Y6.1813
G01 X23.5927 Y6.1628
G01 X23.5962 Y6.1444
G01 X23.6009 Y6.1264
G01 X23.6048 Y6.1146
G01 X23.6118 Y6.0972
G01 X23.6199 Y6.0805
G01 X23.6293 Y6.0643
G01 X23.6399 Y6.0489
G01 X23.6516 Y6.0344
G01 X23.6599 Y6.0251
G01 X23.6733 Y6.0121
G01 X23.6876 Y6.0001
G01 X23.7027 Y5.9891
G01 X23.7186 Y5.9793
G01 X23.7352 Y5.9707
G01 X23.7523 Y5.9634
G01 X23.7641 Y5.9592
G01 X23.7760 Y5.9556
G01 X23.7880 Y5.9526
G01 X23.8002 Y5.9501
G01 X23.8187 Y5.9476
G01 X23.8312 Y5.9467
G01 X23.8436 Y5.9464
G01 X25.4436 Y5.9464
G01 X25.4623 Y5.9471
G01 X25.4808 Y5.9491
G01 X25.4992 Y5.9526
G01 X25.5172 Y5.9573
G01 X25.5349 Y5.9634
G01 X25.5464 Y5.9682
G01 X25.5576 Y5.9735
G01 X25.5740 Y5.9825
G01 X25.5896 Y5.9927
G01 X25.5996 Y6.0001
G01 X25.6092 Y6.0080
G01 X25.6229 Y6.0207
G01 X25.6315 Y6.0297
G01 X25.6435 Y6.0440
G01 X25.6545 Y6.0591
G01 X25.6611 Y6.0696
G01 X25.6673 Y6.0805
G01 X25.6754 Y6.0972
G01 X25.6824 Y6.1146
G01 X25.6863 Y6.1264
G01 X25.6910 Y6.1444
G01 X25.6935 Y6.1566
G01 X25.6960 Y6.1751
G01 X25.6971 Y6.1938
G01 X25.6972 Y6.5390
G01 X25.7115 Y6.5089
G01 X25.7174 Y6.4979
G01 X25.7609 Y6.4252
G01 X25.7711 Y6.4095
G01 X25.8215 Y6.3414
G01 X25.8292 Y6.3316
G01 X25.8373 Y6.3222
G01 X25.8942 Y6.2594
G01 X25.9076 Y6.2464
G01 X25.9658 Y6.1937
G01 X25.9752 Y6.1856
G01 X25.9850 Y6.1779
G01 X26.0481 Y6.1311
G01 X26.0583 Y6.1240
G01 X26.0688 Y6.1173
G01 X26.1361 Y6.0769
G01 X26.1525 Y6.0679
G01 X26.2290 Y6.0316
G01 X26.2404 Y6.0266
G01 X26.2520 Y6.0221
G01 X26.3259 Y5.9957
G01 X26.3378 Y5.9918
G01 X26.3498 Y5.9884
G01 X26.4259 Y5.9694
G01 X26.4381 Y5.9666
G01 X26.4503 Y5.9645
G01 X26.5280 Y5.9530
G01 X26.5403 Y5.9515
G01 X26.5527 Y5.9506
G01 X26.6312 Y5.9467
G01 X26.6436 Y5.9464
G01 X26.6560 Y5.9467
G01 X26.7345 Y5.9506
G01 X26.7469 Y5.9515
G01 X26.7592 Y5.9530
G01 X26.8430 Y5.9655
G01 X26.8613 Y5.9694
G01 X26.9374 Y5.9884
G01 X26.9494 Y5.9918
G01 X26.9613 Y5.9957
G01 X27.0352 Y6.0221
G01 X27.0468 Y6.0266
G01 X27.0582 Y6.0316
G01 X27.1291 Y6.0652
G01 X27.1403 Y6.0708
G01 X27.1511 Y6.0769
G01 X27.2184 Y6.1173
G01 X27.2289 Y6.1240
G01 X27.2391 Y6.1311
G01 X27.3022 Y6.1779
G01 X27.3168 Y6.1896
G01 X27.3796 Y6.2464
G01 X27.3886 Y6.2550
G01 X27.3972 Y6.2640
G01 X27.4499 Y6.3222
G01 X27.4580 Y6.3316
G01 X27.4657 Y6.3414
G01 X27.5125 Y6.4045
G01 X27.5196 Y6.4147
G01 X27.5263 Y6.4252
G01 X27.5667 Y6.4925
G01 X27.5728 Y6.5033
G01 X27.5784 Y6.5145
G01 X27.6120 Y6.5854
G01 X27.6170 Y6.5968
G01 X27.6215 Y6.6084
G01 X27.6436 Y6.6702
G01 X27.6657 Y6.6084
G01 X27.6702 Y6.5968
G01 X27.6752 Y6.5854
G01 X27.7088 Y6.5145
G01 X27.7144 Y6.5033
G01 X27.7205 Y6.4925
G01 X27.7609 Y6.4252
G01 X27.7676 Y6.4147
G01 X27.7747 Y6.4045
G01 X27.8215 Y6.3414
G01 X27.8292 Y6.3316
G01 X27.8373 Y6.3222
G01 X27.8900 Y6.2640
G01 X27.8986 Y6.2550
G01 X27.9076 Y6.2464
G01 X27.9658 Y6.1937
G01 X27.9752 Y6.1856
G01 X27.9850 Y6.1779
G01 X28.0481 Y6.1311
G01 X28.0583 Y6.1240
G01 X28.0688 Y6.1173
G01 X28.1361 Y6.0769
G01 X28.1469 Y6.0708
G01 X28.1581 Y6.0652
G01 X28.2290 Y6.0316
G01 X28.2404 Y6.0266
G01 X28.2520 Y6.0221
G01 X28.3259 Y5.9957
G01 X28.3378 Y5.9918
G01 X28.3498 Y5.9884
G01 X28.4259 Y5.9694
G01 X28.4381 Y5.9666
G01 X28.4503 Y5.9645
G01 X28.5280 Y5.9530
G01 X28.5403 Y5.9515
G01 X28.5527 Y5.9506
G01 X28.6312 Y5.9467
G00 Z2.0000
G00 X36.9949 Y7.7247
G01 F40.00
G01 Z-0.0500
G01 F35.00
G01 X37.0073 Y7.7244
G01 X37.0197 Y7.7247
G01 X37.0982 Y7.7286
G01 X37.1106 Y7.7295
G01 X37.1229 Y7.7310
G01 X37.2006 Y7.7425
G01 X37.2128 Y7.7446
G01 X37.2250 Y7.7474
G01 X37.3011 Y7.7664
G01 X37.3131 Y7.7698
G01 X37.3250 Y7.7737
G01 X37.3989 Y7.8001
G01 X37.4105 Y7.8046
G01 X37.4219 Y7.8096
G01 X37.4928 Y7.8432
G01 X37.5040 Y7.8488
G01 X37.5148 Y7.8549
G01 X37.5874 Y7.8986
G01 X37.6028 Y7.9091
G01 X37.6659 Y7.9559
G01 X37.6757 Y7.9636
G01 X37.6851 Y7.9717
G01 X37.7433 Y8.0244
G01 X37.7523 Y8.0330
G01 X37.7609 Y8.0420
G01 X37.8177 Y8.1048
G01 X37.8294 Y8.1194
G01 X37.8762 Y8.1825
G01 X37.8867 Y8.1979
G01 X37.9335 Y8.2759
G01 X37.9394 Y8.2869
G01 X37.9537 Y8.3170
G01 X37.9538 Y7.9718
G01 X37.9549 Y7.9531
G01 X37.9574 Y7.9346
G01 X37.9613 Y7.9164
G01 X37.9665 Y7.8985
G01 X37.9730 Y7.8810
G01 X37.9780 Y7.8696
G01 X37.9866 Y7.8530
G01 X37.9930 Y7.8423
G01 X38.0036 Y7.8269
G01 X38.0113 Y7.8171
G01 X38.0236 Y7.8031
G01 X38.0324 Y7.7943
G01 X38.0464 Y7.7820
G01 X38.0562 Y7.7743
G01 X38.0664 Y7.7671
G01 X38.0823 Y7.7573
G01 X38.0989 Y7.7487
G01 X38.1103 Y7.7437
G01 X38.1219 Y7.7392
G01 X38.1397 Y7.7336
G01 X38.1517 Y7.7306
G01 X38.1701 Y7.7271
G01 X38.1886 Y7.7251
G01 X38.2073 Y7.7244
G01 X39.8135 Y7.7245
G01 X39.8322 Y7.7256
G01 X39.8507 Y7.7281
G01 X39.8689 Y7.7320
G01 X39.8809 Y7.7353
G01 X39.8986 Y7.7414
G01 X39.9157 Y7.7487
G01 X39.9323 Y7.7573
G01 X39.9482 Y7.7671
G01 X39.9584 Y7.7743
G01 X39.9729 Y7.7860
G01 X39.9866 Y7.7987
G01 X39.9952 Y7.8077
G01 X40.0033 Y7.8171
G01 X40.0110 Y7.8269
G01 X40.0216 Y7.8423
G01 X40.0280 Y7.8530
G01 X40.0366 Y7.8696
G01 X40.0416 Y7.8810
G01 X40.0481 Y7.8985
G01 X40.0517 Y7.9104
G01 X40.0547 Y7.9224
G01 X40.0582 Y7.9408
G01 X40.0597 Y7.9531
G01 X40.0608 Y7.9718
G01 X40.0608 Y9.5842
G01 X40.0602 Y9.5967
G01 X40.0582 Y9.6152
G01 X40.0547 Y9.6336
G01 X40.0500 Y9.6516
G01 X40.0439 Y9.6693
G01 X40.0366 Y9.6864
G01 X40.0280 Y9.7030
G01 X40.0182 Y9.7189
G01 X40.0072 Y9.7340
G01 X39.9993 Y9.7436
G01 X39.9910 Y9.7529
G01 X39.9822 Y9.7617
G01 X39.9729 Y9.7700
G01 X39.9584 Y9.7817
G01 X39.9430 Y9.7923
G01 X39.9323 Y9.7987
G01 X39.9213 Y9.8045
G01 X39.9043 Y9.8123
G01 X39.8868 Y9.8188
G01 X39.8749 Y9.8224
G01 X39.8629 Y9.8254
G01 X39.8507 Y9.8279
G01 X39.8322 Y9.8304
G01 X39.8197 Y9.8313
G01 X39.8073 Y9.8316
G01 X38.2073 Y9.8316
G01 X38.1949 Y9.8313
G01 X38.1824 Y9.8304
G01 X38.1701 Y9.8289
G01 X38.1517 Y9.8254
G01 X38.1337 Y9.8207
G01 X38.1219 Y9.8168
G01 X38.1045 Y9.8098
G01 X38.0878 Y9.8017
G01 X38.0769 Y9.7955
G01 X38.0613 Y9.7853
G01 X38.0464 Y9.7740
G01 X38.0370 Y9.7659
G01 X38.0280 Y9.7573
G01 X38.0153 Y9.7436
G01 X38.0074 Y9.7340
G01 X37.9964 Y9.7189
G01 X37.9898 Y9.7084
G01 X37.9808 Y9.6920
G01 X37.9730 Y9.6750
G01 X37.9665 Y9.6575
G01 X37.9613 Y9.6396
G01 X37.9574 Y9.6214
G01 X37.9549 Y9.6029
G01 X37.9538 Y9.5842
G01 X37.9537 Y9.2390
G01 X37.9394 Y9.2691
G01 X37.9335 Y9.2801
G01 X37.8867 Y9.3581
G01 X37.8762 Y9.3735
G01 X37.8256 Y9.4415
G01 X37.8136 Y9.4558
G01 X37.7609 Y9.5140
G01 X37.7523 Y9.5230
G01 X37.7433 Y9.5316
G01 X37.6805 Y9.5884
G01 X37.6659 Y9.6001
G01 X37.6028 Y9.6469
G01 X37.5926 Y9.6540
G01 X37.5821 Y9.6607
G01 X37.5148 Y9.7011
G01 X37.5040 Y9.7072
G01 X37.4928 Y9.7128
G01 X37.4219 Y9.7464
G01 X37.4105 Y9.7514
G01 X37.3989 Y9.7559
G01 X37.3250 Y9.7823
G01 X37.3072 Y9.7880
G01 X37.2250 Y9.8086
G01 X37.2128 Y9.8114
G01 X37.2006 Y9.8135
G01 X37.1229 Y9.8250
G01 X37.1106 Y9.8265
G01 X37.0982 Y9.8274
G01 X37.0197 Y9.8313
G01 X37.0073 Y9.8316
G01 X36.9949 Y9.8313
G01 X36.9164 Y9.8274
G01 X36.9040 Y9.8265
G01 X36.8917 Y9.8250
G01 X36.8140 Y9.8135
G01 X36.8018 Y9.8114
G01 X36.7896 Y9.8086
G01 X36.7135 Y9.7896
G01 X36.7015 Y9.7862
G01 X36.6896 Y9.7823
G01 X36.6157 Y9.7559
G01 X36.6041 Y9.7514
G01 X36.5927 Y9.7464
G01 X36.5218 Y9.7128
G01 X36.5106 Y9.7072
G01 X36.4998 Y9.7011
G01 X36.4325 Y9.6607
G01 X36.4220 Y9.6540
G01 X36.4118 Y9.6469
G01 X36.3487 Y9.6001
G01 X36.3389 Y9.5924
G01 X36.3295 Y9.5843
G01 X36.2713 Y9.5316
G01 X36.2623 Y9.5230
G01 X36.2537 Y9.5140
G01 X36.2010 Y9.4558
G01 X36.1929 Y9.4464
G01 X36.1852 Y9.4366
G01 X36.1384 Y9.3735
G01 X36.1313 Y9.3633
G01 X36.1246 Y9.3528
G01 X36.0842 Y9.2855
G01 X36.0781 Y9.2747
G01 X36.0725 Y9.2635
G01 X36.0389 Y9.1926
G01 X36.0339 Y9.1812
G01 X36.0294 Y9.1696
G01 X36.0030 Y9.0957
G01 X35.9991 Y9.0838
G01 X35.9957 Y9.0718
G01 X35.9767 Y8.9957
G01 X35.9739 Y8.9835
G01 X35.9718 Y8.9713
G01 X35.9603 Y8.8936
G01 X35.9588 Y8.8813
G01 X35.9579 Y8.8689
G01 X35.9540 Y8.7904
G01 X35.9537 Y8.7780
G01 X35.9540 Y8.7656
G01 X35.9579 Y8.6871
G01 X35.9588 Y8.6747
G01 X35.9603 Y8.6624
G01 X35.9718 Y8.5847
G01 X35.9739 Y8.5725
G01 X35.9767 Y8.5603
G01 X35.9957 Y8.4842
G01 X35.9991 Y8.4722
G01 X36.0030 Y8.4603
G01 X36.0294 Y8.3864
G01 X36.0339 Y8.3748
G01 X36.0389 Y8.3634
G01 X36.0725 Y8.2925
G01 X36.0781 Y8.2813
G01 X36.0842 Y8.2705
G01 X36.1246 Y8.2032
G01 X36.1313 Y8.1927
G01 X36.1384 Y8.1825
G01 X36.1852 Y8.1194
G01 X36.1929 Y8.1096
G01 X36.2010 Y8.1002
G01 X36.2537 Y8.0420
G01 X36.2623 Y8.0330
G01 X36.2713 Y8.0244
G01 X36.3295 Y7.9717
G01 X36.3389 Y7.9636
G01 X36.3487 Y7.9559
G01 X36.4118 Y7.9091
G01 X36.4220 Y7.9020
G01 X36.4325 Y7.8953
G01 X36.4998 Y7.8549
G01 X36.5106 Y7.8488
G01 X36.5218 Y7.8432
G01 X36.5927 Y7.8096
G01 X36.6041 Y7.8046
G01 X36.6157 Y7.8001
G01 X36.6896 Y7.7737
G01 X36.7015 Y7.7698
G01 X36.7135 Y7.7664
G01 X36.7896 Y7.7474
G01 X36.8018 Y7.7446
G01 X36.8140 Y7.7425
G01 X36.8917 Y7.7310
G01 X36.9040 Y7.7295
G01 X36.9164 Y7.7286
G01 X36.9949 Y7.7247
G00 Z2.0000
G00 X36.2640 Y21.5674
G01 F40.00
G01 Z-0.0500
G01 F35.00
G01 X36.2827 Y21.5681
G01 X36.2950 Y21.5693
G01 X36.3074 Y21.5711
G01 X36.3196 Y21.5736
G01 X36.3316 Y21.5766
G01 X36.3435 Y21.5802
G01 X36.3553 Y21.5844
G01 X36.3724 Y21.5917
G01 X36.3835 Y21.5973
G01 X36.3944 Y21.6035
G01 X36.4049 Y21.6101
G01 X36.4151 Y21.6173
G01 X36.4296 Y21.6290
G01 X36.4389 Y21.6373
G01 X36.4477 Y21.6461
G01 X36.4560 Y21.6554
G01 X36.4639 Y21.6650
G01 X36.4713 Y21.6750
G01 X36.4783 Y21.6853
G01 X36.4877 Y21.7015
G01 X36.4933 Y21.7126
G01 X36.4983 Y21.7240
G01 X36.5028 Y21.7356
G01 X36.5067 Y21.7474
G01 X36.5114 Y21.7654
G01 X36.5139 Y21.7776
G01 X36.5157 Y21.7900
G01 X36.5173 Y21.8086
G01 X36.5176 Y21.8210
G01 X36.5176 Y23.4210
G01 X36.5169 Y23.4397
G01 X36.5149 Y23.4582
G01 X36.5114 Y23.4766
G01 X36.5084 Y23.4886
G01 X36.5028 Y23.5064
G01 X36.4958 Y23.5238
G01 X36.4905 Y23.5350
G01 X36.4815 Y23.5514
G01 X36.4713 Y23.5670
G01 X36.4600 Y23.5819
G01 X36.4477 Y23.5959
G01 X36.4389 Y23.6047
G01 X36.4249 Y23.6170
G01 X36.4100 Y23.6283
G01 X36.3944 Y23.6385
G01 X36.3780 Y23.6475
G01 X36.3668 Y23.6528
G01 X36.3494 Y23.6598
G01 X36.3376 Y23.6637
G01 X36.3256 Y23.6670
G01 X36.3074 Y23.6709
G01 X36.2889 Y23.6734
G01 X36.2702 Y23.6745
G01 X35.9250 Y23.6746
G01 X35.9551 Y23.6889
G01 X35.9661 Y23.6948
G01 X36.0388 Y23.7383
G01 X36.0545 Y23.7485
G01 X36.1226 Y23.7989
G01 X36.1324 Y23.8066
G01 X36.1418 Y23.8147
G01 X36.2000 Y23.8674
G01 X36.2134 Y23.8804
G01 X36.2703 Y23.9432
G01 X36.2784 Y23.9526
G01 X36.2861 Y23.9624
G01 X36.3329 Y24.0255
G01 X36.3400 Y24.0357
G01 X36.3467 Y24.0462
G01 X36.3871 Y24.1135
G01 X36.3932 Y24.1243
G01 X36.3988 Y24.1355
G01 X36.4349 Y24.2121
G01 X36.4419 Y24.2294
G01 X36.4683 Y24.3033
G01 X36.4722 Y24.3152
G01 X36.4756 Y24.3272
G01 X36.4946 Y24.4033
G01 X36.4974 Y24.4155
G01 X36.4995 Y24.4277
G01 X36.5110 Y24.5054
G01 X36.5125 Y24.5177
G01 X36.5134 Y24.5301
G01 X36.5173 Y24.6086
G01 X36.5176 Y24.6210
G01 X36.5173 Y24.6334
G01 X36.5134 Y24.7119
G01 X36.5125 Y24.7243
G01 X36.5110 Y24.7366
G01 X36.4995 Y24.8143
G01 X36.4974 Y24.8265
G01 X36.4946 Y24.8387
G01 X36.4740 Y24.9209
G01 X36.4683 Y24.9387
G01 X36.4419 Y25.0126
G01 X36.4374 Y25.0242
G01 X36.4324 Y25.0356
G01 X36.3988 Y25.1065
G01 X36.3932 Y25.1177
G01 X36.3871 Y25.1285
G01 X36.3467 Y25.1958
G01 X36.3400 Y25.2063
G01 X36.3329 Y25.2165
G01 X36.2861 Y25.2796
G01 X36.2784 Y25.2894
G01 X36.2703 Y25.2988
G01 X36.2176 Y25.3570
G01 X36.2090 Y25.3660
G01 X36.2000 Y25.3746
G01 X36.1418 Y25.4273
G01 X36.1324 Y25.4354
G01 X36.1226 Y25.4431
G01 X36.0595 Y25.4899
G01 X36.0493 Y25.4970
G01 X36.0388 Y25.5037
G01 X35.9715 Y25.5441
G01 X35.9607 Y25.5502
G01 X35.9495 Y25.5558
G01 X35.8786 Y25.5894
G01 X35.8672 Y25.5944
G01 X35.8556 Y25.5989
G01 X35.7817 Y25.6253
G01 X35.7698 Y25.6292
G01 X35.7578 Y25.6326
G01 X35.6817 Y25.6516
G01 X35.6695 Y25.6544
G01 X35.6573 Y25.6565
G01 X35.5796 Y25.6680
G01 X35.5673 Y25.6695
G01 X35.5549 Y25.6704
G01 X35.4764 Y25.6743
G01 X35.4640 Y25.6746
G01 X35.4516 Y25.6743
G01 X35.3731 Y25.6704
G01 X35.3607 Y25.6695
G01 X35.3484 Y25.6680
G01 X35.2707 Y25.6565
G01 X35.2585 Y25.6544
G01 X35.2463 Y25.6516
G01 X35.1641 Y25.6310
G01 X35.1463 Y25.6253
G01 X35.0724 Y25.5989
G01 X35.0608 Y25.5944
G01 X35.0494 Y25.5894
G01 X34.9785 Y25.5558
G01 X34.9673 Y25.5502
G01 X34.9565 Y25.5441
G01 X34.8892 Y25.5037
G01 X34.8787 Y25.4970
G01 X34.8685 Y25.4899
G01 X34.8054 Y25.4431
G01 X34.7956 Y25.4354
G01 X34.7862 Y25.4273
G01 X34.7280 Y25.3746
G01 X34.7190 Y25.3660
G01 X34.7104 Y25.3570
G01 X34.6577 Y25.2988
G01 X34.6496 Y25.2894
G01 X34.6419 Y25.2796
G01 X34.5951 Y25.2165
G01 X34.5880 Y25.2063
G01 X34.5813 Y25.1958
G01 X34.5409 Y25.1285
G01 X34.5348 Y25.1177
G01 X34.5292 Y25.1065
G01 X34.4956 Y25.0356
G01 X34.4906 Y25.0242
G01 X34.4861 Y25.0126
G01 X34.4597 Y24.9387
G01 X34.4558 Y24.9268
G01 X34.4524 Y24.9148
G01 X34.4334 Y24.8387
G01 X34.4306 Y24.8265
G01 X34.4285 Y24.8143
G01 X34.4170 Y24.7366
G01 X34.4155 Y24.7243
G01 X34.4146 Y24.7119
G01 X34.4107 Y24.6334
G01 X34.4104 Y24.6210
G01 X34.4107 Y24.6086
G01 X34.4146 Y24.5301
G01 X34.4155 Y24.5177
G01 X34.4170 Y24.5054
G01 X34.4285 Y24.4277
G01 X34.4306 Y24.4155
G01 X34.4334 Y24.4033
G01 X34.4524 Y24.3272
G01 X34.4558 Y24.3152
G01 X34.4597 Y24.3033
G01 X34.4861 Y24.2294
G01 X34.4906 Y24.2178
G01 X34.4956 Y24.2064
G01 X34.5319 Y24.1299
G01 X34.5409 Y24.1135
G01 X34.5813 Y24.0462
G01 X34.5880 Y24.0357
G01 X34.5951 Y24.0255
G01 X34.6419 Y23.9624
G01 X34.6496 Y23.9526
G01 X34.6577 Y23.9432
G01 X34.7104 Y23.8850
G01 X34.7234 Y23.8716
G01 X34.7862 Y23.8147
G01 X34.7956 Y23.8066
G01 X34.8054 Y23.7989
G01 X34.8735 Y23.7485
G01 X34.8892 Y23.7383
G01 X34.9619 Y23.6948
G01 X34.9729 Y23.6889
G01 X35.0030 Y23.6746
G01 X34.6578 Y23.6745
G01 X34.6453 Y23.6739
G01 X34.6268 Y23.6719
G01 X34.6084 Y23.6684
G01 X34.5904 Y23.6637
G01 X34.5786 Y23.6598
G01 X34.5612 Y23.6528
G01 X34.5445 Y23.6447
G01 X34.5336 Y23.6385
G01 X34.5180 Y23.6283
G01 X34.5080 Y23.6209
G01 X34.4937 Y23.6089
G01 X34.4847 Y23.6003
G01 X34.4761 Y23.5913
G01 X34.4641 Y23.5770
G01 X34.4567 Y23.5670
G01 X34.4465 Y23.5514
G01 X34.4375 Y23.5350
G01 X34.4322 Y23.5238
G01 X34.4274 Y23.5123
G01 X34.4213 Y23.4946
G01 X34.4166 Y23.4766
G01 X34.4131 Y23.4582
G01 X34.4111 Y23.4397
G01 X34.4104 Y23.4210
G01 X34.4104 Y21.8210
G01 X34.4111 Y21.8023
G01 X34.4123 Y21.7900
G01 X34.4153 Y21.7715
G01 X34.4196 Y21.7534
G01 X34.4252 Y21.7356
G01 X34.4322 Y21.7182
G01 X34.4403 Y21.7015
G01 X34.4497 Y21.6853
G01 X34.4603 Y21.6699
G01 X34.4680 Y21.6601
G01 X34.4761 Y21.6507
G01 X34.4891 Y21.6373
G01 X34.5031 Y21.6250
G01 X34.5180 Y21.6137
G01 X34.5336 Y21.6035
G01 X34.5500 Y21.5945
G01 X34.5670 Y21.5867
G01 X34.5845 Y21.5802
G01 X34.6024 Y21.5750
G01 X34.6206 Y21.5711
G01 X34.6391 Y21.5686
G01 X34.6516 Y21.5677
G01 X34.6640 Y21.5674
G01 X36.2640 Y21.5674
G00 Z2.0000
G00 X52.2156 Y24.3937
G01 F40.00
G01 Z-0.0500
G01 F35.00
G01 X52.2280 Y24.3934
G01 X52.2404 Y24.3937
G01 X52.3189 Y24.3976
G01 X52.3313 Y24.3985
G01 X52.3436 Y24.4000
G01 X52.4213 Y24.4115
G01 X52.4335 Y24.4136
G01 X52.4457 Y24.4164
G01 X52.5218 Y24.4354
G01 X52.5338 Y24.4388
G01 X52.5457 Y24.4427
G01 X52.6196 Y24.4691
G01 X52.6312 Y24.4736
G01 X52.6426 Y24.4786
G01 X52.7135 Y24.5122
G01 X52.7247 Y24.5178
G01 X52.7355 Y24.5239
G01 X52.8028 Y24.5643
G01 X52.8133 Y24.5710
G01 X52.8235 Y24.5781
G01 X52.8866 Y24.6249
G01 X52.8964 Y24.6326
G01 X52.9058 Y24.6407
G01 X52.9640 Y24.6934
G01 X52.9730 Y24.7020
G01 X52.9816 Y24.7110
G01 X53.0343 Y24.7692
G01 X53.0424 Y24.7786
G01 X53.0501 Y24.7884
G01 X53.0969 Y24.8515
G01 X53.1040 Y24.8617
G01 X53.1107 Y24.8722
G01 X53.1511 Y24.9395
G01 X53.1572 Y24.9503
G01 X53.1628 Y24.9615
G01 X53.1964 Y25.0324
G01 X53.2014 Y25.0438
G01 X53.2059 Y25.0554
G01 X53.2323 Y25.1293
G01 X53.2362 Y25.1412
G01 X53.2396 Y25.1532
G01 X53.2586 Y25.2293
G01 X53.2614 Y25.2415
G01 X53.2635 Y25.2537
G01 X53.2750 Y25.3314
G01 X53.2765 Y25.3437
G01 X53.2774 Y25.3561
G01 X53.2813 Y25.4346
G01 X53.2816 Y25.4470
G01 X53.2813 Y25.4594
G01 X53.2774 Y25.5379
G01 X53.2765 Y25.5503
G01 X53.2750 Y25.5626
G01 X53.2635 Y25.6403
G01 X53.2614 Y25.6525
G01 X53.2586 Y25.6647
G01 X53.2396 Y25.7408
G01 X53.2362 Y25.7528
G01 X53.2323 Y25.7647
G01 X53.2059 Y25.8386
G01 X53.2014 Y25.8502
G01 X53.1964 Y25.8616
G01 X53.1601 Y25.9381
G01 X53.1511 Y25.9545
G01 X53.1107 Y26.0218
G01 X53.1040 Y26.0323
G01 X53.0969 Y26.0425
G01 X53.0501 Y26.1056
G01 X53.0424 Y26.1154
G01 X53.0343 Y26.1248
G01 X52.9816 Y26.1830
G01 X52.9686 Y26.1964
G01 X52.9058 Y26.2533
G01 X52.8964 Y26.2614
G01 X52.8866 Y26.2691
G01 X52.8185 Y26.3195
G01 X52.8028 Y26.3297
G01 X52.7301 Y26.3732
G01 X52.7191 Y26.3791
G01 X52.6890 Y26.3934
G01 X53.0342 Y26.3935
G01 X53.0529 Y26.3946
G01 X53.0714 Y26.3971
G01 X53.0836 Y26.3996
G01 X53.0956 Y26.4026
G01 X53.1134 Y26.4082
G01 X53.1308 Y26.4152
G01 X53.1475 Y26.4233
G01 X53.1637 Y26.4327
G01 X53.1740 Y26.4397
G01 X53.1889 Y26.4510
G01 X53.1983 Y26.4591
G01 X53.2073 Y26.4677
G01 X53.2200 Y26.4814
G01 X53.2317 Y26.4959
G01 X53.2423 Y26.5113
G01 X53.2487 Y26.5220
G01 X53.2573 Y26.5386
G01 X53.2646 Y26.5557
G01 X53.2707 Y26.5734
G01 X53.2754 Y26.5914
G01 X53.2779 Y26.6036
G01 X53.2804 Y26.6221
G01 X53.2813 Y26.6346
G01 X53.2816 Y26.6470
G01 X53.2816 Y28.2470
G01 X53.2813 Y28.2594
G01 X53.2804 Y28.2719
G01 X53.2779 Y28.2904
G01 X53.2740 Y28.3086
G01 X53.2688 Y28.3265
G01 X53.2646 Y28.3383
G01 X53.2598 Y28.3498
G01 X53.2517 Y28.3665
G01 X53.2455 Y28.3774
G01 X53.2389 Y28.3879
G01 X53.2279 Y28.4030
G01 X53.2159 Y28.4173
G01 X53.2029 Y28.4307
G01 X53.1889 Y28.4430
G01 X53.1740 Y28.4543
G01 X53.1637 Y28.4613
G01 X53.1530 Y28.4677
G01 X53.1420 Y28.4735
G01 X53.1308 Y28.4788
G01 X53.1134 Y28.4858
G01 X53.0956 Y28.4914
G01 X53.0775 Y28.4957
G01 X53.0652 Y28.4979
G01 X53.0529 Y28.4994
G01 X53.0404 Y28.5003
G01 X53.0280 Y28.5006
G01 X51.4280 Y28.5006
G01 X51.4156 Y28.5003
G01 X51.4031 Y28.4994
G01 X51.3846 Y28.4969
G01 X51.3664 Y28.4930
G01 X51.3544 Y28.4897
G01 X51.3426 Y28.4858
G01 X51.3252 Y28.4788
G01 X51.3085 Y28.4707
G01 X51.2923 Y28.4613
G01 X51.2769 Y28.4507
G01 X51.2671 Y28.4430
G01 X51.2577 Y28.4349
G01 X51.2487 Y28.4263
G01 X51.2401 Y28.4173
G01 X51.2281 Y28.4030
G01 X51.2171 Y28.3879
G01 X51.2073 Y28.3720
G01 X51.1987 Y28.3554
G01 X51.1914 Y28.3383
G01 X51.1853 Y28.3206
G01 X51.1820 Y28.3086
G01 X51.1793 Y28.2965
G01 X51.1771 Y28.2842
G01 X51.1756 Y28.2719
G01 X51.1747 Y28.2594
G01 X51.1744 Y28.2470
G01 X51.1744 Y26.6470
G01 X51.1751 Y26.6283
G01 X51.1771 Y26.6098
G01 X51.1806 Y26.5914
G01 X51.1853 Y26.5734
G01 X51.1892 Y26.5616
G01 X51.1962 Y26.5442
G01 X51.2015 Y26.5330
G01 X51.2105 Y26.5166
G01 X51.2207 Y26.5010
G01 X51.2281 Y26.4910
G01 X51.2401 Y26.4767
G01 X51.2487 Y26.4677
G01 X51.2577 Y26.4591
G01 X51.2720 Y26.4471
G01 X51.2820 Y26.4397
G01 X51.2976 Y26.4295
G01 X51.3085 Y26.4233
G01 X51.3252 Y26.4152
G01 X51.3426 Y26.4082
G01 X51.3544 Y26.4043
G01 X51.3724 Y26.3996
G01 X51.3908 Y26.3961
G01 X51.4031 Y26.3946
G01 X51.4218 Y26.3935
G01 X51.7670 Y26.3934
G01 X51.7369 Y26.3791
G01 X51.7259 Y26.3732
G01 X51.6532 Y26.3297
G01 X51.6375 Y26.3195
G01 X51.5694 Y26.2691
G01 X51.5596 Y26.2614
G01 X51.5502 Y26.2533
G01 X51.4920 Y26.2006
G01 X51.4786 Y26.1876
G01 X51.4217 Y26.1248
G01 X51.4136 Y26.1154
G01 X51.4059 Y26.1056
G01 X51.3591 Y26.0425
G01 X51.3520 Y26.0323
G01 X51.3453 Y26.0218
G01 X51.3049 Y25.9545
G01 X51.2988 Y25.9437
G01 X51.2932 Y25.9325
G01 X51.2571 Y25.8559
G01 X51.2501 Y25.8386
G01 X51.2237 Y25.7647
G01 X51.2198 Y25.7528
G01 X51.2164 Y25.7408
G01 X51.1974 Y25.6647
G01 X51.1946 Y25.6525
G01 X51.1925 Y25.6403
G01 X51.1810 Y25.5626
G01 X51.1795 Y25.5503
G01 X51.1786 Y25.5379
G01 X51.1747 Y25.4594
G01 X51.1744 Y25.4470
G01 X51.1747 Y25.4346
G01 X51.1786 Y25.3561
G01 X51.1795 Y25.3437
G01 X51.1810 Y25.3314
G01 X51.1925 Y25.2537
G01 X51.1946 Y25.2415
G01 X51.1974 Y25.2293
G01 X51.2180 Y25.1471
G01 X51.2237 Y25.1293
G01 X51.2501 Y25.0554
G01 X51.2546 Y25.0438
G01 X51.2596 Y25.0324
G01 X51.2932 Y24.9615
G01 X51.2988 Y24.9503
G01 X51.3049 Y24.9395
G01 X51.3453 Y24.8722
G01 X51.3520 Y24.8617
G01 X51.3591 Y24.8515
G01 X51.4059 Y24.7884
G01 X51.4136 Y24.7786
G01 X51.4217 Y24.7692
G01 X51.4744 Y24.7110
G01 X51.4830 Y24.7020
G01 X51.4920 Y24.6934
G01 X51.5502 Y24.6407
G01 X51.5596 Y24.6326
G01 X51.5694 Y24.6249
G01 X51.6325 Y24.5781
G01 X51.6427 Y24.5710
G01 X51.6532 Y24.5643
G01 X51.7205 Y24.5239
G01 X51.7313 Y24.5178
G01 X51.7425 Y24.5122
G01 X51.8134 Y24.4786
G01 X51.8248 Y24.4736
G01 X51.8364 Y24.4691
G01 X51.9103 Y24.4427
G01 X51.9222 Y24.4388
G01 X51.9342 Y24.4354
G01 X52.0103 Y24.4164
G01 X52.0225 Y24.4136
G01 X52.0347 Y24.4115
G01 X52.1124 Y24.4000
G01 X52.1247 Y24.3985
G01 X52.1371 Y24.3976
G01 X52.2156 Y24.3937
G00 Z2.0000
G00 X51.7396 Y4.1687
G01 F40.00
G01 Z-0.0500
G01 F35.00
G01 X51.7520 Y4.1684
G01 X51.7644 Y4.1687
G01 X51.8429 Y4.1726
G01 X51.8553 Y4.1735
G01 X51.8676 Y4.1750
G01 X51.9453 Y4.1865
G01 X51.9575 Y4.1886
G01 X51.9697 Y4.1914
G01 X52.0458 Y4.2104
G01 X52.0578 Y4.2138
G01 X52.0697 Y4.2177
G01 X52.1436 Y4.2441
G01 X52.1552 Y4.2486
G01 X52.1666 Y4.2536
G01 X52.2375 Y4.2872
G01 X52.2487 Y4.2928
G01 X52.2595 Y4.2989
G01 X52.3321 Y4.3426
G01 X52.3475 Y4.3531
G01 X52.4106 Y4.3999
G01 X52.4204 Y4.4076
G01 X52.4298 Y4.4157
G01 X52.4880 Y4.4684
G01 X52.4970 Y4.4770
G01 X52.5056 Y4.4860
G01 X52.5624 Y4.5488
G01 X52.5741 Y4.5634
G01 X52.6209 Y4.6265
G01 X52.6314 Y4.6419
G01 X52.6782 Y4.7199
G01 X52.6841 Y4.7309
G01 X52.6984 Y4.7610
G01 X52.6985 Y4.4158
G01 X52.6996 Y4.3971
G01 X52.7021 Y4.3786
G01 X52.7060 Y4.3604
G01 X52.7112 Y4.3425
G01 X52.7177 Y4.3250
G01 X52.7227 Y4.3136
G01 X52.7313 Y4.2970
G01 X52.7377 Y4.2863
G01 X52.7483 Y4.2709
G01 X52.7560 Y4.2611
G01 X52.7683 Y4.2471
G01 X52.7771 Y4.2383
G01 X52.7911 Y4.2260
G01 X52.8009 Y4.2183
G01 X52.8111 Y4.2111
G01 X52.8270 Y4.2013
G01 X52.8436 Y4.1927
G01 X52.8550 Y4.1877
G01 X52.8666 Y4.1832
G01 X52.8844 Y4.1776
G01 X52.8964 Y4.1746
G01 X52.9148 Y4.1711
G01 X52.9333 Y4.1691
G01 X52.9520 Y4.1684
G01 X54.5582 Y4.1685
G01 X54.5769 Y4.1696
G01 X54.5954 Y4.1721
G01 X54.6136 Y4.1760
G01 X54.6315 Y4.1812
G01 X54.6433 Y4.1854
G01 X54.6604 Y4.1927
G01 X54.6770 Y4.2013
G01 X54.6929 Y4.2111
G01 X54.7080 Y4.2221
G01 X54.7176 Y4.2300
G01 X54.7269 Y4.2383
G01 X54.7399 Y4.2517
G01 X54.7519 Y4.2660
G01 X54.7593 Y4.2760
G01 X54.7695 Y4.2916
G01 X54.7757 Y4.3025
G01 X54.7813 Y4.3136
G01 X54.7886 Y4.3307
G01 X54.7928 Y4.3425
G01 X54.7964 Y4.3544
G01 X54.7994 Y4.3664
G01 X54.8029 Y4.3848
G01 X54.8044 Y4.3971
G01 X54.8055 Y4.4158
G01 X54.8055 Y6.0282
G01 X54.8044 Y6.0469
G01 X54.8019 Y6.0654
G01 X54.7980 Y6.0836
G01 X54.7928 Y6.1015
G01 X54.7863 Y6.1190
G01 X54.7785 Y6.1360
G01 X54.7695 Y6.1524
G01 X54.7629 Y6.1629
G01 X54.7557 Y6.1731
G01 X54.7440 Y6.1876
G01 X54.7357 Y6.1969
G01 X54.7269 Y6.2057
G01 X54.7129 Y6.2180
G01 X54.7031 Y6.2257
G01 X54.6929 Y6.2329
G01 X54.6770 Y6.2427
G01 X54.6604 Y6.2513
G01 X54.6490 Y6.2563
G01 X54.6374 Y6.2608
G01 X54.6196 Y6.2664
G01 X54.6076 Y6.2694
G01 X54.5954 Y6.2719
G01 X54.5830 Y6.2737
G01 X54.5644 Y6.2753
G01 X54.5520 Y6.2756
G01 X52.9520 Y6.2756
G01 X52.9396 Y6.2753
G01 X52.9210 Y6.2737
G01 X52.9086 Y6.2719
G01 X52.8964 Y6.2694
G01 X52.8784 Y6.2647
G01 X52.8666 Y6.2608
G01 X52.8492 Y6.2538
G01 X52.8325 Y6.2457
G01 X52.8216 Y6.2395
G01 X52.8060 Y6.2293
G01 X52.7960 Y6.2219
G01 X52.7817 Y6.2099
G01 X52.7683 Y6.1969
G01 X52.7600 Y6.1876
G01 X52.7521 Y6.1780
G01 X52.7411 Y6.1629
G01 X52.7345 Y6.1524
G01 X52.7255 Y6.1360
G01 X52.7177 Y6.1190
G01 X52.7112 Y6.1015
G01 X52.7060 Y6.0836
G01 X52.7021 Y6.0654
G01 X52.6996 Y6.0469
G01 X52.6985 Y6.0282
G01 X52.6984 Y5.6830
G01 X52.6841 Y5.7131
G01 X52.6782 Y5.7241
G01 X52.6314 Y5.8021
G01 X52.6209 Y5.8175
G01 X52.5703 Y5.8855
G01 X52.5583 Y5.8998
G01 X52.5056 Y5.9580
G01 X52.4970 Y5.9670
G01 X52.4880 Y5.9756
G01 X52.4252 Y6.0324
G01 X52.4106 Y6.0441
G01 X52.3475 Y6.0909
G01 X52.3373 Y6.0980
G01 X52.3268 Y6.1047
G01 X52.2595 Y6.1451
G01 X52.2487 Y6.1512
G01 X52.2375 Y6.1568
G01 X52.1666 Y6.1904
G01 X52.1552 Y6.1954
G01 X52.1436 Y6.1999
G01 X52.0697 Y6.2263
G01 X52.0519 Y6.2320
G01 X51.9697 Y6.2526
G01 X51.9575 Y6.2554
G01 X51.9453 Y6.2575
G01 X51.8676 Y6.2690
G01 X51.8553 Y6.2705
G01 X51.8429 Y6.2714
G01 X51.7644 Y6.2753
G01 X51.7520 Y6.2756
G01 X51.7396 Y6.2753
G01 X51.6611 Y6.2714
G01 X51.6487 Y6.2705
G01 X51.6364 Y6.2690
G01 X51.5587 Y6.2575
G01 X51.5465 Y6.2554
G01 X51.5343 Y6.2526
G01 X51.4582 Y6.2336
G01 X51.4462 Y6.2302
G01 X51.4343 Y6.2263
G01 X51.3604 Y6.1999
G01 X51.3488 Y6.1954
G01 X51.3374 Y6.1904
G01 X51.2665 Y6.1568
G01 X51.2553 Y6.1512
G01 X51.2445 Y6.1451
G01 X51.1772 Y6.1047
G01 X51.1667 Y6.0980
G01 X51.1565 Y6.0909
G01 X51.0934 Y6.0441
G01 X51.0836 Y6.0364
G01 X51.0742 Y6.0283
G01 X51.0160 Y5.9756
G01 X51.0070 Y5.9670
G01 X50.9984 Y5.9580
G01 X50.9457 Y5.8998
G01 X50.9376 Y5.8904
G01 X50.9299 Y5.8806
G01 X50.8831 Y5.8175
G01 X50.8760 Y5.8073
G01 X50.8693 Y5.7968
G01 X50.8289 Y5.7295
G01 X50.8228 Y5.7187
G01 X50.8172 Y5.7075
G01 X50.7836 Y5.6366
G01 X50.7786 Y5.6252
G01 X50.7741 Y5.6136
G01 X50.7477 Y5.5397
G01 X50.7438 Y5.5278
G01 X50.7404 Y5.5158
G01 X50.7214 Y5.4397
G01 X50.7186 Y5.4275
G01 X50.7165 Y5.4153
G01 X50.7050 Y5.3376
G01 X50.7035 Y5.3253
G01 X50.7026 Y5.3129
G01 X50.6987 Y5.2344
G01 X50.6984 Y5.2220
G01 X50.6987 Y5.2096
G01 X50.7026 Y5.1311
G01 X50.7035 Y5.1187
G01 X50.7050 Y5.1064
G01 X50.7165 Y5.0287
G01 X50.7186 Y5.0165
G01 X50.7214 Y5.0043
G01 X50.7404 Y4.9282
G01 X50.7438 Y4.9162
G01 X50.7477 Y4.9043
G01 X50.7741 Y4.8304
G01 X50.7786 Y4.8188
G01 X50.7836 Y4.8074
G01 X50.8172 Y4.7365
G01 X50.8228 Y4.7253
G01 X50.8289 Y4.7145
G01 X50.8693 Y4.6472
G01 X50.8760 Y4.6367
G01 X50.8831 Y4.6265
G01 X50.9299 Y4.5634
G01 X50.9376 Y4.5536
G01 X50.9457 Y4.5442
G01 X50.9984 Y4.4860
G01 X51.0070 Y4.4770
G01 X51.0160 Y4.4684
G01 X51.0742 Y4.4157
G01 X51.0836 Y4.4076
G01 X51.0934 Y4.3999
G01 X51.1565 Y4.3531
G01 X51.1667 Y4.3460
G01 X51.1772 Y4.3393
G01 X51.2445 Y4.2989
G01 X51.2553 Y4.2928
G01 X51.2665 Y4.2872
G01 X51.3374 Y4.2536
G01 X51.3488 Y4.2486
G01 X51.3604 Y4.2441
G01 X51.4343 Y4.2177
G01 X51.4462 Y4.2138
G01 X51.4582 Y4.2104
G01 X51.5343 Y4.1914
G01 X51.5465 Y4.1886
G01 X51.5587 Y4.1865
G01 X51.6364 Y4.1750
G01 X51.6487 Y4.1735
G01 X51.6611 Y4.1726
G01 X51.7396 Y4.1687
G00 Z2.0000
G00 X8.6927 Y22.4726
G01 F40.00
G01 Z-0.0500
G01 F35.00
G01 X8.7051 Y22.4723
G01 X8.7175 Y22.4726
G01 X8.8156 Y22.4774
G01 X8.8280 Y22.4783
G01 X8.8403 Y22.4799
G01 X8.9374 Y22.4943
G01 X8.9497 Y22.4964
G01 X8.9618 Y22.4991
G01 X9.0570 Y22.5230
G01 X9.0690 Y22.5263
G01 X9.0808 Y22.5302
G01 X9.1732 Y22.5632
G01 X9.1848 Y22.5677
G01 X9.1962 Y22.5728
G01 X9.2849 Y22.6147
G01 X9.2960 Y22.6203
G01 X9.3069 Y22.6265
G01 X9.3910 Y22.6769
G01 X9.4016 Y22.6836
G01 X9.4117 Y22.6907
G01 X9.4906 Y22.7492
G01 X9.5004 Y22.7569
G01 X9.5098 Y22.7650
G01 X9.5825 Y22.8309
G01 X9.5915 Y22.8395
G01 X9.6001 Y22.8485
G01 X9.6660 Y22.9212
G01 X9.6741 Y22.9306
G01 X9.6818 Y22.9404
G01 X9.7403 Y23.0193
G01 X9.7474 Y23.0294
G01 X9.7541 Y23.0400
G01 X9.8045 Y23.1241
G01 X9.8107 Y23.1350
G01 X9.8163 Y23.1461
G01 X9.8582 Y23.2348
G01 X9.8633 Y23.2462
G01 X9.8678 Y23.2578
G01 X9.9008 Y23.3502
G01 X9.9047 Y23.3620
G01 X9.9080 Y23.3740
G01 X9.9319 Y23.4692
G01 X9.9346 Y23.4813
G01 X9.9367 Y23.4936
G01 X9.9511 Y23.5907
G01 X9.9527 Y23.6030
G01 X9.9536 Y23.6154
G01 X9.9584 Y23.7135
G01 X9.9587 Y23.7259
G01 X9.9584 Y23.7383
G01 X9.9536 Y23.8364
G01 X9.9527 Y23.8488
G01 X9.9511 Y23.8611
G01 X9.9367 Y23.9582
G01 X9.9346 Y23.9705
G01 X9.9319 Y23.9826
G01 X9.9080 Y24.0778
G01 X9.9047 Y24.0898
G01 X9.9008 Y24.1016
G01 X9.8678 Y24.1940
G01 X9.8633 Y24.2056
G01 X9.8582 Y24.2170
G01 X9.8163 Y24.3057
G01 X9.8107 Y24.3168
G01 X9.8045 Y24.3277
G01 X9.7541 Y24.4118
G01 X9.7474 Y24.4224
G01 X9.7403 Y24.4325
G01 X9.6818 Y24.5114
G01 X9.6741 Y24.5212
G01 X9.6660 Y24.5306
G01 X9.6001 Y24.6033
G01 X9.5915 Y24.6123
G01 X9.5825 Y24.6209
G01 X9.5098 Y24.6868
G01 X9.5004 Y24.6949
G01 X9.4906 Y24.7026
G01 X9.4117 Y24.7611
G01 X9.4016 Y24.7682
G01 X9.3910 Y24.7749
G01 X9.3069 Y24.8253
G01 X9.2960 Y24.8315
G01 X9.2849 Y24.8371
G01 X9.1962 Y24.8790
G01 X9.1848 Y24.8841
G01 X9.1732 Y24.8886
G01 X9.0808 Y24.9216
G01 X9.0690 Y24.9255
G01 X9.0570 Y24.9288
G01 X8.9618 Y24.9527
G01 X8.9497 Y24.9554
G01 X8.9374 Y24.9575
G01 X8.8403 Y24.9719
G01 X8.8280 Y24.9735
G01 X8.8156 Y24.9744
G01 X8.7175 Y24.9792
G01 X8.7051 Y24.9795
G01 X8.6927 Y24.9792
G01 X8.5946 Y24.9744
G01 X8.5822 Y24.9735
G01 X8.5699 Y24.9719
G01 X8.4728 Y24.9575
G01 X8.4605 Y24.9554
G01 X8.4484 Y24.9527
G01 X8.3532 Y24.9288
G01 X8.3412 Y24.9255
G01 X8.3294 Y24.9216
G01 X8.2370 Y24.8886
G01 X8.2254 Y24.8841
G01 X8.2140 Y24.8790
G01 X8.1253 Y24.8371
G01 X8.1142 Y24.8315
G01 X8.1033 Y24.8253
G01 X8.0192 Y24.7749
G01 X8.0086 Y24.7682
G01 X7.9985 Y24.7611
G01 X7.9196 Y24.7026
G01 X7.9098 Y24.6949
G01 X7.9004 Y24.6868
G01 X7.8277 Y24.6209
G01 X7.8187 Y24.6123
G01 X7.8101 Y24.6033
G01 X7.7442 Y24.5306
G01 X7.7361 Y24.5212
G01 X7.7284 Y24.5114
G01 X7.6699 Y24.4325
G01 X7.6628 Y24.4224
G01 X7.6561 Y24.4118
G01 X7.6057 Y24.3277
G01 X7.5995 Y24.3168
G01 X7.5939 Y24.3057
G01 X7.5520 Y24.2170
G01 X7.5469 Y24.2056
G01 X7.5424 Y24.1940
G01 X7.5094 Y24.1016
G01 X7.5055 Y24.0898
G01 X7.5022 Y24.0778
G01 X7.4783 Y23.9826
G01 X7.4756 Y23.9705
G01 X7.4735 Y23.9582
G01 X7.4591 Y23.8611
G01 X7.4575 Y23.8488
G01 X7.4566 Y23.8364
G01 X7.4518 Y23.7383
G01 X7.4515 Y23.7259
G01 X7.4518 Y23.7135
G01 X7.4566 Y23.6154
G01 X7.4575 Y23.6030
G01 X7.4591 Y23.5907
G01 X7.4735 Y23.4936
G01 X7.4756 Y23.4813
G01 X7.4783 Y23.4692
G01 X7.5022 Y23.3740
G01 X7.5055 Y23.3620
G01 X7.5094 Y23.3502
G01 X7.5424 Y23.2578
G01 X7.5469 Y23.2462
G01 X7.5520 Y23.2348
G01 X7.5939 Y23.1461
G01 X7.5995 Y23.1350
G01 X7.6057 Y23.1241
G01 X7.6561 Y23.0400
G01 X7.6628 Y23.0294
G01 X7.6699 Y23.0193
G01 X7.7284 Y22.9404
G01 X7.7361 Y22.9306
G01 X7.7442 Y22.9212
G01 X7.8101 Y22.8485
G01 X7.8187 Y22.8395
G01 X7.8277 Y22.8309
G01 X7.9004 Y22.7650
G01 X7.9098 Y22.7569
G01 X7.9196 Y22.7492
G01 X7.9985 Y22.6907
G01 X8.0086 Y22.6836
G01 X8.0192 Y22.6769
G01 X8.1033 Y22.6265
G01 X8.1142 Y22.6203
G01 X8.1253 Y22.6147
G01 X8.2140 Y22.5728
G01 X8.2254 Y22.5677
G01 X8.2370 Y22.5632
G01 X8.3294 Y22.5302
G01 X8.3412 Y22.5263
G01 X8.3532 Y22.5230
G01 X8.4484 Y22.4991
G01 X8.4605 Y22.4964
G01 X8.4728 Y22.4943
G01 X8.5699 Y22.4799
G01 X8.5822 Y22.4783
G01 X8.5946 Y22.4774
G01 X8.6927 Y22.4726
G00 Z2.0000
G00 X7.1651 Y22.4723
G01 F40.00
G01 Z-0.0500
G01 F35.00
G01 X7.1775 Y22.4726
G01 X7.1900 Y22.4735
G01 X7.2023 Y22.4750
G01 X7.2146 Y22.4772
G01 X7.2267 Y22.4799
G01 X7.2387 Y22.4832
G01 X7.2505 Y22.4871
G01 X7.2621 Y22.4916
G01 X7.2735 Y22.4966
G01 X7.2846 Y22.5022
G01 X7.2955 Y22.5084
G01 X7.3060 Y22.5150
G01 X7.3162 Y22.5222
G01 X7.3260 Y22.5299
G01 X7.3400 Y22.5422
G01 X7.3530 Y22.5556
G01 X7.3611 Y22.5650
G01 X7.3688 Y22.5748
G01 X7.3760 Y22.5850
G01 X7.3826 Y22.5955
G01 X7.3888 Y22.6064
G01 X7.3944 Y22.6175
G01 X7.4017 Y22.6346
G01 X7.4059 Y22.6464
G01 X7.4095 Y22.6583
G01 X7.4125 Y22.6703
G01 X7.4150 Y22.6825
G01 X7.4168 Y22.6949
G01 X7.4180 Y22.7072
G01 X7.4187 Y22.7259
G01 X7.4186 Y24.7321
G01 X7.4180 Y24.7446
G01 X7.4168 Y24.7569
G01 X7.4138 Y24.7754
G01 X7.4111 Y24.7875
G01 X7.4078 Y24.7995
G01 X7.4039 Y24.8113
G01 X7.3994 Y24.8229
G01 X7.3916 Y24.8399
G01 X7.3858 Y24.8509
G01 X7.3794 Y24.8616
G01 X7.3688 Y24.8770
G01 X7.3611 Y24.8868
G01 X7.3530 Y24.8962
G01 X7.3444 Y24.9052
G01 X7.3354 Y24.9138
G01 X7.3260 Y24.9219
G01 X7.3162 Y24.9296
G01 X7.3060 Y24.9368
G01 X7.2955 Y24.9434
G01 X7.2846 Y24.9496
G01 X7.2679 Y24.9577
G01 X7.2564 Y24.9625
G01 X7.2446 Y24.9667
G01 X7.2327 Y24.9703
G01 X7.2207 Y24.9733
G01 X7.2023 Y24.9768
G01 X7.1900 Y24.9783
G01 X7.1775 Y24.9792
G01 X7.1651 Y24.9795
G01 X5.1589 Y24.9794
G01 X5.1464 Y24.9788
G01 X5.1341 Y24.9776
G01 X5.1156 Y24.9746
G01 X5.1035 Y24.9719
G01 X5.0915 Y24.9686
G01 X5.0797 Y24.9647
G01 X5.0681 Y24.9602
G01 X5.0511 Y24.9524
G01 X5.0401 Y24.9466
G01 X5.0294 Y24.9402
G01 X5.0140 Y24.9296
G01 X5.0042 Y24.9219
G01 X4.9948 Y24.9138
G01 X4.9814 Y24.9008
G01 X4.9731 Y24.8915
G01 X4.9652 Y24.8819
G01 X4.9578 Y24.8719
G01 X4.9508 Y24.8616
G01 X4.9444 Y24.8509
G01 X4.9386 Y24.8399
G01 X4.9333 Y24.8287
G01 X4.9285 Y24.8172
G01 X4.9243 Y24.8054
G01 X4.9207 Y24.7935
G01 X4.9177 Y24.7815
G01 X4.9152 Y24.7693
G01 X4.9134 Y24.7569
G01 X4.9118 Y24.7383
G01 X4.9115 Y24.7259
G01 X4.9116 Y22.7197
G01 X4.9127 Y22.7010
G01 X4.9142 Y22.6887
G01 X4.9164 Y22.6764
G01 X4.9191 Y22.6643
G01 X4.9224 Y22.6523
G01 X4.9263 Y22.6405
G01 X4.9308 Y22.6289
G01 X4.9386 Y22.6119
G01 X4.9444 Y22.6009
G01 X4.9508 Y22.5902
G01 X4.9578 Y22.5799
G01 X4.9652 Y22.5699
G01 X4.9772 Y22.5556
G01 X4.9858 Y22.5466
G01 X4.9948 Y22.5380
G01 X5.0042 Y22.5299
G01 X5.0140 Y22.5222
G01 X5.0242 Y22.5150
G01 X5.0347 Y22.5084
G01 X5.0456 Y22.5022
G01 X5.0567 Y22.4966
G01 X5.0681 Y22.4916
G01 X5.0797 Y22.4871
G01 X5.0915 Y22.4832
G01 X5.1035 Y22.4799
G01 X5.1156 Y22.4772
G01 X5.1279 Y22.4750
G01 X5.1402 Y22.4735
G01 X5.1527 Y22.4726
G01 X5.1651 Y22.4723
G01 X7.1651 Y22.4723
G00 Z2.0000
M05
G00 Z2.0000
G00 Z15.00


