( pcb2gcode 2.1.0 )
( Software-independent Gcode )

G94 ( Millimeters per minute feed rate. )
G21 ( Units == Millimeters. )

G90 ( Absolute coordinates. )
G00 S10000 ( RPM spindle speed. )
G64 P0.01016 ( set maximum deviation from commanded toolpath )
G01 F100.00000 ( Feedrate. )


G00 Z10.00000 (Retract to tool change height)
T0
M5      (Spindle stop.)
G04 P1.00000 (Wait for spindle to stop)
(MSG, Change tool bit to mill diameter 0.12000mm)
M6      (Tool change.)
M0      (Temporary machine stop.)
M3 ( Spindle on clockwise. )
G04 P1.00000 (Wait for spindle to get up to speed)
G04 P0 ( dwell for no time -- G64 should not smooth over this point )
G00 Z5.00000 ( retract )

G00 X-6.58299 Y4.50698 ( rapid move to begin. )
G01 F40.00000
( Mill infeed pass 1/1 )
G01 Z-0.00500
G04 P0 ( dwell for no time -- G64 should not smooth over this point )
G01 F100.00000
G01 X-6.58299 Y4.50698
G01 X-6.58299 Y5.98699
G01 X-8.06300 Y5.98699
G01 X-8.06300 Y4.50698
G01 X-6.58299 Y4.50698
G01 X-6.65411 Y4.57810
G01 X-6.65411 Y5.91587
G01 X-6.63328 Y5.93670
G01 X-6.65411 Y5.91587
G01 X-7.99187 Y5.91587
G01 X-8.01270 Y5.93670
G01 X-7.99187 Y5.91587
G01 X-7.99187 Y4.57810
G01 X-8.01270 Y4.55727
G01 X-7.99187 Y4.57810
G01 X-6.65411 Y4.57810
G01 X-6.72520 Y4.64920
G01 X-6.72520 Y5.84477
G01 X-6.70437 Y5.86560
G01 X-6.72520 Y5.84477
G01 X-7.92078 Y5.84477
G01 X-7.94158 Y5.86560
G01 X-7.92078 Y5.84477
G01 X-7.92078 Y4.64920
G01 X-7.94158 Y4.62837
G01 X-7.92078 Y4.64920
G01 X-6.72520 Y4.64920
G01 X-6.79632 Y4.72032
G01 X-6.79632 Y5.77365
G01 X-6.77549 Y5.79448
G01 X-6.79632 Y5.77365
G01 X-7.84966 Y5.77365
G01 X-7.87049 Y5.79448
G01 X-7.84966 Y5.77365
G01 X-7.84966 Y4.72032
G01 X-7.87049 Y4.69949
G01 X-7.84966 Y4.72032
G01 X-6.79632 Y4.72032
G01 X-6.86742 Y4.79144
G01 X-6.86742 Y5.70256
G01 X-6.84659 Y5.72339
G01 X-6.86742 Y5.70256
G01 X-7.77854 Y5.70256
G01 X-7.79937 Y5.72339
G01 X-7.77854 Y5.70256
G01 X-7.77854 Y4.79144
G01 X-7.79937 Y4.77061
G01 X-7.77854 Y4.79144
G01 X-6.86742 Y4.79144
G01 X-6.93854 Y4.86253
G01 X-6.93854 Y5.63144
G01 X-6.91771 Y5.65227
G01 X-6.93854 Y5.63144
G01 X-7.70745 Y5.63144
G01 X-7.72827 Y5.65227
G01 X-7.70745 Y5.63144
G01 X-7.70745 Y4.86253
G01 X-7.72827 Y4.84170
G01 X-7.70745 Y4.86253
G01 X-6.93854 Y4.86253
G01 X-7.00966 Y4.93365
G01 X-7.00966 Y5.56032
G01 X-6.98883 Y5.58115
G01 X-7.00966 Y5.56032
G01 X-7.63633 Y5.56032
G01 X-7.65715 Y5.58115
G01 X-7.63633 Y5.56032
G01 X-7.63633 Y4.93365
G01 X-7.65715 Y4.91282
G01 X-7.63633 Y4.93365
G01 X-7.00966 Y4.93365
G01 X-7.08075 Y5.00475
G01 X-7.08075 Y5.48923
G01 X-7.05992 Y5.51005
G01 X-7.08075 Y5.48923
G01 X-7.56523 Y5.48923
G01 X-7.58606 Y5.51005
G01 X-7.56523 Y5.48923
G01 X-7.56523 Y5.00475
G01 X-7.58606 Y4.98392
G01 X-7.56523 Y5.00475
G01 X-7.08075 Y5.00475
G01 X-7.15187 Y5.07587
G01 X-7.15187 Y5.41811
G01 X-7.13104 Y5.43893
G01 X-7.15187 Y5.41811
G01 X-7.49411 Y5.41811
G01 X-7.51494 Y5.43893
G01 X-7.49411 Y5.41811
G01 X-7.49411 Y5.07587
G01 X-7.51494 Y5.05504
G01 X-7.49411 Y5.07587
G01 X-7.15187 Y5.07587
G01 X-7.22297 Y5.14696
G01 X-7.22297 Y5.34701
G01 X-7.20214 Y5.36784
G01 X-7.22297 Y5.34701
G01 X-7.42302 Y5.34701
G01 X-7.44384 Y5.36784
G01 X-7.42302 Y5.34701
G01 X-7.42302 Y5.14696
G01 X-7.44384 Y5.12616
G01 X-7.42302 Y5.14696
G01 X-7.22297 Y5.14696
G01 X-7.29409 Y5.21808
G01 X-7.29409 Y5.27589
G01 X-7.27326 Y5.29672
G01 X-7.29409 Y5.27589
G01 X-7.35190 Y5.27589
G01 X-7.37272 Y5.29672
G01 X-7.35190 Y5.27589
G01 X-7.35190 Y5.21808
G01 X-7.37272 Y5.19725
G01 X-7.35190 Y5.21808
G01 X-7.29409 Y5.21808
G04 P0 ( dwell for no time -- G64 should not smooth over this point )
G00 Z5.00000 ( retract )

G00 X-8.58331 Y5.24699 ( rapid move to begin. )
G01 F40.00000
( Mill infeed pass 1/1 )
G01 Z-0.00500
G04 P0 ( dwell for no time -- G64 should not smooth over this point )
G01 F100.00000
G01 X-8.58331 Y5.24699
G01 X-8.59947 Y5.09321
G01 X-8.64727 Y4.94615
G01 X-8.72459 Y4.81221
G01 X-8.82804 Y4.69730
G01 X-8.95316 Y4.60642
G01 X-9.09444 Y4.54351
G01 X-9.24570 Y4.51138
G01 X-9.40028 Y4.51138
G01 X-9.55154 Y4.54351
G01 X-9.69281 Y4.60642
G01 X-9.81791 Y4.69730
G01 X-9.92139 Y4.81221
G01 X-9.99870 Y4.94615
G01 X-10.04648 Y5.09319
G01 X-10.06266 Y5.24699
G01 X-10.04648 Y5.40078
G01 X-9.99870 Y5.54785
G01 X-9.92139 Y5.68176
G01 X-9.81793 Y5.79667
G01 X-9.69281 Y5.88755
G01 X-9.55154 Y5.95046
G01 X-9.40030 Y5.98260
G01 X-9.24567 Y5.98260
G01 X-9.09444 Y5.95046
G01 X-8.95316 Y5.88755
G01 X-8.82804 Y5.79667
G01 X-8.72459 Y5.68176
G01 X-8.64727 Y5.54785
G01 X-8.59949 Y5.40078
G01 X-8.58331 Y5.24699
G01 X-8.65481 Y5.24699
G01 X-8.66942 Y5.10807
G01 X-8.66904 Y5.10797
G01 X-8.66942 Y5.10807
G01 X-8.71257 Y4.97523
G01 X-8.71222 Y4.97505
G01 X-8.71257 Y4.97523
G01 X-8.78242 Y4.85425
G01 X-8.78212 Y4.85402
G01 X-8.78242 Y4.85425
G01 X-8.87590 Y4.75044
G01 X-8.87564 Y4.75016
G01 X-8.87590 Y4.75044
G01 X-8.98893 Y4.66832
G01 X-8.98872 Y4.66799
G01 X-8.98893 Y4.66832
G01 X-9.11651 Y4.61153
G01 X-9.11638 Y4.61115
G01 X-9.11651 Y4.61153
G01 X-9.25314 Y4.58247
G01 X-9.25309 Y4.58209
G01 X-9.25314 Y4.58247
G01 X-9.39284 Y4.58247
G01 X-9.39289 Y4.58209
G01 X-9.39284 Y4.58247
G01 X-9.52946 Y4.61153
G01 X-9.52959 Y4.61115
G01 X-9.52946 Y4.61153
G01 X-9.65707 Y4.66832
G01 X-9.65728 Y4.66799
G01 X-9.65707 Y4.66832
G01 X-9.77008 Y4.75044
G01 X-9.77033 Y4.75016
G01 X-9.77008 Y4.75044
G01 X-9.86352 Y4.85423
G01 X-9.86385 Y4.85400
G01 X-9.86352 Y4.85423
G01 X-9.93340 Y4.97523
G01 X-9.93376 Y4.97505
G01 X-9.93340 Y4.97523
G01 X-9.97655 Y5.10807
G01 X-9.97694 Y5.10800
G01 X-9.97655 Y5.10807
G01 X-9.99116 Y5.24699
G01 X-9.99154 Y5.24699
G01 X-9.99116 Y5.24699
G01 X-9.97655 Y5.38590
G01 X-9.97694 Y5.38597
G01 X-9.97655 Y5.38590
G01 X-9.93340 Y5.51874
G01 X-9.93376 Y5.51889
G01 X-9.93340 Y5.51874
G01 X-9.86355 Y5.63975
G01 X-9.86385 Y5.63997
G01 X-9.86355 Y5.63975
G01 X-9.77008 Y5.74356
G01 X-9.77033 Y5.74384
G01 X-9.77008 Y5.74356
G01 X-9.65707 Y5.82565
G01 X-9.65728 Y5.82598
G01 X-9.65707 Y5.82565
G01 X-9.52946 Y5.88244
G01 X-9.52959 Y5.88282
G01 X-9.52946 Y5.88244
G01 X-9.39284 Y5.91150
G01 X-9.39289 Y5.91188
G01 X-9.39284 Y5.91150
G01 X-9.25314 Y5.91150
G01 X-9.25309 Y5.91188
G01 X-9.25314 Y5.91150
G01 X-9.11651 Y5.88244
G01 X-9.11638 Y5.88282
G01 X-9.11651 Y5.88244
G01 X-8.98893 Y5.82565
G01 X-8.98872 Y5.82598
G01 X-8.98893 Y5.82565
G01 X-8.87590 Y5.74353
G01 X-8.87564 Y5.74384
G01 X-8.87590 Y5.74353
G01 X-8.78242 Y5.63972
G01 X-8.78212 Y5.63995
G01 X-8.78242 Y5.63972
G01 X-8.71257 Y5.51874
G01 X-8.71222 Y5.51889
G01 X-8.71257 Y5.51874
G01 X-8.66942 Y5.38590
G01 X-8.66904 Y5.38597
G01 X-8.66942 Y5.38590
G01 X-8.65481 Y5.24699
G01 X-8.72632 Y5.24699
G01 X-8.73935 Y5.12293
G01 X-8.73897 Y5.12286
G01 X-8.73935 Y5.12293
G01 X-8.77790 Y5.00429
G01 X-8.77755 Y5.00414
G01 X-8.77790 Y5.00429
G01 X-8.84026 Y4.89629
G01 X-8.83996 Y4.89606
G01 X-8.84026 Y4.89629
G01 X-8.92375 Y4.80358
G01 X-8.92347 Y4.80327
G01 X-8.92375 Y4.80358
G01 X-9.02464 Y4.73027
G01 X-9.02444 Y4.72992
G01 X-9.02464 Y4.73027
G01 X-9.13861 Y4.67952
G01 X-9.13848 Y4.67914
G01 X-9.13861 Y4.67952
G01 X-9.26060 Y4.65359
G01 X-9.26058 Y4.65321
G01 X-9.26060 Y4.65359
G01 X-9.38537 Y4.65359
G01 X-9.38540 Y4.65321
G01 X-9.38537 Y4.65359
G01 X-9.50737 Y4.67952
G01 X-9.50749 Y4.67914
G01 X-9.50737 Y4.67952
G01 X-9.62134 Y4.73027
G01 X-9.62154 Y4.72992
G01 X-9.62134 Y4.73027
G01 X-9.72222 Y4.80358
G01 X-9.72250 Y4.80327
G01 X-9.72222 Y4.80358
G01 X-9.80571 Y4.89629
G01 X-9.80602 Y4.89606
G01 X-9.80571 Y4.89629
G01 X-9.86807 Y5.00431
G01 X-9.86843 Y5.00414
G01 X-9.86807 Y5.00431
G01 X-9.90663 Y5.12293
G01 X-9.90701 Y5.12286
G01 X-9.90663 Y5.12293
G01 X-9.91966 Y5.24699
G01 X-9.92004 Y5.24699
G01 X-9.91966 Y5.24699
G01 X-9.90663 Y5.37104
G01 X-9.90701 Y5.37112
G01 X-9.90663 Y5.37104
G01 X-9.86807 Y5.48968
G01 X-9.86843 Y5.48984
G01 X-9.86807 Y5.48968
G01 X-9.80571 Y5.59768
G01 X-9.80602 Y5.59791
G01 X-9.80571 Y5.59768
G01 X-9.72225 Y5.69039
G01 X-9.72250 Y5.69067
G01 X-9.72225 Y5.69039
G01 X-9.62131 Y5.76372
G01 X-9.62151 Y5.76405
G01 X-9.62131 Y5.76372
G01 X-9.50737 Y5.81445
G01 X-9.50749 Y5.81483
G01 X-9.50737 Y5.81445
G01 X-9.38537 Y5.84038
G01 X-9.38540 Y5.84076
G01 X-9.38537 Y5.84038
G01 X-9.26060 Y5.84038
G01 X-9.26058 Y5.84076
G01 X-9.26060 Y5.84038
G01 X-9.13861 Y5.81445
G01 X-9.13848 Y5.81483
G01 X-9.13861 Y5.81445
G01 X-9.02466 Y5.76372
G01 X-9.02446 Y5.76405
G01 X-9.02466 Y5.76372
G01 X-8.92372 Y5.69039
G01 X-8.92347 Y5.69067
G01 X-8.92372 Y5.69039
G01 X-8.84026 Y5.59768
G01 X-8.83996 Y5.59791
G01 X-8.84026 Y5.59768
G01 X-8.77790 Y5.48971
G01 X-8.77755 Y5.48986
G01 X-8.77790 Y5.48971
G01 X-8.73935 Y5.37104
G01 X-8.73897 Y5.37112
G01 X-8.73935 Y5.37104
G01 X-8.72632 Y5.24699
G01 X-8.79782 Y5.24699
G01 X-8.80930 Y5.13782
G01 X-8.80892 Y5.13772
G01 X-8.80930 Y5.13782
G01 X-8.84323 Y5.03337
G01 X-8.84288 Y5.03322
G01 X-8.84323 Y5.03337
G01 X-8.89812 Y4.93833
G01 X-8.89779 Y4.93810
G01 X-8.89812 Y4.93833
G01 X-8.97158 Y4.85671
G01 X-8.97132 Y4.85644
G01 X-8.97158 Y4.85671
G01 X-9.06040 Y4.79217
G01 X-9.06022 Y4.79184
G01 X-9.06040 Y4.79217
G01 X-9.16071 Y4.74752
G01 X-9.16058 Y4.74716
G01 X-9.16071 Y4.74752
G01 X-9.26810 Y4.72469
G01 X-9.26805 Y4.72430
G01 X-9.26810 Y4.72469
G01 X-9.37788 Y4.72469
G01 X-9.37793 Y4.72430
G01 X-9.37788 Y4.72469
G01 X-9.48527 Y4.74752
G01 X-9.48540 Y4.74714
G01 X-9.48527 Y4.74752
G01 X-9.58557 Y4.79217
G01 X-9.58578 Y4.79184
G01 X-9.58557 Y4.79217
G01 X-9.67440 Y4.85671
G01 X-9.67465 Y4.85644
G01 X-9.67440 Y4.85671
G01 X-9.74785 Y4.93830
G01 X-9.74816 Y4.93807
G01 X-9.74785 Y4.93830
G01 X-9.80274 Y5.03337
G01 X-9.80310 Y5.03322
G01 X-9.80274 Y5.03337
G01 X-9.83668 Y5.13779
G01 X-9.83706 Y5.13769
G01 X-9.83668 Y5.13779
G01 X-9.84816 Y5.24699
G01 X-9.84854 Y5.24699
G01 X-9.84816 Y5.24699
G01 X-9.83668 Y5.35618
G01 X-9.83706 Y5.35628
G01 X-9.83668 Y5.35618
G01 X-9.80274 Y5.46060
G01 X-9.80310 Y5.46075
G01 X-9.80274 Y5.46060
G01 X-9.74785 Y5.55567
G01 X-9.74816 Y5.55590
G01 X-9.74785 Y5.55567
G01 X-9.67440 Y5.63726
G01 X-9.67465 Y5.63754
G01 X-9.67440 Y5.63726
G01 X-9.58557 Y5.70180
G01 X-9.58578 Y5.70213
G01 X-9.58557 Y5.70180
G01 X-9.48527 Y5.74645
G01 X-9.48540 Y5.74683
G01 X-9.48527 Y5.74645
G01 X-9.37788 Y5.76929
G01 X-9.37793 Y5.76967
G01 X-9.37788 Y5.76929
G01 X-9.26810 Y5.76929
G01 X-9.26805 Y5.76967
G01 X-9.26810 Y5.76929
G01 X-9.16071 Y5.74645
G01 X-9.16058 Y5.74683
G01 X-9.16071 Y5.74645
G01 X-9.06040 Y5.70180
G01 X-9.06022 Y5.70213
G01 X-9.06040 Y5.70180
G01 X-8.97158 Y5.63726
G01 X-8.97132 Y5.63756
G01 X-8.97158 Y5.63726
G01 X-8.89810 Y5.55567
G01 X-8.89779 Y5.55590
G01 X-8.89810 Y5.55567
G01 X-8.84323 Y5.46060
G01 X-8.84288 Y5.46075
G01 X-8.84323 Y5.46060
G01 X-8.80930 Y5.35618
G01 X-8.80892 Y5.35626
G01 X-8.80930 Y5.35618
G01 X-8.79782 Y5.24699
G01 X-8.86932 Y5.24699
G01 X-8.87922 Y5.15265
G01 X-8.90854 Y5.06245
G01 X-8.90772 Y5.06215
G01 X-8.90854 Y5.06245
G01 X-8.95596 Y4.98031
G01 X-8.95527 Y4.97975
G01 X-8.95596 Y4.98031
G01 X-9.01941 Y4.90985
G01 X-9.09614 Y4.85410
G01 X-9.09535 Y4.85273
G01 X-9.09614 Y4.85410
G01 X-9.18278 Y4.81552
G01 X-9.27559 Y4.79581
G01 X-9.27541 Y4.79423
G01 X-9.27559 Y4.79581
G01 X-9.37038 Y4.79581
G01 X-9.46320 Y4.81554
G01 X-9.46368 Y4.81402
G01 X-9.46320 Y4.81554
G01 X-9.54981 Y4.85410
G01 X-9.62654 Y4.90985
G01 X-9.62761 Y4.90866
G01 X-9.62654 Y4.90985
G01 X-9.69002 Y4.98034
G01 X-9.73744 Y5.06248
G01 X-9.73889 Y5.06182
G01 X-9.73744 Y5.06248
G01 X-9.76673 Y5.15265
G01 X-9.77666 Y5.24699
G01 X-9.77823 Y5.24699
G01 X-9.77666 Y5.24699
G01 X-9.76673 Y5.34132
G01 X-9.73744 Y5.43152
G01 X-9.73825 Y5.43182
G01 X-9.73744 Y5.43152
G01 X-9.69002 Y5.51366
G01 X-9.69070 Y5.51419
G01 X-9.69002 Y5.51366
G01 X-9.62654 Y5.58412
G01 X-9.54981 Y5.63987
G01 X-9.55060 Y5.64124
G01 X-9.54981 Y5.63987
G01 X-9.46317 Y5.67846
G01 X-9.37041 Y5.69817
G01 X-9.37059 Y5.69974
G01 X-9.37041 Y5.69817
G01 X-9.27557 Y5.69817
G01 X-9.18280 Y5.67846
G01 X-9.18232 Y5.67995
G01 X-9.18280 Y5.67846
G01 X-9.09617 Y5.63987
G01 X-9.01941 Y5.58412
G01 X-9.01834 Y5.58529
G01 X-9.01941 Y5.58412
G01 X-8.95598 Y5.51366
G01 X-8.90854 Y5.43152
G01 X-8.90709 Y5.43215
G01 X-8.90854 Y5.43152
G01 X-8.87925 Y5.34132
G01 X-8.86932 Y5.24699
G01 X-8.94082 Y5.24699
G01 X-8.94918 Y5.16753
G01 X-8.97386 Y5.09156
G01 X-8.97242 Y5.09090
G01 X-8.97386 Y5.09156
G01 X-9.01382 Y5.02235
G01 X-9.06726 Y4.96299
G01 X-9.06622 Y4.96179
G01 X-9.06726 Y4.96299
G01 X-9.13190 Y4.91602
G01 X-9.20490 Y4.88354
G01 X-9.20439 Y4.88201
G01 X-9.20490 Y4.88354
G01 X-9.28306 Y4.86693
G01 X-9.36292 Y4.86693
G01 X-9.36309 Y4.86533
G01 X-9.36292 Y4.86693
G01 X-9.44107 Y4.88354
G01 X-9.51407 Y4.91602
G01 X-9.51486 Y4.91465
G01 X-9.51407 Y4.91602
G01 X-9.57871 Y4.96299
G01 X-9.63216 Y5.02235
G01 X-9.63284 Y5.02179
G01 X-9.63216 Y5.02235
G01 X-9.67211 Y5.09156
G01 X-9.67295 Y5.09123
G01 X-9.67211 Y5.09156
G01 X-9.69680 Y5.16753
G01 X-9.70516 Y5.24699
G01 X-9.70673 Y5.24699
G01 X-9.70516 Y5.24699
G01 X-9.69680 Y5.32644
G01 X-9.67211 Y5.40243
G01 X-9.67356 Y5.40307
G01 X-9.67211 Y5.40243
G01 X-9.63216 Y5.47162
G01 X-9.57869 Y5.53098
G01 X-9.57976 Y5.53218
G01 X-9.57869 Y5.53098
G01 X-9.51407 Y5.57795
G01 X-9.44107 Y5.61043
G01 X-9.44158 Y5.61196
G01 X-9.44107 Y5.61043
G01 X-9.36292 Y5.62707
G01 X-9.28306 Y5.62707
G01 X-9.28288 Y5.62865
G01 X-9.28306 Y5.62707
G01 X-9.20490 Y5.61043
G01 X-9.13190 Y5.57795
G01 X-9.13112 Y5.57932
G01 X-9.13190 Y5.57795
G01 X-9.06726 Y5.53098
G01 X-9.01382 Y5.47162
G01 X-9.01313 Y5.47218
G01 X-9.01382 Y5.47162
G01 X-8.97386 Y5.40243
G01 X-8.97303 Y5.40274
G01 X-8.97386 Y5.40243
G01 X-8.94918 Y5.32644
G01 X-8.94082 Y5.24699
G01 X-9.01232 Y5.24699
G01 X-9.01910 Y5.18242
G01 X-9.01755 Y5.18209
G01 X-9.01910 Y5.18242
G01 X-9.03919 Y5.12062
G01 X-9.07165 Y5.06439
G01 X-9.07036 Y5.06347
G01 X-9.07165 Y5.06439
G01 X-9.11511 Y5.01610
G01 X-9.16767 Y4.97795
G01 X-9.16685 Y4.97658
G01 X-9.16767 Y4.97795
G01 X-9.22698 Y4.95153
G01 X-9.29053 Y4.93802
G01 X-9.29035 Y4.93645
G01 X-9.29053 Y4.93802
G01 X-9.35545 Y4.93802
G01 X-9.41900 Y4.95153
G01 X-9.41948 Y4.95001
G01 X-9.41900 Y4.95153
G01 X-9.47831 Y4.97795
G01 X-9.53084 Y5.01610
G01 X-9.53139 Y5.01541
G01 X-9.53084 Y5.01610
G01 X-9.57432 Y5.06439
G01 X-9.57506 Y5.06390
G01 X-9.57432 Y5.06439
G01 X-9.60678 Y5.12062
G01 X-9.62687 Y5.18242
G01 X-9.62842 Y5.18209
G01 X-9.62687 Y5.18242
G01 X-9.63365 Y5.24699
G01 X-9.62687 Y5.31155
G01 X-9.62842 Y5.31188
G01 X-9.62687 Y5.31155
G01 X-9.60678 Y5.37335
G01 X-9.57432 Y5.42959
G01 X-9.57562 Y5.43053
G01 X-9.57432 Y5.42959
G01 X-9.53086 Y5.47787
G01 X-9.47831 Y5.51602
G01 X-9.47912 Y5.51739
G01 X-9.47831 Y5.51602
G01 X-9.41900 Y5.54244
G01 X-9.35545 Y5.55595
G01 X-9.35563 Y5.55753
G01 X-9.35545 Y5.55595
G01 X-9.29053 Y5.55595
G01 X-9.22698 Y5.54244
G01 X-9.22649 Y5.54396
G01 X-9.22698 Y5.54244
G01 X-9.16767 Y5.51602
G01 X-9.11514 Y5.47787
G01 X-9.11458 Y5.47856
G01 X-9.11514 Y5.47787
G01 X-9.07165 Y5.42959
G01 X-9.07092 Y5.43007
G01 X-9.07165 Y5.42959
G01 X-9.03919 Y5.37335
G01 X-9.01910 Y5.31155
G01 X-9.01755 Y5.31188
G01 X-9.01910 Y5.31155
G01 X-9.01232 Y5.24699
G01 X-9.08382 Y5.24699
G01 X-9.08905 Y5.19728
G01 X-9.08750 Y5.19695
G01 X-9.08905 Y5.19728
G01 X-9.10450 Y5.14973
G01 X-9.12949 Y5.10642
G01 X-9.12822 Y5.10548
G01 X-9.12949 Y5.10642
G01 X-9.16294 Y5.06926
G01 X-9.20343 Y5.03985
G01 X-9.20295 Y5.03911
G01 X-9.20343 Y5.03985
G01 X-9.24910 Y5.01953
G01 X-9.24887 Y5.01867
G01 X-9.24910 Y5.01953
G01 X-9.29799 Y5.00914
G01 X-9.34798 Y5.00914
G01 X-9.34816 Y5.00757
G01 X-9.34798 Y5.00914
G01 X-9.39688 Y5.01953
G01 X-9.44257 Y5.03987
G01 X-9.44336 Y5.03848
G01 X-9.44257 Y5.03987
G01 X-9.48301 Y5.06926
G01 X-9.51648 Y5.10642
G01 X-9.51775 Y5.10548
G01 X-9.51648 Y5.10642
G01 X-9.54148 Y5.14973
G01 X-9.55692 Y5.19725
G01 X-9.55779 Y5.19702
G01 X-9.55692 Y5.19725
G01 X-9.56215 Y5.24699
G01 X-9.56304 Y5.24704
G01 X-9.56215 Y5.24699
G01 X-9.55692 Y5.29672
G01 X-9.54148 Y5.34427
G01 X-9.54293 Y5.34490
G01 X-9.54148 Y5.34427
G01 X-9.51648 Y5.38758
G01 X-9.48301 Y5.42471
G01 X-9.48407 Y5.42590
G01 X-9.48301 Y5.42471
G01 X-9.44257 Y5.45410
G01 X-9.39690 Y5.47444
G01 X-9.39738 Y5.47594
G01 X-9.39690 Y5.47444
G01 X-9.34798 Y5.48483
G01 X-9.29799 Y5.48483
G01 X-9.29782 Y5.48641
G01 X-9.29799 Y5.48483
G01 X-9.24907 Y5.47444
G01 X-9.20343 Y5.45412
G01 X-9.20262 Y5.45549
G01 X-9.20343 Y5.45412
G01 X-9.16294 Y5.42471
G01 X-9.12949 Y5.38758
G01 X-9.12822 Y5.38849
G01 X-9.12949 Y5.38758
G01 X-9.10450 Y5.34427
G01 X-9.08905 Y5.29672
G01 X-9.08750 Y5.29705
G01 X-9.08905 Y5.29672
G01 X-9.08382 Y5.24699
G01 X-9.15532 Y5.24699
G01 X-9.15898 Y5.21211
G01 X-9.16983 Y5.17879
G01 X-9.16838 Y5.17815
G01 X-9.16983 Y5.17879
G01 X-9.18735 Y5.14843
G01 X-9.21080 Y5.12240
G01 X-9.20973 Y5.12121
G01 X-9.21080 Y5.12240
G01 X-9.23914 Y5.10180
G01 X-9.27117 Y5.08752
G01 X-9.27069 Y5.08603
G01 X-9.27117 Y5.08752
G01 X-9.30546 Y5.08024
G01 X-9.34051 Y5.08024
G01 X-9.34067 Y5.07866
G01 X-9.34051 Y5.08024
G01 X-9.37480 Y5.08752
G01 X-9.40683 Y5.10180
G01 X-9.40762 Y5.10043
G01 X-9.40683 Y5.10180
G01 X-9.43518 Y5.12240
G01 X-9.45862 Y5.14843
G01 X-9.46073 Y5.14706
G01 X-9.45862 Y5.14843
G01 X-9.47615 Y5.17879
G01 X-9.48697 Y5.21214
G01 X-9.49065 Y5.24699
G01 X-9.49314 Y5.24686
G01 X-9.49065 Y5.24699
G01 X-9.48697 Y5.28186
G01 X-9.47615 Y5.31516
G01 X-9.47760 Y5.31582
G01 X-9.47615 Y5.31516
G01 X-9.45862 Y5.34554
G01 X-9.43518 Y5.37157
G01 X-9.43625 Y5.37277
G01 X-9.43518 Y5.37157
G01 X-9.40683 Y5.39217
G01 X-9.37480 Y5.40645
G01 X-9.37529 Y5.40795
G01 X-9.37480 Y5.40645
G01 X-9.34051 Y5.41374
G01 X-9.30546 Y5.41374
G01 X-9.30508 Y5.41620
G01 X-9.30546 Y5.41374
G01 X-9.27117 Y5.40645
G01 X-9.23917 Y5.39220
G01 X-9.21080 Y5.37157
G01 X-9.20922 Y5.37353
G01 X-9.21080 Y5.37157
G01 X-9.18735 Y5.34554
G01 X-9.16983 Y5.31518
G01 X-9.16838 Y5.31582
G01 X-9.16983 Y5.31518
G01 X-9.15900 Y5.28186
G01 X-9.15532 Y5.24699
G01 X-9.22682 Y5.24699
G01 X-9.22893 Y5.22700
G01 X-9.22405 Y5.22568
G01 X-9.22893 Y5.22700
G01 X-9.23515 Y5.20787
G01 X-9.24519 Y5.19047
G01 X-9.25865 Y5.17554
G01 X-9.27491 Y5.16370
G01 X-9.27155 Y5.15788
G01 X-9.27491 Y5.16370
G01 X-9.29327 Y5.15555
G01 X-9.31293 Y5.15135
G01 X-9.33305 Y5.15135
G01 X-9.35271 Y5.15555
G01 X-9.35479 Y5.14915
G01 X-9.35271 Y5.15555
G01 X-9.37107 Y5.16370
G01 X-9.38733 Y5.17554
G01 X-9.40079 Y5.19047
G01 X-9.41085 Y5.20790
G01 X-9.41534 Y5.20558
G01 X-9.41085 Y5.20790
G01 X-9.41704 Y5.22700
G01 X-9.41915 Y5.24699
G01 X-9.41704 Y5.26700
G01 X-9.42192 Y5.26830
G01 X-9.41704 Y5.26700
G01 X-9.41085 Y5.28608
G01 X-9.40076 Y5.30353
G01 X-9.38733 Y5.31844
G01 X-9.37107 Y5.33027
G01 X-9.37442 Y5.33609
G01 X-9.37107 Y5.33027
G01 X-9.35271 Y5.33845
G01 X-9.33307 Y5.34262
G01 X-9.31290 Y5.34262
G01 X-9.29327 Y5.33843
G01 X-9.29119 Y5.34483
G01 X-9.29327 Y5.33843
G01 X-9.27491 Y5.33027
G01 X-9.25865 Y5.31844
G01 X-9.24521 Y5.30353
G01 X-9.23513 Y5.28610
G01 X-9.23063 Y5.28839
G01 X-9.23513 Y5.28610
G01 X-9.22893 Y5.26698
G01 X-9.22682 Y5.24699
G01 X-9.26977 Y5.23726
G01 X-9.29886 Y5.24186
G01 X-9.30046 Y5.23695
G01 X-9.30302 Y5.23251
G01 X-9.30650 Y5.22865
G01 X-9.31064 Y5.22565
G01 X-9.31537 Y5.22354
G01 X-9.32042 Y5.22247
G01 X-9.32555 Y5.22247
G01 X-9.33018 Y5.19337
G01 X-9.32555 Y5.22247
G01 X-9.33061 Y5.22354
G01 X-9.33533 Y5.22565
G01 X-9.33947 Y5.22865
G01 X-9.34295 Y5.23251
G01 X-9.34552 Y5.23695
G01 X-9.34712 Y5.24186
G01 X-9.34765 Y5.24699
G01 X-9.34712 Y5.25212
G01 X-9.37620 Y5.25671
G01 X-9.34712 Y5.25212
G01 X-9.34552 Y5.25702
G01 X-9.34295 Y5.26146
G01 X-9.33947 Y5.26532
G01 X-9.33533 Y5.26835
G01 X-9.33058 Y5.27043
G01 X-9.32555 Y5.27150
G01 X-9.32042 Y5.27150
G01 X-9.31580 Y5.30061
G01 X-9.32042 Y5.27150
G01 X-9.31539 Y5.27043
G01 X-9.31064 Y5.26835
G01 X-9.30650 Y5.26532
G01 X-9.30302 Y5.26146
G01 X-9.30046 Y5.25702
G01 X-9.29886 Y5.25212
G01 X-9.29832 Y5.24699
G01 X-9.29886 Y5.24186
G04 P0 ( dwell for no time -- G64 should not smooth over this point )
G00 Z5.00000 ( retract )

G00 X-16.84075 Y5.95819 ( rapid move to begin. )
G01 F40.00000
( Mill infeed pass 1/1 )
G01 Z-0.00500
G04 P0 ( dwell for no time -- G64 should not smooth over this point )
G01 F100.00000
G01 X-16.84075 Y5.95819
G01 X-16.88025 Y5.95819
G01 X-16.88922 Y5.95387
G01 X-16.93918 Y5.91757
G01 X-16.98185 Y5.87292
G01 X-17.01589 Y5.82138
G01 X-17.04014 Y5.76461
G01 X-17.06364 Y5.69232
G01 X-17.13196 Y5.57396
G01 X-17.13143 Y5.57360
G01 X-17.13196 Y5.57396
G01 X-17.22340 Y5.47241
G01 X-17.22315 Y5.47213
G01 X-17.22340 Y5.47241
G01 X-17.33394 Y5.39210
G01 X-17.33377 Y5.39177
G01 X-17.33394 Y5.39210
G01 X-17.45881 Y5.33652
G01 X-17.45868 Y5.33614
G01 X-17.45881 Y5.33652
G01 X-17.59247 Y5.30810
G01 X-17.59244 Y5.30772
G01 X-17.59247 Y5.30810
G01 X-17.72909 Y5.30810
G01 X-17.72914 Y5.30772
G01 X-17.72909 Y5.30810
G01 X-17.86277 Y5.33652
G01 X-17.86290 Y5.33614
G01 X-17.86277 Y5.33652
G01 X-17.98761 Y5.39210
G01 X-17.98782 Y5.39177
G01 X-17.98761 Y5.39210
G01 X-18.09818 Y5.47241
G01 X-18.09843 Y5.47213
G01 X-18.09818 Y5.47241
G01 X-18.18962 Y5.57396
G01 X-18.19013 Y5.57360
G01 X-18.18962 Y5.57396
G01 X-18.25795 Y5.69232
G01 X-18.28144 Y5.76461
G01 X-18.30570 Y5.82138
G01 X-18.33971 Y5.87292
G01 X-18.38238 Y5.91757
G01 X-18.43234 Y5.95387
G01 X-18.44131 Y5.95819
G01 X-18.48083 Y5.95819
G01 X-18.44131 Y5.95819
G01 X-18.43237 Y5.96248
G01 X-18.38241 Y5.99878
G01 X-18.33973 Y6.04343
G01 X-18.30570 Y6.09496
G01 X-18.28144 Y6.15173
G01 X-18.25795 Y6.22405
G01 X-18.18962 Y6.34241
G01 X-18.19015 Y6.34277
G01 X-18.18962 Y6.34241
G01 X-18.09818 Y6.44396
G01 X-18.09843 Y6.44424
G01 X-18.09818 Y6.44396
G01 X-17.98761 Y6.52428
G01 X-17.98782 Y6.52461
G01 X-17.98761 Y6.52428
G01 X-17.86280 Y6.57985
G01 X-17.86290 Y6.58021
G01 X-17.86280 Y6.57985
G01 X-17.72912 Y6.60827
G01 X-17.72917 Y6.60865
G01 X-17.72912 Y6.60827
G01 X-17.59244 Y6.60827
G01 X-17.59241 Y6.60865
G01 X-17.59244 Y6.60827
G01 X-17.45879 Y6.57985
G01 X-17.45866 Y6.58021
G01 X-17.45879 Y6.57985
G01 X-17.33397 Y6.52428
G01 X-17.33377 Y6.52461
G01 X-17.33397 Y6.52428
G01 X-17.22340 Y6.44396
G01 X-17.22312 Y6.44424
G01 X-17.22340 Y6.44396
G01 X-17.13196 Y6.34241
G01 X-17.13143 Y6.34277
G01 X-17.13196 Y6.34241
G01 X-17.06364 Y6.22407
G01 X-17.04014 Y6.15173
G01 X-17.01586 Y6.09496
G01 X-16.98185 Y6.04343
G01 X-16.93918 Y5.99878
G01 X-16.88922 Y5.96248
G01 X-16.88025 Y5.95819
G01 X-16.99833 Y5.95819
G01 X-17.03745 Y5.91727
G01 X-17.07850 Y5.85509
G01 X-17.10778 Y5.78658
G01 X-17.12874 Y5.72131
G01 X-17.18980 Y5.61600
G01 X-17.18949 Y5.61577
G01 X-17.18980 Y5.61600
G01 X-17.27123 Y5.52557
G01 X-17.27098 Y5.52527
G01 X-17.27123 Y5.52557
G01 X-17.36971 Y5.45402
G01 X-17.36950 Y5.45367
G01 X-17.36971 Y5.45402
G01 X-17.48088 Y5.40452
G01 X-17.48076 Y5.40414
G01 X-17.48088 Y5.40452
G01 X-17.59993 Y5.37922
G01 X-17.59988 Y5.37884
G01 X-17.59993 Y5.37922
G01 X-17.72165 Y5.37922
G01 X-17.72170 Y5.37884
G01 X-17.72165 Y5.37922
G01 X-17.84067 Y5.40452
G01 X-17.84080 Y5.40414
G01 X-17.84067 Y5.40452
G01 X-17.95188 Y5.45402
G01 X-17.95205 Y5.45369
G01 X-17.95188 Y5.45402
G01 X-18.05035 Y5.52557
G01 X-18.05061 Y5.52527
G01 X-18.05035 Y5.52557
G01 X-18.13176 Y5.61600
G01 X-18.13209 Y5.61577
G01 X-18.13176 Y5.61600
G01 X-18.19262 Y5.72141
G01 X-18.21380 Y5.78658
G01 X-18.24309 Y5.85509
G01 X-18.28413 Y5.91727
G01 X-18.32325 Y5.95819
G01 X-18.34222 Y5.95819
G01 X-18.32325 Y5.95819
G01 X-18.28413 Y5.99908
G01 X-18.24309 Y6.06126
G01 X-18.21380 Y6.12976
G01 X-18.19262 Y6.19496
G01 X-18.13176 Y6.30037
G01 X-18.13209 Y6.30060
G01 X-18.13176 Y6.30037
G01 X-18.05033 Y6.39080
G01 X-18.05058 Y6.39110
G01 X-18.05033 Y6.39080
G01 X-17.95188 Y6.46235
G01 X-17.95208 Y6.46268
G01 X-17.95188 Y6.46235
G01 X-17.84067 Y6.51186
G01 X-17.84080 Y6.51224
G01 X-17.84067 Y6.51186
G01 X-17.72165 Y6.53715
G01 X-17.72170 Y6.53756
G01 X-17.72165 Y6.53715
G01 X-17.59993 Y6.53715
G01 X-17.59988 Y6.53756
G01 X-17.59993 Y6.53715
G01 X-17.48088 Y6.51186
G01 X-17.48078 Y6.51224
G01 X-17.48088 Y6.51186
G01 X-17.36968 Y6.46235
G01 X-17.36950 Y6.46268
G01 X-17.36968 Y6.46235
G01 X-17.27126 Y6.39080
G01 X-17.27098 Y6.39110
G01 X-17.27126 Y6.39080
G01 X-17.18980 Y6.30037
G01 X-17.18949 Y6.30060
G01 X-17.18980 Y6.30037
G01 X-17.12874 Y6.19507
G01 X-17.10776 Y6.12976
G01 X-17.07850 Y6.06126
G01 X-17.03745 Y5.99908
G01 X-16.99833 Y5.95819
G01 X-17.09531 Y5.95819
G01 X-17.14111 Y5.88879
G01 X-17.17540 Y5.80855
G01 X-17.19427 Y5.75049
G01 X-17.24766 Y5.65803
G01 X-17.24713 Y5.65768
G01 X-17.24766 Y5.65803
G01 X-17.31911 Y5.57868
G01 X-17.31883 Y5.57838
G01 X-17.31911 Y5.57868
G01 X-17.40545 Y5.51595
G01 X-17.40527 Y5.51559
G01 X-17.40545 Y5.51595
G01 X-17.50298 Y5.47251
G01 X-17.50288 Y5.47216
G01 X-17.50298 Y5.47251
G01 X-17.60743 Y5.45031
G01 X-17.60738 Y5.44993
G01 X-17.60743 Y5.45031
G01 X-17.71416 Y5.45031
G01 X-17.71421 Y5.44993
G01 X-17.71416 Y5.45031
G01 X-17.81860 Y5.47251
G01 X-17.81870 Y5.47216
G01 X-17.81860 Y5.47251
G01 X-17.91614 Y5.51595
G01 X-17.91632 Y5.51562
G01 X-17.91614 Y5.51595
G01 X-18.00247 Y5.57868
G01 X-18.00273 Y5.57838
G01 X-18.00247 Y5.57868
G01 X-18.07392 Y5.65801
G01 X-18.07443 Y5.65768
G01 X-18.07392 Y5.65801
G01 X-18.12729 Y5.75049
G01 X-18.14616 Y5.80855
G01 X-18.18045 Y5.88879
G01 X-18.22627 Y5.95819
G01 X-18.23491 Y5.95819
G01 X-18.22627 Y5.95819
G01 X-18.18048 Y6.02755
G01 X-18.14619 Y6.10779
G01 X-18.12729 Y6.16588
G01 X-18.07392 Y6.25836
G01 X-18.07443 Y6.25869
G01 X-18.07392 Y6.25836
G01 X-18.00250 Y6.33769
G01 X-18.00275 Y6.33797
G01 X-18.00250 Y6.33769
G01 X-17.91611 Y6.40040
G01 X-17.91632 Y6.40078
G01 X-17.91611 Y6.40040
G01 X-17.81860 Y6.44386
G01 X-17.81873 Y6.44419
G01 X-17.81860 Y6.44386
G01 X-17.71418 Y6.46606
G01 X-17.71423 Y6.46644
G01 X-17.71418 Y6.46606
G01 X-17.60740 Y6.46606
G01 X-17.60735 Y6.46644
G01 X-17.60740 Y6.46606
G01 X-17.50298 Y6.44386
G01 X-17.50285 Y6.44419
G01 X-17.50298 Y6.44386
G01 X-17.40547 Y6.40040
G01 X-17.40527 Y6.40078
G01 X-17.40547 Y6.40040
G01 X-17.31909 Y6.33769
G01 X-17.31883 Y6.33797
G01 X-17.31909 Y6.33769
G01 X-17.24763 Y6.25834
G01 X-17.24713 Y6.25869
G01 X-17.24763 Y6.25834
G01 X-17.19427 Y6.16588
G01 X-17.17540 Y6.10779
G01 X-17.14111 Y6.02755
G01 X-17.09531 Y5.95819
G01 X-17.18017 Y5.95819
G01 X-17.20372 Y5.99387
G01 X-17.24301 Y6.08582
G01 X-17.25960 Y6.13680
G01 X-17.25924 Y6.13700
G01 X-17.25960 Y6.13680
G01 X-17.30550 Y6.21633
G01 X-17.36694 Y6.28455
G01 X-17.36587 Y6.28572
G01 X-17.36694 Y6.28455
G01 X-17.44121 Y6.33853
G01 X-17.52505 Y6.37584
G01 X-17.52457 Y6.37736
G01 X-17.52505 Y6.37584
G01 X-17.61487 Y6.39491
G01 X-17.70669 Y6.39491
G01 X-17.70674 Y6.39583
G01 X-17.70669 Y6.39491
G01 X-17.79650 Y6.37584
G01 X-17.79681 Y6.37668
G01 X-17.79650 Y6.37584
G01 X-17.88037 Y6.33853
G01 X-17.95464 Y6.28455
G01 X-17.95569 Y6.28574
G01 X-17.95464 Y6.28455
G01 X-18.01609 Y6.21630
G01 X-18.06198 Y6.13682
G01 X-18.06231 Y6.13700
G01 X-18.06198 Y6.13682
G01 X-18.07855 Y6.08582
G01 X-18.11784 Y5.99387
G01 X-18.14141 Y5.95819
G01 X-18.14812 Y5.95819
G01 X-18.14141 Y5.95819
G01 X-18.11784 Y5.92247
G01 X-18.07855 Y5.83053
G01 X-18.06198 Y5.77957
G01 X-18.06231 Y5.77937
G01 X-18.06198 Y5.77957
G01 X-18.01609 Y5.70007
G01 X-17.95464 Y5.63182
G01 X-17.95569 Y5.63063
G01 X-17.95464 Y5.63182
G01 X-17.88037 Y5.57787
G01 X-17.79650 Y5.54053
G01 X-17.79699 Y5.53901
G01 X-17.79650 Y5.54053
G01 X-17.70669 Y5.52143
G01 X-17.61487 Y5.52143
G01 X-17.61484 Y5.52054
G01 X-17.61487 Y5.52143
G01 X-17.52505 Y5.54053
G01 X-17.52475 Y5.53970
G01 X-17.52505 Y5.54053
G01 X-17.44121 Y5.57785
G01 X-17.36694 Y5.63182
G01 X-17.36587 Y5.63065
G01 X-17.36694 Y5.63182
G01 X-17.30550 Y5.70005
G01 X-17.25960 Y5.77957
G01 X-17.25924 Y5.77937
G01 X-17.25960 Y5.77957
G01 X-17.24304 Y5.83053
G01 X-17.20374 Y5.92247
G01 X-17.18017 Y5.95819
G01 X-17.26503 Y5.95819
G01 X-17.26633 Y5.96017
G01 X-17.31065 Y6.06385
G01 X-17.32490 Y6.10772
G01 X-17.36333 Y6.17429
G01 X-17.36211 Y6.17518
G01 X-17.36333 Y6.17429
G01 X-17.41479 Y6.23141
G01 X-17.47695 Y6.27658
G01 X-17.47616 Y6.27797
G01 X-17.47695 Y6.27658
G01 X-17.54718 Y6.30784
G01 X-17.62236 Y6.32384
G01 X-17.62218 Y6.32542
G01 X-17.62236 Y6.32384
G01 X-17.69922 Y6.32384
G01 X-17.77441 Y6.30784
G01 X-17.77489 Y6.30937
G01 X-17.77441 Y6.30784
G01 X-17.84464 Y6.27658
G01 X-17.90679 Y6.23141
G01 X-17.90735 Y6.23210
G01 X-17.90679 Y6.23141
G01 X-17.95823 Y6.17429
G01 X-17.95894 Y6.17475
G01 X-17.95823 Y6.17429
G01 X-17.99666 Y6.10772
G01 X-18.01093 Y6.06385
G01 X-18.05523 Y5.96017
G01 X-18.05655 Y5.95819
G01 X-18.06356 Y5.95819
G01 X-18.05655 Y5.95819
G01 X-18.05523 Y5.95618
G01 X-18.01091 Y5.85250
G01 X-17.99666 Y5.80866
G01 X-17.95823 Y5.74208
G01 X-17.95947 Y5.74119
G01 X-17.95823 Y5.74208
G01 X-17.90679 Y5.68496
G01 X-17.84461 Y5.63977
G01 X-17.84540 Y5.63840
G01 X-17.84461 Y5.63977
G01 X-17.77441 Y5.60853
G01 X-17.69922 Y5.59255
G01 X-17.69937 Y5.59095
G01 X-17.69922 Y5.59255
G01 X-17.62236 Y5.59255
G01 X-17.54718 Y5.60853
G01 X-17.54667 Y5.60701
G01 X-17.54718 Y5.60853
G01 X-17.47697 Y5.63977
G01 X-17.41477 Y5.68496
G01 X-17.41421 Y5.68427
G01 X-17.41477 Y5.68496
G01 X-17.36333 Y5.74208
G01 X-17.36265 Y5.74163
G01 X-17.36333 Y5.74208
G01 X-17.32490 Y5.80866
G01 X-17.31065 Y5.85250
G01 X-17.26635 Y5.95618
G01 X-17.26503 Y5.95819
G01 X-17.33560 Y5.95819
G01 X-17.41347 Y5.95803
G01 X-17.41954 Y5.95819
G01 X-17.44593 Y5.89646
G01 X-17.45556 Y5.86682
G01 X-17.47903 Y5.82613
G01 X-17.47712 Y5.82458
G01 X-17.47903 Y5.82613
G01 X-17.51047 Y5.79123
G01 X-17.54845 Y5.76365
G01 X-17.59137 Y5.74452
G01 X-17.59048 Y5.74218
G01 X-17.59137 Y5.74452
G01 X-17.63730 Y5.73477
G01 X-17.68426 Y5.73477
G01 X-17.68444 Y5.73319
G01 X-17.68426 Y5.73477
G01 X-17.73021 Y5.74452
G01 X-17.77311 Y5.76362
G01 X-17.77390 Y5.76225
G01 X-17.77311 Y5.76362
G01 X-17.81111 Y5.79123
G01 X-17.84253 Y5.82613
G01 X-17.84380 Y5.82522
G01 X-17.84253 Y5.82613
G01 X-17.86602 Y5.86682
G01 X-17.87565 Y5.89646
G01 X-17.90204 Y5.95819
G01 X-17.90892 Y5.95819
G01 X-17.90204 Y5.95819
G01 X-17.87568 Y6.01988
G01 X-17.86602 Y6.04955
G01 X-17.84253 Y6.09024
G01 X-17.84380 Y6.09115
G01 X-17.84253 Y6.09024
G01 X-17.81111 Y6.12514
G01 X-17.77311 Y6.15275
G01 X-17.77390 Y6.15412
G01 X-17.77311 Y6.15275
G01 X-17.73021 Y6.17185
G01 X-17.68426 Y6.18160
G01 X-17.68444 Y6.18320
G01 X-17.68426 Y6.18160
G01 X-17.63730 Y6.18160
G01 X-17.59137 Y6.17185
G01 X-17.59087 Y6.17335
G01 X-17.59137 Y6.17185
G01 X-17.54845 Y6.15275
G01 X-17.51047 Y6.12514
G01 X-17.50941 Y6.12633
G01 X-17.51047 Y6.12514
G01 X-17.47903 Y6.09024
G01 X-17.45556 Y6.04958
G01 X-17.45505 Y6.04985
G01 X-17.45556 Y6.04958
G01 X-17.44591 Y6.01988
G01 X-17.41954 Y5.95819
G01 X-17.41347 Y5.95803
G01 X-17.49656 Y5.95819
G01 X-17.51355 Y5.91843
G01 X-17.52086 Y5.89588
G01 X-17.53689 Y5.86817
G01 X-17.55830 Y5.84437
G01 X-17.55558 Y5.84145
G01 X-17.55830 Y5.84437
G01 X-17.58421 Y5.82555
G01 X-17.61345 Y5.81252
G01 X-17.64479 Y5.80586
G01 X-17.64441 Y5.80340
G01 X-17.64479 Y5.80586
G01 X-17.67679 Y5.80586
G01 X-17.70811 Y5.81252
G01 X-17.70862 Y5.81102
G01 X-17.70811 Y5.81252
G01 X-17.73737 Y5.82555
G01 X-17.76325 Y5.84437
G01 X-17.76526 Y5.84244
G01 X-17.76325 Y5.84437
G01 X-17.78469 Y5.86817
G01 X-17.80069 Y5.89591
G01 X-17.80804 Y5.91843
G01 X-17.82503 Y5.95819
G01 X-17.83481 Y5.95819
G01 X-17.82503 Y5.95819
G01 X-17.80804 Y5.99791
G01 X-17.80069 Y6.02049
G01 X-17.78469 Y6.04820
G01 X-17.76325 Y6.07200
G01 X-17.76597 Y6.07495
G01 X-17.76325 Y6.07200
G01 X-17.73737 Y6.09082
G01 X-17.70811 Y6.10386
G01 X-17.67679 Y6.11051
G01 X-17.67720 Y6.11297
G01 X-17.67679 Y6.11051
G01 X-17.64476 Y6.11051
G01 X-17.61347 Y6.10386
G01 X-17.61296 Y6.10535
G01 X-17.61347 Y6.10386
G01 X-17.58421 Y6.09082
G01 X-17.55830 Y6.07200
G01 X-17.55632 Y6.07393
G01 X-17.55830 Y6.07200
G01 X-17.53686 Y6.04820
G01 X-17.52086 Y6.02049
G01 X-17.51355 Y5.99791
G01 X-17.49656 Y5.95819
G01 X-17.56399 Y5.95819
G01 X-17.58116 Y5.97594
G01 X-17.65017 Y5.95819
G01 X-17.65152 Y5.95405
G01 X-17.65256 Y5.95222
G01 X-17.65398 Y5.95064
G01 X-17.65571 Y5.94940
G01 X-17.65764 Y5.94853
G01 X-17.65972 Y5.94808
G01 X-17.66183 Y5.94808
G01 X-17.66859 Y5.90812
G01 X-17.66183 Y5.94808
G01 X-17.66394 Y5.94853
G01 X-17.66585 Y5.94940
G01 X-17.66757 Y5.95064
G01 X-17.66900 Y5.95222
G01 X-17.67006 Y5.95405
G01 X-17.67141 Y5.95819
G01 X-17.67006 Y5.96233
G01 X-17.72797 Y6.00421
G01 X-17.67006 Y5.96233
G01 X-17.66900 Y5.96415
G01 X-17.66757 Y5.96573
G01 X-17.66587 Y5.96697
G01 X-17.66392 Y5.96784
G01 X-17.66183 Y5.96830
G01 X-17.65972 Y5.96830
G01 X-17.65764 Y5.96784
G01 X-17.65571 Y5.96697
G01 X-17.65398 Y5.96573
G01 X-17.65256 Y5.96415
G01 X-17.65152 Y5.96233
G01 X-17.65017 Y5.95819
G01 X-17.65152 Y5.95405
G01 X-17.65256 Y5.95222
G01 X-17.65398 Y5.95064
G01 X-17.65571 Y5.94940
G01 X-17.65764 Y5.94853
G01 X-17.65972 Y5.94808
G01 X-17.66183 Y5.94808
G01 X-17.66394 Y5.94853
G01 X-17.66585 Y5.94940
G01 X-17.66757 Y5.95064
G01 X-17.66900 Y5.95222
G01 X-17.67006 Y5.95405
G01 X-17.67141 Y5.95819
G01 X-17.67006 Y5.96233
G01 X-17.66900 Y5.96415
G01 X-17.66757 Y5.96573
G01 X-17.66587 Y5.96697
G01 X-17.66392 Y5.96784
G01 X-17.66183 Y5.96830
G01 X-17.65972 Y5.96830
G01 X-17.65764 Y5.96784
G01 X-17.65571 Y5.96697
G01 X-17.65398 Y5.96573
G01 X-17.65256 Y5.96415
G01 X-17.65152 Y5.96233
G01 X-17.65017 Y5.95819
G01 X-17.58116 Y5.97594
G01 X-17.56399 Y5.95819
G01 X-17.57359 Y5.95819
G01 X-17.58119 Y5.94041
G01 X-17.58619 Y5.92496
G01 X-17.59473 Y5.91021
G01 X-17.60613 Y5.89751
G01 X-17.60339 Y5.89456
G01 X-17.60613 Y5.89751
G01 X-17.61997 Y5.88747
G01 X-17.63557 Y5.88054
G01 X-17.65226 Y5.87698
G01 X-17.65200 Y5.87193
G01 X-17.65226 Y5.87698
G01 X-17.66930 Y5.87698
G01 X-17.68601 Y5.88054
G01 X-17.70161 Y5.88747
G01 X-17.71543 Y5.89751
G01 X-17.71898 Y5.89329
G01 X-17.71543 Y5.89751
G01 X-17.72686 Y5.91021
G01 X-17.73537 Y5.92496
G01 X-17.74039 Y5.94041
G01 X-17.74799 Y5.95819
G01 X-17.75759 Y5.95819
G01 X-17.74799 Y5.95819
G01 X-17.74039 Y5.97594
G01 X-17.73537 Y5.99141
G01 X-17.72686 Y6.00619
G01 X-17.71543 Y6.01887
G01 X-17.71820 Y6.02184
G01 X-17.71543 Y6.01887
G01 X-17.70161 Y6.02890
G01 X-17.68601 Y6.03583
G01 X-17.66933 Y6.03939
G01 X-17.66958 Y6.04444
G01 X-17.66933 Y6.03939
G01 X-17.65226 Y6.03939
G01 X-17.63557 Y6.03586
G01 X-17.61997 Y6.02890
G01 X-17.60616 Y6.01887
G01 X-17.60260 Y6.02311
G01 X-17.60616 Y6.01887
G01 X-17.59473 Y6.00619
G01 X-17.58619 Y5.99138
G01 X-17.58116 Y5.97594
G01 X-17.57359 Y5.95819
G01 X-17.48678 Y5.95819
G01 X-17.41959 Y5.95803
G01 X-17.33560 Y5.95819
G01 X-17.34250 Y5.95819
G01 X-17.37829 Y6.04185
G01 X-17.39023 Y6.07863
G01 X-17.42119 Y6.13228
G01 X-17.41995 Y6.13319
G01 X-17.42119 Y6.13228
G01 X-17.46262 Y6.17828
G01 X-17.51271 Y6.21468
G01 X-17.51190 Y6.21605
G01 X-17.51271 Y6.21468
G01 X-17.56928 Y6.23985
G01 X-17.62983 Y6.25272
G01 X-17.62968 Y6.25430
G01 X-17.62983 Y6.25272
G01 X-17.69175 Y6.25272
G01 X-17.75228 Y6.23985
G01 X-17.75251 Y6.24071
G01 X-17.75228 Y6.23985
G01 X-17.80887 Y6.21468
G01 X-17.80936 Y6.21541
G01 X-17.80887 Y6.21468
G01 X-17.85896 Y6.17828
G01 X-17.90039 Y6.13225
G01 X-17.90163 Y6.13317
G01 X-17.90039 Y6.13225
G01 X-17.93135 Y6.07863
G01 X-17.94329 Y6.04185
G01 X-17.97905 Y5.95819
G01 X-17.98599 Y5.95819
G01 X-17.97905 Y5.95819
G01 X-17.94329 Y5.87449
G01 X-17.93133 Y5.83771
G01 X-17.90039 Y5.78412
G01 X-17.90163 Y5.78321
G01 X-17.90039 Y5.78412
G01 X-17.85896 Y5.73810
G01 X-17.80887 Y5.70170
G01 X-17.80936 Y5.70096
G01 X-17.80887 Y5.70170
G01 X-17.75231 Y5.67653
G01 X-17.75254 Y5.67566
G01 X-17.75231 Y5.67653
G01 X-17.69173 Y5.66365
G01 X-17.62983 Y5.66365
G01 X-17.62968 Y5.66207
G01 X-17.62983 Y5.66365
G01 X-17.56928 Y5.67653
G01 X-17.51271 Y5.70170
G01 X-17.51192 Y5.70033
G01 X-17.51271 Y5.70170
G01 X-17.46262 Y5.73810
G01 X-17.42119 Y5.78409
G01 X-17.41995 Y5.78321
G01 X-17.42119 Y5.78409
G01 X-17.39023 Y5.83771
G01 X-17.37829 Y5.87449
G01 X-17.34250 Y5.95819
G04 P0 ( dwell for no time -- G64 should not smooth over this point )
G00 Z5.00000 ( retract )

G00 X-21.32769 Y8.06298 ( rapid move to begin. )
G01 F40.00000
( Mill infeed pass 1/1 )
G01 Z-0.00500
G04 P0 ( dwell for no time -- G64 should not smooth over this point )
G01 F100.00000
G01 X-21.32769 Y8.06298
G01 X-21.32769 Y9.54299
G01 X-22.80769 Y9.54299
G01 X-22.80769 Y8.06298
G01 X-21.32769 Y8.06298
G01 X-21.39881 Y8.13410
G01 X-21.39881 Y9.47187
G01 X-21.37798 Y9.49270
G01 X-21.39881 Y9.47187
G01 X-22.73657 Y9.47187
G01 X-22.75740 Y9.49270
G01 X-22.73657 Y9.47187
G01 X-22.73657 Y8.13410
G01 X-22.75740 Y8.11327
G01 X-22.73657 Y8.13410
G01 X-21.39881 Y8.13410
G01 X-21.46990 Y8.20520
G01 X-21.46990 Y9.40077
G01 X-21.44907 Y9.42160
G01 X-21.46990 Y9.40077
G01 X-22.66548 Y9.40077
G01 X-22.68631 Y9.42160
G01 X-22.66548 Y9.40077
G01 X-22.66548 Y8.20520
G01 X-22.68631 Y8.18437
G01 X-22.66548 Y8.20520
G01 X-21.46990 Y8.20520
G01 X-21.54102 Y8.27632
G01 X-21.54102 Y9.32965
G01 X-21.52019 Y9.35048
G01 X-21.54102 Y9.32965
G01 X-22.59436 Y9.32965
G01 X-22.61519 Y9.35048
G01 X-22.59436 Y9.32965
G01 X-22.59436 Y8.27632
G01 X-22.61519 Y8.25549
G01 X-22.59436 Y8.27632
G01 X-21.54102 Y8.27632
G01 X-21.61212 Y8.34744
G01 X-21.61212 Y9.25856
G01 X-21.59129 Y9.27936
G01 X-21.61212 Y9.25856
G01 X-22.52324 Y9.25856
G01 X-22.54407 Y9.27936
G01 X-22.52324 Y9.25856
G01 X-22.52324 Y8.34744
G01 X-22.54407 Y8.32661
G01 X-22.52324 Y8.34744
G01 X-21.61212 Y8.34744
G01 X-21.68324 Y8.41853
G01 X-21.68324 Y9.18744
G01 X-21.66241 Y9.20827
G01 X-21.68324 Y9.18744
G01 X-22.45215 Y9.18744
G01 X-22.47297 Y9.20827
G01 X-22.45215 Y9.18744
G01 X-22.45215 Y8.41853
G01 X-22.47297 Y8.39770
G01 X-22.45215 Y8.41853
G01 X-21.68324 Y8.41853
G01 X-21.75436 Y8.48965
G01 X-21.75436 Y9.11632
G01 X-21.73353 Y9.13715
G01 X-21.75436 Y9.11632
G01 X-22.38103 Y9.11632
G01 X-22.40185 Y9.13715
G01 X-22.38103 Y9.11632
G01 X-22.38103 Y8.48965
G01 X-22.40185 Y8.46882
G01 X-22.38103 Y8.48965
G01 X-21.75436 Y8.48965
G01 X-21.82545 Y8.56075
G01 X-21.82545 Y9.04523
G01 X-21.80462 Y9.06605
G01 X-21.82545 Y9.04523
G01 X-22.30993 Y9.04523
G01 X-22.33076 Y9.06605
G01 X-22.30993 Y9.04523
G01 X-22.30993 Y8.56075
G01 X-22.33076 Y8.53992
G01 X-22.30993 Y8.56075
G01 X-21.82545 Y8.56075
G01 X-21.89657 Y8.63187
G01 X-21.89657 Y8.97411
G01 X-21.87574 Y8.99493
G01 X-21.89657 Y8.97411
G01 X-22.23881 Y8.97411
G01 X-22.25964 Y8.99493
G01 X-22.23881 Y8.97411
G01 X-22.23881 Y8.63187
G01 X-22.25964 Y8.61104
G01 X-22.23881 Y8.63187
G01 X-21.89657 Y8.63187
G01 X-21.96767 Y8.70299
G01 X-21.96767 Y8.90301
G01 X-21.94684 Y8.92384
G01 X-21.96767 Y8.90301
G01 X-22.16769 Y8.90301
G01 X-22.18852 Y8.92384
G01 X-22.16769 Y8.90301
G01 X-22.16769 Y8.70299
G01 X-22.18852 Y8.68216
G01 X-22.16769 Y8.70299
G01 X-21.96767 Y8.70299
G01 X-22.03879 Y8.77408
G01 X-22.09660 Y8.77408
G01 X-22.11742 Y8.75325
G01 X-22.09660 Y8.77408
G01 X-22.09660 Y8.83189
G01 X-22.11742 Y8.85272
G01 X-22.09660 Y8.83189
G01 X-22.03879 Y8.83189
G01 X-22.01796 Y8.85272
G01 X-22.03879 Y8.83189
G01 X-22.03879 Y8.77408
G04 P0 ( dwell for no time -- G64 should not smooth over this point )
G00 Z5.00000 ( retract )

G00 X-23.32801 Y8.80299 ( rapid move to begin. )
G01 F40.00000
( Mill infeed pass 1/1 )
G01 Z-0.00500
G04 P0 ( dwell for no time -- G64 should not smooth over this point )
G01 F100.00000
G01 X-23.32801 Y8.80299
G01 X-23.34419 Y8.64919
G01 X-23.39197 Y8.50212
G01 X-23.46929 Y8.36821
G01 X-23.57277 Y8.25330
G01 X-23.69786 Y8.16242
G01 X-23.83911 Y8.09953
G01 X-23.99037 Y8.06738
G01 X-24.14500 Y8.06738
G01 X-24.29626 Y8.09953
G01 X-24.43751 Y8.16242
G01 X-24.56261 Y8.25330
G01 X-24.66609 Y8.36821
G01 X-24.74340 Y8.50215
G01 X-24.79118 Y8.64919
G01 X-24.80736 Y8.80299
G01 X-24.79121 Y8.95676
G01 X-24.74340 Y9.10385
G01 X-24.66609 Y9.23776
G01 X-24.56261 Y9.35267
G01 X-24.43751 Y9.44357
G01 X-24.29626 Y9.50646
G01 X-24.14500 Y9.53860
G01 X-23.99040 Y9.53860
G01 X-23.83911 Y9.50646
G01 X-23.69786 Y9.44357
G01 X-23.57274 Y9.35267
G01 X-23.46929 Y9.23776
G01 X-23.39197 Y9.10385
G01 X-23.34419 Y8.95678
G01 X-23.32801 Y8.80299
G01 X-23.39951 Y8.80299
G01 X-23.41412 Y8.66407
G01 X-23.41374 Y8.66400
G01 X-23.41412 Y8.66407
G01 X-23.45727 Y8.53123
G01 X-23.45692 Y8.53105
G01 X-23.45727 Y8.53123
G01 X-23.52712 Y8.41023
G01 X-23.52682 Y8.41000
G01 X-23.52712 Y8.41023
G01 X-23.62060 Y8.30644
G01 X-23.62034 Y8.30616
G01 X-23.62060 Y8.30644
G01 X-23.73360 Y8.22432
G01 X-23.73340 Y8.22399
G01 X-23.73360 Y8.22432
G01 X-23.86121 Y8.16753
G01 X-23.86108 Y8.16715
G01 X-23.86121 Y8.16753
G01 X-23.99784 Y8.13847
G01 X-23.99779 Y8.13809
G01 X-23.99784 Y8.13847
G01 X-24.13754 Y8.13847
G01 X-24.13759 Y8.13809
G01 X-24.13754 Y8.13847
G01 X-24.27416 Y8.16753
G01 X-24.27429 Y8.16715
G01 X-24.27416 Y8.16753
G01 X-24.40175 Y8.22432
G01 X-24.40195 Y8.22399
G01 X-24.40175 Y8.22432
G01 X-24.51478 Y8.30644
G01 X-24.51503 Y8.30616
G01 X-24.51478 Y8.30644
G01 X-24.60825 Y8.41025
G01 X-24.60855 Y8.41002
G01 X-24.60825 Y8.41025
G01 X-24.67810 Y8.53123
G01 X-24.67846 Y8.53105
G01 X-24.67810 Y8.53123
G01 X-24.72125 Y8.66407
G01 X-24.72164 Y8.66400
G01 X-24.72125 Y8.66407
G01 X-24.73586 Y8.80299
G01 X-24.73624 Y8.80299
G01 X-24.73586 Y8.80299
G01 X-24.72125 Y8.94190
G01 X-24.72164 Y8.94197
G01 X-24.72125 Y8.94190
G01 X-24.67810 Y9.07474
G01 X-24.67846 Y9.07489
G01 X-24.67810 Y9.07474
G01 X-24.60825 Y9.19572
G01 X-24.60855 Y9.19595
G01 X-24.60825 Y9.19572
G01 X-24.51478 Y9.29953
G01 X-24.51503 Y9.29984
G01 X-24.51478 Y9.29953
G01 X-24.40175 Y9.38165
G01 X-24.40195 Y9.38198
G01 X-24.40175 Y9.38165
G01 X-24.27416 Y9.43844
G01 X-24.27429 Y9.43882
G01 X-24.27416 Y9.43844
G01 X-24.13754 Y9.46750
G01 X-24.13759 Y9.46788
G01 X-24.13754 Y9.46750
G01 X-23.99784 Y9.46750
G01 X-23.99779 Y9.46788
G01 X-23.99784 Y9.46750
G01 X-23.86121 Y9.43844
G01 X-23.86108 Y9.43882
G01 X-23.86121 Y9.43844
G01 X-23.73360 Y9.38165
G01 X-23.73340 Y9.38198
G01 X-23.73360 Y9.38165
G01 X-23.62060 Y9.29956
G01 X-23.62034 Y9.29984
G01 X-23.62060 Y9.29956
G01 X-23.52715 Y9.19575
G01 X-23.52682 Y9.19597
G01 X-23.52715 Y9.19575
G01 X-23.45727 Y9.07474
G01 X-23.45692 Y9.07489
G01 X-23.45727 Y9.07474
G01 X-23.41412 Y8.94190
G01 X-23.41374 Y8.94197
G01 X-23.41412 Y8.94190
G01 X-23.39951 Y8.80299
G01 X-23.47102 Y8.80299
G01 X-23.48407 Y8.67893
G01 X-23.48367 Y8.67886
G01 X-23.48407 Y8.67893
G01 X-23.52260 Y8.56029
G01 X-23.52225 Y8.56014
G01 X-23.52260 Y8.56029
G01 X-23.58499 Y8.45226
G01 X-23.58466 Y8.45203
G01 X-23.58499 Y8.45226
G01 X-23.66842 Y8.35958
G01 X-23.66817 Y8.35930
G01 X-23.66842 Y8.35958
G01 X-23.76936 Y8.28625
G01 X-23.76916 Y8.28592
G01 X-23.76936 Y8.28625
G01 X-23.88331 Y8.23552
G01 X-23.88318 Y8.23514
G01 X-23.88331 Y8.23552
G01 X-24.00530 Y8.20959
G01 X-24.00528 Y8.20921
G01 X-24.00530 Y8.20959
G01 X-24.13007 Y8.20959
G01 X-24.13010 Y8.20921
G01 X-24.13007 Y8.20959
G01 X-24.25207 Y8.23552
G01 X-24.25219 Y8.23514
G01 X-24.25207 Y8.23552
G01 X-24.36604 Y8.28625
G01 X-24.36621 Y8.28592
G01 X-24.36604 Y8.28625
G01 X-24.46695 Y8.35958
G01 X-24.46720 Y8.35930
G01 X-24.46695 Y8.35958
G01 X-24.55041 Y8.45229
G01 X-24.55072 Y8.45206
G01 X-24.55041 Y8.45229
G01 X-24.61277 Y8.56029
G01 X-24.61313 Y8.56014
G01 X-24.61277 Y8.56029
G01 X-24.65133 Y8.67896
G01 X-24.65171 Y8.67888
G01 X-24.65133 Y8.67896
G01 X-24.66436 Y8.80299
G01 X-24.66474 Y8.80299
G01 X-24.66436 Y8.80299
G01 X-24.65133 Y8.92701
G01 X-24.65171 Y8.92712
G01 X-24.65133 Y8.92701
G01 X-24.61277 Y9.04568
G01 X-24.61313 Y9.04584
G01 X-24.61277 Y9.04568
G01 X-24.55041 Y9.15368
G01 X-24.55072 Y9.15391
G01 X-24.55041 Y9.15368
G01 X-24.46692 Y9.24639
G01 X-24.46720 Y9.24670
G01 X-24.46692 Y9.24639
G01 X-24.36604 Y9.31972
G01 X-24.36621 Y9.32005
G01 X-24.36604 Y9.31972
G01 X-24.25207 Y9.37045
G01 X-24.25219 Y9.37083
G01 X-24.25207 Y9.37045
G01 X-24.13007 Y9.39638
G01 X-24.13010 Y9.39679
G01 X-24.13007 Y9.39638
G01 X-24.00530 Y9.39638
G01 X-24.00528 Y9.39679
G01 X-24.00530 Y9.39638
G01 X-23.88331 Y9.37045
G01 X-23.88318 Y9.37083
G01 X-23.88331 Y9.37045
G01 X-23.76936 Y9.31972
G01 X-23.76916 Y9.32005
G01 X-23.76936 Y9.31972
G01 X-23.66845 Y9.24639
G01 X-23.66817 Y9.24670
G01 X-23.66845 Y9.24639
G01 X-23.58499 Y9.15371
G01 X-23.58466 Y9.15394
G01 X-23.58499 Y9.15371
G01 X-23.52260 Y9.04568
G01 X-23.52225 Y9.04584
G01 X-23.52260 Y9.04568
G01 X-23.48407 Y8.92704
G01 X-23.48367 Y8.92712
G01 X-23.48407 Y8.92704
G01 X-23.47102 Y8.80299
G01 X-23.54252 Y8.80299
G01 X-23.55400 Y8.69379
G01 X-23.55362 Y8.69372
G01 X-23.55400 Y8.69379
G01 X-23.58793 Y8.58940
G01 X-23.58755 Y8.58925
G01 X-23.58793 Y8.58940
G01 X-23.64282 Y8.49430
G01 X-23.64252 Y8.49407
G01 X-23.64282 Y8.49430
G01 X-23.71628 Y8.41271
G01 X-23.71602 Y8.41244
G01 X-23.71628 Y8.41271
G01 X-23.80510 Y8.34817
G01 X-23.80492 Y8.34784
G01 X-23.80510 Y8.34817
G01 X-23.90541 Y8.30352
G01 X-23.90528 Y8.30316
G01 X-23.90541 Y8.30352
G01 X-24.01280 Y8.28069
G01 X-24.01275 Y8.28030
G01 X-24.01280 Y8.28069
G01 X-24.12258 Y8.28069
G01 X-24.12263 Y8.28030
G01 X-24.12258 Y8.28069
G01 X-24.22997 Y8.30352
G01 X-24.23009 Y8.30316
G01 X-24.22997 Y8.30352
G01 X-24.33027 Y8.34817
G01 X-24.33048 Y8.34784
G01 X-24.33027 Y8.34817
G01 X-24.41910 Y8.41271
G01 X-24.41935 Y8.41244
G01 X-24.41910 Y8.41271
G01 X-24.49255 Y8.49430
G01 X-24.49286 Y8.49407
G01 X-24.49255 Y8.49430
G01 X-24.54744 Y8.58937
G01 X-24.54780 Y8.58922
G01 X-24.54744 Y8.58937
G01 X-24.58138 Y8.69382
G01 X-24.58176 Y8.69372
G01 X-24.58138 Y8.69382
G01 X-24.59286 Y8.80299
G01 X-24.59324 Y8.80299
G01 X-24.59286 Y8.80299
G01 X-24.58138 Y8.91216
G01 X-24.58176 Y8.91226
G01 X-24.58138 Y8.91216
G01 X-24.54744 Y9.01660
G01 X-24.54780 Y9.01675
G01 X-24.54744 Y9.01660
G01 X-24.49255 Y9.11167
G01 X-24.49286 Y9.11190
G01 X-24.49255 Y9.11167
G01 X-24.41910 Y9.19326
G01 X-24.41935 Y9.19356
G01 X-24.41910 Y9.19326
G01 X-24.33027 Y9.25780
G01 X-24.33048 Y9.25813
G01 X-24.33027 Y9.25780
G01 X-24.22997 Y9.30245
G01 X-24.23009 Y9.30283
G01 X-24.22997 Y9.30245
G01 X-24.12258 Y9.32529
G01 X-24.12263 Y9.32567
G01 X-24.12258 Y9.32529
G01 X-24.01280 Y9.32529
G01 X-24.01275 Y9.32567
G01 X-24.01280 Y9.32529
G01 X-23.90541 Y9.30245
G01 X-23.90528 Y9.30283
G01 X-23.90541 Y9.30245
G01 X-23.80510 Y9.25780
G01 X-23.80492 Y9.25813
G01 X-23.80510 Y9.25780
G01 X-23.71628 Y9.19326
G01 X-23.71602 Y9.19354
G01 X-23.71628 Y9.19326
G01 X-23.64282 Y9.11167
G01 X-23.64252 Y9.11190
G01 X-23.64282 Y9.11167
G01 X-23.58793 Y9.01657
G01 X-23.58755 Y9.01673
G01 X-23.58793 Y9.01657
G01 X-23.55400 Y8.91218
G01 X-23.55362 Y8.91226
G01 X-23.55400 Y8.91218
G01 X-23.54252 Y8.80299
G01 X-23.61402 Y8.80299
G01 X-23.62395 Y8.70868
G01 X-23.65324 Y8.61848
G01 X-23.65179 Y8.61782
G01 X-23.65324 Y8.61848
G01 X-23.70066 Y8.53634
G01 X-23.76413 Y8.46585
G01 X-23.76307 Y8.46466
G01 X-23.76413 Y8.46585
G01 X-23.84087 Y8.41010
G01 X-23.92748 Y8.37154
G01 X-23.92717 Y8.37070
G01 X-23.92748 Y8.37154
G01 X-24.02029 Y8.35181
G01 X-24.02024 Y8.35092
G01 X-24.02029 Y8.35181
G01 X-24.11508 Y8.35181
G01 X-24.20790 Y8.37154
G01 X-24.20838 Y8.37002
G01 X-24.20790 Y8.37154
G01 X-24.29453 Y8.41010
G01 X-24.37124 Y8.46585
G01 X-24.37231 Y8.46466
G01 X-24.37124 Y8.46585
G01 X-24.43472 Y8.53634
G01 X-24.48214 Y8.61848
G01 X-24.48359 Y8.61782
G01 X-24.48214 Y8.61848
G01 X-24.51143 Y8.70868
G01 X-24.52136 Y8.80299
G01 X-24.52293 Y8.80299
G01 X-24.52136 Y8.80299
G01 X-24.51143 Y8.89732
G01 X-24.48214 Y8.98749
G01 X-24.48295 Y8.98782
G01 X-24.48214 Y8.98749
G01 X-24.43472 Y9.06964
G01 X-24.43540 Y9.07019
G01 X-24.43472 Y9.06964
G01 X-24.37124 Y9.14012
G01 X-24.29451 Y9.19587
G01 X-24.29532 Y9.19724
G01 X-24.29451 Y9.19587
G01 X-24.20787 Y9.23446
G01 X-24.11511 Y9.25417
G01 X-24.11529 Y9.25574
G01 X-24.11511 Y9.25417
G01 X-24.02027 Y9.25417
G01 X-23.92750 Y9.23446
G01 X-23.92702 Y9.23595
G01 X-23.92750 Y9.23446
G01 X-23.84087 Y9.19587
G01 X-23.76413 Y9.14012
G01 X-23.76307 Y9.14131
G01 X-23.76413 Y9.14012
G01 X-23.70066 Y9.06964
G01 X-23.65324 Y8.98749
G01 X-23.65179 Y8.98815
G01 X-23.65324 Y8.98749
G01 X-23.62395 Y8.89732
G01 X-23.61402 Y8.80299
G01 X-23.68552 Y8.80299
G01 X-23.69388 Y8.72353
G01 X-23.71856 Y8.64756
G01 X-23.71773 Y8.64723
G01 X-23.71856 Y8.64756
G01 X-23.75852 Y8.57835
G01 X-23.75783 Y8.57779
G01 X-23.75852 Y8.57835
G01 X-23.81196 Y8.51899
G01 X-23.87663 Y8.47202
G01 X-23.87582 Y8.47065
G01 X-23.87663 Y8.47202
G01 X-23.94960 Y8.43954
G01 X-24.02773 Y8.42293
G01 X-24.02756 Y8.42133
G01 X-24.02773 Y8.42293
G01 X-24.10764 Y8.42293
G01 X-24.18577 Y8.43954
G01 X-24.18628 Y8.43801
G01 X-24.18577 Y8.43954
G01 X-24.25877 Y8.47202
G01 X-24.32341 Y8.51899
G01 X-24.32446 Y8.51779
G01 X-24.32341 Y8.51899
G01 X-24.37686 Y8.57837
G01 X-24.41681 Y8.64754
G01 X-24.41826 Y8.64688
G01 X-24.41681 Y8.64754
G01 X-24.44150 Y8.72353
G01 X-24.44986 Y8.80299
G01 X-24.45143 Y8.80299
G01 X-24.44986 Y8.80299
G01 X-24.44150 Y8.88244
G01 X-24.41681 Y8.95846
G01 X-24.41826 Y8.95909
G01 X-24.41681 Y8.95846
G01 X-24.37688 Y9.02760
G01 X-24.32341 Y9.08698
G01 X-24.32446 Y9.08818
G01 X-24.32341 Y9.08698
G01 X-24.25877 Y9.13395
G01 X-24.18577 Y9.16643
G01 X-24.18610 Y9.16727
G01 X-24.18577 Y9.16643
G01 X-24.10762 Y9.18305
G01 X-24.10767 Y9.18394
G01 X-24.10762 Y9.18305
G01 X-24.02776 Y9.18305
G01 X-23.94960 Y9.16643
G01 X-23.94909 Y9.16796
G01 X-23.94960 Y9.16643
G01 X-23.87663 Y9.13395
G01 X-23.81196 Y9.08698
G01 X-23.81089 Y9.08815
G01 X-23.81196 Y9.08698
G01 X-23.75852 Y9.02762
G01 X-23.71856 Y8.95843
G01 X-23.71712 Y8.95907
G01 X-23.71856 Y8.95843
G01 X-23.69388 Y8.88244
G01 X-23.68552 Y8.80299
G01 X-23.75702 Y8.80299
G01 X-23.76380 Y8.73842
G01 X-23.76294 Y8.73827
G01 X-23.76380 Y8.73842
G01 X-23.78389 Y8.67662
G01 X-23.78311 Y8.67621
G01 X-23.78389 Y8.67662
G01 X-23.81635 Y8.62039
G01 X-23.85981 Y8.57213
G01 X-23.85875 Y8.57093
G01 X-23.85981 Y8.57213
G01 X-23.91237 Y8.53395
G01 X-23.97168 Y8.50753
G01 X-23.97117 Y8.50603
G01 X-23.97168 Y8.50753
G01 X-24.03520 Y8.49402
G01 X-24.10017 Y8.49402
G01 X-24.10035 Y8.49245
G01 X-24.10017 Y8.49402
G01 X-24.16370 Y8.50753
G01 X-24.22301 Y8.53395
G01 X-24.22380 Y8.53258
G01 X-24.22301 Y8.53395
G01 X-24.27556 Y8.57213
G01 X-24.31902 Y8.62039
G01 X-24.32032 Y8.61947
G01 X-24.31902 Y8.62039
G01 X-24.35148 Y8.67662
G01 X-24.37155 Y8.73839
G01 X-24.37312 Y8.73806
G01 X-24.37155 Y8.73839
G01 X-24.37835 Y8.80299
G01 X-24.37157 Y8.86758
G01 X-24.37312 Y8.86791
G01 X-24.37157 Y8.86758
G01 X-24.35148 Y8.92935
G01 X-24.31902 Y8.98559
G01 X-24.32032 Y8.98653
G01 X-24.31902 Y8.98559
G01 X-24.27556 Y9.03385
G01 X-24.22301 Y9.07202
G01 X-24.22382 Y9.07339
G01 X-24.22301 Y9.07202
G01 X-24.16367 Y9.09844
G01 X-24.10017 Y9.11195
G01 X-24.10030 Y9.11282
G01 X-24.10017 Y9.11195
G01 X-24.03520 Y9.11195
G01 X-24.03507 Y9.11282
G01 X-24.03520 Y9.11195
G01 X-23.97170 Y9.09844
G01 X-23.91237 Y9.07202
G01 X-23.91155 Y9.07339
G01 X-23.91237 Y9.07202
G01 X-23.85981 Y9.03385
G01 X-23.81635 Y8.98559
G01 X-23.81506 Y8.98653
G01 X-23.81635 Y8.98559
G01 X-23.78389 Y8.92935
G01 X-23.76380 Y8.86755
G01 X-23.76225 Y8.86788
G01 X-23.76380 Y8.86755
G01 X-23.75702 Y8.80299
G01 X-23.82852 Y8.80299
G01 X-23.83375 Y8.75328
G01 X-23.83286 Y8.75313
G01 X-23.83375 Y8.75328
G01 X-23.84920 Y8.70570
G01 X-23.84841 Y8.70530
G01 X-23.84920 Y8.70570
G01 X-23.87419 Y8.66242
G01 X-23.90764 Y8.62526
G01 X-23.90658 Y8.62409
G01 X-23.90764 Y8.62526
G01 X-23.94810 Y8.59587
G01 X-23.99380 Y8.57553
G01 X-23.99329 Y8.57400
G01 X-23.99380 Y8.57553
G01 X-24.04269 Y8.56514
G01 X-24.09268 Y8.56514
G01 X-24.09286 Y8.56357
G01 X-24.09268 Y8.56514
G01 X-24.14158 Y8.57553
G01 X-24.18727 Y8.59587
G01 X-24.18806 Y8.59450
G01 X-24.18727 Y8.59587
G01 X-24.22771 Y8.62526
G01 X-24.26118 Y8.66242
G01 X-24.26245 Y8.66148
G01 X-24.26118 Y8.66242
G01 X-24.28618 Y8.70570
G01 X-24.30162 Y8.75328
G01 X-24.30317 Y8.75295
G01 X-24.30162 Y8.75328
G01 X-24.30685 Y8.80299
G01 X-24.30162 Y8.85272
G01 X-24.30317 Y8.85305
G01 X-24.30162 Y8.85272
G01 X-24.28618 Y8.90027
G01 X-24.26118 Y8.94355
G01 X-24.26192 Y8.94403
G01 X-24.26118 Y8.94355
G01 X-24.22771 Y8.98074
G01 X-24.22827 Y8.98142
G01 X-24.22771 Y8.98074
G01 X-24.18725 Y9.01012
G01 X-24.14160 Y9.03044
G01 X-24.14211 Y9.03194
G01 X-24.14160 Y9.03044
G01 X-24.09266 Y9.04083
G01 X-24.04272 Y9.04083
G01 X-24.04254 Y9.04241
G01 X-24.04272 Y9.04083
G01 X-23.99377 Y9.03044
G01 X-23.94813 Y9.01012
G01 X-23.94732 Y9.01149
G01 X-23.94813 Y9.01012
G01 X-23.90767 Y8.98071
G01 X-23.87419 Y8.94355
G01 X-23.87292 Y8.94449
G01 X-23.87419 Y8.94355
G01 X-23.84920 Y8.90027
G01 X-23.83375 Y8.85272
G01 X-23.83220 Y8.85305
G01 X-23.83375 Y8.85272
G01 X-23.82852 Y8.80299
G01 X-23.90002 Y8.80299
G01 X-23.90370 Y8.76814
G01 X-23.90122 Y8.76773
G01 X-23.90370 Y8.76814
G01 X-23.91453 Y8.73479
G01 X-23.93205 Y8.70443
G01 X-23.93076 Y8.70349
G01 X-23.93205 Y8.70443
G01 X-23.95550 Y8.67840
G01 X-23.98384 Y8.65780
G01 X-23.98305 Y8.65640
G01 X-23.98384 Y8.65780
G01 X-24.01587 Y8.64352
G01 X-24.05016 Y8.63623
G01 X-24.05001 Y8.63466
G01 X-24.05016 Y8.63623
G01 X-24.08521 Y8.63623
G01 X-24.11950 Y8.64352
G01 X-24.12039 Y8.64119
G01 X-24.11950 Y8.64352
G01 X-24.15153 Y8.65780
G01 X-24.17988 Y8.67840
G01 X-24.20332 Y8.70443
G01 X-24.20528 Y8.70286
G01 X-24.20332 Y8.70443
G01 X-24.22085 Y8.73479
G01 X-24.23167 Y8.76814
G01 X-24.23324 Y8.76781
G01 X-24.23167 Y8.76814
G01 X-24.23535 Y8.80299
G01 X-24.23170 Y8.83786
G01 X-24.23324 Y8.83819
G01 X-24.23170 Y8.83786
G01 X-24.22085 Y8.87118
G01 X-24.20332 Y8.90154
G01 X-24.20462 Y8.90248
G01 X-24.20332 Y8.90154
G01 X-24.17988 Y8.92757
G01 X-24.15153 Y8.94817
G01 X-24.15232 Y8.94957
G01 X-24.15153 Y8.94817
G01 X-24.11950 Y8.96245
G01 X-24.08521 Y8.96974
G01 X-24.08537 Y8.97131
G01 X-24.08521 Y8.96974
G01 X-24.05016 Y8.96974
G01 X-24.01587 Y8.96245
G01 X-24.01539 Y8.96395
G01 X-24.01587 Y8.96245
G01 X-23.98384 Y8.94817
G01 X-23.95550 Y8.92757
G01 X-23.95443 Y8.92874
G01 X-23.95550 Y8.92757
G01 X-23.93205 Y8.90154
G01 X-23.91453 Y8.87118
G01 X-23.91219 Y8.87207
G01 X-23.91453 Y8.87118
G01 X-23.90370 Y8.83786
G01 X-23.90002 Y8.80299
G01 X-23.96479 Y8.80299
G01 X-24.02486 Y8.76994
G01 X-24.04775 Y8.78848
G01 X-24.04516 Y8.79295
G01 X-24.04356 Y8.79786
G01 X-24.04302 Y8.80299
G01 X-24.04356 Y8.80812
G01 X-24.04516 Y8.81302
G01 X-24.04775 Y8.81749
G01 X-24.05118 Y8.82130
G01 X-24.03264 Y8.84416
G01 X-24.05118 Y8.82130
G01 X-24.05537 Y8.82435
G01 X-24.06004 Y8.82643
G01 X-24.06512 Y8.82750
G01 X-24.07025 Y8.82750
G01 X-24.07533 Y8.82643
G01 X-24.08001 Y8.82435
G01 X-24.08420 Y8.82130
G01 X-24.08763 Y8.81749
G01 X-24.11051 Y8.83606
G01 X-24.08763 Y8.81749
G01 X-24.09022 Y8.81302
G01 X-24.09182 Y8.80812
G01 X-24.09235 Y8.80299
G01 X-24.09182 Y8.79786
G01 X-24.09022 Y8.79295
G01 X-24.08763 Y8.78848
G01 X-24.08420 Y8.78467
G01 X-24.10276 Y8.76179
G01 X-24.08420 Y8.78467
G01 X-24.08001 Y8.78162
G01 X-24.07531 Y8.77954
G01 X-24.07025 Y8.77848
G01 X-24.06512 Y8.77848
G01 X-24.06007 Y8.77954
G01 X-24.05537 Y8.78162
G01 X-24.05118 Y8.78467
G01 X-24.04775 Y8.78848
G01 X-24.02486 Y8.76994
G01 X-23.96479 Y8.80299
G01 X-23.97152 Y8.80299
G01 X-23.97363 Y8.82298
G01 X-23.97983 Y8.84210
G01 X-23.98989 Y8.85953
G01 X-24.00335 Y8.87444
G01 X-23.99885 Y8.87944
G01 X-24.00335 Y8.87444
G01 X-24.01961 Y8.88627
G01 X-24.03797 Y8.89443
G01 X-24.05765 Y8.89862
G01 X-24.07775 Y8.89862
G01 X-24.07800 Y8.90367
G01 X-24.07775 Y8.89862
G01 X-24.09741 Y8.89443
G01 X-24.11577 Y8.88627
G01 X-24.13203 Y8.87444
G01 X-24.13561 Y8.87802
G01 X-24.13203 Y8.87444
G01 X-24.14549 Y8.85953
G01 X-24.15552 Y8.84210
G01 X-24.16174 Y8.82298
G01 X-24.16385 Y8.80299
G01 X-24.16891 Y8.80324
G01 X-24.16385 Y8.80299
G01 X-24.16174 Y8.78300
G01 X-24.15555 Y8.76387
G01 X-24.14549 Y8.74645
G01 X-24.14940 Y8.74327
G01 X-24.14549 Y8.74645
G01 X-24.13203 Y8.73154
G01 X-24.11577 Y8.71972
G01 X-24.09738 Y8.71152
G01 X-24.07775 Y8.70735
G01 X-24.07846 Y8.70067
G01 X-24.07775 Y8.70735
G01 X-24.05763 Y8.70735
G01 X-24.03799 Y8.71152
G01 X-24.01961 Y8.71972
G01 X-24.00335 Y8.73154
G01 X-23.99885 Y8.72653
G01 X-24.00335 Y8.73154
G01 X-23.98989 Y8.74645
G01 X-23.97983 Y8.76390
G01 X-23.97363 Y8.78300
G01 X-23.97152 Y8.80299
G04 P0 ( dwell for no time -- G64 should not smooth over this point )
G00 Z5.00000 ( retract )

G00 X-8.53632 Y25.47196 ( rapid move to begin. )
G01 F40.00000
( Mill infeed pass 1/1 )
G01 Z-0.00500
G04 P0 ( dwell for no time -- G64 should not smooth over this point )
G01 F100.00000
G01 X-8.53632 Y25.47196
G01 X-8.54311 Y25.40740
G01 X-8.56317 Y25.34562
G01 X-8.56172 Y25.34499
G01 X-8.56317 Y25.34562
G01 X-8.59566 Y25.28936
G01 X-8.63909 Y25.24113
G01 X-8.63848 Y25.24049
G01 X-8.63909 Y25.24113
G01 X-8.69167 Y25.20295
G01 X-8.69126 Y25.20217
G01 X-8.69167 Y25.20295
G01 X-8.75100 Y25.17654
G01 X-8.81450 Y25.16302
G01 X-8.81433 Y25.16145
G01 X-8.81450 Y25.16302
G01 X-8.87948 Y25.16302
G01 X-8.94298 Y25.17654
G01 X-8.94349 Y25.17501
G01 X-8.94298 Y25.17654
G01 X-9.00231 Y25.20293
G01 X-9.05486 Y25.24113
G01 X-9.05593 Y25.23996
G01 X-9.05486 Y25.24113
G01 X-9.09830 Y25.28936
G01 X-9.13079 Y25.34562
G01 X-9.13223 Y25.34499
G01 X-9.13079 Y25.34562
G01 X-9.15085 Y25.40740
G01 X-9.15766 Y25.47196
G01 X-9.15923 Y25.47196
G01 X-9.15766 Y25.47196
G01 X-9.15085 Y25.53658
G01 X-9.13079 Y25.59836
G01 X-9.13223 Y25.59899
G01 X-9.13079 Y25.59836
G01 X-9.09830 Y25.65459
G01 X-9.05486 Y25.70285
G01 X-9.05550 Y25.70346
G01 X-9.05486 Y25.70285
G01 X-9.00231 Y25.74103
G01 X-9.00272 Y25.74181
G01 X-9.00231 Y25.74103
G01 X-8.94298 Y25.76744
G01 X-8.87948 Y25.78096
G01 X-8.87963 Y25.78253
G01 X-8.87948 Y25.78096
G01 X-8.81450 Y25.78096
G01 X-8.75100 Y25.76744
G01 X-8.75050 Y25.76897
G01 X-8.75100 Y25.76744
G01 X-8.69167 Y25.74103
G01 X-8.63909 Y25.70285
G01 X-8.63803 Y25.70402
G01 X-8.63909 Y25.70285
G01 X-8.59566 Y25.65459
G01 X-8.56317 Y25.59836
G01 X-8.56172 Y25.59899
G01 X-8.56317 Y25.59836
G01 X-8.54311 Y25.53658
G01 X-8.53632 Y25.47196
G01 X-8.53472 Y25.47196
G01 X-8.75083 Y25.47196
G01 X-8.75294 Y25.45200
G01 X-8.75916 Y25.43287
G01 X-8.76919 Y25.41547
G01 X-8.78265 Y25.40051
G01 X-8.77816 Y25.39551
G01 X-8.78265 Y25.40051
G01 X-8.79891 Y25.38870
G01 X-8.81727 Y25.38052
G01 X-8.83693 Y25.37636
G01 X-8.85702 Y25.37636
G01 X-8.85730 Y25.37130
G01 X-8.85702 Y25.37636
G01 X-8.87671 Y25.38052
G01 X-8.89507 Y25.38873
G01 X-8.91133 Y25.40051
G01 X-8.91377 Y25.39780
G01 X-8.91133 Y25.40051
G01 X-8.92479 Y25.41547
G01 X-8.93482 Y25.43287
G01 X-8.94105 Y25.45200
G01 X-8.94605 Y25.45119
G01 X-8.94105 Y25.45200
G01 X-8.94316 Y25.47196
G01 X-8.94105 Y25.49198
G01 X-8.93482 Y25.51111
G01 X-8.92479 Y25.52850
G01 X-8.93023 Y25.53244
G01 X-8.92479 Y25.52850
G01 X-8.91133 Y25.54344
G01 X-8.89507 Y25.55525
G01 X-8.87671 Y25.56343
G01 X-8.85702 Y25.56760
G01 X-8.85774 Y25.57433
G01 X-8.85702 Y25.56760
G01 X-8.83693 Y25.56760
G01 X-8.81727 Y25.56343
G01 X-8.79891 Y25.55525
G01 X-8.78265 Y25.54344
G01 X-8.77813 Y25.54844
G01 X-8.78265 Y25.54344
G01 X-8.76919 Y25.52850
G01 X-8.75916 Y25.51111
G01 X-8.75294 Y25.49198
G01 X-8.75083 Y25.47196
G01 X-8.74410 Y25.47196
G01 X-8.79444 Y25.45921
G01 X-8.82286 Y25.46686
G01 X-8.82446 Y25.46196
G01 X-8.82703 Y25.45751
G01 X-8.83048 Y25.45365
G01 X-8.83467 Y25.45063
G01 X-8.83937 Y25.44852
G01 X-8.84440 Y25.44745
G01 X-8.84956 Y25.44745
G01 X-8.85459 Y25.44852
G01 X-8.86221 Y25.42010
G01 X-8.85459 Y25.44852
G01 X-8.85931 Y25.45063
G01 X-8.86350 Y25.45365
G01 X-8.86693 Y25.45749
G01 X-8.86952 Y25.46196
G01 X-8.87110 Y25.46686
G01 X-8.87165 Y25.47196
G01 X-8.87110 Y25.47712
G01 X-8.89957 Y25.48472
G01 X-8.87110 Y25.47712
G01 X-8.86952 Y25.48197
G01 X-8.86693 Y25.48649
G01 X-8.86350 Y25.49030
G01 X-8.85931 Y25.49335
G01 X-8.85461 Y25.49541
G01 X-8.84956 Y25.49650
G01 X-8.84440 Y25.49650
G01 X-8.83935 Y25.49541
G01 X-8.83173 Y25.52386
G01 X-8.83935 Y25.49541
G01 X-8.83467 Y25.49335
G01 X-8.83048 Y25.49030
G01 X-8.82703 Y25.48647
G01 X-8.82446 Y25.48202
G01 X-8.82286 Y25.47712
G01 X-8.82233 Y25.47196
G01 X-8.82286 Y25.46686
G01 X-8.79444 Y25.45921
G01 X-8.74410 Y25.47196
G01 X-8.67933 Y25.47196
G01 X-8.68298 Y25.50686
G01 X-8.68143 Y25.50719
G01 X-8.68298 Y25.50686
G01 X-8.69380 Y25.54016
G01 X-8.71136 Y25.57054
G01 X-8.71006 Y25.57148
G01 X-8.71136 Y25.57054
G01 X-8.73480 Y25.59658
G01 X-8.76315 Y25.61718
G01 X-8.76236 Y25.61855
G01 X-8.76315 Y25.61718
G01 X-8.79520 Y25.63143
G01 X-8.82944 Y25.63869
G01 X-8.82926 Y25.64026
G01 X-8.82944 Y25.63869
G01 X-8.86454 Y25.63869
G01 X-8.89878 Y25.63143
G01 X-8.89967 Y25.63376
G01 X-8.89878 Y25.63143
G01 X-8.93084 Y25.61718
G01 X-8.95916 Y25.59660
G01 X-8.98263 Y25.57054
G01 X-8.98458 Y25.57212
G01 X-8.98263 Y25.57054
G01 X-9.00015 Y25.54016
G01 X-9.01097 Y25.50684
G01 X-9.01255 Y25.50717
G01 X-9.01097 Y25.50684
G01 X-9.01466 Y25.47196
G01 X-9.01097 Y25.43712
G01 X-9.01255 Y25.43679
G01 X-9.01097 Y25.43712
G01 X-9.00015 Y25.40379
G01 X-8.98263 Y25.37344
G01 X-8.98390 Y25.37250
G01 X-8.98263 Y25.37344
G01 X-8.95916 Y25.34738
G01 X-8.93084 Y25.32680
G01 X-8.93195 Y25.32457
G01 X-8.93084 Y25.32680
G01 X-8.89881 Y25.31253
G01 X-8.86452 Y25.30524
G01 X-8.82947 Y25.30524
G01 X-8.82934 Y25.30275
G01 X-8.82947 Y25.30524
G01 X-8.79518 Y25.31253
G01 X-8.76315 Y25.32680
G01 X-8.76236 Y25.32541
G01 X-8.76315 Y25.32680
G01 X-8.73480 Y25.34738
G01 X-8.71136 Y25.37344
G01 X-8.71006 Y25.37250
G01 X-8.71136 Y25.37344
G01 X-8.69383 Y25.40382
G01 X-8.68298 Y25.43712
G01 X-8.68143 Y25.43679
G01 X-8.68298 Y25.43712
G01 X-8.67933 Y25.47196
G01 X-8.60694 Y25.47194
G01 X-8.60782 Y25.47196
G01 X-8.61306 Y25.52172
G01 X-8.61219 Y25.52195
G01 X-8.61306 Y25.52172
G01 X-8.62850 Y25.56925
G01 X-8.65349 Y25.61255
G01 X-8.65222 Y25.61347
G01 X-8.65349 Y25.61255
G01 X-8.68697 Y25.64974
G01 X-8.72741 Y25.67908
G01 X-8.72660 Y25.68045
G01 X-8.72741 Y25.67908
G01 X-8.77308 Y25.69945
G01 X-8.82200 Y25.70984
G01 X-8.82185 Y25.71144
G01 X-8.82200 Y25.70984
G01 X-8.87196 Y25.70984
G01 X-8.92091 Y25.69945
G01 X-8.92139 Y25.70095
G01 X-8.92091 Y25.69945
G01 X-8.96657 Y25.67908
G01 X-9.00701 Y25.64971
G01 X-9.00808 Y25.65091
G01 X-9.00701 Y25.64971
G01 X-9.04046 Y25.61258
G01 X-9.06548 Y25.56925
G01 X-9.06693 Y25.56991
G01 X-9.06548 Y25.56925
G01 X-9.08093 Y25.52172
G01 X-9.08616 Y25.47196
G01 X-9.08773 Y25.47196
G01 X-9.08616 Y25.47196
G01 X-9.08093 Y25.42226
G01 X-9.06548 Y25.37471
G01 X-9.06693 Y25.37407
G01 X-9.06548 Y25.37471
G01 X-9.04046 Y25.33140
G01 X-9.00704 Y25.29427
G01 X-9.00767 Y25.29363
G01 X-9.00704 Y25.29427
G01 X-8.96657 Y25.26488
G01 X-8.96698 Y25.26409
G01 X-8.96657 Y25.26488
G01 X-8.92088 Y25.24453
G01 X-8.87199 Y25.23414
G01 X-8.87216 Y25.23257
G01 X-8.87199 Y25.23414
G01 X-8.82197 Y25.23414
G01 X-8.77310 Y25.24453
G01 X-8.77259 Y25.24301
G01 X-8.77310 Y25.24453
G01 X-8.72738 Y25.26488
G01 X-8.68695 Y25.29427
G01 X-8.68590 Y25.29307
G01 X-8.68695 Y25.29427
G01 X-8.65352 Y25.33140
G01 X-8.62850 Y25.37473
G01 X-8.62705 Y25.37407
G01 X-8.62850 Y25.37473
G01 X-8.61306 Y25.42226
G01 X-8.60782 Y25.47196
G01 X-8.46482 Y25.47196
G01 X-8.47318 Y25.55147
G01 X-8.47163 Y25.55180
G01 X-8.47318 Y25.55147
G01 X-8.49787 Y25.62739
G01 X-8.53780 Y25.69660
G01 X-8.53653 Y25.69752
G01 X-8.53780 Y25.69660
G01 X-8.59126 Y25.75599
G01 X-8.65591 Y25.80295
G01 X-8.65512 Y25.80432
G01 X-8.65591 Y25.80295
G01 X-8.72891 Y25.83544
G01 X-8.80706 Y25.85205
G01 X-8.80688 Y25.85362
G01 X-8.80706 Y25.85205
G01 X-8.88692 Y25.85205
G01 X-8.96508 Y25.83544
G01 X-8.96556 Y25.83696
G01 X-8.96508 Y25.83544
G01 X-9.03808 Y25.80295
G01 X-9.10269 Y25.75599
G01 X-9.10325 Y25.75667
G01 X-9.10269 Y25.75599
G01 X-9.15619 Y25.69660
G01 X-9.15692 Y25.69708
G01 X-9.15619 Y25.69660
G01 X-9.19611 Y25.62744
G01 X-9.22080 Y25.55142
G01 X-9.22235 Y25.55177
G01 X-9.22080 Y25.55142
G01 X-9.22916 Y25.47196
G01 X-9.22080 Y25.39254
G01 X-9.22235 Y25.39221
G01 X-9.22080 Y25.39254
G01 X-9.19611 Y25.31654
G01 X-9.15616 Y25.24735
G01 X-9.15746 Y25.24644
G01 X-9.15616 Y25.24735
G01 X-9.10269 Y25.18799
G01 X-9.03808 Y25.14103
G01 X-9.03886 Y25.13966
G01 X-9.03808 Y25.14103
G01 X-8.96508 Y25.10852
G01 X-8.88695 Y25.09193
G01 X-8.88710 Y25.09033
G01 X-8.88695 Y25.09193
G01 X-8.80704 Y25.09193
G01 X-8.72891 Y25.10852
G01 X-8.72840 Y25.10702
G01 X-8.72891 Y25.10852
G01 X-8.65591 Y25.14103
G01 X-8.59126 Y25.18799
G01 X-8.59071 Y25.18731
G01 X-8.59126 Y25.18799
G01 X-8.53780 Y25.24735
G01 X-8.53706 Y25.24687
G01 X-8.53780 Y25.24735
G01 X-8.49787 Y25.31654
G01 X-8.47318 Y25.39251
G01 X-8.47163 Y25.39218
G01 X-8.47318 Y25.39251
G01 X-8.46482 Y25.47196
G01 X-8.39332 Y25.47196
G01 X-8.40323 Y25.56630
G01 X-8.43254 Y25.65650
G01 X-8.43109 Y25.65713
G01 X-8.43254 Y25.65650
G01 X-8.47996 Y25.73864
G01 X-8.54344 Y25.80912
G01 X-8.54237 Y25.81029
G01 X-8.54344 Y25.80912
G01 X-8.62014 Y25.86488
G01 X-8.70681 Y25.90346
G01 X-8.70633 Y25.90496
G01 X-8.70681 Y25.90346
G01 X-8.79954 Y25.92317
G01 X-8.89441 Y25.92317
G01 X-8.89459 Y25.92475
G01 X-8.89441 Y25.92317
G01 X-8.98717 Y25.90346
G01 X-9.07384 Y25.86488
G01 X-9.07425 Y25.86566
G01 X-9.07384 Y25.86488
G01 X-9.15055 Y25.80912
G01 X-9.15118 Y25.80973
G01 X-9.15055 Y25.80912
G01 X-9.21400 Y25.73864
G01 X-9.26144 Y25.65650
G01 X-9.26289 Y25.65713
G01 X-9.26144 Y25.65650
G01 X-9.29073 Y25.56630
G01 X-9.30066 Y25.47196
G01 X-9.30224 Y25.47196
G01 X-9.30066 Y25.47196
G01 X-9.29073 Y25.37765
G01 X-9.26144 Y25.28748
G01 X-9.26226 Y25.28715
G01 X-9.26144 Y25.28748
G01 X-9.21400 Y25.20532
G01 X-9.21471 Y25.20476
G01 X-9.21400 Y25.20532
G01 X-9.15055 Y25.13483
G01 X-9.07384 Y25.07910
G01 X-9.07463 Y25.07773
G01 X-9.07384 Y25.07910
G01 X-8.98720 Y25.04052
G01 X-8.89439 Y25.02081
G01 X-8.89457 Y25.01923
G01 X-8.89439 Y25.02081
G01 X-8.79957 Y25.02081
G01 X-8.70678 Y25.04052
G01 X-8.70630 Y25.03902
G01 X-8.70678 Y25.04052
G01 X-8.62014 Y25.07910
G01 X-8.54344 Y25.13483
G01 X-8.54237 Y25.13366
G01 X-8.54344 Y25.13483
G01 X-8.47996 Y25.20534
G01 X-8.43254 Y25.28748
G01 X-8.43109 Y25.28682
G01 X-8.43254 Y25.28748
G01 X-8.40323 Y25.37765
G01 X-8.39332 Y25.47196
G01 X-8.32182 Y25.47196
G01 X-8.33330 Y25.58116
G01 X-8.33292 Y25.58124
G01 X-8.33330 Y25.58116
G01 X-8.36721 Y25.68558
G01 X-8.36686 Y25.68573
G01 X-8.36721 Y25.68558
G01 X-8.42213 Y25.78068
G01 X-8.42180 Y25.78088
G01 X-8.42213 Y25.78068
G01 X-8.49558 Y25.86226
G01 X-8.49533 Y25.86254
G01 X-8.49558 Y25.86226
G01 X-8.58441 Y25.92680
G01 X-8.58420 Y25.92711
G01 X-8.58441 Y25.92680
G01 X-8.68471 Y25.97146
G01 X-8.68458 Y25.97181
G01 X-8.68471 Y25.97146
G01 X-8.79210 Y25.99426
G01 X-8.79205 Y25.99465
G01 X-8.79210 Y25.99426
G01 X-8.90188 Y25.99426
G01 X-8.90191 Y25.99465
G01 X-8.90188 Y25.99426
G01 X-9.00927 Y25.97146
G01 X-9.00940 Y25.97181
G01 X-9.00927 Y25.97146
G01 X-9.10958 Y25.92680
G01 X-9.10978 Y25.92711
G01 X-9.10958 Y25.92680
G01 X-9.19840 Y25.86226
G01 X-9.19865 Y25.86254
G01 X-9.19840 Y25.86226
G01 X-9.27186 Y25.78068
G01 X-9.27216 Y25.78088
G01 X-9.27186 Y25.78068
G01 X-9.32675 Y25.68558
G01 X-9.32710 Y25.68576
G01 X-9.32675 Y25.68558
G01 X-9.36068 Y25.58116
G01 X-9.36106 Y25.58124
G01 X-9.36068 Y25.58116
G01 X-9.37216 Y25.47196
G01 X-9.37254 Y25.47196
G01 X-9.37216 Y25.47196
G01 X-9.36068 Y25.36282
G01 X-9.36106 Y25.36272
G01 X-9.36068 Y25.36282
G01 X-9.32675 Y25.25838
G01 X-9.32710 Y25.25822
G01 X-9.32675 Y25.25838
G01 X-9.27186 Y25.16330
G01 X-9.27216 Y25.16308
G01 X-9.27186 Y25.16330
G01 X-9.19840 Y25.08172
G01 X-9.19865 Y25.08141
G01 X-9.19840 Y25.08172
G01 X-9.10958 Y25.01718
G01 X-9.10978 Y25.01685
G01 X-9.10958 Y25.01718
G01 X-9.00927 Y24.97252
G01 X-9.00940 Y24.97214
G01 X-9.00927 Y24.97252
G01 X-8.90188 Y24.94969
G01 X-8.90191 Y24.94931
G01 X-8.90188 Y24.94969
G01 X-8.79210 Y24.94969
G01 X-8.79205 Y24.94931
G01 X-8.79210 Y24.94969
G01 X-8.68471 Y24.97252
G01 X-8.68458 Y24.97214
G01 X-8.68471 Y24.97252
G01 X-8.58441 Y25.01718
G01 X-8.58420 Y25.01685
G01 X-8.58441 Y25.01718
G01 X-8.49558 Y25.08172
G01 X-8.49533 Y25.08141
G01 X-8.49558 Y25.08172
G01 X-8.42213 Y25.16330
G01 X-8.42180 Y25.16308
G01 X-8.42213 Y25.16330
G01 X-8.36721 Y25.25840
G01 X-8.36686 Y25.25825
G01 X-8.36721 Y25.25840
G01 X-8.33330 Y25.36280
G01 X-8.33292 Y25.36272
G01 X-8.33330 Y25.36280
G01 X-8.32182 Y25.47196
G01 X-8.25032 Y25.47196
G01 X-8.26335 Y25.59604
G01 X-8.26297 Y25.59612
G01 X-8.26335 Y25.59604
G01 X-8.30191 Y25.71466
G01 X-8.30155 Y25.71479
G01 X-8.30191 Y25.71466
G01 X-8.36429 Y25.82271
G01 X-8.36396 Y25.82294
G01 X-8.36429 Y25.82271
G01 X-8.44775 Y25.91540
G01 X-8.44747 Y25.91570
G01 X-8.44775 Y25.91540
G01 X-8.54867 Y25.98873
G01 X-8.54847 Y25.98906
G01 X-8.54867 Y25.98873
G01 X-8.66261 Y26.03945
G01 X-8.66249 Y26.03983
G01 X-8.66261 Y26.03945
G01 X-8.78463 Y26.06538
G01 X-8.78458 Y26.06579
G01 X-8.78463 Y26.06538
G01 X-8.90935 Y26.06538
G01 X-8.90937 Y26.06579
G01 X-8.90935 Y26.06538
G01 X-9.03137 Y26.03945
G01 X-9.03150 Y26.03983
G01 X-9.03137 Y26.03945
G01 X-9.14534 Y25.98868
G01 X-9.14552 Y25.98906
G01 X-9.14534 Y25.98868
G01 X-9.24623 Y25.91542
G01 X-9.24648 Y25.91570
G01 X-9.24623 Y25.91542
G01 X-9.32969 Y25.82271
G01 X-9.33002 Y25.82294
G01 X-9.32969 Y25.82271
G01 X-9.39208 Y25.71466
G01 X-9.39243 Y25.71479
G01 X-9.39208 Y25.71466
G01 X-9.43061 Y25.59604
G01 X-9.43099 Y25.59612
G01 X-9.43061 Y25.59604
G01 X-9.44366 Y25.47196
G01 X-9.44404 Y25.47196
G01 X-9.44366 Y25.47196
G01 X-9.43061 Y25.34794
G01 X-9.43099 Y25.34786
G01 X-9.43061 Y25.34794
G01 X-9.39208 Y25.22932
G01 X-9.39243 Y25.22914
G01 X-9.39208 Y25.22932
G01 X-9.32969 Y25.12127
G01 X-9.33002 Y25.12104
G01 X-9.32969 Y25.12127
G01 X-9.24623 Y25.02856
G01 X-9.24648 Y25.02828
G01 X-9.24623 Y25.02856
G01 X-9.14531 Y24.95525
G01 X-9.14552 Y24.95492
G01 X-9.14531 Y24.95525
G01 X-9.03137 Y24.90453
G01 X-9.03150 Y24.90415
G01 X-9.03137 Y24.90453
G01 X-8.90935 Y24.87860
G01 X-8.90937 Y24.87819
G01 X-8.90935 Y24.87860
G01 X-8.78463 Y24.87860
G01 X-8.78458 Y24.87819
G01 X-8.78463 Y24.87860
G01 X-8.66261 Y24.90453
G01 X-8.66249 Y24.90415
G01 X-8.66261 Y24.90453
G01 X-8.54867 Y24.95525
G01 X-8.54847 Y24.95492
G01 X-8.54867 Y24.95525
G01 X-8.44775 Y25.02858
G01 X-8.44747 Y25.02828
G01 X-8.44775 Y25.02858
G01 X-8.36429 Y25.12127
G01 X-8.36396 Y25.12104
G01 X-8.36429 Y25.12127
G01 X-8.30191 Y25.22932
G01 X-8.30155 Y25.22914
G01 X-8.30191 Y25.22932
G01 X-8.26335 Y25.34794
G01 X-8.26297 Y25.34786
G01 X-8.26335 Y25.34794
G01 X-8.25032 Y25.47196
G01 X-8.17882 Y25.47196
G01 X-8.19342 Y25.61090
G01 X-8.19304 Y25.61098
G01 X-8.19342 Y25.61090
G01 X-8.23660 Y25.74377
G01 X-8.23625 Y25.74392
G01 X-8.23660 Y25.74377
G01 X-8.30643 Y25.86472
G01 X-8.30610 Y25.86493
G01 X-8.30643 Y25.86472
G01 X-8.39990 Y25.96853
G01 X-8.39962 Y25.96879
G01 X-8.39990 Y25.96853
G01 X-8.51288 Y26.05063
G01 X-8.51270 Y26.05096
G01 X-8.51288 Y26.05063
G01 X-8.64051 Y26.10742
G01 X-8.64039 Y26.10783
G01 X-8.64051 Y26.10742
G01 X-8.77714 Y26.13648
G01 X-8.77709 Y26.13689
G01 X-8.77714 Y26.13648
G01 X-8.91684 Y26.13648
G01 X-8.91687 Y26.13689
G01 X-8.91684 Y26.13648
G01 X-9.05347 Y26.10742
G01 X-9.05359 Y26.10783
G01 X-9.05347 Y26.10742
G01 X-9.18108 Y26.05063
G01 X-9.18128 Y26.05096
G01 X-9.18108 Y26.05063
G01 X-9.29408 Y25.96853
G01 X-9.29434 Y25.96879
G01 X-9.29408 Y25.96853
G01 X-9.38755 Y25.86472
G01 X-9.38786 Y25.86493
G01 X-9.38755 Y25.86472
G01 X-9.45738 Y25.74377
G01 X-9.45773 Y25.74392
G01 X-9.45738 Y25.74377
G01 X-9.50056 Y25.61090
G01 X-9.50094 Y25.61098
G01 X-9.50056 Y25.61090
G01 X-9.51516 Y25.47196
G01 X-9.51554 Y25.47196
G01 X-9.51516 Y25.47196
G01 X-9.50056 Y25.33308
G01 X-9.50094 Y25.33300
G01 X-9.50056 Y25.33308
G01 X-9.45738 Y25.20021
G01 X-9.45773 Y25.20006
G01 X-9.45738 Y25.20021
G01 X-9.38755 Y25.07926
G01 X-9.38786 Y25.07903
G01 X-9.38755 Y25.07926
G01 X-9.29408 Y24.97545
G01 X-9.29434 Y24.97514
G01 X-9.29408 Y24.97545
G01 X-9.18108 Y24.89333
G01 X-9.18126 Y24.89300
G01 X-9.18108 Y24.89333
G01 X-9.05347 Y24.83653
G01 X-9.05359 Y24.83615
G01 X-9.05347 Y24.83653
G01 X-8.91682 Y24.80748
G01 X-8.91684 Y24.80709
G01 X-8.91682 Y24.80748
G01 X-8.77717 Y24.80748
G01 X-8.77712 Y24.80709
G01 X-8.77717 Y24.80748
G01 X-8.64051 Y24.83653
G01 X-8.64039 Y24.83615
G01 X-8.64051 Y24.83653
G01 X-8.51291 Y24.89333
G01 X-8.51270 Y24.89300
G01 X-8.51291 Y24.89333
G01 X-8.39990 Y24.97545
G01 X-8.39962 Y24.97517
G01 X-8.39990 Y24.97545
G01 X-8.30643 Y25.07926
G01 X-8.30610 Y25.07903
G01 X-8.30643 Y25.07926
G01 X-8.23658 Y25.20021
G01 X-8.23622 Y25.20006
G01 X-8.23658 Y25.20021
G01 X-8.19342 Y25.33308
G01 X-8.19304 Y25.33300
G01 X-8.19342 Y25.33308
G01 X-8.17882 Y25.47196
G01 X-8.10732 Y25.47196
G01 X-8.12350 Y25.31819
G01 X-8.17128 Y25.17115
G01 X-8.24859 Y25.03722
G01 X-8.35205 Y24.92231
G01 X-8.47717 Y24.83140
G01 X-8.61842 Y24.76851
G01 X-8.76970 Y24.73636
G01 X-8.92428 Y24.73636
G01 X-9.07557 Y24.76851
G01 X-9.21682 Y24.83140
G01 X-9.34191 Y24.92231
G01 X-9.44539 Y25.03722
G01 X-9.52271 Y25.17113
G01 X-9.57048 Y25.31822
G01 X-9.58666 Y25.47196
G01 X-9.57048 Y25.62574
G01 X-9.52271 Y25.77283
G01 X-9.44539 Y25.90674
G01 X-9.34191 Y26.02165
G01 X-9.21682 Y26.11255
G01 X-9.07557 Y26.17542
G01 X-8.92428 Y26.20757
G01 X-8.76967 Y26.20757
G01 X-8.61842 Y26.17542
G01 X-8.47714 Y26.11255
G01 X-8.35205 Y26.02165
G01 X-8.24859 Y25.90676
G01 X-8.17128 Y25.77283
G01 X-8.12347 Y25.62579
G01 X-8.10732 Y25.47196
G04 P0 ( dwell for no time -- G64 should not smooth over this point )
G00 Z5.00000 ( retract )

G00 X-8.10699 Y26.73198 ( rapid move to begin. )
G01 F40.00000
( Mill infeed pass 1/1 )
G01 Z-0.00500
G04 P0 ( dwell for no time -- G64 should not smooth over this point )
G01 F100.00000
G01 X-8.10699 Y26.73198
G01 X-8.10699 Y28.21199
G01 X-9.58699 Y28.21199
G01 X-9.58699 Y26.73198
G01 X-8.10699 Y26.73198
G01 X-8.17811 Y26.80310
G01 X-8.17811 Y28.14087
G01 X-8.15728 Y28.16170
G01 X-8.17811 Y28.14087
G01 X-9.51587 Y28.14087
G01 X-9.53670 Y28.16170
G01 X-9.51587 Y28.14087
G01 X-9.51587 Y26.80310
G01 X-9.53670 Y26.78227
G01 X-9.51587 Y26.80310
G01 X-8.17811 Y26.80310
G01 X-8.24920 Y26.87420
G01 X-8.24920 Y28.06977
G01 X-8.22837 Y28.09060
G01 X-8.24920 Y28.06977
G01 X-9.44478 Y28.06977
G01 X-9.46561 Y28.09060
G01 X-9.44478 Y28.06977
G01 X-9.44478 Y26.87420
G01 X-9.46561 Y26.85337
G01 X-9.44478 Y26.87420
G01 X-8.24920 Y26.87420
G01 X-8.32032 Y26.94532
G01 X-8.32032 Y27.99865
G01 X-8.29949 Y28.01948
G01 X-8.32032 Y27.99865
G01 X-9.37366 Y27.99865
G01 X-9.39449 Y28.01948
G01 X-9.37366 Y27.99865
G01 X-9.37366 Y26.94532
G01 X-9.39449 Y26.92449
G01 X-9.37366 Y26.94532
G01 X-8.32032 Y26.94532
G01 X-8.39142 Y27.01641
G01 X-8.39142 Y27.92756
G01 X-8.37059 Y27.94836
G01 X-8.39142 Y27.92756
G01 X-9.30254 Y27.92756
G01 X-9.32337 Y27.94836
G01 X-9.30254 Y27.92756
G01 X-9.30254 Y27.01641
G01 X-9.32337 Y26.99558
G01 X-9.30254 Y27.01641
G01 X-8.39142 Y27.01641
G01 X-8.46254 Y27.08753
G01 X-8.46254 Y27.85644
G01 X-8.44171 Y27.87727
G01 X-8.46254 Y27.85644
G01 X-9.23145 Y27.85644
G01 X-9.25227 Y27.87727
G01 X-9.23145 Y27.85644
G01 X-9.23145 Y27.08753
G01 X-9.25227 Y27.06670
G01 X-9.23145 Y27.08753
G01 X-8.46254 Y27.08753
G01 X-8.53366 Y27.15865
G01 X-8.53366 Y27.78535
G01 X-8.51283 Y27.80615
G01 X-8.53366 Y27.78535
G01 X-9.16033 Y27.78535
G01 X-9.18115 Y27.80615
G01 X-9.16033 Y27.78535
G01 X-9.16033 Y27.15865
G01 X-9.18115 Y27.13782
G01 X-9.16033 Y27.15865
G01 X-8.53366 Y27.15865
G01 X-8.60475 Y27.22975
G01 X-8.60475 Y27.71423
G01 X-8.58392 Y27.73505
G01 X-8.60475 Y27.71423
G01 X-9.08923 Y27.71423
G01 X-9.11006 Y27.73505
G01 X-9.08923 Y27.71423
G01 X-9.08923 Y27.22975
G01 X-9.11006 Y27.20892
G01 X-9.08923 Y27.22975
G01 X-8.60475 Y27.22975
G01 X-8.67587 Y27.30087
G01 X-8.67587 Y27.64311
G01 X-8.65504 Y27.66393
G01 X-8.67587 Y27.64311
G01 X-9.01811 Y27.64311
G01 X-9.03894 Y27.66393
G01 X-9.01811 Y27.64311
G01 X-9.01811 Y27.30087
G01 X-9.03894 Y27.28004
G01 X-9.01811 Y27.30087
G01 X-8.67587 Y27.30087
G01 X-8.74697 Y27.37196
G01 X-8.74697 Y27.57201
G01 X-8.72614 Y27.59284
G01 X-8.74697 Y27.57201
G01 X-8.94699 Y27.57201
G01 X-8.96782 Y27.59284
G01 X-8.94699 Y27.57201
G01 X-8.94699 Y27.37196
G01 X-8.96782 Y27.35113
G01 X-8.94699 Y27.37196
G01 X-8.74697 Y27.37196
G01 X-8.81809 Y27.44308
G01 X-8.81809 Y27.50089
G01 X-8.79726 Y27.52172
G01 X-8.81809 Y27.50089
G01 X-8.87590 Y27.50089
G01 X-8.89672 Y27.52172
G01 X-8.87590 Y27.50089
G01 X-8.87590 Y27.44308
G01 X-8.89672 Y27.42225
G01 X-8.87590 Y27.44308
G01 X-8.81809 Y27.44308
G04 P0 ( dwell for no time -- G64 should not smooth over this point )
G00 Z5.00000 ( retract )

G00 X-26.39555 Y27.67371 ( rapid move to begin. )
G01 F40.00000
( Mill infeed pass 1/1 )
G01 Z-0.00500
G04 P0 ( dwell for no time -- G64 should not smooth over this point )
G01 F100.00000
G01 X-26.39555 Y27.67371
G01 X-26.34635 Y27.67298
G01 X-26.39252 Y27.67519
G01 X-26.40152 Y27.67948
G01 X-26.45148 Y27.71578
G01 X-26.49412 Y27.76043
G01 X-26.52816 Y27.81196
G01 X-26.55244 Y27.86873
G01 X-26.57591 Y27.94107
G01 X-26.64426 Y28.05941
G01 X-26.64373 Y28.05977
G01 X-26.64426 Y28.05941
G01 X-26.73568 Y28.16094
G01 X-26.73542 Y28.16124
G01 X-26.73568 Y28.16094
G01 X-26.84624 Y28.24128
G01 X-26.84607 Y28.24161
G01 X-26.84624 Y28.24128
G01 X-26.97109 Y28.29685
G01 X-26.97096 Y28.29723
G01 X-26.97109 Y28.29685
G01 X-27.10477 Y28.32527
G01 X-27.10474 Y28.32565
G01 X-27.10477 Y28.32527
G01 X-27.24139 Y28.32527
G01 X-27.24144 Y28.32565
G01 X-27.24139 Y28.32527
G01 X-27.37510 Y28.29685
G01 X-27.37522 Y28.29723
G01 X-27.37510 Y28.29685
G01 X-27.49994 Y28.24128
G01 X-27.50012 Y28.24161
G01 X-27.49994 Y28.24128
G01 X-27.61048 Y28.16096
G01 X-27.61073 Y28.16124
G01 X-27.61048 Y28.16096
G01 X-27.70192 Y28.05939
G01 X-27.70222 Y28.05962
G01 X-27.70192 Y28.05939
G01 X-27.77025 Y27.94105
G01 X-27.77060 Y27.94120
G01 X-27.77025 Y27.94105
G01 X-27.81249 Y27.81108
G01 X-27.81287 Y27.81115
G01 X-27.81249 Y27.81108
G01 X-27.82676 Y27.67519
G01 X-27.82714 Y27.67519
G01 X-27.82676 Y27.67519
G01 X-27.81249 Y27.53930
G01 X-27.81287 Y27.53922
G01 X-27.81249 Y27.53930
G01 X-27.77025 Y27.40932
G01 X-27.77060 Y27.40915
G01 X-27.77025 Y27.40932
G01 X-27.70192 Y27.29099
G01 X-27.70222 Y27.29076
G01 X-27.70192 Y27.29099
G01 X-27.61048 Y27.18941
G01 X-27.61073 Y27.18913
G01 X-27.61048 Y27.18941
G01 X-27.49994 Y27.10910
G01 X-27.50012 Y27.10877
G01 X-27.49994 Y27.10910
G01 X-27.37510 Y27.05352
G01 X-27.37522 Y27.05314
G01 X-27.37510 Y27.05352
G01 X-27.24139 Y27.02510
G01 X-27.24144 Y27.02472
G01 X-27.24139 Y27.02510
G01 X-27.10477 Y27.02510
G01 X-27.10474 Y27.02472
G01 X-27.10477 Y27.02510
G01 X-26.97109 Y27.05352
G01 X-26.97096 Y27.05314
G01 X-26.97109 Y27.05352
G01 X-26.84624 Y27.10910
G01 X-26.84607 Y27.10877
G01 X-26.84624 Y27.10910
G01 X-26.73568 Y27.18944
G01 X-26.73542 Y27.18913
G01 X-26.73568 Y27.18944
G01 X-26.64426 Y27.29096
G01 X-26.64396 Y27.29073
G01 X-26.64426 Y27.29096
G01 X-26.57571 Y27.40920
G01 X-26.55244 Y27.48161
G01 X-26.52819 Y27.53838
G01 X-26.49412 Y27.58992
G01 X-26.45148 Y27.63457
G01 X-26.40152 Y27.67087
G01 X-26.39252 Y27.67519
G01 X-26.39555 Y27.67371
G01 X-26.49166 Y27.67519
G01 X-26.51063 Y27.67519
G01 X-26.54972 Y27.71608
G01 X-26.59080 Y27.77826
G01 X-26.62006 Y27.84676
G01 X-26.64104 Y27.91207
G01 X-26.70210 Y28.01737
G01 X-26.70179 Y28.01760
G01 X-26.70210 Y28.01737
G01 X-26.78353 Y28.10782
G01 X-26.78328 Y28.10810
G01 X-26.78353 Y28.10782
G01 X-26.88201 Y28.17935
G01 X-26.88180 Y28.17971
G01 X-26.88201 Y28.17935
G01 X-26.99318 Y28.22886
G01 X-26.99306 Y28.22924
G01 X-26.99318 Y28.22886
G01 X-27.11223 Y28.25415
G01 X-27.11218 Y28.25456
G01 X-27.11223 Y28.25415
G01 X-27.23395 Y28.25415
G01 X-27.23398 Y28.25456
G01 X-27.23395 Y28.25415
G01 X-27.35300 Y28.22886
G01 X-27.35313 Y28.22921
G01 X-27.35300 Y28.22886
G01 X-27.46415 Y28.17935
G01 X-27.46435 Y28.17971
G01 X-27.46415 Y28.17935
G01 X-27.56265 Y28.10780
G01 X-27.56291 Y28.10810
G01 X-27.56265 Y28.10780
G01 X-27.64408 Y28.01735
G01 X-27.64439 Y28.01760
G01 X-27.64408 Y28.01735
G01 X-27.70492 Y27.91196
G01 X-27.70527 Y27.91214
G01 X-27.70492 Y27.91196
G01 X-27.74253 Y27.79622
G01 X-27.74291 Y27.79629
G01 X-27.74253 Y27.79622
G01 X-27.75526 Y27.67519
G01 X-27.75564 Y27.67519
G01 X-27.75526 Y27.67519
G01 X-27.74253 Y27.55415
G01 X-27.74291 Y27.55408
G01 X-27.74253 Y27.55415
G01 X-27.70492 Y27.43841
G01 X-27.70527 Y27.43823
G01 X-27.70492 Y27.43841
G01 X-27.64408 Y27.33302
G01 X-27.64439 Y27.33279
G01 X-27.64408 Y27.33302
G01 X-27.56265 Y27.24257
G01 X-27.56291 Y27.24227
G01 X-27.56265 Y27.24257
G01 X-27.46418 Y27.17102
G01 X-27.46435 Y27.17067
G01 X-27.46418 Y27.17102
G01 X-27.35297 Y27.12152
G01 X-27.35310 Y27.12114
G01 X-27.35297 Y27.12152
G01 X-27.23392 Y27.09622
G01 X-27.23398 Y27.09581
G01 X-27.23392 Y27.09622
G01 X-27.11223 Y27.09622
G01 X-27.11221 Y27.09581
G01 X-27.11223 Y27.09622
G01 X-26.99318 Y27.12152
G01 X-26.99308 Y27.12114
G01 X-26.99318 Y27.12152
G01 X-26.88201 Y27.17102
G01 X-26.88180 Y27.17069
G01 X-26.88201 Y27.17102
G01 X-26.78353 Y27.24255
G01 X-26.78328 Y27.24227
G01 X-26.78353 Y27.24255
G01 X-26.70210 Y27.33300
G01 X-26.70179 Y27.33277
G01 X-26.70210 Y27.33300
G01 X-26.64104 Y27.43831
G01 X-26.62008 Y27.50358
G01 X-26.59080 Y27.57209
G01 X-26.54972 Y27.63427
G01 X-26.51063 Y27.67519
G01 X-26.49166 Y27.67519
G01 X-26.59649 Y27.67582
G01 X-26.60759 Y27.67519
G01 X-26.65341 Y27.74455
G01 X-26.68770 Y27.82479
G01 X-26.70637 Y27.88298
G01 X-26.75996 Y27.97534
G01 X-26.75963 Y27.97557
G01 X-26.75996 Y27.97534
G01 X-26.83139 Y28.05469
G01 X-26.83113 Y28.05497
G01 X-26.83139 Y28.05469
G01 X-26.91775 Y28.11743
G01 X-26.91754 Y28.11778
G01 X-26.91775 Y28.11743
G01 X-27.01528 Y28.16086
G01 X-27.01515 Y28.16124
G01 X-27.01528 Y28.16086
G01 X-27.11973 Y28.18306
G01 X-27.11968 Y28.18344
G01 X-27.11973 Y28.18306
G01 X-27.22646 Y28.18306
G01 X-27.22651 Y28.18344
G01 X-27.22646 Y28.18306
G01 X-27.33090 Y28.16086
G01 X-27.33100 Y28.16124
G01 X-27.33090 Y28.16086
G01 X-27.42841 Y28.11743
G01 X-27.42862 Y28.11778
G01 X-27.42841 Y28.11743
G01 X-27.51480 Y28.05469
G01 X-27.51505 Y28.05497
G01 X-27.51480 Y28.05469
G01 X-27.58622 Y27.97534
G01 X-27.58655 Y27.97557
G01 X-27.58622 Y27.97534
G01 X-27.63959 Y27.88291
G01 X-27.63994 Y27.88306
G01 X-27.63959 Y27.88291
G01 X-27.67258 Y27.78136
G01 X-27.67296 Y27.78146
G01 X-27.67258 Y27.78136
G01 X-27.68376 Y27.67519
G01 X-27.68414 Y27.67519
G01 X-27.68376 Y27.67519
G01 X-27.67258 Y27.56901
G01 X-27.67296 Y27.56894
G01 X-27.67258 Y27.56901
G01 X-27.63959 Y27.46746
G01 X-27.63994 Y27.46731
G01 X-27.63959 Y27.46746
G01 X-27.58622 Y27.37503
G01 X-27.58655 Y27.37481
G01 X-27.58622 Y27.37503
G01 X-27.51480 Y27.29571
G01 X-27.51505 Y27.29541
G01 X-27.51480 Y27.29571
G01 X-27.42841 Y27.23295
G01 X-27.42862 Y27.23259
G01 X-27.42841 Y27.23295
G01 X-27.33090 Y27.18951
G01 X-27.33100 Y27.18916
G01 X-27.33090 Y27.18951
G01 X-27.22646 Y27.16731
G01 X-27.22651 Y27.16693
G01 X-27.22646 Y27.16731
G01 X-27.11973 Y27.16731
G01 X-27.11968 Y27.16693
G01 X-27.11973 Y27.16731
G01 X-27.01528 Y27.18951
G01 X-27.01515 Y27.18916
G01 X-27.01528 Y27.18951
G01 X-26.91775 Y27.23295
G01 X-26.91757 Y27.23259
G01 X-26.91775 Y27.23295
G01 X-26.83139 Y27.29571
G01 X-26.83111 Y27.29541
G01 X-26.83139 Y27.29571
G01 X-26.75996 Y27.37503
G01 X-26.75943 Y27.37468
G01 X-26.75996 Y27.37503
G01 X-26.70657 Y27.46746
G01 X-26.68770 Y27.52555
G01 X-26.65341 Y27.60579
G01 X-26.60759 Y27.67519
G01 X-26.59649 Y27.67582
G01 X-26.68516 Y27.67506
G01 X-26.69247 Y27.67519
G01 X-26.71604 Y27.63947
G01 X-26.75534 Y27.54753
G01 X-26.77190 Y27.49657
G01 X-26.81780 Y27.41705
G01 X-26.81673 Y27.41623
G01 X-26.81780 Y27.41705
G01 X-26.87924 Y27.34882
G01 X-26.95351 Y27.29485
G01 X-26.95272 Y27.29347
G01 X-26.95351 Y27.29485
G01 X-27.03735 Y27.25753
G01 X-27.12719 Y27.23843
G01 X-27.12702 Y27.23686
G01 X-27.12719 Y27.23843
G01 X-27.21899 Y27.23843
G01 X-27.30880 Y27.25753
G01 X-27.30929 Y27.25601
G01 X-27.30880 Y27.25753
G01 X-27.39267 Y27.29487
G01 X-27.46694 Y27.34882
G01 X-27.46799 Y27.34763
G01 X-27.46694 Y27.34882
G01 X-27.52836 Y27.41705
G01 X-27.57428 Y27.49657
G01 X-27.57573 Y27.49591
G01 X-27.57428 Y27.49657
G01 X-27.60266 Y27.58387
G01 X-27.61226 Y27.67519
G01 X-27.61383 Y27.67519
G01 X-27.61226 Y27.67519
G01 X-27.60266 Y27.76650
G01 X-27.57428 Y27.85380
G01 X-27.57510 Y27.85413
G01 X-27.57428 Y27.85380
G01 X-27.52836 Y27.93333
G01 X-27.52907 Y27.93389
G01 X-27.52836 Y27.93333
G01 X-27.46694 Y28.00155
G01 X-27.39267 Y28.05553
G01 X-27.39346 Y28.05690
G01 X-27.39267 Y28.05553
G01 X-27.30880 Y28.09284
G01 X-27.21899 Y28.11194
G01 X-27.21917 Y28.11351
G01 X-27.21899 Y28.11194
G01 X-27.12719 Y28.11194
G01 X-27.03735 Y28.09284
G01 X-27.03687 Y28.09436
G01 X-27.03735 Y28.09284
G01 X-26.95351 Y28.05553
G01 X-26.87924 Y28.00155
G01 X-26.87817 Y28.00272
G01 X-26.87924 Y28.00155
G01 X-26.81780 Y27.93333
G01 X-26.77190 Y27.85380
G01 X-26.77154 Y27.85400
G01 X-26.77190 Y27.85380
G01 X-26.75531 Y27.80282
G01 X-26.71602 Y27.71087
G01 X-26.69247 Y27.67519
G01 X-26.68516 Y27.67506
G01 X-26.77733 Y27.67519
G01 X-26.77863 Y27.67717
G01 X-26.82295 Y27.78085
G01 X-26.83720 Y27.82472
G01 X-26.83674 Y27.82500
G01 X-26.83720 Y27.82472
G01 X-26.87563 Y27.89129
G01 X-26.92707 Y27.94841
G01 X-26.92603 Y27.94958
G01 X-26.92707 Y27.94841
G01 X-26.98925 Y27.99357
G01 X-27.05948 Y28.02484
G01 X-27.05915 Y28.02568
G01 X-27.05948 Y28.02484
G01 X-27.13466 Y28.04084
G01 X-27.13461 Y28.04171
G01 X-27.13466 Y28.04084
G01 X-27.21152 Y28.04084
G01 X-27.28671 Y28.02484
G01 X-27.28719 Y28.02637
G01 X-27.28671 Y28.02484
G01 X-27.35694 Y27.99357
G01 X-27.41909 Y27.94841
G01 X-27.42016 Y27.94961
G01 X-27.41909 Y27.94841
G01 X-27.47053 Y27.89129
G01 X-27.50896 Y27.82474
G01 X-27.51040 Y27.82538
G01 X-27.50896 Y27.82474
G01 X-27.53273 Y27.75161
G01 X-27.54076 Y27.67519
G01 X-27.54233 Y27.67519
G01 X-27.54076 Y27.67519
G01 X-27.53273 Y27.59876
G01 X-27.50896 Y27.52563
G01 X-27.50979 Y27.52533
G01 X-27.50896 Y27.52563
G01 X-27.47053 Y27.45908
G01 X-27.47121 Y27.45852
G01 X-27.47053 Y27.45908
G01 X-27.41909 Y27.40196
G01 X-27.35694 Y27.35680
G01 X-27.35772 Y27.35543
G01 X-27.35694 Y27.35680
G01 X-27.28671 Y27.32553
G01 X-27.21152 Y27.30955
G01 X-27.21167 Y27.30795
G01 X-27.21152 Y27.30955
G01 X-27.13466 Y27.30955
G01 X-27.05948 Y27.32553
G01 X-27.05899 Y27.32401
G01 X-27.05948 Y27.32553
G01 X-26.98925 Y27.35680
G01 X-26.92707 Y27.40196
G01 X-26.92600 Y27.40079
G01 X-26.92707 Y27.40196
G01 X-26.87563 Y27.45908
G01 X-26.83723 Y27.52563
G01 X-26.83674 Y27.52538
G01 X-26.83723 Y27.52563
G01 X-26.82295 Y27.56950
G01 X-26.77865 Y27.67318
G01 X-26.77733 Y27.67519
G01 X-26.85480 Y27.67519
G01 X-26.89059 Y27.59149
G01 X-26.90253 Y27.55471
G01 X-26.90205 Y27.55443
G01 X-26.90253 Y27.55471
G01 X-26.93349 Y27.50109
G01 X-26.97492 Y27.45510
G01 X-26.97385 Y27.45393
G01 X-26.97492 Y27.45510
G01 X-27.02501 Y27.41870
G01 X-27.08158 Y27.39353
G01 X-27.08109 Y27.39200
G01 X-27.08158 Y27.39353
G01 X-27.14213 Y27.38065
G01 X-27.20403 Y27.38065
G01 X-27.20408 Y27.37976
G01 X-27.20403 Y27.38065
G01 X-27.26461 Y27.39353
G01 X-27.26491 Y27.39269
G01 X-27.26461 Y27.39353
G01 X-27.32117 Y27.41870
G01 X-27.37126 Y27.45510
G01 X-27.37233 Y27.45393
G01 X-27.37126 Y27.45510
G01 X-27.41269 Y27.50109
G01 X-27.44365 Y27.55474
G01 X-27.44510 Y27.55408
G01 X-27.44365 Y27.55474
G01 X-27.46278 Y27.61362
G01 X-27.46926 Y27.67519
G01 X-27.47083 Y27.67519
G01 X-27.46926 Y27.67519
G01 X-27.46278 Y27.73676
G01 X-27.44365 Y27.79563
G01 X-27.44510 Y27.79629
G01 X-27.44365 Y27.79563
G01 X-27.41269 Y27.84928
G01 X-27.37126 Y27.89528
G01 X-27.37233 Y27.89645
G01 X-27.37126 Y27.89528
G01 X-27.32117 Y27.93168
G01 X-27.26458 Y27.95687
G01 X-27.26506 Y27.95837
G01 X-27.26458 Y27.95687
G01 X-27.20405 Y27.96972
G01 X-27.14213 Y27.96972
G01 X-27.14208 Y27.97061
G01 X-27.14213 Y27.96972
G01 X-27.08158 Y27.95685
G01 X-27.08127 Y27.95768
G01 X-27.08158 Y27.95685
G01 X-27.02501 Y27.93168
G01 X-26.97492 Y27.89528
G01 X-26.97385 Y27.89645
G01 X-26.97492 Y27.89528
G01 X-26.93349 Y27.84928
G01 X-26.90253 Y27.79563
G01 X-26.90205 Y27.79591
G01 X-26.90253 Y27.79563
G01 X-26.89059 Y27.75885
G01 X-26.85480 Y27.67519
G01 X-26.93184 Y27.67519
G01 X-26.95821 Y27.73688
G01 X-26.96786 Y27.76658
G01 X-26.96735 Y27.76685
G01 X-26.96786 Y27.76658
G01 X-26.99133 Y27.80724
G01 X-27.02277 Y27.84214
G01 X-27.02117 Y27.84410
G01 X-27.02277 Y27.84214
G01 X-27.06075 Y27.86975
G01 X-27.10365 Y27.88885
G01 X-27.14960 Y27.89860
G01 X-27.14922 Y27.90109
G01 X-27.14960 Y27.89860
G01 X-27.19656 Y27.89860
G01 X-27.24254 Y27.88885
G01 X-27.24302 Y27.89035
G01 X-27.24254 Y27.88885
G01 X-27.28541 Y27.86975
G01 X-27.32341 Y27.84214
G01 X-27.32448 Y27.84331
G01 X-27.32341 Y27.84214
G01 X-27.35483 Y27.80724
G01 X-27.37832 Y27.76658
G01 X-27.37977 Y27.76721
G01 X-27.37832 Y27.76658
G01 X-27.39283 Y27.72190
G01 X-27.39775 Y27.67519
G01 X-27.39933 Y27.67519
G01 X-27.39775 Y27.67519
G01 X-27.39283 Y27.62848
G01 X-27.37832 Y27.58382
G01 X-27.37977 Y27.58316
G01 X-27.37832 Y27.58382
G01 X-27.35483 Y27.54313
G01 X-27.32341 Y27.50823
G01 X-27.32501 Y27.50630
G01 X-27.32341 Y27.50823
G01 X-27.28541 Y27.48062
G01 X-27.24251 Y27.46152
G01 X-27.19656 Y27.45177
G01 X-27.19697 Y27.44928
G01 X-27.19656 Y27.45177
G01 X-27.14960 Y27.45177
G01 X-27.10367 Y27.46152
G01 X-27.10319 Y27.46002
G01 X-27.10367 Y27.46152
G01 X-27.06075 Y27.48065
G01 X-27.02277 Y27.50823
G01 X-27.02171 Y27.50706
G01 X-27.02277 Y27.50823
G01 X-26.99133 Y27.54313
G01 X-26.96786 Y27.58382
G01 X-26.96735 Y27.58354
G01 X-26.96786 Y27.58382
G01 X-26.95823 Y27.61346
G01 X-26.93184 Y27.67519
G01 X-27.00885 Y27.67519
G01 X-27.02585 Y27.63543
G01 X-27.03316 Y27.61288
G01 X-27.04919 Y27.58517
G01 X-27.07060 Y27.56137
G01 X-27.06862 Y27.55944
G01 X-27.07060 Y27.56137
G01 X-27.09651 Y27.54255
G01 X-27.12575 Y27.52954
G01 X-27.12526 Y27.52802
G01 X-27.12575 Y27.52954
G01 X-27.15709 Y27.52286
G01 X-27.18909 Y27.52286
G01 X-27.18947 Y27.52040
G01 X-27.18909 Y27.52286
G01 X-27.22041 Y27.52952
G01 X-27.24967 Y27.54255
G01 X-27.27555 Y27.56137
G01 X-27.27713 Y27.55941
G01 X-27.27555 Y27.56137
G01 X-27.29699 Y27.58517
G01 X-27.31299 Y27.61288
G01 X-27.31444 Y27.61224
G01 X-27.31299 Y27.61288
G01 X-27.32290 Y27.64336
G01 X-27.32625 Y27.67519
G01 X-27.32783 Y27.67519
G01 X-27.32625 Y27.67519
G01 X-27.32290 Y27.70701
G01 X-27.31299 Y27.73749
G01 X-27.31444 Y27.73815
G01 X-27.31299 Y27.73749
G01 X-27.29699 Y27.76520
G01 X-27.27555 Y27.78900
G01 X-27.27662 Y27.79020
G01 X-27.27555 Y27.78900
G01 X-27.24967 Y27.80782
G01 X-27.22041 Y27.82085
G01 X-27.22089 Y27.82235
G01 X-27.22041 Y27.82085
G01 X-27.18909 Y27.82751
G01 X-27.15706 Y27.82751
G01 X-27.15668 Y27.82997
G01 X-27.15706 Y27.82751
G01 X-27.12577 Y27.82085
G01 X-27.09651 Y27.80782
G01 X-27.07060 Y27.78900
G01 X-27.06788 Y27.79192
G01 X-27.07060 Y27.78900
G01 X-27.04919 Y27.76520
G01 X-27.03316 Y27.73749
G01 X-27.02585 Y27.71491
G01 X-27.00885 Y27.67519
G01 X-27.08589 Y27.67519
G01 X-27.09346 Y27.69294
G01 X-27.09849 Y27.70841
G01 X-27.10703 Y27.72319
G01 X-27.11843 Y27.73587
G01 X-27.11569 Y27.73884
G01 X-27.11843 Y27.73587
G01 X-27.13227 Y27.74590
G01 X-27.14787 Y27.75286
G01 X-27.16456 Y27.75639
G01 X-27.16428 Y27.76144
G01 X-27.16456 Y27.75639
G01 X-27.18163 Y27.75639
G01 X-27.19831 Y27.75286
G01 X-27.21391 Y27.74590
G01 X-27.22773 Y27.73587
G01 X-27.23225 Y27.74087
G01 X-27.22773 Y27.73587
G01 X-27.23916 Y27.72319
G01 X-27.24769 Y27.70841
G01 X-27.25295 Y27.69215
G01 X-27.25475 Y27.67519
G01 X-27.26146 Y27.67519
G01 X-27.25475 Y27.67519
G01 X-27.25295 Y27.65822
G01 X-27.24769 Y27.64196
G01 X-27.23916 Y27.62721
G01 X-27.22773 Y27.61451
G01 X-27.23131 Y27.61092
G01 X-27.22773 Y27.61451
G01 X-27.21391 Y27.60447
G01 X-27.19831 Y27.59754
G01 X-27.18163 Y27.59398
G01 X-27.18188 Y27.58893
G01 X-27.18163 Y27.59398
G01 X-27.16456 Y27.59398
G01 X-27.14787 Y27.59754
G01 X-27.13227 Y27.60447
G01 X-27.11843 Y27.61451
G01 X-27.11490 Y27.61026
G01 X-27.11843 Y27.61451
G01 X-27.10703 Y27.62721
G01 X-27.09849 Y27.64196
G01 X-27.09349 Y27.65741
G01 X-27.08589 Y27.67519
G01 X-27.16247 Y27.67519
G01 X-27.16382 Y27.67107
G01 X-27.16486 Y27.66922
G01 X-27.16628 Y27.66764
G01 X-27.16801 Y27.66640
G01 X-27.16994 Y27.66553
G01 X-27.17202 Y27.66508
G01 X-27.17413 Y27.66508
G01 X-27.17622 Y27.66553
G01 X-27.17817 Y27.66640
G01 X-27.17990 Y27.66764
G01 X-27.18130 Y27.66922
G01 X-27.18236 Y27.67107
G01 X-27.18302 Y27.67308
G01 X-27.18325 Y27.67519
G01 X-27.18302 Y27.67729
G01 X-27.18236 Y27.67930
G01 X-27.18130 Y27.68115
G01 X-27.17990 Y27.68273
G01 X-27.17817 Y27.68397
G01 X-27.17622 Y27.68484
G01 X-27.17413 Y27.68530
G01 X-27.17202 Y27.68530
G01 X-27.16997 Y27.68484
G01 X-27.16801 Y27.68397
G01 X-27.16628 Y27.68273
G01 X-27.16486 Y27.68115
G01 X-27.16382 Y27.67933
G01 X-27.16247 Y27.67519
G04 P0 ( dwell for no time -- G64 should not smooth over this point )
G00 Z5.00000 ( retract )

G00 X-24.87132 Y24.64598 ( rapid move to begin. )
G01 F40.00000
( Mill infeed pass 1/1 )
G01 Z-0.00500
G04 P0 ( dwell for no time -- G64 should not smooth over this point )
G01 F100.00000
G01 X-24.87132 Y24.64598
G01 X-24.88750 Y24.49218
G01 X-24.93528 Y24.34514
G01 X-25.01259 Y24.21121
G01 X-25.11605 Y24.09630
G01 X-25.24114 Y24.00542
G01 X-25.38242 Y23.94253
G01 X-25.53365 Y23.91037
G01 X-25.68831 Y23.91037
G01 X-25.83954 Y23.94253
G01 X-25.98082 Y24.00542
G01 X-26.10588 Y24.09630
G01 X-26.20939 Y24.21124
G01 X-26.28671 Y24.34512
G01 X-26.33446 Y24.49221
G01 X-26.35064 Y24.64598
G01 X-26.33446 Y24.79975
G01 X-26.28671 Y24.94684
G01 X-26.20939 Y25.08075
G01 X-26.10588 Y25.19566
G01 X-25.98084 Y25.28654
G01 X-25.83954 Y25.34946
G01 X-25.68828 Y25.38162
G01 X-25.53365 Y25.38159
G01 X-25.38242 Y25.34946
G01 X-25.24114 Y25.28654
G01 X-25.11605 Y25.19566
G01 X-25.01259 Y25.08075
G01 X-24.95918 Y24.98827
G01 X-24.93528 Y24.94684
G01 X-24.88750 Y24.79978
G01 X-24.87132 Y24.64598
G01 X-24.94282 Y24.64598
G01 X-24.95742 Y24.50707
G01 X-24.95704 Y24.50699
G01 X-24.95742 Y24.50707
G01 X-25.00058 Y24.37420
G01 X-25.00022 Y24.37405
G01 X-25.00058 Y24.37420
G01 X-25.07043 Y24.25325
G01 X-25.07010 Y24.25302
G01 X-25.07043 Y24.25325
G01 X-25.16390 Y24.14944
G01 X-25.16362 Y24.14916
G01 X-25.16390 Y24.14944
G01 X-25.27691 Y24.06734
G01 X-25.27670 Y24.06699
G01 X-25.27691 Y24.06734
G01 X-25.40451 Y24.01052
G01 X-25.40439 Y24.01014
G01 X-25.40451 Y24.01052
G01 X-25.54112 Y23.98147
G01 X-25.54109 Y23.98109
G01 X-25.54112 Y23.98147
G01 X-25.68084 Y23.98149
G01 X-25.68087 Y23.98109
G01 X-25.68084 Y23.98149
G01 X-25.81747 Y24.01052
G01 X-25.81760 Y24.01014
G01 X-25.81747 Y24.01052
G01 X-25.94505 Y24.06734
G01 X-25.94526 Y24.06699
G01 X-25.94505 Y24.06734
G01 X-26.05808 Y24.14944
G01 X-26.05831 Y24.14916
G01 X-26.05808 Y24.14944
G01 X-26.15155 Y24.25325
G01 X-26.15186 Y24.25302
G01 X-26.15155 Y24.25325
G01 X-26.22138 Y24.37420
G01 X-26.22173 Y24.37405
G01 X-26.22138 Y24.37420
G01 X-26.26456 Y24.50707
G01 X-26.26494 Y24.50699
G01 X-26.26456 Y24.50707
G01 X-26.27916 Y24.64598
G01 X-26.27954 Y24.64598
G01 X-26.27916 Y24.64598
G01 X-26.26456 Y24.78492
G01 X-26.26494 Y24.78500
G01 X-26.26456 Y24.78492
G01 X-26.22138 Y24.91776
G01 X-26.22173 Y24.91791
G01 X-26.22138 Y24.91776
G01 X-26.15155 Y25.03872
G01 X-26.15186 Y25.03895
G01 X-26.15155 Y25.03872
G01 X-26.05808 Y25.14253
G01 X-26.05831 Y25.14283
G01 X-26.05808 Y25.14253
G01 X-25.94505 Y25.22464
G01 X-25.94526 Y25.22498
G01 X-25.94505 Y25.22464
G01 X-25.81744 Y25.28146
G01 X-25.81757 Y25.28185
G01 X-25.81744 Y25.28146
G01 X-25.68084 Y25.31050
G01 X-25.68087 Y25.31088
G01 X-25.68084 Y25.31050
G01 X-25.54112 Y25.31050
G01 X-25.54109 Y25.31088
G01 X-25.54112 Y25.31050
G01 X-25.40454 Y25.28146
G01 X-25.40441 Y25.28185
G01 X-25.40454 Y25.28146
G01 X-25.27691 Y25.22464
G01 X-25.27670 Y25.22498
G01 X-25.27691 Y25.22464
G01 X-25.16390 Y25.14253
G01 X-25.16362 Y25.14283
G01 X-25.16390 Y25.14253
G01 X-25.07043 Y25.03872
G01 X-25.07010 Y25.03895
G01 X-25.07043 Y25.03872
G01 X-25.00058 Y24.91776
G01 X-25.00022 Y24.91791
G01 X-25.00058 Y24.91776
G01 X-24.95742 Y24.78489
G01 X-24.95704 Y24.78500
G01 X-24.95742 Y24.78489
G01 X-24.94282 Y24.64598
G01 X-25.01432 Y24.64598
G01 X-25.02735 Y24.52193
G01 X-25.02697 Y24.52185
G01 X-25.02735 Y24.52193
G01 X-25.06591 Y24.40329
G01 X-25.06555 Y24.40313
G01 X-25.06591 Y24.40329
G01 X-25.12826 Y24.29528
G01 X-25.12796 Y24.29506
G01 X-25.12826 Y24.29528
G01 X-25.21175 Y24.20257
G01 X-25.21147 Y24.20227
G01 X-25.21175 Y24.20257
G01 X-25.31264 Y24.12927
G01 X-25.31247 Y24.12891
G01 X-25.31264 Y24.12927
G01 X-25.42661 Y24.07852
G01 X-25.42649 Y24.07816
G01 X-25.42661 Y24.07852
G01 X-25.54858 Y24.05259
G01 X-25.54856 Y24.05221
G01 X-25.54858 Y24.05259
G01 X-25.67337 Y24.05259
G01 X-25.67340 Y24.05221
G01 X-25.67337 Y24.05259
G01 X-25.79537 Y24.07852
G01 X-25.79550 Y24.07814
G01 X-25.79537 Y24.07852
G01 X-25.90931 Y24.12924
G01 X-25.90952 Y24.12891
G01 X-25.90931 Y24.12924
G01 X-26.01025 Y24.20257
G01 X-26.01051 Y24.20229
G01 X-26.01025 Y24.20257
G01 X-26.09369 Y24.29526
G01 X-26.09402 Y24.29503
G01 X-26.09369 Y24.29526
G01 X-26.15608 Y24.40331
G01 X-26.15641 Y24.40313
G01 X-26.15608 Y24.40331
G01 X-26.19461 Y24.52193
G01 X-26.19499 Y24.52185
G01 X-26.19461 Y24.52193
G01 X-26.20766 Y24.64598
G01 X-26.20804 Y24.64598
G01 X-26.20766 Y24.64598
G01 X-26.19461 Y24.77004
G01 X-26.19499 Y24.77014
G01 X-26.19461 Y24.77004
G01 X-26.15608 Y24.88868
G01 X-26.15641 Y24.88883
G01 X-26.15608 Y24.88868
G01 X-26.09369 Y24.99671
G01 X-26.09402 Y24.99693
G01 X-26.09369 Y24.99671
G01 X-26.01023 Y25.08939
G01 X-26.01046 Y25.08969
G01 X-26.01023 Y25.08939
G01 X-25.90934 Y25.16272
G01 X-25.90952 Y25.16305
G01 X-25.90934 Y25.16272
G01 X-25.79537 Y25.21344
G01 X-25.79550 Y25.21382
G01 X-25.79537 Y25.21344
G01 X-25.67337 Y25.23938
G01 X-25.67340 Y25.23978
G01 X-25.67337 Y25.23938
G01 X-25.54858 Y25.23938
G01 X-25.54856 Y25.23978
G01 X-25.54858 Y25.23938
G01 X-25.42661 Y25.21344
G01 X-25.42649 Y25.21382
G01 X-25.42661 Y25.21344
G01 X-25.31264 Y25.16269
G01 X-25.31244 Y25.16305
G01 X-25.31264 Y25.16269
G01 X-25.21175 Y25.08942
G01 X-25.21150 Y25.08969
G01 X-25.21175 Y25.08942
G01 X-25.12826 Y24.99668
G01 X-25.12793 Y24.99691
G01 X-25.12826 Y24.99668
G01 X-25.06591 Y24.88868
G01 X-25.06555 Y24.88883
G01 X-25.06591 Y24.88868
G01 X-25.02735 Y24.77004
G01 X-25.02697 Y24.77014
G01 X-25.02735 Y24.77004
G01 X-25.01432 Y24.64598
G01 X-25.08582 Y24.64598
G01 X-25.09730 Y24.53679
G01 X-25.09692 Y24.53671
G01 X-25.09730 Y24.53679
G01 X-25.13124 Y24.43237
G01 X-25.13088 Y24.43222
G01 X-25.13124 Y24.43237
G01 X-25.18610 Y24.33732
G01 X-25.18580 Y24.33709
G01 X-25.18610 Y24.33732
G01 X-25.25958 Y24.25571
G01 X-25.25933 Y24.25543
G01 X-25.25958 Y24.25571
G01 X-25.34841 Y24.19117
G01 X-25.34820 Y24.19084
G01 X-25.34841 Y24.19117
G01 X-25.44871 Y24.14652
G01 X-25.44856 Y24.14616
G01 X-25.44871 Y24.14652
G01 X-25.55610 Y24.12371
G01 X-25.55605 Y24.12330
G01 X-25.55610 Y24.12371
G01 X-25.66588 Y24.12371
G01 X-25.66588 Y24.12330
G01 X-25.66588 Y24.12371
G01 X-25.77325 Y24.14652
G01 X-25.77340 Y24.14616
G01 X-25.77325 Y24.14652
G01 X-25.87355 Y24.19117
G01 X-25.87375 Y24.19084
G01 X-25.87355 Y24.19117
G01 X-25.96240 Y24.25571
G01 X-25.96265 Y24.25543
G01 X-25.96240 Y24.25571
G01 X-26.03586 Y24.33732
G01 X-26.03616 Y24.33709
G01 X-26.03586 Y24.33732
G01 X-26.09075 Y24.43237
G01 X-26.09108 Y24.43222
G01 X-26.09075 Y24.43237
G01 X-26.12468 Y24.53681
G01 X-26.12506 Y24.53671
G01 X-26.12468 Y24.53681
G01 X-26.13616 Y24.64598
G01 X-26.13654 Y24.64598
G01 X-26.13616 Y24.64598
G01 X-26.12468 Y24.75518
G01 X-26.12506 Y24.75525
G01 X-26.12468 Y24.75518
G01 X-26.09075 Y24.85960
G01 X-26.09108 Y24.85975
G01 X-26.09075 Y24.85960
G01 X-26.03586 Y24.95467
G01 X-26.03616 Y24.95490
G01 X-26.03586 Y24.95467
G01 X-25.96240 Y25.03625
G01 X-25.96265 Y25.03656
G01 X-25.96240 Y25.03625
G01 X-25.87355 Y25.10079
G01 X-25.87375 Y25.10112
G01 X-25.87355 Y25.10079
G01 X-25.77325 Y25.14545
G01 X-25.77340 Y25.14583
G01 X-25.77325 Y25.14545
G01 X-25.66588 Y25.16828
G01 X-25.66593 Y25.16866
G01 X-25.66588 Y25.16828
G01 X-25.55610 Y25.16828
G01 X-25.55605 Y25.16866
G01 X-25.55610 Y25.16828
G01 X-25.44871 Y25.14545
G01 X-25.44856 Y25.14583
G01 X-25.44871 Y25.14545
G01 X-25.34841 Y25.10079
G01 X-25.34823 Y25.10112
G01 X-25.34841 Y25.10079
G01 X-25.25958 Y25.03625
G01 X-25.25933 Y25.03656
G01 X-25.25958 Y25.03625
G01 X-25.18610 Y24.95467
G01 X-25.18580 Y24.95490
G01 X-25.18610 Y24.95467
G01 X-25.13124 Y24.85960
G01 X-25.13088 Y24.85975
G01 X-25.13124 Y24.85960
G01 X-25.09730 Y24.75520
G01 X-25.09692 Y24.75528
G01 X-25.09730 Y24.75520
G01 X-25.08582 Y24.64598
G01 X-25.15732 Y24.64598
G01 X-25.16723 Y24.55167
G01 X-25.19654 Y24.46148
G01 X-25.19509 Y24.46084
G01 X-25.19654 Y24.46148
G01 X-25.24396 Y24.37933
G01 X-25.30744 Y24.30885
G01 X-25.30637 Y24.30765
G01 X-25.30744 Y24.30885
G01 X-25.38412 Y24.25312
G01 X-25.47081 Y24.21451
G01 X-25.47048 Y24.21370
G01 X-25.47081 Y24.21451
G01 X-25.56357 Y24.19480
G01 X-25.56352 Y24.19391
G01 X-25.56357 Y24.19480
G01 X-25.65839 Y24.19480
G01 X-25.75117 Y24.21451
G01 X-25.75166 Y24.21301
G01 X-25.75117 Y24.21451
G01 X-25.83784 Y24.25312
G01 X-25.91455 Y24.30885
G01 X-25.91561 Y24.30765
G01 X-25.91455 Y24.30885
G01 X-25.97802 Y24.37933
G01 X-26.02544 Y24.46148
G01 X-26.02689 Y24.46084
G01 X-26.02544 Y24.46148
G01 X-26.05473 Y24.55167
G01 X-26.06466 Y24.64598
G01 X-26.06624 Y24.64598
G01 X-26.06466 Y24.64598
G01 X-26.05473 Y24.74032
