(G-CODE GENERATED BY FLATCAM v8.994 - www.flatcam.org - Version Date: 2020/11/7)

(Name: ADCandDAC-F_Cu.gbr_ncc_cnc)
(Type: G-code from Geometry)
(Units: MM)

(Created on Saturday, 21 November 2020 at 09:08)

(This preprocessor is the default preprocessor used by FlatCAM.)
(It is made to work with MACH3 compatible motion controllers.)

(TOOL DIAMETER: 0.1563 mm)
(Feedrate_XY: 60.0 mm/min)
(Feedrate_Z: 60.0 mm/min)
(Feedrate rapids 1500.0 mm/min)

(Z_Cut: -0.1051 mm)
(Z_Move: 2.0 mm)
(Z Start: None mm)
(Z End: 15.0 mm)
(X,Y End: None mm)
(Steps per circle: 64)
(Preprocessor Geometry: default)

(X range:    2.4430 ...   59.0398  mm)
(Y range:    1.7013 ...   31.2090  mm)

(Spindle Speed: 10000.0 RPM)
G21
G90
G94

G01 F80.00

M5
G00 Z15.0000
G00 X0.0000 Y0.0000
T1
M6    
(MSG, Change to Tool Dia = 0.1563)
M0
G00 Z15.0000

M03 S10000.0
G01 F80.00
G00 X24.8863 Y15.4286
G00 X28.1656 Y15.6474
G01 F80.00
G01 Z-0.1590
G01 F80.00
G01 X28.1628 Y15.6284
G01 X28.1656 Y15.6284
G01 X28.1656 Y16.2974
G01 X28.1601 Y16.2625
G01 X28.1511 Y16.2171
G01 X28.1472 Y16.2000
G01 X28.1511 Y16.1829
G01 X28.1601 Y16.1375
G01 X28.1656 Y16.1026
G01 X28.1656 Y16.2974
G01 X28.1656 Y16.9474
G01 X28.1601 Y16.9125
G01 X28.1511 Y16.8671
G01 X28.1472 Y16.8500
G01 X28.1511 Y16.8329
G01 X28.1601 Y16.7875
G01 X28.1626 Y16.7731
G01 X28.1646 Y16.7594
G01 X28.1651 Y16.7560
G01 X28.1655 Y16.7535
G01 X28.1655 Y16.7533
G01 X28.1656 Y16.7527
G01 X28.1656 Y16.7526
G01 X28.1656 Y16.9474
G01 X28.1656 Y17.5974
G01 X28.1601 Y17.5625
G01 X28.1511 Y17.5171
G01 X28.1472 Y17.5000
G01 X28.1511 Y17.4829
G01 X28.1601 Y17.4375
G01 X28.1626 Y17.4231
G01 X28.1646 Y17.4094
G01 X28.1651 Y17.4060
G01 X28.1655 Y17.4035
G01 X28.1655 Y17.4033
G01 X28.1656 Y17.4027
G01 X28.1656 Y17.4026
G01 X28.1656 Y18.2474
G01 X28.1601 Y18.2125
G01 X28.1511 Y18.1671
G01 X28.1472 Y18.1500
G01 X28.1511 Y18.1329
G01 X28.1601 Y18.0875
G01 X28.1656 Y18.0526
G01 X28.1656 Y18.2474
G01 X28.1549 Y18.7639
G01 X28.1611 Y18.7318
G01 X28.1656 Y18.7026
G01 X28.1656 Y18.7532
G01 X28.1549 Y18.7639
G00 Z2.0000
G00 X30.2849 Y18.9425
G01 F80.00
G01 Z-0.1590
G01 F80.00
G01 X30.3175 Y18.9251
G01 X30.3243 Y18.9217
G01 X30.3421 Y18.9133
G01 X30.3470 Y18.9111
G01 X30.3942 Y18.8915
G01 X30.4226 Y18.8811
G01 X30.4709 Y18.8662
G01 X30.4835 Y18.8628
G01 X30.5111 Y18.8560
G01 X30.5624 Y18.8459
G01 X30.5936 Y18.8413
G01 X30.6380 Y18.8369
G01 X30.6766 Y18.8348
G01 X30.7033 Y18.8342
G01 X30.9506 Y18.8342
G01 X30.9446 Y18.8165
G01 X30.9301 Y18.7680
G01 X30.9252 Y18.7477
G01 X30.9166 Y18.7050
G01 X30.9144 Y18.6922
G01 X30.9116 Y18.6718
G01 X30.9072 Y18.6263
G01 X30.9061 Y18.6071
G01 X30.9053 Y18.5756
G01 X30.9053 Y18.3750
G01 X30.9059 Y18.3471
G01 X30.9069 Y18.3272
G01 X30.9118 Y18.2763
G01 X30.9159 Y18.2491
G01 X30.9266 Y18.1960
G01 X30.9315 Y18.1768
G01 X30.9396 Y18.1500
G01 X30.9315 Y18.1232
G01 X30.9262 Y18.1022
G01 X30.9165 Y18.0545
G01 X30.9142 Y18.0408
G01 X30.2849 Y18.0408
G01 X30.2849 Y18.9425
G01 X30.3786 Y18.7973
G01 X30.4010 Y18.7895
G01 X30.4061 Y18.7879
G01 X30.4437 Y18.7765
G01 X30.4448 Y18.7762
G01 X30.4820 Y18.7665
G01 X30.4958 Y18.7634
G01 X30.5407 Y18.7545
G01 X30.5793 Y18.7486
G01 X30.6347 Y18.7431
G01 X30.6723 Y18.7411
G01 X30.7024 Y18.7404
G01 X30.8281 Y18.7404
G01 X30.8228 Y18.7130
G01 X30.8189 Y18.6864
G01 X30.8139 Y18.6362
G01 X30.8124 Y18.6111
G01 X30.8115 Y18.5759
G01 X30.8116 Y18.3688
G01 X30.8123 Y18.3412
G01 X30.8134 Y18.3203
G01 X30.8181 Y18.2710
G01 X30.8198 Y18.2569
G01 X30.8237 Y18.2319
G01 X30.8326 Y18.1870
G01 X30.8359 Y18.1721
G01 X30.8416 Y18.1500
G01 X30.8376 Y18.1346
G01 X30.3786 Y18.1346
G01 X30.3786 Y18.7973
G01 X30.4724 Y18.6725
G01 X30.4785 Y18.6712
G01 X30.4786 Y18.6712
G01 X30.5171 Y18.6635
G01 X30.5176 Y18.6634
G01 X30.5295 Y18.6612
G01 X30.5615 Y18.6564
G01 X30.5788 Y18.6543
G01 X30.6226 Y18.6500
G01 X30.6402 Y18.6487
G01 X30.6724 Y18.6473
G01 X30.6968 Y18.6467
G01 X30.7207 Y18.6466
G01 X30.7187 Y18.6151
G01 X30.7178 Y18.5792
G01 X30.7178 Y18.3652
G01 X30.7186 Y18.3361
G01 X30.7202 Y18.3085
G01 X30.7254 Y18.2556
G01 X30.7292 Y18.2284
G01 X30.4724 Y18.2284
G01 X30.4724 Y18.6725
G01 X30.5662 Y18.5613
G01 X30.6240 Y18.5558
G01 X30.6240 Y18.3728
G01 X30.6253 Y18.3233
G01 X30.5662 Y18.3229
G01 X30.5662 Y18.5613
G01 X30.1911 Y19.1226
G01 X30.2314 Y19.0892
G01 X30.2583 Y19.0694
G01 X30.2935 Y19.0459
G01 X30.3149 Y19.0330
G01 X30.3596 Y19.0089
G01 X30.3871 Y18.9959
G01 X30.4340 Y18.9766
G01 X30.4576 Y18.9683
G01 X30.4981 Y18.9560
G01 X30.5305 Y18.9477
G01 X30.5750 Y18.9389
G01 X30.6028 Y18.9347
G01 X30.6503 Y18.9300
G01 X30.6783 Y18.9285
G01 X30.7033 Y18.9280
G01 X31.0994 Y18.9280
G01 X31.0886 Y18.9098
G01 X31.0658 Y18.8667
G01 X31.0586 Y18.8511
G01 X31.0432 Y18.8138
G01 X31.0368 Y18.7967
G01 X31.0224 Y18.7500
G01 X31.0174 Y18.7305
G01 X31.0081 Y18.6837
G01 X31.0047 Y18.6603
G01 X31.0004 Y18.6159
G01 X30.9991 Y18.5781
G01 X30.9991 Y18.3750
G01 X30.9996 Y18.3500
G01 X31.0004 Y18.3341
G01 X31.0057 Y18.2813
G01 X31.0084 Y18.2644
G01 X31.0163 Y18.2248
G01 X31.0224 Y18.2000
G01 X31.0345 Y18.1602
G01 X31.0380 Y18.1500
G01 X31.0342 Y18.1387
G01 X31.0208 Y18.0941
G01 X31.0169 Y18.0782
G01 X31.0084 Y18.0356
G01 X31.0047 Y18.0103
G01 X31.0006 Y17.9682
G01 X30.9996 Y17.9470
G01 X30.1911 Y17.9470
G01 X30.1911 Y19.1226
G01 X30.0867 Y19.3574
G01 X30.2237 Y19.2204
G01 X30.2393 Y19.2055
G01 X30.2582 Y19.1885
G01 X30.2900 Y19.1624
G01 X30.3089 Y19.1484
G01 X30.3447 Y19.1245
G01 X30.3648 Y19.1124
G01 X30.4028 Y19.0921
G01 X30.4223 Y19.0829
G01 X30.4656 Y19.0649
G01 X30.4859 Y19.0577
G01 X30.5272 Y19.0452
G01 X30.5518 Y19.0391
G01 X30.5922 Y19.0311
G01 X30.6110 Y19.0283
G01 X30.6583 Y19.0234
G01 X30.6818 Y19.0223
G01 X30.7033 Y19.0218
G01 X31.3048 Y19.0217
G01 X31.2879 Y19.0079
G01 X31.2778 Y18.9987
G01 X31.2486 Y18.9696
G01 X31.2381 Y18.9581
G01 X31.2120 Y18.9263
G01 X31.2038 Y18.9154
G01 X31.1798 Y18.8796
G01 X31.1717 Y18.8663
G01 X31.1523 Y18.8300
G01 X31.1464 Y18.8177
G01 X31.1284 Y18.7744
G01 X31.1239 Y18.7615
G01 X31.1115 Y18.7202
G01 X31.1083 Y18.7069
G01 X31.1003 Y18.6666
G01 X31.0980 Y18.6512
G01 X31.0940 Y18.6102
G01 X31.0929 Y18.5769
G01 X31.0929 Y18.3750
G01 X31.0940 Y18.3398
G01 X31.0985 Y18.2950
G01 X31.1006 Y18.2816
G01 X31.1087 Y18.2412
G01 X31.1125 Y18.2261
G01 X31.1245 Y18.1867
G01 X31.1291 Y18.1738
G01 X31.1389 Y18.1500
G01 X31.1291 Y18.1262
G01 X31.1251 Y18.1151
G01 X31.1120 Y18.0721
G01 X31.1083 Y18.0569
G01 X31.0999 Y18.0147
G01 X31.0980 Y18.0012
G01 X31.0942 Y17.9621
G01 X31.0934 Y17.9485
G01 X31.0929 Y17.9250
G01 X31.0929 Y17.8533
G01 X30.0973 Y17.8533
G01 X30.0973 Y19.2310
G01 X30.0967 Y19.2545
G01 X30.0952 Y19.2858
G01 X30.0909 Y19.3287
G01 X30.0867 Y19.3574
G00 Z2.0000
G00 X32.2455 Y20.3314
G01 F80.00
G01 Z-0.1590
G01 F80.00
G01 X39.5262 Y20.3314
G01 X39.5262 Y20.1953
G01 X39.5268 Y20.1718
G01 X39.5283 Y20.1405
G01 X39.5326 Y20.0976
G01 X39.5371 Y20.0666
G01 X39.5463 Y20.0206
G01 X39.5539 Y19.9901
G01 X39.5665 Y19.9489
G01 X39.5777 Y19.9176
G01 X39.5942 Y19.8777
G01 X39.6084 Y19.8477
G01 X39.6287 Y19.8096
G01 X39.6458 Y19.7811
G01 X39.6641 Y19.7536
G01 X39.6497 Y19.7587
G01 X39.6085 Y19.7711
G01 X39.5876 Y19.7763
G01 X39.5453 Y19.7847
G01 X39.5221 Y19.7882
G01 X39.4792 Y19.7924
G01 X39.4577 Y19.7935
G01 X39.4342 Y19.7940
G01 X35.2118 Y19.7940
G01 X35.1883 Y19.7935
G01 X35.1668 Y19.7924
G01 X35.1239 Y19.7882
G01 X35.1007 Y19.7847
G01 X35.0566 Y19.7759
G01 X35.0357 Y19.7706
G01 X34.9963 Y19.7587
G01 X34.9723 Y19.7502
G01 X34.9308 Y19.7329
G01 X34.9113 Y19.7237
G01 X34.8750 Y19.7043
G01 X34.8532 Y19.6913
G01 X34.8158 Y19.6662
G01 X34.7985 Y19.6534
G01 X34.7652 Y19.6260
G01 X34.7492 Y19.6116
G01 X34.7322 Y19.5954
G01 X33.9366 Y18.7998
G01 X33.9292 Y18.8135
G01 X33.9171 Y18.8336
G01 X33.8932 Y18.8694
G01 X33.8792 Y18.8883
G01 X33.8519 Y18.9216
G01 X33.8361 Y18.9390
G01 X33.8056 Y18.9695
G01 X33.7883 Y18.9852
G01 X33.7549 Y19.0126
G01 X33.7376 Y19.0254
G01 X33.6986 Y19.0515
G01 X33.6801 Y19.0626
G01 X33.6421 Y19.0829
G01 X33.6209 Y19.0929
G01 X33.5811 Y19.1094
G01 X33.5590 Y19.1173
G01 X33.5196 Y19.1293
G01 X33.4950 Y19.1355
G01 X33.4508 Y19.1442
G01 X33.4295 Y19.1474
G01 X33.3866 Y19.1516
G01 X33.3651 Y19.1527
G01 X33.3416 Y19.1532
G01 X32.9867 Y19.1533
G01 X32.9867 Y19.3902
G01 X32.9862 Y19.4117
G01 X32.9849 Y19.4371
G01 X32.9809 Y19.4781
G01 X32.9774 Y19.5013
G01 X32.9690 Y19.5436
G01 X32.9633 Y19.5663
G01 X32.9508 Y19.6076
G01 X32.9429 Y19.6297
G01 X32.9264 Y19.6695
G01 X32.9164 Y19.6907
G01 X32.8961 Y19.7287
G01 X32.8840 Y19.7488
G01 X32.8601 Y19.7846
G01 X32.8461 Y19.8035
G01 X32.8187 Y19.8368
G01 X32.8030 Y19.8542
G01 X32.7881 Y19.8698
G01 X32.4783 Y20.1796
G01 X32.4613 Y20.1958
G01 X32.4453 Y20.2102
G01 X32.4120 Y20.2376
G01 X32.3931 Y20.2516
G01 X32.3573 Y20.2755
G01 X32.3372 Y20.2876
G01 X32.2992 Y20.3079
G01 X32.2780 Y20.3179
G01 X32.2455 Y20.3314
G01 X32.5529 Y20.2376
G01 X39.4324 Y20.2376
G01 X39.4325 Y20.1911
G01 X39.4331 Y20.1684
G01 X39.4347 Y20.1348
G01 X39.4394 Y20.0873
G01 X39.4449 Y20.0498
G01 X39.4541 Y20.0030
G01 X39.4633 Y19.9662
G01 X39.4771 Y19.9206
G01 X39.4895 Y19.8856
G01 X39.4611 Y19.8872
G01 X39.4342 Y19.8878
G01 X35.2118 Y19.8878
G01 X35.1849 Y19.8872
G01 X35.1588 Y19.8858
G01 X35.1136 Y19.8814
G01 X35.0858 Y19.8773
G01 X35.0390 Y19.8681
G01 X35.0066 Y19.8598
G01 X34.9661 Y19.8475
G01 X34.9425 Y19.8392
G01 X34.8956 Y19.8199
G01 X34.8654 Y19.8055
G01 X34.8281 Y19.7855
G01 X34.8066 Y19.7727
G01 X34.7643 Y19.7447
G01 X34.7375 Y19.7247
G01 X34.7031 Y19.6963
G01 X34.6840 Y19.6790
G01 X34.6659 Y19.6617
G01 X33.9518 Y18.9476
G01 X33.9236 Y18.9820
G01 X33.9069 Y19.0006
G01 X33.8711 Y19.0366
G01 X33.8463 Y19.0590
G01 X33.8135 Y19.0858
G01 X33.7910 Y19.1026
G01 X33.7468 Y19.1319
G01 X33.7253 Y19.1447
G01 X33.6853 Y19.1661
G01 X33.6550 Y19.1803
G01 X33.6159 Y19.1965
G01 X33.5895 Y19.2060
G01 X33.5439 Y19.2199
G01 X33.5114 Y19.2279
G01 X33.4699 Y19.2361
G01 X33.4452 Y19.2399
G01 X33.3947 Y19.2450
G01 X33.3686 Y19.2464
G01 X33.3428 Y19.2470
G01 X33.0805 Y19.2470
G01 X33.0805 Y19.3902
G01 X33.0799 Y19.4171
G01 X33.0785 Y19.4432
G01 X33.0744 Y19.4854
G01 X33.0700 Y19.5162
G01 X33.0595 Y19.5682
G01 X33.0534 Y19.5924
G01 X33.0402 Y19.6359
G01 X33.0300 Y19.6645
G01 X33.0138 Y19.7036
G01 X32.9982 Y19.7366
G01 X32.9782 Y19.7739
G01 X32.9685 Y19.7904
G01 X32.9616 Y19.8016
G01 X32.9391 Y19.8352
G01 X32.9193 Y19.8621
G01 X32.8877 Y19.9004
G01 X32.8717 Y19.9180
G01 X32.8544 Y19.9361
G01 X32.5529 Y20.2376
G01 X32.7793 Y20.1438
G01 X39.3404 Y20.1438
G01 X39.3417 Y20.1219
G01 X39.3470 Y20.0705
G01 X39.3529 Y20.0315
G01 X39.3628 Y19.9816
G01 X35.2118 Y19.9816
G01 X35.1814 Y19.9809
G01 X35.1507 Y19.9793
G01 X35.1021 Y19.9745
G01 X35.0709 Y19.9699
G01 X35.0185 Y19.9596
G01 X34.9914 Y19.9529
G01 X34.9794 Y19.9496
G01 X34.9378 Y19.9369
G01 X34.9110 Y19.9275
G01 X34.8993 Y19.9230
G01 X34.8576 Y19.9056
G01 X34.8217 Y19.8885
G01 X34.7829 Y19.8677
G01 X34.7584 Y19.8532
G01 X34.7478 Y19.8465
G01 X34.7112 Y19.8220
G01 X34.6813 Y19.7998
G01 X34.6409 Y19.7665
G01 X34.6201 Y19.7477
G01 X34.6008 Y19.7292
G01 X33.9560 Y19.0844
G01 X33.9358 Y19.1045
G01 X33.9139 Y19.1245
G01 X33.8721 Y19.1590
G01 X33.8431 Y19.1806
G01 X33.7987 Y19.2102
G01 X33.7669 Y19.2289
G01 X33.7285 Y19.2494
G01 X33.7028 Y19.2617
G01 X33.6915 Y19.2667
G01 X33.6507 Y19.2835
G01 X33.6167 Y19.2958
G01 X33.5689 Y19.3103
G01 X33.5372 Y19.3183
G01 X33.4859 Y19.3285
G01 X33.4466 Y19.3342
G01 X33.3981 Y19.3388
G01 X33.3720 Y19.3401
G01 X33.3482 Y19.3407
G01 X33.1743 Y19.3408
G01 X33.1742 Y19.3967
G01 X33.1735 Y19.4223
G01 X33.1718 Y19.4532
G01 X33.1661 Y19.5075
G01 X33.1618 Y19.5356
G01 X33.1530 Y19.5800
G01 X33.1438 Y19.6175
G01 X33.1270 Y19.6720
G01 X33.1170 Y19.6993
G01 X33.1004 Y19.7395
G01 X33.0849 Y19.7730
G01 X33.0598 Y19.8201
G01 X33.0392 Y19.8542
G01 X33.0096 Y19.8979
G01 X32.9925 Y19.9207
G01 X32.9650 Y19.9543
G01 X32.9429 Y19.9792
G01 X32.9223 Y20.0008
G01 X32.7793 Y20.1438
G01 X33.0050 Y20.0501
G01 X34.9935 Y20.0501
G01 X34.9573 Y20.0408
G01 X34.9135 Y20.0276
G01 X34.8981 Y20.0225
G01 X34.8684 Y20.0116
G01 X34.8266 Y19.9944
G01 X34.8136 Y19.9887
G01 X34.7917 Y19.9783
G01 X34.7780 Y19.9714
G01 X34.7377 Y19.9498
G01 X34.7041 Y19.9299
G01 X34.6563 Y19.8980
G01 X34.6210 Y19.8716
G01 X34.5788 Y19.8368
G01 X34.5563 Y19.8164
G01 X34.5351 Y19.7962
G01 X33.9530 Y19.2140
G01 X33.9267 Y19.2354
G01 X33.8957 Y19.2582
G01 X33.8517 Y19.2876
G01 X33.8163 Y19.3088
G01 X33.7702 Y19.3334
G01 X33.7360 Y19.3496
G01 X33.6840 Y19.3713
G01 X33.6445 Y19.3853
G01 X33.5945 Y19.4005
G01 X33.5583 Y19.4096
G01 X33.5037 Y19.4206
G01 X33.4668 Y19.4262
G01 X33.4108 Y19.4319
G01 X33.3766 Y19.4338
G01 X33.3439 Y19.4346
G01 X33.2668 Y19.4346
G01 X33.2652 Y19.4621
G01 X33.2594 Y19.5181
G01 X33.2540 Y19.5528
G01 X33.2427 Y19.6086
G01 X33.2337 Y19.6441
G01 X33.2174 Y19.6974
G01 X33.2048 Y19.7325
G01 X33.1859 Y19.7783
G01 X33.1682 Y19.8161
G01 X33.1450 Y19.8599
G01 X33.1293 Y19.8868
G01 X33.1170 Y19.9065
G01 X33.0907 Y19.9457
G01 X33.0672 Y19.9775
G01 X33.0329 Y20.0193
G01 X33.0050 Y20.0501
G01 X33.1965 Y19.9563
G01 X34.5772 Y19.9563
G01 X34.5604 Y19.9432
G01 X34.5193 Y19.9093
G01 X34.4942 Y19.8867
G01 X34.4702 Y19.8639
G01 X33.9447 Y19.3384
G01 X33.9029 Y19.3662
G01 X33.8735 Y19.3840
G01 X33.8564 Y19.3937
G01 X33.8098 Y19.4185
G01 X33.7719 Y19.4363
G01 X33.7259 Y19.4555
G01 X33.7072 Y19.4627
G01 X33.6731 Y19.4746
G01 X33.6214 Y19.4903
G01 X33.5874 Y19.4991
G01 X33.5676 Y19.5036
G01 X33.5146 Y19.5139
G01 X33.4734 Y19.5199
G01 X33.4213 Y19.5251
G01 X33.3824 Y19.5274
G01 X33.3526 Y19.5282
G01 X33.3462 Y19.5700
G01 X33.3367 Y19.6178
G01 X33.3326 Y19.6360
G01 X33.3242 Y19.6686
G01 X33.3104 Y19.7146
G01 X33.3055 Y19.7296
G01 X33.2962 Y19.7559
G01 X33.2898 Y19.7723
G01 X33.2711 Y19.8175
G01 X33.2525 Y19.8573
G01 X33.2230 Y19.9126
G01 X33.2059 Y19.9414
G01 X33.1965 Y19.9563
G01 X33.3537 Y19.8625
G01 X34.3362 Y19.8625
G01 X33.9320 Y19.4583
G01 X33.9067 Y19.4731
G01 X33.8629 Y19.4966
G01 X33.8456 Y19.5054
G01 X33.8180 Y19.5184
G01 X33.8002 Y19.5262
G01 X33.7524 Y19.5459
G01 X33.7186 Y19.5582
G01 X33.7012 Y19.5641
G01 X33.6405 Y19.5824
G01 X33.6067 Y19.5909
G01 X33.5852 Y19.5957
G01 X33.5357 Y19.6054
G01 X33.5002 Y19.6109
G01 X33.4785 Y19.6137
G01 X33.4323 Y19.6183
G01 X33.4259 Y19.6490
G01 X33.4167 Y19.6858
G01 X33.4119 Y19.7028
G01 X33.3974 Y19.7504
G01 X33.3918 Y19.7671
G01 X33.3795 Y19.8006
G01 X33.3537 Y19.8625
G01 X33.4899 Y19.7687
G01 X34.1098 Y19.7687
G01 X33.9157 Y19.5747
G01 X33.8848 Y19.5906
G01 X33.8574 Y19.6035
G01 X33.8390 Y19.6116
G01 X33.7818 Y19.6351
G01 X33.7485 Y19.6471
G01 X33.7295 Y19.6535
G01 X33.6704 Y19.6714
G01 X33.6216 Y19.6838
G01 X33.5549 Y19.6972
G01 X33.5088 Y19.7044
G01 X33.5027 Y19.7265
G01 X33.4899 Y19.7687
G00 Z2.0000
G00 X34.8347 Y17.7795
G01 F80.00
G01 Z-0.1590
G01 F80.00
G01 X34.8707 Y17.7944
G01 X34.8928 Y17.8023
G01 X34.9341 Y17.8148
G01 X34.9568 Y17.8205
G01 X34.9991 Y17.8289
G01 X35.0223 Y17.8324
G01 X35.0652 Y17.8366
G01 X35.0867 Y17.8377
G01 X35.1102 Y17.8382
G01 X36.0419 Y17.8382
G01 X36.0419 Y17.9619
G01 X36.0440 Y18.0050
G01 X36.0510 Y18.0533
G01 X36.0614 Y18.0951
G01 X36.0636 Y18.1024
G01 X36.0782 Y18.1430
G01 X36.0983 Y18.1854
G01 X36.1224 Y18.2256
G01 X36.1492 Y18.2618
G01 X36.1819 Y18.2981
G01 X36.2167 Y18.3296
G01 X36.2544 Y18.3576
G01 X36.2963 Y18.3826
G01 X36.3370 Y18.4018
G01 X36.3776 Y18.4164
G01 X36.3849 Y18.4186
G01 X36.4230 Y18.4281
G01 X36.4305 Y18.4296
G01 X36.4731 Y18.4358
G01 X36.5059 Y18.4376
G01 X35.4927 Y18.4376
G01 X34.8347 Y17.7795
G01 X35.1198 Y17.9320
G01 X35.9481 Y17.9320
G01 X35.9482 Y17.9654
G01 X35.9506 Y18.0130
G01 X35.9517 Y18.0233
G01 X35.9581 Y18.0663
G01 X35.9606 Y18.0787
G01 X35.9724 Y18.1249
G01 X35.9886 Y18.1710
G01 X35.9945 Y18.1855
G01 X36.0142 Y18.2269
G01 X36.0192 Y18.2360
G01 X36.0415 Y18.2732
G01 X36.0486 Y18.2837
G01 X36.0746 Y18.3186
G01 X36.0814 Y18.3269
G01 X36.0966 Y18.3438
G01 X35.5316 Y18.3438
G01 X35.1198 Y17.9320
G01 X35.3463 Y18.0258
G01 X35.8576 Y18.0258
G01 X35.8591 Y18.0382
G01 X35.8669 Y18.0887
G01 X35.8698 Y18.1020
G01 X35.8818 Y18.1492
G01 X35.8865 Y18.1640
G01 X35.9030 Y18.2098
G01 X35.9085 Y18.2228
G01 X35.9213 Y18.2500
G01 X35.5704 Y18.2500
G01 X35.3463 Y18.0258
G01 X35.5729 Y18.1198
G01 X35.7777 Y18.1201
G01 X35.7867 Y18.1562
G01 X35.6093 Y18.1562
G01 X35.5729 Y18.1198
G00 Z2.0000
G00 X34.1911 Y17.2032
G01 F80.00
G01 Z-0.1590
G01 F80.00
G01 X34.1965 Y17.2055
G01 X34.1943 Y17.2032
G01 X34.1911 Y17.2032
G00 Z2.0000
G00 X35.2033 Y16.2939
G01 F80.00
G01 Z-0.1590
G01 F80.00
G01 X35.3911 Y16.4817
G01 X36.0419 Y16.4817
G01 X36.0419 Y16.3562
G01 X36.0442 Y16.3131
G01 X36.0504 Y16.2705
G01 X36.0519 Y16.2630
G01 X36.0614 Y16.2249
G01 X36.0636 Y16.2176
G01 X36.0782 Y16.1770
G01 X36.0966 Y16.1380
G01 X36.1002 Y16.1313
G01 X36.1204 Y16.0976
G01 X36.1246 Y16.0912
G01 X36.1504 Y16.0567
G01 X36.1819 Y16.0219
G01 X36.2167 Y15.9904
G01 X36.2528 Y15.9635
G01 X36.2929 Y15.9392
G01 X36.3038 Y15.9338
G01 X36.2696 Y15.8877
G01 X36.2457 Y15.8519
G01 X36.2375 Y15.8382
G01 X35.6589 Y15.8383
G01 X35.2033 Y16.2939
G01 X35.3359 Y16.2939
G01 X35.4300 Y16.3880
G01 X35.9481 Y16.3880
G01 X35.9482 Y16.3546
G01 X35.9506 Y16.3070
G01 X35.9519 Y16.2956
G01 X35.9585 Y16.2514
G01 X35.9609 Y16.2402
G01 X35.9724 Y16.1951
G01 X35.9886 Y16.1490
G01 X35.9921 Y16.1401
G01 X36.0118 Y16.0979
G01 X36.0162 Y16.0894
G01 X36.0405 Y16.0484
G01 X36.0475 Y16.0378
G01 X36.0734 Y16.0029
G01 X36.0826 Y15.9916
G01 X36.1148 Y15.9564
G01 X36.1413 Y15.9320
G01 X35.6977 Y15.9320
G01 X35.3359 Y16.2939
G01 X35.8576 Y16.2942
G01 X35.8649 Y16.2430
G01 X35.8673 Y16.2290
G01 X35.8796 Y16.1788
G01 X35.8846 Y16.1616
G01 X35.9009 Y16.1158
G01 X35.9071 Y16.1003
G01 X35.9304 Y16.0510
G01 X35.9366 Y16.0395
G01 X35.9447 Y16.0258
G01 X35.7366 Y16.0258
G01 X35.4685 Y16.2939
G01 X35.6946 Y16.2004
G01 X35.7776 Y16.2004
G01 X35.7905 Y16.1491
G01 X35.7948 Y16.1344
G01 X35.7999 Y16.1196
G01 X35.7754 Y16.1196
G01 X35.6946 Y16.2004
G00 Z2.0000
G00 X35.4914 Y14.4818
G01 F80.00
G01 Z-0.1590
G01 F80.00
G01 X36.2375 Y14.4817
G01 X36.2468 Y14.4665
G01 X36.2708 Y14.4307
G01 X36.3187 Y14.3661
G01 X36.3473 Y14.3314
G01 X36.4013 Y14.2718
G01 X36.4318 Y14.2413
G01 X36.4928 Y14.1860
G01 X36.5245 Y14.1600
G01 X36.4928 Y14.1340
G01 X36.4318 Y14.0787
G01 X36.4013 Y14.0482
G01 X36.3473 Y13.9886
G01 X36.3187 Y13.9539
G01 X36.2708 Y13.8893
G01 X36.2468 Y13.8535
G01 X36.2375 Y13.8383
G01 X36.1349 Y13.8383
G01 X35.4914 Y14.4818
G01 X35.7178 Y14.3880
G01 X36.1864 Y14.3880
G01 X36.1954 Y14.3748
G01 X36.2429 Y14.3109
G01 X36.2743 Y14.2724
G01 X36.3342 Y14.2063
G01 X36.3663 Y14.1742
G01 X36.3819 Y14.1600
G01 X36.3663 Y14.1458
G01 X36.3342 Y14.1137
G01 X36.2743 Y14.0476
G01 X36.2429 Y14.0091
G01 X36.1954 Y13.9452
G01 X36.1864 Y13.9320
G01 X36.1737 Y13.9320
G01 X35.7178 Y14.3880
G01 X35.9442 Y14.2942
G01 X36.1385 Y14.2942
G01 X36.1701 Y14.2516
G01 X36.2002 Y14.2149
G01 X36.2495 Y14.1600
G01 X36.2048 Y14.1106
G01 X36.1701 Y14.0683
G01 X35.9442 Y14.2942
G00 Z2.0000
G00 X38.1155 Y14.1600
G01 F80.00
G01 Z-0.1590
G01 F80.00
G01 X38.1472 Y14.1860
G01 X38.2082 Y14.2413
G01 X38.2387 Y14.2718
G01 X38.2927 Y14.3314
G01 X38.3225 Y14.3677
G01 X38.3704 Y14.4323
G01 X38.3943 Y14.4681
G01 X38.4366 Y14.5387
G01 X38.4569 Y14.5767
G01 X38.4921 Y14.6512
G01 X38.5079 Y14.6892
G01 X38.5364 Y14.7685
G01 X38.5483 Y14.8079
G01 X38.5693 Y14.8915
G01 X38.5776 Y14.9338
G01 X38.5894 Y15.0133
G01 X38.5934 Y15.0543
G01 X38.5976 Y15.1385
G01 X38.5977 Y15.1796
G01 X38.5936 Y15.2638
G01 X38.5894 Y15.3067
G01 X38.5773 Y15.3881
G01 X38.5689 Y15.4304
G01 X38.5489 Y15.5103
G01 X38.5364 Y15.5515
G01 X38.5086 Y15.6290
G01 X38.4913 Y15.6706
G01 X38.4569 Y15.7433
G01 X38.4357 Y15.7829
G01 X38.3932 Y15.8535
G01 X38.3704 Y15.8877
G01 X38.3362 Y15.9338
G01 X38.3471 Y15.9392
G01 X38.3872 Y15.9635
G01 X38.4233 Y15.9904
G01 X38.4581 Y16.0219
G01 X38.4896 Y16.0567
G01 X38.5154 Y16.0912
G01 X38.5196 Y16.0976
G01 X38.5398 Y16.1313
G01 X38.5434 Y16.1380
G01 X38.5618 Y16.1770
G01 X38.5764 Y16.2176
G01 X38.5786 Y16.2249
G01 X38.5881 Y16.2630
G01 X38.5896 Y16.2705
G01 X38.5958 Y16.3131
G01 X38.5981 Y16.3562
G01 X38.5981 Y16.4817
G01 X38.9441 Y16.4817
G01 X40.1438 Y15.2821
G01 X40.1594 Y15.2672
G01 X40.1754 Y15.2528
G01 X40.2102 Y15.2243
G01 X40.2276 Y15.2114
G01 X40.2618 Y15.1886
G01 X40.2819 Y15.1764
G01 X40.2913 Y15.1712
G01 X40.2410 Y15.1712
G01 X40.2175 Y15.1707
G01 X40.1960 Y15.1696
G01 X40.1550 Y15.1656
G01 X40.1280 Y15.1616
G01 X40.0876 Y15.1535
G01 X40.0649 Y15.1478
G01 X40.0236 Y15.1353
G01 X40.0033 Y15.1281
G01 X39.9600 Y15.1101
G01 X39.9405 Y15.1009
G01 X39.9025 Y15.0806
G01 X39.8824 Y15.0685
G01 X39.8466 Y15.0446
G01 X39.8277 Y15.0306
G01 X39.7944 Y15.0032
G01 X39.7784 Y14.9888
G01 X39.7614 Y14.9726
G01 X38.6271 Y13.8383
G01 X38.4025 Y13.8383
G01 X38.3932 Y13.8535
G01 X38.3692 Y13.8893
G01 X38.3213 Y13.9539
G01 X38.2927 Y13.9886
G01 X38.2387 Y14.0482
G01 X38.2082 Y14.0787
G01 X38.1472 Y14.1340
G01 X38.1155 Y14.1600
G01 X38.2581 Y14.1600
G01 X38.2737 Y14.1742
G01 X38.3058 Y14.2063
G01 X38.3670 Y14.2739
G01 X38.3959 Y14.3093
G01 X38.4494 Y14.3817
G01 X38.4741 Y14.4189
G01 X38.5161 Y14.4889
G01 X38.5388 Y14.5308
G01 X38.5774 Y14.6121
G01 X38.5957 Y14.6561
G01 X38.6251 Y14.7380
G01 X38.6401 Y14.7877
G01 X38.6601 Y14.8679
G01 X38.6695 Y14.9147
G01 X38.6823 Y15.0007
G01 X38.6874 Y15.0535
G01 X38.6914 Y15.1350
G01 X38.6912 Y15.1881
G01 X38.6868 Y15.2749
G01 X38.6823 Y15.3193
G01 X38.6704 Y15.4000
G01 X38.6601 Y15.4521
G01 X38.6390 Y15.5364
G01 X38.6251 Y15.5820
G01 X38.5957 Y15.6639
G01 X38.5774 Y15.7079
G01 X38.5402 Y15.7865
G01 X38.5176 Y15.8285
G01 X38.4757 Y15.8985
G01 X38.4697 Y15.9079
G01 X38.4804 Y15.9160
G01 X38.4869 Y15.9214
G01 X38.5236 Y15.9548
G01 X38.5566 Y15.9908
G01 X38.5654 Y16.0014
G01 X38.5925 Y16.0378
G01 X38.6001 Y16.0494
G01 X38.6249 Y16.0914
G01 X38.6455 Y16.1345
G01 X38.6510 Y16.1479
G01 X38.6670 Y16.1929
G01 X38.6791 Y16.2402
G01 X38.6815 Y16.2514
G01 X38.6881 Y16.2956
G01 X38.6894 Y16.3070
G01 X38.6918 Y16.3546
G01 X38.6919 Y16.3880
G01 X38.9052 Y16.3880
G01 X40.0519 Y15.2413
G01 X40.0369 Y15.2374
G01 X39.9972 Y15.2253
G01 X39.9707 Y15.2160
G01 X39.9248 Y15.1971
G01 X39.8956 Y15.1832
G01 X39.8526 Y15.1600
G01 X39.8312 Y15.1471
G01 X39.7960 Y15.1236
G01 X39.7691 Y15.1038
G01 X39.7308 Y15.0722
G01 X39.7132 Y15.0562
G01 X39.6951 Y15.0389
G01 X38.5882 Y13.9320
G01 X38.4536 Y13.9320
G01 X38.4446 Y13.9452
G01 X38.3971 Y14.0091
G01 X38.3657 Y14.0476
G01 X38.3058 Y14.1137
G01 X38.2737 Y14.1458
G01 X38.2581 Y14.1600
G01 X38.3905 Y14.1600
G01 X38.4352 Y14.2094
G01 X38.4655 Y14.2461
G01 X38.4731 Y14.2559
G01 X38.5224 Y14.3224
G01 X38.5540 Y14.3697
G01 X38.6009 Y14.4483
G01 X38.6255 Y14.4945
G01 X38.6641 Y14.5762
G01 X38.6844 Y14.6256
G01 X38.7148 Y14.7108
G01 X38.7299 Y14.7608
G01 X38.7505 Y14.8427
G01 X38.7532 Y14.8549
G01 X38.7623 Y14.9009
G01 X38.7757 Y14.9915
G01 X38.7808 Y15.0447
G01 X38.7852 Y15.1350
G01 X38.7851 Y15.1884
G01 X38.7806 Y15.2787
G01 X38.7754 Y15.3308
G01 X38.7630 Y15.4143
G01 X38.7609 Y15.4266
G01 X38.7516 Y15.4726
G01 X38.7293 Y15.5614
G01 X38.7141 Y15.6114
G01 X38.6857 Y15.6910
G01 X38.6812 Y15.7026
G01 X38.6631 Y15.7459
G01 X38.6271 Y15.8223
G01 X38.6021 Y15.8695
G01 X38.5906 Y15.8892
G01 X38.5997 Y15.8987
G01 X38.6331 Y15.9359
G01 X38.6416 Y15.9466
G01 X38.6674 Y15.9813
G01 X38.6783 Y15.9976
G01 X38.7007 Y16.0348
G01 X38.7066 Y16.0452
G01 X38.7130 Y16.0578
G01 X38.7305 Y16.0949
G01 X38.7359 Y16.1074
G01 X38.7531 Y16.1549
G01 X38.7577 Y16.1690
G01 X38.7701 Y16.2174
G01 X38.7731 Y16.2313
G01 X38.7809 Y16.2818
G01 X38.7824 Y16.2942
G01 X38.8664 Y16.2942
G01 X39.8805 Y15.2800
G01 X39.8541 Y15.2674
G01 X39.8143 Y15.2461
G01 X39.7876 Y15.2304
G01 X39.7766 Y15.2234
G01 X39.7395 Y15.1986
G01 X39.7141 Y15.1798
G01 X39.6736 Y15.1468
G01 X39.6524 Y15.1278
G01 X39.6288 Y15.1052
G01 X38.5494 Y14.0258
G01 X38.5015 Y14.0258
G01 X38.4699 Y14.0684
G01 X38.4398 Y14.1051
G01 X38.3905 Y14.1600
G01 X38.5161 Y14.1600
G01 X38.5449 Y14.1953
G01 X38.5484 Y14.2001
G01 X38.5952 Y14.2631
G01 X38.5957 Y14.2638
G01 X38.6047 Y14.2766
G01 X38.6311 Y14.3161
G01 X38.6800 Y14.3976
G01 X38.7069 Y14.4477
G01 X38.7482 Y14.5345
G01 X38.7705 Y14.5881
G01 X38.8026 Y14.6775
G01 X38.8196 Y14.7330
G01 X38.8430 Y14.8263
G01 X38.8550 Y14.8866
G01 X38.8682 Y14.9760
G01 X38.8735 Y15.0276
G01 X38.8747 Y15.0435
G01 X38.8786 Y15.1227
G01 X38.8790 Y15.1404
G01 X38.8788 Y15.1919
G01 X38.8740 Y15.2874
G01 X38.8684 Y15.3428
G01 X38.8558 Y15.4284
G01 X38.8533 Y15.4426
G01 X38.8452 Y15.4834
G01 X38.8414 Y15.5003
G01 X38.8205 Y15.5836
G01 X38.8030 Y15.6414
G01 X38.7721 Y15.7276
G01 X38.7527 Y15.7750
G01 X38.7457 Y15.7909
G01 X38.7117 Y15.8626
G01 X38.7051 Y15.8758
G01 X38.7179 Y15.8921
G01 X38.7429 Y15.9257
G01 X38.7524 Y15.9395
G01 X38.7603 Y15.9520
G01 X38.7823 Y15.9886
G01 X38.7933 Y16.0088
G01 X38.8168 Y16.0581
G01 X38.8256 Y16.0792
G01 X38.8450 Y16.1339
G01 X38.8497 Y16.1497
G01 X38.8555 Y16.1725
G01 X39.7257 Y15.3022
G01 X39.6855 Y15.2752
G01 X39.6519 Y15.2502
G01 X39.6085 Y15.2144
G01 X39.5869 Y15.1949
G01 X39.5665 Y15.1755
G01 X38.5318 Y14.1409
G01 X38.5161 Y14.1600
G01 X38.8835 Y14.6252
G01 X38.8946 Y14.6572
G01 X38.9116 Y14.7141
G01 X38.9341 Y14.8038
G01 X38.9451 Y14.8581
G01 X38.9487 Y14.8787
G01 X38.9604 Y14.9580
G01 X38.9628 Y14.9772
G01 X38.9680 Y15.0323
G01 X38.9725 Y15.1255
G01 X38.9728 Y15.1809
G01 X38.9722 Y15.2019
G01 X38.9678 Y15.2900
G01 X38.9612 Y15.3560
G01 X38.9475 Y15.4486
G01 X38.9371 Y15.5021
G01 X38.9324 Y15.5230
G01 X38.9092 Y15.6147
G01 X38.8915 Y15.6724
G01 X38.8594 Y15.7619
G01 X38.8360 Y15.8187
G01 X38.8145 Y15.8648
G01 X38.8251 Y15.8796
G01 X38.8348 Y15.8941
G01 X38.8650 Y15.9443
G01 X38.8782 Y15.9687
G01 X38.8938 Y16.0015
G01 X39.5815 Y15.3138
G01 X39.5441 Y15.2827
G01 X39.5214 Y15.2620
G01 X39.4982 Y15.2399
G01 X38.8835 Y14.6252
G01 X39.0503 Y14.9246
G01 X39.0553 Y14.9605
G01 X39.0609 Y15.0173
G01 X39.0661 Y15.1176
G01 X39.0666 Y15.1389
G01 X39.0663 Y15.1954
G01 X39.0610 Y15.3010
G01 X39.0562 Y15.3515
G01 X39.0542 Y15.3686
G01 X39.0412 Y15.4565
G01 X39.0379 Y15.4758
G01 X39.0252 Y15.5383
G01 X39.0038 Y15.6239
G01 X38.9981 Y15.6448
G01 X38.9845 Y15.6896
G01 X38.9780 Y15.7091
G01 X38.9481 Y15.7925
G01 X38.9331 Y15.8295
G01 X39.4444 Y15.3183
G01 X39.4299 Y15.3042
G01 X39.0503 Y14.9246
G01 X39.1603 Y15.1673
G01 X39.1603 Y15.1901
G01 X39.1597 Y15.2089
G01 X39.1555 Y15.2935
G01 X39.1535 Y15.3197
G01 X39.1491 Y15.3646
G01 X39.1466 Y15.3850
G01 X39.1335 Y15.4730
G01 X39.1285 Y15.5016
G01 X39.3116 Y15.3185
G01 X39.1603 Y15.1673
G00 Z2.0000
G00 X40.8169 Y16.6599
G01 F80.00
G01 Z-0.1590
G01 F80.00
G01 X40.8607 Y16.6490
G01 X40.9022 Y16.6408
G01 X40.9367 Y16.6356
G01 X40.9872 Y16.6304
G01 X41.0349 Y16.6282
G01 X41.0116 Y16.6246
G01 X40.9638 Y16.6149
G01 X40.9414 Y16.6091
G01 X40.9009 Y16.5968
G01 X40.8855 Y16.5913
G01 X40.8169 Y16.6599
G00 Z2.0000
G00 X40.9652 Y18.5440
G01 F80.00
G01 Z-0.1590
G01 F80.00
G01 X40.9964 Y18.5273
G01 X41.0203 Y18.5160
G01 X41.0601 Y18.4994
G01 X41.0886 Y18.4891
G01 X41.1317 Y18.4761
G01 X41.1574 Y18.4697
G01 X41.1978 Y18.4617
G01 X41.2277 Y18.4571
G01 X41.2706 Y18.4529
G01 X41.2970 Y18.4516
G01 X41.3186 Y18.4510
G01 X47.5994 Y18.4510
G01 X47.6064 Y18.4316
G01 X47.6221 Y18.3936
G01 X47.6350 Y18.3662
G01 X47.6563 Y18.3265
G01 X47.6699 Y18.3039
G01 X47.6870 Y18.2783
G01 X41.2309 Y18.2783
G01 X40.9652 Y18.5440
G00 Z2.0000
G00 X41.6029 Y20.1921
G01 F80.00
G01 Z-0.1590
G01 F80.00
G01 X41.6212 Y20.1858
G01 X41.6708 Y20.1710
G01 X41.6959 Y20.1648
G01 X41.7438 Y20.1553
G01 X41.7735 Y20.1509
G01 X41.8221 Y20.1461
G01 X41.8479 Y20.1447
G01 X41.8783 Y20.1440
G01 X43.5348 Y20.1441
G01 X43.5592 Y20.1447
G01 X43.5845 Y20.1461
G01 X43.6319 Y20.1508
G01 X43.6594 Y20.1547
G01 X43.7066 Y20.1640
G01 X43.7188 Y20.1667
G01 X43.7421 Y20.1727
G01 X43.7843 Y20.1854
G01 X43.8172 Y20.1970
G01 X43.8655 Y20.2171
G01 X43.8915 Y20.2295
G01 X43.9376 Y20.2543
G01 X43.9614 Y20.2686
G01 X44.0063 Y20.2989
G01 X44.0285 Y20.3156
G01 X44.0701 Y20.3501
G01 X44.0892 Y20.3678
G01 X44.1276 Y20.4066
G01 X44.1460 Y20.4274
G01 X44.1736 Y20.4610
G01 X44.1877 Y20.4798
G01 X44.2183 Y20.5250
G01 X44.2337 Y20.5504
G01 X44.2585 Y20.5965
G01 X44.2709 Y20.6225
G01 X44.2906 Y20.6698
G01 X44.2988 Y20.6924
G01 X44.3141 Y20.7418
G01 X44.3176 Y20.7544
G01 X44.3236 Y20.7792
G01 X44.3333 Y20.8286
G01 X44.3372 Y20.8561
G01 X44.3422 Y20.9070
G01 X44.3434 Y20.9313
G01 X44.3440 Y20.9591
G01 X44.3440 Y21.2597
G01 X44.3434 Y21.2858
G01 X44.3419 Y21.3159
G01 X44.3372 Y21.3633
G01 X44.3333 Y21.3908
G01 X44.3288 Y21.4138
G01 X44.9130 Y21.4138
G01 X44.9247 Y21.3984
G01 X44.9525 Y21.3645
G01 X44.9797 Y21.3343
G01 X45.0183 Y21.2957
G01 X45.0436 Y21.2728
G01 X45.0564 Y21.2621
G01 X45.0417 Y21.2498
G01 X45.0145 Y21.2248
G01 X44.9813 Y21.1915
G01 X44.9560 Y21.1637
G01 X44.9258 Y21.1271
G01 X44.9181 Y21.1173
G01 X44.8984 Y21.0904
G01 X44.8713 Y21.0498
G01 X44.8543 Y21.0217
G01 X44.8482 Y21.0108
G01 X44.8272 Y20.9715
G01 X44.8102 Y20.9354
G01 X44.7928 Y20.8937
G01 X44.7883 Y20.8820
G01 X44.7772 Y20.8506
G01 X44.7631 Y20.8038
G01 X44.7531 Y20.7640
G01 X44.7425 Y20.7091
G01 X44.7372 Y20.6713
G01 X44.7329 Y20.6269
G01 X44.7312 Y20.5948
G01 X44.7304 Y20.5621
G01 X44.7304 Y20.0951
G01 X41.6999 Y20.0951
G01 X41.6029 Y20.1921
G00 Z2.0000
G00 X41.1766 Y20.7907
G01 F80.00
G01 Z-0.1590
G01 F80.00
G01 X41.1814 Y20.7720
G01 X41.1936 Y20.7315
G01 X41.2038 Y20.7028
G01 X41.2205 Y20.6627
G01 X41.2290 Y20.6445
G01 X41.2539 Y20.5976
G01 X41.2659 Y20.5778
G01 X41.2893 Y20.5426
G01 X41.3062 Y20.5196
G01 X41.3386 Y20.4805
G01 X41.3521 Y20.4656
G01 X41.3820 Y20.4357
G01 X41.4031 Y20.4164
G01 X41.4424 Y20.3844
G01 X41.4586 Y20.3725
G01 X41.4948 Y20.3483
G01 X41.5209 Y20.3327
G01 X41.5582 Y20.3128
G01 X41.5764 Y20.3041
G01 X41.6232 Y20.2845
G01 X41.6501 Y20.2750
G01 X41.6906 Y20.2628
G01 X41.7153 Y20.2566
G01 X41.7598 Y20.2477
G01 X41.7850 Y20.2440
G01 X41.8325 Y20.2394
G01 X41.8533 Y20.2383
G01 X41.8771 Y20.2378
G01 X43.5283 Y20.2378
G01 X43.5533 Y20.2383
G01 X43.5741 Y20.2394
G01 X43.6216 Y20.2440
G01 X43.6498 Y20.2483
G01 X43.6913 Y20.2566
G01 X43.7108 Y20.2614
G01 X43.7594 Y20.2759
G01 X43.7834 Y20.2845
G01 X43.8302 Y20.3041
G01 X43.8484 Y20.3128
G01 X43.8857 Y20.3327
G01 X43.9102 Y20.3473
G01 X43.9523 Y20.3756
G01 X43.9684 Y20.3876
G01 X44.0012 Y20.4145
G01 X44.0224 Y20.4335
G01 X44.0581 Y20.4695
G01 X44.0716 Y20.4845
G01 X44.0984 Y20.5172
G01 X44.1155 Y20.5400
G01 X44.1436 Y20.5823
G01 X44.1538 Y20.5996
G01 X44.1738 Y20.6369
G01 X44.1844 Y20.6588
G01 X44.2035 Y20.7046
G01 X44.2113 Y20.7264
G01 X44.2252 Y20.7720
G01 X44.2309 Y20.7945
G01 X44.2403 Y20.8412
G01 X44.2437 Y20.8641
G01 X44.2485 Y20.9116
G01 X44.2497 Y20.9359
G01 X44.2502 Y20.9597
G01 X44.2502 Y21.2597
G01 X44.2497 Y21.2847
G01 X44.2485 Y21.3078
G01 X44.2440 Y21.3530
G01 X44.2412 Y21.3729
G01 X44.2314 Y21.4227
G01 X44.2244 Y21.4503
G01 X44.2121 Y21.4908
G01 X44.2062 Y21.5076
G01 X44.9618 Y21.5076
G01 X44.9771 Y21.4850
G01 X44.9942 Y21.4619
G01 X45.0243 Y21.4249
G01 X45.0492 Y21.3973
G01 X45.0813 Y21.3652
G01 X45.1075 Y21.3415
G01 X45.1444 Y21.3113
G01 X45.1709 Y21.2917
G01 X45.2060 Y21.2682
G01 X45.2158 Y21.2621
G01 X45.2060 Y21.2560
G01 X45.1665 Y21.2293
G01 X45.1425 Y21.2115
G01 X45.1034 Y21.1791
G01 X45.0813 Y21.1590
G01 X45.0476 Y21.1252
G01 X45.0255 Y21.1007
G01 X44.9967 Y21.0657
G01 X44.9757 Y21.0373
G01 X44.9493 Y20.9976
G01 X44.9324 Y20.9693
G01 X44.9124 Y20.9320
G01 X44.8947 Y20.8946
G01 X44.8785 Y20.8555
G01 X44.8661 Y20.8204
G01 X44.8521 Y20.7736
G01 X44.8449 Y20.7446
G01 X44.8366 Y20.7031
G01 X44.8309 Y20.6652
G01 X44.8261 Y20.6147
G01 X44.8247 Y20.5871
G01 X44.8242 Y20.5621
G01 X44.8242 Y20.0014
G01 X41.6610 Y20.0014
G01 X41.1766 Y20.4858
G01 X41.1766 Y21.4287
G01 X41.1766 Y22.0607
G01 X41.1814 Y22.0420
G01 X41.1936 Y22.0015
G01 X41.2016 Y21.9785
G01 X41.2205 Y21.9327
G01 X41.2328 Y21.9069
G01 X41.2528 Y21.8696
G01 X41.2630 Y21.8523
G01 X41.2900 Y21.8116
G01 X41.3074 Y21.7881
G01 X41.3338 Y21.7560
G01 X41.3438 Y21.7447
G01 X41.3338 Y21.7334
G01 X41.3074 Y21.7013
G01 X41.2900 Y21.6778
G01 X41.2630 Y21.6371
G01 X41.2528 Y21.6198
G01 X41.2328 Y21.5825
G01 X41.2205 Y21.5567
G01 X41.2016 Y21.5109
G01 X41.1936 Y21.4879
G01 X41.1814 Y21.4474
G01 X41.1766 Y21.4287
G01 X41.1766 Y22.6987
G01 X41.1766 Y23.3307
G01 X41.1790 Y23.3211
G01 X41.1902 Y23.2817
G01 X41.1988 Y23.2563
G01 X41.2133 Y23.2192
G01 X41.2208 Y23.2018
G01 X41.2430 Y23.1571
G01 X41.2536 Y23.1381
G01 X41.2746 Y23.1042
G01 X41.2884 Y23.0837
G01 X41.3168 Y23.0462
G01 X41.3293 Y23.0311
G01 X41.3440 Y23.0149
G01 X41.3338 Y23.0034
G01 X41.3074 Y22.9713
G01 X41.2900 Y22.9478
G01 X41.2630 Y22.9071
G01 X41.2528 Y22.8898
G01 X41.2328 Y22.8525
G01 X41.2205 Y22.8267
G01 X41.2016 Y22.7809
G01 X41.1936 Y22.7579
G01 X41.1814 Y22.7174
G01 X41.1766 Y22.6987
G00 Z2.0000
G00 X41.4796 Y23.0145
G01 F80.00
G01 Z-0.1590
G01 F80.00
G01 X41.4635 Y23.0012
G01 X41.4497 Y22.9887
G01 X41.4193 Y22.9583
G01 X41.4068 Y22.9445
G01 X41.3795 Y22.9112
G01 X41.3684 Y22.8963
G01 X41.3445 Y22.8605
G01 X41.3349 Y22.8446
G01 X41.3138 Y22.8048
G01 X41.3067 Y22.7898
G01 X41.2909 Y22.7518
G01 X41.2846 Y22.7343
G01 X41.2714 Y22.6913
G01 X41.2669 Y22.6733
G01 X41.2585 Y22.6310
G01 X41.2558 Y22.6127
G01 X41.2516 Y22.5698
G01 X41.2507 Y22.5512
G01 X41.2502 Y22.5297
G01 X41.2502 Y22.2297
G01 X41.2507 Y22.2062
G01 X41.2517 Y22.1877
G01 X41.2558 Y22.1467
G01 X41.2582 Y22.1303
G01 X41.2669 Y22.0861
G01 X41.2720 Y22.0663
G01 X41.2839 Y22.0269
G01 X41.2895 Y22.0112
G01 X41.3067 Y21.9696
G01 X41.3146 Y21.9528
G01 X41.3340 Y21.9165
G01 X41.3445 Y21.8989
G01 X41.3695 Y21.8615
G01 X41.3795 Y21.8482
G01 X41.4068 Y21.8149
G01 X41.4193 Y21.8011
G01 X41.4497 Y21.7707
G01 X41.4635 Y21.7582
G01 X41.4799 Y21.7447
G01 X41.4635 Y21.7312
G01 X41.4497 Y21.7187
G01 X41.4193 Y21.6883
G01 X41.4068 Y21.6745
G01 X41.3795 Y21.6412
G01 X41.3695 Y21.6279
G01 X41.3445 Y21.5905
G01 X41.3349 Y21.5746
G01 X41.3155 Y21.5383
G01 X41.3067 Y21.5198
G01 X41.2902 Y21.4800
G01 X41.2846 Y21.4643
G01 X41.2709 Y21.4194
G01 X41.2669 Y21.4033
G01 X41.2589 Y21.3629
G01 X41.2560 Y21.3446
G01 X41.2516 Y21.2998
G01 X41.2507 Y21.2812
G01 X41.2502 Y21.2597
G01 X41.2502 Y20.9597
G01 X41.2507 Y20.9382
G01 X41.2516 Y20.9196
G01 X41.2556 Y20.8786
G01 X41.2589 Y20.8565
G01 X41.2669 Y20.8161
G01 X41.2720 Y20.7963
G01 X41.2839 Y20.7569
G01 X41.2902 Y20.7394
G01 X41.3067 Y20.6996
G01 X41.3155 Y20.6811
G01 X41.3349 Y20.6448
G01 X41.3445 Y20.6289
G01 X41.3684 Y20.5931
G01 X41.3795 Y20.5782
G01 X41.4068 Y20.5449
G01 X41.4193 Y20.5311
G01 X41.4497 Y20.5007
G01 X41.4620 Y20.4895
G01 X41.4983 Y20.4597
G01 X41.5117 Y20.4498
G01 X41.5475 Y20.4259
G01 X41.5634 Y20.4163
G01 X41.5997 Y20.3969
G01 X41.6200 Y20.3873
G01 X41.6580 Y20.3716
G01 X41.6755 Y20.3653
G01 X41.7167 Y20.3528
G01 X41.7329 Y20.3488
G01 X41.7789 Y20.3396
G01 X41.7972 Y20.3370
G01 X41.8401 Y20.3328
G01 X41.8783 Y20.3316
G01 X43.5302 Y20.3316
G01 X43.5684 Y20.3330
G01 X43.6113 Y20.3372
G01 X43.6296 Y20.3399
G01 X43.6737 Y20.3488
G01 X43.6899 Y20.3528
G01 X43.7293 Y20.3648
G01 X43.7486 Y20.3716
G01 X43.7901 Y20.3889
G01 X43.8052 Y20.3960
G01 X43.8415 Y20.4154
G01 X43.8591 Y20.4259
G01 X43.8965 Y20.4509
G01 X43.9098 Y20.4609
G01 X43.9417 Y20.4870
G01 X43.9569 Y20.5007
G01 X43.9873 Y20.5311
G01 X44.0010 Y20.5463
G01 X44.0271 Y20.5782
G01 X44.0371 Y20.5915
G01 X44.0621 Y20.6289
G01 X44.0717 Y20.6448
G01 X44.0928 Y20.6846
G01 X44.0999 Y20.6996
G01 X44.1157 Y20.7376
G01 X44.1227 Y20.7569
G01 X44.1357 Y20.8000
G01 X44.1397 Y20.8161
G01 X44.1477 Y20.8565
G01 X44.1506 Y20.8748
G01 X44.1550 Y20.9196
G01 X44.1559 Y20.9382
G01 X44.1564 Y20.9597
G01 X44.1564 Y21.2597
G01 X44.1559 Y21.2812
G01 X44.1550 Y21.2998
G01 X44.1510 Y21.3408
G01 X44.1481 Y21.3610
G01 X44.1392 Y21.4051
G01 X44.1346 Y21.4231
G01 X44.1227 Y21.4625
G01 X44.1171 Y21.4782
G01 X44.0999 Y21.5198
G01 X44.0920 Y21.5366
G01 X44.0717 Y21.5746
G01 X44.0621 Y21.5905
G01 X44.0549 Y21.6014
G01 X45.0138 Y21.6014
G01 X45.0291 Y21.5758
G01 X45.0531 Y21.5399
G01 X45.0700 Y21.5171
G01 X45.0973 Y21.4838
G01 X45.1163 Y21.4628
G01 X45.1468 Y21.4323
G01 X45.1678 Y21.4133
G01 X45.2011 Y21.3860
G01 X45.2239 Y21.3691
G01 X45.2598 Y21.3451
G01 X45.2841 Y21.3305
G01 X45.3221 Y21.3102
G01 X45.3477 Y21.2981
G01 X45.3875 Y21.2816
G01 X45.4143 Y21.2720
G01 X45.4470 Y21.2621
G01 X45.4143 Y21.2522
G01 X45.3893 Y21.2433
G01 X45.3495 Y21.2269
G01 X45.3221 Y21.2140
G01 X45.2841 Y21.1937
G01 X45.2598 Y21.1791
G01 X45.2224 Y21.1540
G01 X45.2011 Y21.1382
G01 X45.1693 Y21.1121
G01 X45.1482 Y21.0932
G01 X45.1163 Y21.0614
G01 X45.0973 Y21.0404
G01 X45.0700 Y21.0071
G01 X45.0520 Y20.9827
G01 X45.0291 Y20.9484
G01 X45.0155 Y20.9258
G01 X44.9951 Y20.8878
G01 X44.9821 Y20.8605
G01 X44.9656 Y20.8207
G01 X44.9560 Y20.7939
G01 X44.9441 Y20.7545
G01 X44.9366 Y20.7252
G01 X44.9282 Y20.6829
G01 X44.9243 Y20.6568
G01 X44.9197 Y20.6101
G01 X44.9185 Y20.5856
G01 X44.9180 Y20.5621
G01 X44.9180 Y19.9076
G01 X41.6222 Y19.9076
G01 X41.0828 Y20.4469
G01 X41.0828 Y25.1688
G01 X41.5390 Y25.6250
G01 X41.5857 Y25.6250
G01 X41.5634 Y25.6131
G01 X41.5491 Y25.6045
G01 X41.5117 Y25.5796
G01 X41.4968 Y25.5685
G01 X41.4649 Y25.5424
G01 X41.4497 Y25.5287
G01 X41.4179 Y25.4969
G01 X41.4068 Y25.4845
G01 X41.3807 Y25.4527
G01 X41.3684 Y25.4363
G01 X41.3445 Y25.4005
G01 X41.3340 Y25.3829
G01 X41.3146 Y25.3466
G01 X41.3075 Y25.3315
G01 X41.2902 Y25.2900
G01 X41.2834 Y25.2707
G01 X41.2714 Y25.2313
G01 X41.2674 Y25.2151
G01 X41.2585 Y25.1710
G01 X41.2556 Y25.1508
G01 X41.2516 Y25.1098
G01 X41.2507 Y25.0932
G01 X41.2502 Y25.0697
G01 X41.2502 Y24.7697
G01 X41.2507 Y24.7476
G01 X41.2516 Y24.7302
G01 X41.2551 Y24.6916
G01 X41.2573 Y24.6761
G01 X41.2650 Y24.6344
G01 X41.2695 Y24.6157
G01 X41.2801 Y24.5784
G01 X41.2857 Y24.5619
G01 X41.3003 Y24.5240
G01 X41.3066 Y24.5097
G01 X41.3263 Y24.4702
G01 X41.3339 Y24.4565
G01 X41.3543 Y24.4235
G01 X41.3662 Y24.4062
G01 X41.3896 Y24.3752
G01 X41.4020 Y24.3605
G01 X41.4281 Y24.3318
G01 X41.4391 Y24.3207
G01 X41.4691 Y24.2934
G01 X41.4796 Y24.2845
G01 X41.4635 Y24.2712
G01 X41.4497 Y24.2587
G01 X41.4193 Y24.2283
G01 X41.4068 Y24.2145
G01 X41.3795 Y24.1812
G01 X41.3695 Y24.1679
G01 X41.3445 Y24.1305
G01 X41.3349 Y24.1146
G01 X41.3155 Y24.0783
G01 X41.3067 Y24.0598
G01 X41.2902 Y24.0200
G01 X41.2846 Y24.0043
G01 X41.2709 Y23.9594
G01 X41.2669 Y23.9433
G01 X41.2589 Y23.9029
G01 X41.2560 Y23.8846
G01 X41.2516 Y23.8398
G01 X41.2507 Y23.8212
G01 X41.2502 Y23.7997
G01 X41.2502 Y23.4997
G01 X41.2514 Y23.4620
G01 X41.2551 Y23.4216
G01 X41.2576 Y23.4043
G01 X41.2650 Y23.3644
G01 X41.2690 Y23.3474
G01 X41.2801 Y23.3084
G01 X41.2857 Y23.2919
G01 X41.3003 Y23.2540
G01 X41.3074 Y23.2381
G01 X41.3263 Y23.2002
G01 X41.3349 Y23.1850
G01 X41.3563 Y23.1505
G01 X41.3662 Y23.1362
G01 X41.3907 Y23.1038
G01 X41.4020 Y23.0905
G01 X41.4293 Y23.0605
G01 X41.4418 Y23.0483
G01 X41.4691 Y23.0234
G01 X41.4796 Y23.0145
G00 Z2.0000
G00 X41.1766 Y23.9687
G01 F80.00
G01 Z-0.1590
G01 F80.00
G01 X41.1766 Y24.6007
G01 X41.1790 Y24.5911
G01 X41.1902 Y24.5517
G01 X41.1988 Y24.5263
G01 X41.2133 Y24.4892
G01 X41.2208 Y24.4718
G01 X41.2430 Y24.4271
G01 X41.2536 Y24.4081
G01 X41.2746 Y24.3742
G01 X41.2884 Y24.3537
G01 X41.3168 Y24.3162
G01 X41.3293 Y24.3011
G01 X41.3440 Y24.2849
G01 X41.3338 Y24.2734
G01 X41.3074 Y24.2413
G01 X41.2900 Y24.2178
G01 X41.2630 Y24.1771
G01 X41.2528 Y24.1598
G01 X41.2328 Y24.1225
G01 X41.2205 Y24.0967
G01 X41.2016 Y24.0509
G01 X41.1936 Y24.0279
G01 X41.1814 Y23.9874
G01 X41.1766 Y23.9687
G00 Z2.0000
G00 X39.3386 Y24.4750
G01 F80.00
G01 Z-0.1590
G01 F80.00
G01 X39.3386 Y24.0939
G01 X39.3292 Y24.1181
G01 X39.3199 Y24.1391
G01 X39.2944 Y24.1900
G01 X39.2833 Y24.2098
G01 X39.2596 Y24.2480
G01 X39.2449 Y24.2696
G01 X39.2338 Y24.2845
G01 X39.2439 Y24.2986
G01 X39.2683 Y24.3350
G01 X39.2869 Y24.3661
G01 X39.3124 Y24.4144
G01 X39.3223 Y24.4357
G01 X39.3386 Y24.4750
G01 X39.3386 Y22.8239
G01 X39.3292 Y22.8481
G01 X39.3199 Y22.8691
G01 X39.2944 Y22.9200
G01 X39.2833 Y22.9398
G01 X39.2596 Y22.9780
G01 X39.2449 Y22.9996
G01 X39.2338 Y23.0145
G01 X39.2439 Y23.0286
G01 X39.2683 Y23.0650
G01 X39.2869 Y23.0961
G01 X39.3124 Y23.1444
G01 X39.3223 Y23.1657
G01 X39.3386 Y23.2050
G00 Z2.0000
G00 X38.0085 Y26.6356
G01 F80.00
G01 Z-0.1590
G01 F80.00
G01 X38.5815 Y26.6356
G01 X38.6272 Y26.6348
G01 X38.6652 Y26.6331
G01 X38.6973 Y26.6309
G01 X38.7546 Y26.6255
G01 X38.7835 Y26.6220
G01 X38.8208 Y26.6166
G01 X38.8474 Y26.6120
G01 X38.9086 Y26.6003
G01 X38.9498 Y26.5908
G01 X38.9809 Y26.5828
G01 X39.0120 Y26.6197
G01 X39.0538 Y26.6659
G01 X39.0857 Y26.6993
G01 X39.1486 Y26.7622
G01 X38.1350 Y26.7622
G01 X38.0085 Y26.6356
G01 X37.7821 Y26.5419
G01 X38.5802 Y26.5419
G01 X38.6244 Y26.5410
G01 X38.6601 Y26.5395
G01 X38.6903 Y26.5373
G01 X38.7505 Y26.5316
G01 X38.7928 Y26.5260
G01 X38.8249 Y26.5208
G01 X38.8820 Y26.5100
G01 X38.9248 Y26.5004
G01 X38.9571 Y26.4921
G01 X39.0151 Y26.4754
G01 X39.0345 Y26.5001
G01 X39.0735 Y26.5475
G01 X39.0911 Y26.5676
G01 X39.1262 Y26.6061
G01 X39.1562 Y26.6372
G01 X39.3750 Y26.8560
G01 X38.0962 Y26.8560
G01 X37.7821 Y26.5419
G01 X37.5557 Y26.4481
G01 X38.5796 Y26.4481
G01 X38.6215 Y26.4473
G01 X38.6562 Y26.4458
G01 X38.6809 Y26.4440
G01 X38.7245 Y26.4400
G01 X38.7584 Y26.4361
G01 X38.8012 Y26.4298
G01 X38.8647 Y26.4178
G01 X38.8858 Y26.4132
G01 X38.9170 Y26.4057
G01 X38.9748 Y26.3896
G01 X39.0073 Y26.3795
G01 X39.0503 Y26.3645
G01 X39.0639 Y26.3837
G01 X39.0869 Y26.4148
G01 X39.1088 Y26.4429
G01 X39.1503 Y26.4930
G01 X39.1934 Y26.5406
G01 X39.2230 Y26.5714
G01 X39.6014 Y26.9498
G01 X38.0573 Y26.9498
G01 X37.5557 Y26.4481
G01 X37.3098 Y26.3543
G01 X38.5793 Y26.3543
G01 X38.6194 Y26.3535
G01 X38.6543 Y26.3519
G01 X38.6757 Y26.3504
G01 X38.7247 Y26.3458
G01 X38.7693 Y26.3399
G01 X38.7915 Y26.3362
G01 X38.8380 Y26.3276
G01 X38.8801 Y26.3182
G01 X38.9052 Y26.3118
G01 X38.9477 Y26.2997
G01 X38.9792 Y26.2900
G01 X39.0023 Y26.2822
G01 X39.0202 Y26.2757
G01 X39.0644 Y26.2585
G01 X39.0866 Y26.2493
G01 X39.0995 Y26.2693
G01 X39.1301 Y26.3150
G01 X39.1422 Y26.3320
G01 X39.1687 Y26.3675
G01 X39.1821 Y26.3844
G01 X39.2173 Y26.4271
G01 X39.2591 Y26.4735
G01 X39.2897 Y26.5055
G01 X39.8278 Y27.0435
G01 X38.0185 Y27.0435
G01 X37.4507 Y26.4759
G01 X37.4219 Y26.4485
G01 X37.3834 Y26.4139
G01 X37.3347 Y26.3736
G01 X37.3098 Y26.3543
G01 X36.9596 Y26.2605
G01 X38.5787 Y26.2605
G01 X38.6171 Y26.2598
G01 X38.6499 Y26.2583
G01 X38.7164 Y26.2523
G01 X38.7625 Y26.2461
G01 X38.8285 Y26.2338
G01 X38.8600 Y26.2266
G01 X38.8817 Y26.2210
G01 X38.9391 Y26.2044
G01 X38.9688 Y26.1946
G01 X38.9902 Y26.1867
G01 X39.0310 Y26.1709
G01 X39.0527 Y26.1618
G01 X39.0830 Y26.1481
G01 X39.1246 Y26.1275
G01 X39.1417 Y26.1588
G01 X39.1676 Y26.2019
G01 X39.1790 Y26.2196
G01 X39.2128 Y26.2695
G01 X39.2396 Y26.3058
G01 X39.2554 Y26.3259
G01 X39.2900 Y26.3678
G01 X39.3241 Y26.4057
G01 X39.3561 Y26.4392
G01 X40.0542 Y27.1373
G01 X37.9797 Y27.1373
G01 X37.3916 Y26.5493
G01 X37.3579 Y26.5171
G01 X37.3202 Y26.4832
G01 X37.2788 Y26.4490
G01 X37.2595 Y26.4338
G01 X37.2265 Y26.4093
G01 X37.2068 Y26.3955
G01 X37.1604 Y26.3647
G01 X37.1187 Y26.3394
G01 X37.0982 Y26.3277
G01 X37.0546 Y26.3044
G01 X37.0354 Y26.2947
G01 X36.9924 Y26.2744
G01 X36.9596 Y26.2605
G01 X35.8410 Y25.9166
G01 X35.8811 Y25.9656
G01 X35.8410 Y25.9652
G01 X35.8410 Y25.9166
G01 X35.7473 Y25.5740
G01 X35.7595 Y25.6025
G01 X35.7768 Y25.6389
G01 X35.8053 Y25.6929
G01 X35.8169 Y25.7136
G01 X35.8344 Y25.7429
G01 X35.8486 Y25.7651
G01 X35.8795 Y25.8111
G01 X35.9029 Y25.8432
G01 X35.9198 Y25.8649
G01 X35.9557 Y25.9086
G01 X35.9714 Y25.9266
G01 X35.9964 Y25.9536
G01 X36.0056 Y25.9630
G01 X36.0064 Y25.9638
G01 X36.0343 Y25.9918
G01 X36.0364 Y25.9938
G01 X36.0545 Y26.0112
G01 X36.0833 Y26.0371
G01 X36.1131 Y26.0619
G01 X35.7947 Y26.0608
G01 X35.7654 Y26.0343
G01 X35.7473 Y26.0186
G01 X35.7473 Y25.5740
G01 X35.6535 Y25.0614
G01 X35.6756 Y25.0432
G01 X35.6898 Y25.0310
G01 X35.7174 Y25.0060
G01 X35.7333 Y24.9908
G01 X35.7375 Y24.9908
G01 X35.7375 Y25.0746
G01 X35.7385 Y25.1158
G01 X35.7408 Y25.1560
G01 X35.7466 Y25.2150
G01 X35.7517 Y25.2526
G01 X35.7560 Y25.2777
G01 X35.7669 Y25.3319
G01 X35.7758 Y25.3687
G01 X35.7833 Y25.3958
G01 X35.7963 Y25.4387
G01 X35.8029 Y25.4585
G01 X35.8165 Y25.4957
G01 X35.8381 Y25.5481
G01 X35.8488 Y25.5721
G01 X35.8664 Y25.6082
G01 X35.8930 Y25.6577
G01 X35.9130 Y25.6917
G01 X35.9277 Y25.7147
G01 X35.9522 Y25.7514
G01 X35.9648 Y25.7692
G01 X35.9888 Y25.8011
G01 X36.0250 Y25.8453
G01 X36.0516 Y25.8754
G01 X36.0699 Y25.8947
G01 X36.1097 Y25.9343
G01 X36.1419 Y25.9637
G01 X36.1898 Y26.0035
G01 X36.2115 Y26.0205
G01 X36.2297 Y26.0339
G01 X36.2333 Y26.0365
G01 X36.2349 Y26.0377
G01 X36.2351 Y26.0378
G01 X36.2354 Y26.0380
G01 X36.2361 Y26.0385
G01 X36.2427 Y26.0431
G01 X36.2926 Y26.0764
G01 X36.3261 Y26.0969
G01 X36.3496 Y26.1101
G01 X36.3997 Y26.1366
G01 X36.4427 Y26.1568
G01 X35.7565 Y26.1545
G01 X35.7339 Y26.1323
G01 X35.7032 Y26.1044
G01 X35.6874 Y26.0908
G01 X35.6535 Y26.0629
G01 X35.6535 Y25.0614
G01 X35.5597 Y25.0162
G01 X35.5799 Y25.0005
G01 X35.6262 Y24.9621
G01 X35.6607 Y24.9306
G01 X35.6945 Y24.8970
G01 X35.8313 Y24.8971
G01 X35.8313 Y25.0749
G01 X35.8321 Y25.1105
G01 X35.8337 Y25.1414
G01 X35.8391 Y25.1988
G01 X35.8422 Y25.2234
G01 X35.8479 Y25.2588
G01 X35.8598 Y25.3176
G01 X35.8706 Y25.3604
G01 X35.8892 Y25.4211
G01 X35.9033 Y25.4603
G01 X35.9236 Y25.5096
G01 X35.9318 Y25.5282
G01 X35.9446 Y25.5549
G01 X35.9705 Y25.6040
G01 X35.9834 Y25.6268
G01 X35.9955 Y25.6468
G01 X36.0044 Y25.6607
G01 X36.0340 Y25.7049
G01 X36.0587 Y25.7383
G01 X36.0988 Y25.7874
G01 X36.1277 Y25.8195
G01 X36.1727 Y25.8648
G01 X36.2029 Y25.8925
G01 X36.2159 Y25.9036
G01 X36.2521 Y25.9333
G01 X36.2827 Y25.9565
G01 X36.2994 Y25.9683
G01 X36.3388 Y25.9946
G01 X36.3708 Y26.0143
G01 X36.3939 Y26.0274
G01 X36.4325 Y26.0481
G01 X36.4512 Y26.0574
G01 X36.4855 Y26.0732
G01 X36.5287 Y26.0911
G01 X36.5446 Y26.0973
G01 X36.5833 Y26.1109
G01 X36.6440 Y26.1291
G01 X36.6737 Y26.1367
G01 X36.6943 Y26.1412
G01 X36.7441 Y26.1510
G01 X36.7801 Y26.1566
G01 X36.8005 Y26.1590
G01 X36.8549 Y26.1641
G01 X36.8868 Y26.1658
G01 X36.9184 Y26.1667
G01 X38.5786 Y26.1667
G01 X38.6129 Y26.1661
G01 X38.6392 Y26.1649
G01 X38.6592 Y26.1635
G01 X38.7088 Y26.1588
G01 X38.7402 Y26.1546
G01 X38.7611 Y26.1511
G01 X38.8077 Y26.1423
G01 X38.8396 Y26.1350
G01 X38.8601 Y26.1297
G01 X38.9131 Y26.1143
G01 X38.9475 Y26.1026
G01 X38.9922 Y26.0854
G01 X39.0108 Y26.0778
G01 X39.0381 Y26.0656
G01 X39.0849 Y26.0425
G01 X39.1025 Y26.0333
G01 X39.1309 Y26.0172
G01 X39.1645 Y25.9965
G01 X39.1885 Y26.0476
G01 X39.2143 Y26.0963
G01 X39.2264 Y26.1178
G01 X39.2518 Y26.1597
G01 X39.2850 Y26.2092
G01 X39.3140 Y26.2488
G01 X39.3258 Y26.2638
G01 X39.3536 Y26.2978
G01 X39.3706 Y26.3175
G01 X39.3963 Y26.3457
G01 X39.4222 Y26.3727
G01 X40.2806 Y27.2311
G01 X37.9408 Y27.2311
G01 X37.3245 Y26.6148
G01 X37.2961 Y26.5877
G01 X37.2641 Y26.5587
G01 X37.2183 Y26.5207
G01 X37.1994 Y26.5060
G01 X37.1614 Y26.4780
G01 X37.1107 Y26.4442
G01 X37.0701 Y26.4196
G01 X37.0487 Y26.4075
G01 X37.0006 Y26.3821
G01 X36.9501 Y26.3583
G01 X36.8929 Y26.3345
G01 X36.8477 Y26.3181
G01 X36.8284 Y26.3117
G01 X36.7868 Y26.2990
G01 X36.7617 Y26.2921
G01 X36.7152 Y26.2808
G01 X36.6522 Y26.2684
G01 X36.5976 Y26.2604
G01 X36.5412 Y26.2547
G01 X36.5236 Y26.2534
G01 X36.4879 Y26.2516
G01 X36.4472 Y26.2506
G01 X35.7188 Y26.2496
G01 X35.6746 Y26.2053
G01 X35.6388 Y26.1726
G01 X35.5896 Y26.1319
G01 X35.5597 Y26.1092
G01 X35.5597 Y25.0162
G01 X35.4659 Y24.9683
G01 X35.4818 Y24.9572
G01 X35.5121 Y24.9346
G01 X35.5634 Y24.8924
G01 X35.5892 Y24.8691
G01 X35.6009 Y24.8580
G01 X35.6357 Y24.8231
G01 X35.6541 Y24.8032
G01 X35.9250 Y24.8035
G01 X35.9250 Y25.0703
G01 X35.9258 Y25.1046
G01 X35.9276 Y25.1397
G01 X35.9326 Y25.1904
G01 X35.9350 Y25.2096
G01 X35.9403 Y25.2427
G01 X35.9505 Y25.2935
G01 X35.9594 Y25.3294
G01 X35.9766 Y25.3866
G01 X35.9895 Y25.4231
G01 X36.0122 Y25.4784
G01 X36.0279 Y25.5119
G01 X36.0564 Y25.5657
G01 X36.0756 Y25.5980
G01 X36.1092 Y25.6488
G01 X36.1311 Y25.6786
G01 X36.1699 Y25.7263
G01 X36.1946 Y25.7538
G01 X36.2380 Y25.7974
G01 X36.2652 Y25.8224
G01 X36.3126 Y25.8616
G01 X36.3422 Y25.8838
G01 X36.3932 Y25.9181
G01 X36.4248 Y25.9373
G01 X36.4789 Y25.9665
G01 X36.5123 Y25.9825
G01 X36.5690 Y26.0062
G01 X36.6037 Y26.0189
G01 X36.6625 Y26.0369
G01 X36.6983 Y26.0461
G01 X36.7595 Y26.0585
G01 X36.8014 Y26.0647
G01 X36.8629 Y26.0707
G01 X36.8909 Y26.0721
G01 X36.9218 Y26.0729
G01 X38.5784 Y26.0730
G01 X38.6135 Y26.0722
G01 X38.6455 Y26.0706
G01 X38.6961 Y26.0659
G01 X38.7266 Y26.0618
G01 X38.7416 Y26.0594
G01 X38.7809 Y26.0520
G01 X38.8007 Y26.0479
G01 X38.8308 Y26.0405
G01 X38.8836 Y26.0252
G01 X38.9153 Y26.0145
G01 X38.9588 Y25.9978
G01 X38.9771 Y25.9901
G01 X39.0074 Y25.9763
G01 X39.0500 Y25.9550
G01 X39.0827 Y25.9368
G01 X39.1271 Y25.9093
G01 X39.1514 Y25.8930
G01 X39.1670 Y25.8818
G01 X39.2086 Y25.8501
G01 X39.2135 Y25.8647
G01 X39.2273 Y25.9029
G01 X39.2517 Y25.9618
G01 X39.2742 Y26.0093
G01 X39.3033 Y26.0635
G01 X39.3300 Y26.1078
G01 X39.3651 Y26.1600
G01 X39.3960 Y26.2015
G01 X39.4267 Y26.2390
G01 X39.4380 Y26.2522
G01 X39.4645 Y26.2814
G01 X39.4886 Y26.3065
G01 X40.4022 Y27.2201
G01 X40.4283 Y27.2450
G01 X40.4606 Y27.2742
G01 X40.5030 Y27.3092
G01 X40.5236 Y27.3249
G01 X37.9020 Y27.3249
G01 X37.2589 Y26.6818
G01 X37.2339 Y26.6578
G01 X37.2046 Y26.6312
G01 X37.1925 Y26.6209
G01 X37.1598 Y26.5940
G01 X37.1434 Y26.5812
G01 X37.1078 Y26.5550
G01 X37.0605 Y26.5234
G01 X37.0225 Y26.5004
G01 X37.0045 Y26.4903
G01 X36.9587 Y26.4660
G01 X36.9120 Y26.4439
G01 X36.8586 Y26.4218
G01 X36.8167 Y26.4066
G01 X36.8003 Y26.4012
G01 X36.7595 Y26.3888
G01 X36.7383 Y26.3829
G01 X36.6954 Y26.3724
G01 X36.6362 Y26.3608
G01 X36.5859 Y26.3534
G01 X36.5295 Y26.3478
G01 X36.4821 Y26.3453
G01 X36.4450 Y26.3444
G01 X35.6784 Y26.3444
G01 X35.6504 Y26.3138
G01 X35.6158 Y26.2790
G01 X35.6023 Y26.2661
G01 X35.5761 Y26.2424
G01 X35.5228 Y26.1986
G01 X35.4910 Y26.1751
G01 X35.4659 Y26.1580
G01 X35.4659 Y24.9683
G01 X35.3721 Y24.9179
G01 X35.4149 Y24.8896
G01 X35.4286 Y24.8799
G01 X35.4576 Y24.8582
G01 X35.5006 Y24.8227
G01 X35.5314 Y24.7947
G01 X35.5671 Y24.7591
G01 X35.5954 Y24.7283
G01 X35.6113 Y24.7093
G01 X36.0210 Y24.7093
G01 X36.0195 Y24.7376
G01 X36.0188 Y24.7686
G01 X36.0189 Y25.0762
G01 X36.0196 Y25.1044
G01 X36.0212 Y25.1333
G01 X36.0262 Y25.1837
G01 X36.0300 Y25.2107
G01 X36.0325 Y25.2255
G01 X36.0412 Y25.2694
G01 X36.0487 Y25.3003
G01 X36.0651 Y25.3554
G01 X36.0746 Y25.3830
G01 X36.0810 Y25.3994
G01 X36.0969 Y25.4378
G01 X36.1031 Y25.4518
G01 X36.1162 Y25.4786
G01 X36.1370 Y25.5175
G01 X36.1446 Y25.5309
G01 X36.1616 Y25.5584
G01 X36.1867 Y25.5960
G01 X36.2023 Y25.6173
G01 X36.2117 Y25.6294
G01 X36.2401 Y25.6640
G01 X36.2610 Y25.6875
G01 X36.2708 Y25.6978
G01 X36.3032 Y25.7301
G01 X36.3275 Y25.7523
G01 X36.3714 Y25.7886
G01 X36.4020 Y25.8113
G01 X36.4455 Y25.8403
G01 X36.4758 Y25.8584
G01 X36.5239 Y25.8842
G01 X36.5483 Y25.8958
G01 X36.5620 Y25.9019
G01 X36.6007 Y25.9179
G01 X36.6150 Y25.9234
G01 X36.6400 Y25.9321
G01 X36.6832 Y25.9453
G01 X36.6977 Y25.9493
G01 X36.7220 Y25.9553
G01 X36.7713 Y25.9653
G01 X36.7853 Y25.9677
G01 X36.8098 Y25.9713
G01 X36.8619 Y25.9765
G01 X36.8936 Y25.9784
G01 X36.9274 Y25.9792
G01 X38.5791 Y25.9792
G01 X38.6081 Y25.9786
G01 X38.6328 Y25.9774
G01 X38.6899 Y25.9722
G01 X38.7217 Y25.9677
G01 X38.7743 Y25.9577
G01 X38.8044 Y25.9505
G01 X38.8554 Y25.9358
G01 X38.8847 Y25.9258
G01 X38.9341 Y25.9066
G01 X38.9619 Y25.8941
G01 X39.0084 Y25.8709
G01 X39.0364 Y25.8552
G01 X39.0818 Y25.8269
G01 X39.1069 Y25.8096
G01 X39.1483 Y25.7783
G01 X39.1729 Y25.7577
G01 X39.2112 Y25.7226
G01 X39.2331 Y25.7007
G01 X39.2604 Y25.6708
G01 X39.2698 Y25.7182
G01 X39.2734 Y25.7343
G01 X39.2833 Y25.7731
G01 X39.2990 Y25.8248
G01 X39.3125 Y25.8630
G01 X39.3185 Y25.8784
G01 X39.3374 Y25.9238
G01 X39.3566 Y25.9643
G01 X39.3801 Y26.0086
G01 X39.3884 Y26.0231
G01 X39.4091 Y26.0574
G01 X39.4391 Y26.1023
G01 X39.4631 Y26.1350
G01 X39.4733 Y26.1480
G01 X39.5046 Y26.1859
G01 X39.5353 Y26.2197
G01 X39.5552 Y26.2405
G01 X40.4675 Y27.1528
G01 X40.4918 Y27.1759
G01 X40.5215 Y27.2028
G01 X40.5654 Y27.2389
G01 X40.6036 Y27.2674
G01 X40.6529 Y27.3003
G01 X40.6970 Y27.3265
G01 X40.7440 Y27.3515
G01 X40.7781 Y27.3677
G01 X40.7910 Y27.3734
G01 X40.8315 Y27.3902
G01 X40.8448 Y27.3953
G01 X40.8809 Y27.4081
G01 X40.9151 Y27.4187
G01 X37.8631 Y27.4187
G01 X37.1928 Y26.7483
G01 X37.1699 Y26.7265
G01 X37.1435 Y26.7025
G01 X37.1308 Y26.6915
G01 X37.0987 Y26.6652
G01 X37.0875 Y26.6564
G01 X37.0543 Y26.6321
G01 X37.0099 Y26.6024
G01 X36.9747 Y26.5811
G01 X36.9603 Y26.5730
G01 X36.9168 Y26.5499
G01 X36.8742 Y26.5298
G01 X36.8243 Y26.5091
G01 X36.7856 Y26.4951
G01 X36.7721 Y26.4906
G01 X36.7324 Y26.4786
G01 X36.7154 Y26.4738
G01 X36.6754 Y26.4640
G01 X36.6207 Y26.4533
G01 X36.5747 Y26.4465
G01 X36.5203 Y26.4412
G01 X36.4778 Y26.4389
G01 X36.4446 Y26.4382
G01 X35.6345 Y26.4382
G01 X35.6107 Y26.4095
G01 X35.5823 Y26.3783
G01 X35.5445 Y26.3405
G01 X35.5133 Y26.3121
G01 X35.4703 Y26.2766
G01 X35.4392 Y26.2534
G01 X35.3923 Y26.2217
G01 X35.3721 Y26.2092
G01 X35.3721 Y24.9179
G01 X35.2784 Y24.8640
G01 X35.2938 Y24.8556
G01 X35.3220 Y24.8387
G01 X35.3665 Y24.8090
G01 X35.3986 Y24.7853
G01 X35.4372 Y24.7536
G01 X35.4667 Y24.7268
G01 X35.5045 Y24.6889
G01 X35.5296 Y24.6610
G01 X35.5583 Y24.6261
G01 X35.5664 Y24.6156
G01 X36.1277 Y24.6156
G01 X36.1223 Y24.6452
G01 X36.1184 Y24.6745
G01 X36.1142 Y24.7211
G01 X36.1132 Y24.7429
G01 X36.1126 Y24.7652
G01 X36.1126 Y25.0745
G01 X36.1132 Y25.0981
G01 X36.1144 Y25.1213
G01 X36.1192 Y25.1714
G01 X36.1239 Y25.2042
G01 X36.1342 Y25.2555
G01 X36.1413 Y25.2835
G01 X36.1562 Y25.3324
G01 X36.1660 Y25.3596
G01 X36.1862 Y25.4079
G01 X36.1981 Y25.4329
G01 X36.2206 Y25.4750
G01 X36.2372 Y25.5028
G01 X36.2685 Y25.5491
G01 X36.2857 Y25.5717
G01 X36.3133 Y25.6053
G01 X36.3290 Y25.6228
G01 X36.3674 Y25.6616
G01 X36.3892 Y25.6817
G01 X36.4305 Y25.7157
G01 X36.4591 Y25.7366
G01 X36.4952 Y25.7608
G01 X36.5153 Y25.7730
G01 X36.5613 Y25.7979
G01 X36.5933 Y25.8133
G01 X36.6394 Y25.8324
G01 X36.6688 Y25.8429
G01 X36.7110 Y25.8557
G01 X36.7230 Y25.8590
G01 X36.7459 Y25.8646
G01 X36.7891 Y25.8732
G01 X36.8235 Y25.8785
G01 X36.8767 Y25.8836
G01 X36.8999 Y25.8848
G01 X36.9277 Y25.8854
G01 X38.5799 Y25.8854
G01 X38.6051 Y25.8848
G01 X38.6269 Y25.8838
G01 X38.6759 Y25.8794
G01 X38.7050 Y25.8754
G01 X38.7502 Y25.8669
G01 X38.7831 Y25.8591
G01 X38.8230 Y25.8477
G01 X38.8440 Y25.8408
G01 X38.8937 Y25.8218
G01 X38.9252 Y25.8077
G01 X38.9618 Y25.7895
G01 X38.9812 Y25.7788
G01 X39.0275 Y25.7504
G01 X39.0549 Y25.7314
G01 X39.0875 Y25.7068
G01 X39.1077 Y25.6901
G01 X39.1497 Y25.6517
G01 X39.1657 Y25.6355
G01 X39.1932 Y25.6053
G01 X39.2147 Y25.5798
G01 X39.2449 Y25.5396
G01 X39.2596 Y25.5180
G01 X39.2812 Y25.4832
G01 X39.2966 Y25.4561
G01 X39.3199 Y25.4091
G01 X39.3292 Y25.3881
G01 X39.3386 Y25.3639
G01 X39.3386 Y25.4918
G01 X39.3392 Y25.5179
G01 X39.3414 Y25.5609
G01 X39.3461 Y25.6096
G01 X39.3529 Y25.6550
G01 X39.3626 Y25.7040
G01 X39.3729 Y25.7453
G01 X39.3866 Y25.7908
G01 X39.4023 Y25.8354
G01 X39.4222 Y25.8837
G01 X39.4414 Y25.9242
G01 X39.4649 Y25.9683
G01 X39.4880 Y26.0067
G01 X39.5158 Y26.0483
G01 X39.5410 Y26.0825
G01 X39.5707 Y26.1188
G01 X39.6002 Y26.1518
G01 X39.6215 Y26.1742
G01 X40.5336 Y27.0863
G01 X40.5556 Y27.1072
G01 X40.5823 Y27.1314
G01 X40.6235 Y27.1654
G01 X40.6576 Y27.1907
G01 X40.7030 Y27.2211
G01 X40.7334 Y27.2393
G01 X40.7442 Y27.2454
G01 X40.7836 Y27.2664
G01 X40.8171 Y27.2824
G01 X40.8658 Y27.3029
G01 X40.9103 Y27.3191
G01 X40.9625 Y27.3349
G01 X40.9968 Y27.3436
G01 X41.0090 Y27.3463
G01 X41.0528 Y27.3549
G01 X41.0937 Y27.3611
G01 X41.1503 Y27.3667
G01 X41.1862 Y27.3685
G01 X41.2149 Y27.3692
G01 X44.7408 Y27.3692
G01 X44.7788 Y27.4072
G01 X44.8041 Y27.4301
G01 X44.8169 Y27.4408
G01 X44.8041 Y27.4515
G01 X44.7788 Y27.4744
G01 X44.7408 Y27.5124
G01 X37.8243 Y27.5124
G01 X37.1267 Y26.8148
G01 X37.1047 Y26.7939
G01 X37.0754 Y26.7675
G01 X37.0410 Y26.7391
G01 X37.0311 Y26.7314
G01 X37.0008 Y26.7091
G01 X36.9592 Y26.6813
G01 X36.9274 Y26.6621
G01 X36.9161 Y26.6557
G01 X36.8736 Y26.6331
G01 X36.8362 Y26.6155
G01 X36.7879 Y26.5956
G01 X36.7478 Y26.5813
G01 X36.6978 Y26.5662
G01 X36.6565 Y26.5559
G01 X36.6052 Y26.5458
G01 X36.5632 Y26.5396
G01 X36.5134 Y26.5347
G01 X36.4741 Y26.5326
G01 X36.4437 Y26.5319
G01 X35.5886 Y26.5319
G01 X35.5726 Y26.5106
G01 X35.5447 Y26.4766
G01 X35.5189 Y26.4477
G01 X35.4803 Y26.4088
G01 X35.4516 Y26.3827
G01 X35.4113 Y26.3495
G01 X35.3767 Y26.3240
G01 X35.3326 Y26.2948
G01 X35.3055 Y26.2786
G01 X35.2784 Y26.2640
G01 X35.2784 Y24.8640
G01 X35.1846 Y24.8066
G01 X35.2045 Y24.7971
G01 X35.2428 Y24.7767
G01 X35.2748 Y24.7576
G01 X35.3169 Y24.7292
G01 X35.3409 Y24.7114
G01 X35.3759 Y24.6826
G01 X35.4043 Y24.6567
G01 X35.4342 Y24.6268
G01 X35.4564 Y24.6024
G01 X35.4881 Y24.5637
G01 X35.5063 Y24.5391
G01 X35.5180 Y24.5218
G01 X36.2506 Y24.5218
G01 X36.2465 Y24.5327
G01 X36.2397 Y24.5534
G01 X36.2285 Y24.5928
G01 X36.2230 Y24.6161
G01 X36.2144 Y24.6631
G01 X36.2119 Y24.6819
G01 X36.2079 Y24.7244
G01 X36.2069 Y24.7462
G01 X36.2064 Y24.7697
G01 X36.2064 Y25.0697
G01 X36.2069 Y25.0947
G01 X36.2081 Y25.1178
G01 X36.2126 Y25.1630
G01 X36.2163 Y25.1882
G01 X36.2252 Y25.2327
G01 X36.2307 Y25.2552
G01 X36.2445 Y25.3008
G01 X36.2531 Y25.3248
G01 X36.2705 Y25.3667
G01 X36.2828 Y25.3925
G01 X36.3055 Y25.4344
G01 X36.3159 Y25.4516
G01 X36.3393 Y25.4868
G01 X36.3562 Y25.5098
G01 X36.3865 Y25.5466
G01 X36.4035 Y25.5651
G01 X36.4381 Y25.5995
G01 X36.4554 Y25.6149
G01 X36.4882 Y25.6418
G01 X36.5043 Y25.6538
G01 X36.5464 Y25.6821
G01 X36.5682 Y25.6952
G01 X36.6082 Y25.7166
G01 X36.6341 Y25.7287
G01 X36.6732 Y25.7449
G01 X36.6921 Y25.7517
G01 X36.7388 Y25.7661
G01 X36.7683 Y25.7735
G01 X36.8098 Y25.7817
G01 X36.8308 Y25.7849
G01 X36.8825 Y25.7900
G01 X36.9033 Y25.7911
G01 X36.9252 Y25.7916
G01 X38.5783 Y25.7916
G01 X38.6036 Y25.7911
G01 X38.6254 Y25.7899
G01 X38.6661 Y25.7861
G01 X38.6877 Y25.7832
G01 X38.7319 Y25.7750
G01 X38.7531 Y25.7700
G01 X38.7963 Y25.7578
G01 X38.8170 Y25.7509
G01 X38.8588 Y25.7347
G01 X38.8788 Y25.7260
G01 X38.9190 Y25.7060
G01 X38.9381 Y25.6955
G01 X38.9763 Y25.6719
G01 X38.9943 Y25.6596
G01 X39.0301 Y25.6326
G01 X39.0469 Y25.6187
G01 X39.0801 Y25.5885
G01 X39.0956 Y25.5731
G01 X39.1259 Y25.5400
G01 X39.1398 Y25.5232
G01 X39.1669 Y25.4874
G01 X39.1793 Y25.4695
G01 X39.2030 Y25.4313
G01 X39.2136 Y25.4123
G01 X39.2337 Y25.3722
G01 X39.2433 Y25.3502
G01 X39.2588 Y25.3104
G01 X39.2657 Y25.2898
G01 X39.2781 Y25.2466
G01 X39.2836 Y25.2233
G01 X39.2914 Y25.1813
G01 X39.2947 Y25.1575
G01 X39.2988 Y25.1128
G01 X39.2997 Y25.0932
G01 X39.3002 Y25.0708
G01 X39.3002 Y24.7697
G01 X39.2996 Y24.7428
G01 X39.2983 Y24.7197
G01 X39.2935 Y24.6722
G01 X39.2899 Y24.6493
G01 X39.2805 Y24.6026
G01 X39.2744 Y24.5791
G01 X39.2621 Y24.5386
G01 X39.2554 Y24.5196
G01 X39.2361 Y24.4727
G01 X39.2238 Y24.4469
G01 X39.2038 Y24.4096
G01 X39.1936 Y24.3923
G01 X39.1666 Y24.3516
G01 X39.1492 Y24.3281
G01 X39.1228 Y24.2960
G01 X39.1126 Y24.2845
G01 X39.1273 Y24.2683
G01 X39.1398 Y24.2532
G01 X39.1682 Y24.2157
G01 X39.1805 Y24.1977
G01 X39.2015 Y24.1638
G01 X39.2146 Y24.1404
G01 X39.2358 Y24.0976
G01 X39.2433 Y24.0802
G01 X39.2588 Y24.0404
G01 X39.2672 Y24.0149
G01 X39.2781 Y23.9766
G01 X39.2831 Y23.9554
G01 X39.2914 Y23.9113
G01 X39.2945 Y23.8897
G01 X39.2987 Y23.8450
G01 X39.2997 Y23.8232
G01 X39.3002 Y23.7997
G01 X39.3002 Y23.4997
G01 X39.2996 Y23.4728
G01 X39.2983 Y23.4497
G01 X39.2940 Y23.4064
G01 X39.2907 Y23.3835
G01 X39.2814 Y23.3367
G01 X39.2766 Y23.3172
G01 X39.2603 Y23.2635
G01 X39.2535 Y23.2446
G01 X39.2369 Y23.2044
G01 X39.2238 Y23.1769
G01 X39.2038 Y23.1396
G01 X39.1897 Y23.1162
G01 X39.1655 Y23.0800
G01 X39.1529 Y23.0629
G01 X39.1228 Y23.0260
G01 X39.1126 Y23.0145
G01 X39.1273 Y22.9983
G01 X39.1412 Y22.9815
G01 X39.1669 Y22.9474
G01 X39.1793 Y22.9295
G01 X39.2030 Y22.8913
G01 X39.2122 Y22.8749
G01 X39.2346 Y22.8302
G01 X39.2433 Y22.8102
G01 X39.2578 Y22.7731
G01 X39.2672 Y22.7449
G01 X39.2781 Y22.7066
G01 X39.2831 Y22.6854
G01 X39.2914 Y22.6413
G01 X39.2941 Y22.6226
G01 X39.2988 Y22.5728
G01 X39.2997 Y22.5532
G01 X39.3002 Y22.5308
G01 X39.3002 Y22.2297
G01 X39.2997 Y22.2047
G01 X39.2988 Y22.1858
G01 X39.2933 Y22.1311
G01 X39.2903 Y22.1112
G01 X39.2818 Y22.0686
G01 X39.2747 Y22.0402
G01 X39.2621 Y21.9986
G01 X39.2562 Y21.9818
G01 X39.4324 Y21.9818
G01 X39.4324 Y25.4912
G01 X39.4331 Y25.5181
G01 X39.4347 Y25.5517
G01 X39.4394 Y25.5992
G01 X39.4453 Y25.6390
G01 X39.4546 Y25.6857
G01 X39.4647 Y25.7254
G01 X39.4771 Y25.7659
G01 X39.4887 Y25.7987
G01 X39.5080 Y25.8457
G01 X39.5251 Y25.8820
G01 X39.5477 Y25.9241
G01 X39.5689 Y25.9591
G01 X39.5924 Y25.9943
G01 X39.6131 Y26.0223
G01 X39.6452 Y26.0617
G01 X39.6693 Y26.0884
G01 X39.6878 Y26.1079
G01 X40.6008 Y27.0208
G01 X40.6194 Y27.0385
G01 X40.6476 Y27.0639
G01 X40.6812 Y27.0914
G01 X40.7135 Y27.1154
G01 X40.7513 Y27.1406
G01 X40.7837 Y27.1601
G01 X40.8258 Y27.1827
G01 X40.8600 Y27.1989
G01 X40.9040 Y27.2172
G01 X40.9368 Y27.2290
G01 X40.9905 Y27.2453
G01 X41.0243 Y27.2537
G01 X41.0711 Y27.2629
G01 X41.1086 Y27.2684
G01 X41.1507 Y27.2726
G01 X41.1897 Y27.2747
G01 X41.2166 Y27.2754
G01 X44.7827 Y27.2754
G01 X44.7896 Y27.2835
G01 X44.8119 Y27.3078
G01 X44.8418 Y27.3377
G01 X44.8680 Y27.3614
G01 X44.9030 Y27.3902
G01 X44.9270 Y27.4080
G01 X44.9665 Y27.4347
G01 X44.9763 Y27.4408
G01 X44.9665 Y27.4469
G01 X44.9270 Y27.4736
G01 X44.9030 Y27.4914
G01 X44.8680 Y27.5202
G01 X44.8418 Y27.5439
G01 X44.8119 Y27.5738
G01 X44.7896 Y27.5981
G01 X44.7827 Y27.6062
G01 X37.7854 Y27.6062
G01 X37.0604 Y26.8811
G01 X37.0423 Y26.8639
G01 X37.0142 Y26.8385
G01 X36.9815 Y26.8116
G01 X36.9468 Y26.7857
G01 X36.9090 Y26.7605
G01 X36.8792 Y26.7425
G01 X36.8325 Y26.7174
G01 X36.7982 Y26.7013
G01 X36.7541 Y26.6831
G01 X36.7184 Y26.6704
G01 X36.6728 Y26.6566
G01 X36.6360 Y26.6474
G01 X36.5892 Y26.6382
G01 X36.5517 Y26.6327
G01 X36.5042 Y26.6280
G01 X36.4706 Y26.6264
G01 X36.4437 Y26.6257
G01 X35.5392 Y26.6257
G01 X35.5204 Y26.5976
G01 X35.5019 Y26.5726
G01 X35.4691 Y26.5324
G01 X35.4469 Y26.5080
G01 X35.4170 Y26.4781
G01 X35.3886 Y26.4522
G01 X35.3493 Y26.4202
G01 X35.3252 Y26.4024
G01 X35.2875 Y26.3772
G01 X35.2572 Y26.3591
G01 X35.2199 Y26.3391
G01 X35.1846 Y26.3223
G01 X35.1846 Y24.8066
G01 X35.0908 Y24.7443
G01 X35.1374 Y24.7252
G01 X35.1613 Y24.7139
G01 X35.2010 Y24.6926
G01 X35.2236 Y24.6790
G01 X35.2595 Y24.6550
G01 X35.2823 Y24.6381
G01 X35.3156 Y24.6108
G01 X35.3366 Y24.5918
G01 X35.3657 Y24.5627
G01 X35.3873 Y24.5388
G01 X35.4134 Y24.5070
G01 X35.4303 Y24.4842
G01 X35.4543 Y24.4483
G01 X35.4665 Y24.4280
G01 X36.4016 Y24.4280
G01 X36.3839 Y24.4565
G01 X36.3763 Y24.4702
G01 X36.3582 Y24.5064
G01 X36.3503 Y24.5240
G01 X36.3357 Y24.5619
G01 X36.3296 Y24.5801
G01 X36.3190 Y24.6174
G01 X36.3154 Y24.6327
G01 X36.3076 Y24.6743
G01 X36.3050 Y24.6934
G01 X36.3014 Y24.7320
G01 X36.3002 Y24.7697
G01 X36.3002 Y25.0697
G01 X36.3007 Y25.0912
G01 X36.3016 Y25.1098
G01 X36.3060 Y25.1546
G01 X36.3089 Y25.1729
G01 X36.3169 Y25.2133
G01 X36.3209 Y25.2294
G01 X36.3339 Y25.2725
G01 X36.3409 Y25.2918
G01 X36.3567 Y25.3298
G01 X36.3638 Y25.3448
G01 X36.3849 Y25.3846
G01 X36.3945 Y25.4005
G01 X36.4195 Y25.4379
G01 X36.4295 Y25.4512
G01 X36.4556 Y25.4831
G01 X36.4693 Y25.4983
G01 X36.4997 Y25.5287
G01 X36.5149 Y25.5424
G01 X36.5468 Y25.5685
G01 X36.5601 Y25.5785
G01 X36.5975 Y25.6035
G01 X36.6151 Y25.6140
G01 X36.6514 Y25.6334
G01 X36.6665 Y25.6405
G01 X36.7080 Y25.6578
G01 X36.7273 Y25.6646
G01 X36.7667 Y25.6766
G01 X36.7829 Y25.6806
G01 X36.8270 Y25.6895
G01 X36.8453 Y25.6922
G01 X36.8882 Y25.6964
G01 X36.9264 Y25.6978
G01 X38.5783 Y25.6978
G01 X38.6160 Y25.6966
G01 X38.6564 Y25.6929
G01 X38.6737 Y25.6904
G01 X38.7136 Y25.6830
G01 X38.7306 Y25.6790
G01 X38.7696 Y25.6679
G01 X38.7861 Y25.6623
G01 X38.8240 Y25.6477
G01 X38.8399 Y25.6406
G01 X38.8762 Y25.6226
G01 X38.8915 Y25.6141
G01 X38.9260 Y25.5927
G01 X38.9404 Y25.5828
G01 X38.9728 Y25.5584
G01 X38.9862 Y25.5472
G01 X39.0162 Y25.5199
G01 X39.0273 Y25.5089
G01 X39.0558 Y25.4776
G01 X39.0670 Y25.4642
G01 X39.0914 Y25.4318
G01 X39.1013 Y25.4174
G01 X39.1227 Y25.3829
G01 X39.1312 Y25.3676
G01 X39.1492 Y25.3313
G01 X39.1563 Y25.3154
G01 X39.1709 Y25.2775
G01 X39.1765 Y25.2610
G01 X39.1876 Y25.2220
G01 X39.1916 Y25.2050
G01 X39.1990 Y25.1651
G01 X39.2015 Y25.1478
G01 X39.2052 Y25.1074
G01 X39.2064 Y25.0715
G01 X39.2064 Y24.7697
G01 X39.2059 Y24.7462
G01 X39.2049 Y24.7277
G01 X39.2008 Y24.6867
G01 X39.1984 Y24.6703
G01 X39.1897 Y24.6261
G01 X39.1846 Y24.6063
G01 X39.1727 Y24.5669
G01 X39.1671 Y24.5512
G01 X39.1499 Y24.5096
G01 X39.1411 Y24.4911
G01 X39.1217 Y24.4548
G01 X39.1121 Y24.4389
G01 X39.0871 Y24.4015
G01 X39.0771 Y24.3882
G01 X39.0498 Y24.3549
G01 X39.0373 Y24.3411
G01 X39.0069 Y24.3107
G01 X38.9931 Y24.2982
G01 X38.9770 Y24.2849
G01 X38.9875 Y24.2760
G01 X39.0148 Y24.2511
G01 X39.0273 Y24.2389
G01 X39.0546 Y24.2089
G01 X39.0659 Y24.1956
G01 X39.0914 Y24.1618
G01 X39.1013 Y24.1474
G01 X39.1227 Y24.1129
G01 X39.1320 Y24.0960
G01 X39.1500 Y24.0597
G01 X39.1563 Y24.0454
G01 X39.1703 Y24.0092
G01 X39.1765 Y23.9910
G01 X39.1871 Y23.9537
G01 X39.1916 Y23.9350
G01 X39.1990 Y23.8951
G01 X39.2015 Y23.8778
G01 X39.2053 Y23.8356
G01 X39.2064 Y23.7997
G01 X39.2064 Y23.4997
G01 X39.2059 Y23.4762
G01 X39.2049 Y23.4577
G01 X39.2008 Y23.4167
G01 X39.1984 Y23.4003
G01 X39.1897 Y23.3561
G01 X39.1852 Y23.3381
G01 X39.1727 Y23.2969
G01 X39.1671 Y23.2812
G01 X39.1499 Y23.2396
G01 X39.1411 Y23.2211
G01 X39.1217 Y23.1848
G01 X39.1121 Y23.1689
G01 X39.0871 Y23.1315
G01 X39.0771 Y23.1182
G01 X39.0498 Y23.0849
G01 X39.0373 Y23.0711
G01 X39.0069 Y23.0407
G01 X38.9931 Y23.0282
G01 X38.9770 Y23.0149
G01 X38.9875 Y23.0060
G01 X39.0148 Y22.9811
G01 X39.0273 Y22.9689
G01 X39.0546 Y22.9389
G01 X39.0659 Y22.9256
G01 X39.0904 Y22.8932
G01 X39.1003 Y22.8789
G01 X39.1217 Y22.8444
G01 X39.1303 Y22.8292
G01 X39.1492 Y22.7913
G01 X39.1563 Y22.7754
G01 X39.1709 Y22.7375
G01 X39.1765 Y22.7210
G01 X39.1876 Y22.6820
G01 X39.1916 Y22.6650
G01 X39.1990 Y22.6251
G01 X39.2015 Y22.6078
G01 X39.2052 Y22.5674
G01 X39.2064 Y22.5315
G01 X39.2064 Y22.2297
G01 X39.2059 Y22.2082
G01 X39.2050 Y22.1896
G01 X39.2008 Y22.1467
G01 X39.1981 Y22.1284
G01 X39.1892 Y22.0843
G01 X39.1852 Y22.0681
G01 X39.1732 Y22.0287
G01 X39.1671 Y22.0112
G01 X39.1499 Y21.9696
G01 X39.1420 Y21.9528
G01 X39.1217 Y21.9148
G01 X39.1121 Y21.8989
G01 X39.1049 Y21.8880
G01 X39.5262 Y21.8880
G01 X39.5262 Y25.4912
G01 X39.5268 Y25.5147
G01 X39.5283 Y25.5460
G01 X39.5326 Y25.5889
G01 X39.5374 Y25.6218
G01 X39.5459 Y25.6641
G01 X39.5545 Y25.6982
G01 X39.5665 Y25.7376
G01 X39.5770 Y25.7671
G01 X39.5942 Y25.8088
G01 X39.6084 Y25.8388
G01 X39.6287 Y25.8769
G01 X39.6469 Y25.9070
G01 X39.6698 Y25.9412
G01 X39.6884 Y25.9664
G01 X39.7169 Y26.0013
G01 X39.7380 Y26.0245
G01 X39.7542 Y26.0415
G01 X40.6663 Y26.9536
G01 X40.6833 Y26.9698
G01 X40.7065 Y26.9909
G01 X40.7398 Y27.0182
G01 X40.7666 Y27.0380
G01 X40.8024 Y27.0620
G01 X40.8309 Y27.0791
G01 X40.8690 Y27.0994
G01 X40.8990 Y27.1136
G01 X40.9389 Y27.1301
G01 X40.9702 Y27.1413
G01 X41.0114 Y27.1539
G01 X41.0419 Y27.1615
G01 X41.0860 Y27.1704
G01 X41.1170 Y27.1750
G01 X41.1637 Y27.1796
G01 X41.1931 Y27.1810
G01 X41.2166 Y27.1816
G01 X44.8273 Y27.1816
G01 X44.8591 Y27.2205
G01 X44.8768 Y27.2401
G01 X44.9073 Y27.2706
G01 X44.9283 Y27.2896
G01 X44.9601 Y27.3157
G01 X44.9860 Y27.3349
G01 X45.0203 Y27.3578
G01 X45.0429 Y27.3714
G01 X45.0843 Y27.3935
G01 X45.1082 Y27.4048
G01 X45.1480 Y27.4213
G01 X45.1748 Y27.4309
G01 X45.2075 Y27.4408
G01 X45.1748 Y27.4507
G01 X45.1480 Y27.4603
G01 X45.1082 Y27.4768
G01 X45.0843 Y27.4881
G01 X45.0429 Y27.5102
G01 X45.0203 Y27.5238
G01 X44.9860 Y27.5467
G01 X44.9601 Y27.5659
G01 X44.9283 Y27.5920
G01 X44.9073 Y27.6110
G01 X44.8768 Y27.6415
G01 X44.8591 Y27.6611
G01 X44.8273 Y27.7000
G01 X37.7466 Y27.7000
G01 X36.9940 Y26.9475
G01 X36.9784 Y26.9326
G01 X36.9523 Y26.9090
G01 X36.9205 Y26.8829
G01 X36.8937 Y26.8631
G01 X36.8579 Y26.8391
G01 X36.8310 Y26.8230
G01 X36.7913 Y26.8017
G01 X36.7613 Y26.7875
G01 X36.7214 Y26.7710
G01 X36.6901 Y26.7598
G01 X36.6489 Y26.7472
G01 X36.6166 Y26.7392
G01 X36.5743 Y26.7307
G01 X36.5414 Y26.7259
G01 X36.4985 Y26.7216
G01 X36.4672 Y26.7201
G01 X36.4437 Y26.7195
G01 X35.4863 Y26.7195
G01 X35.4806 Y26.7091
G01 X35.4659 Y26.6848
G01 X35.4430 Y26.6506
G01 X35.4249 Y26.6263
G01 X35.3988 Y26.5945
G01 X35.3798 Y26.5735
G01 X35.3493 Y26.5430
G01 X35.3283 Y26.5240
G01 X35.2950 Y26.4967
G01 X35.2722 Y26.4798
G01 X35.2363 Y26.4558
G01 X35.2120 Y26.4412
G01 X35.1740 Y26.4209
G01 X35.1484 Y26.4088
G01 X35.1086 Y26.3923
G01 X35.0908 Y26.3859
G01 X35.0908 Y24.7443
G00 Z2.0000
G00 X35.4719 Y28.8336
G01 F80.00
G01 Z-0.1590
G01 F80.00
G01 X35.4919 Y28.8199
G01 X35.5239 Y28.7961
G01 X35.5649 Y28.7627
G01 X35.5768 Y28.7526
G01 X35.6023 Y28.7295
G01 X35.6158 Y28.7166
G01 X35.6504 Y28.6818
G01 X35.6784 Y28.6512
G01 X35.9659 Y28.6512
G01 X36.1483 Y28.8336
G01 X35.4719 Y28.8336
G01 X34.9447 Y28.9274
G01 X34.9783 Y28.9239
G01 X35.0125 Y28.9189
G01 X35.0686 Y28.9081
G01 X35.0822 Y28.9050
G01 X35.1074 Y28.8987
G01 X35.1105 Y28.8979
G01 X35.1123 Y28.8974
G01 X35.1129 Y28.8973
G01 X35.1145 Y28.8968
G01 X35.1639 Y28.8820
G01 X35.1774 Y28.8775
G01 X35.2087 Y28.8662
G01 X35.2608 Y28.8447
G01 X35.2995 Y28.8265
G01 X35.3430 Y28.8034
G01 X35.3563 Y28.7959
G01 X35.3859 Y28.7781
G01 X35.4332 Y28.7465
G01 X35.4690 Y28.7200
G01 X35.5094 Y28.6869
G01 X35.5441 Y28.6555
G01 X35.5815 Y28.6182
G01 X35.6107 Y28.5861
G01 X35.6345 Y28.5574
G01 X36.0048 Y28.5574
G01 X36.3747 Y28.9274
G01 X34.9447 Y28.9274
G00 Z2.0000
G00 X32.8496 Y28.7398
G01 F80.00
G01 Z-0.1590
G01 F80.00
G01 X32.9004 Y28.7398
G01 X32.8750 Y28.7118
G01 X32.8496 Y28.7398
G01 X32.5969 Y28.8336
G01 X33.1531 Y28.8336
G01 X33.1302 Y28.8178
G01 X33.1053 Y28.7993
G01 X33.0928 Y28.7895
G01 X33.0502 Y28.7543
G01 X33.0240 Y28.7307
G01 X33.0120 Y28.7193
G01 X32.9744 Y28.6816
G01 X32.9429 Y28.6470
G01 X32.9044 Y28.6001
G01 X32.8750 Y28.5606
G01 X32.8456 Y28.6001
G01 X32.8071 Y28.6470
G01 X32.7754 Y28.6818
G01 X32.7361 Y28.7212
G01 X32.6994 Y28.7547
G01 X32.6569 Y28.7898
G01 X32.6445 Y28.7994
G01 X32.6198 Y28.8178
G01 X32.5969 Y28.8336
G01 X32.4968 Y28.9274
G01 X33.6803 Y28.9274
G01 X33.6467 Y28.9239
G01 X33.6114 Y28.9187
G01 X33.5977 Y28.9163
G01 X33.5486 Y28.9064
G01 X33.5157 Y28.8982
G01 X33.5012 Y28.8941
G01 X33.4565 Y28.8805
G01 X33.4210 Y28.8680
G01 X33.4078 Y28.8628
G01 X33.3637 Y28.8445
G01 X33.3314 Y28.8294
G01 X33.3177 Y28.8225
G01 X33.2758 Y28.8000
G01 X33.2457 Y28.7821
G01 X33.2327 Y28.7739
G01 X33.1960 Y28.7494
G01 X33.1844 Y28.7412
G01 X33.1556 Y28.7197
G01 X33.1188 Y28.6896
G01 X33.1070 Y28.6794
G01 X33.0805 Y28.6551
G01 X33.0470 Y28.6218
G01 X33.0370 Y28.6113
G01 X33.0139 Y28.5857
G01 X32.9764 Y28.5399
G01 X32.9557 Y28.5123
G01 X32.9474 Y28.5004
G01 X32.9213 Y28.4611
G01 X32.9031 Y28.4311
G01 X32.8955 Y28.4178
G01 X32.8750 Y28.3795
G01 X32.8522 Y28.4220
G01 X32.8342 Y28.4524
G01 X32.8255 Y28.4661
G01 X32.7991 Y28.5056
G01 X32.7778 Y28.5345
G01 X32.7680 Y28.5471
G01 X32.7380 Y28.5835
G01 X32.7122 Y28.6122
G01 X32.6746 Y28.6502
G01 X32.6627 Y28.6615
G01 X32.6357 Y28.6858
G01 X32.5990 Y28.7160
G01 X32.5867 Y28.7256
G01 X32.5568 Y28.7475
G01 X32.5164 Y28.7746
G01 X32.4975 Y28.7862
G01 X32.4968 Y28.9274
G01 X32.3966 Y29.0211
G01 X36.6011 Y29.0211
G01 X36.0436 Y28.4637
G01 X35.5886 Y28.4637
G01 X35.5726 Y28.4850
G01 X35.5447 Y28.5190
G01 X35.5196 Y28.5471
G01 X35.4803 Y28.5868
G01 X35.4552 Y28.6097
G01 X35.4122 Y28.6454
G01 X35.3820 Y28.6679
G01 X35.3386 Y28.6970
G01 X35.3096 Y28.7146
G01 X35.2604 Y28.7412
G01 X35.2265 Y28.7573
G01 X35.1782 Y28.7775
G01 X35.1429 Y28.7902
G01 X35.0928 Y28.8055
G01 X35.0564 Y28.8147
G01 X35.0052 Y28.8251
G01 X34.9705 Y28.8303
G01 X34.9125 Y28.8362
G01 X34.8804 Y28.8378
G01 X34.8517 Y28.8385
G01 X33.7727 Y28.8385
G01 X33.7446 Y28.8378
G01 X33.7136 Y28.8363
G01 X33.6604 Y28.8311
G01 X33.6198 Y28.8251
G01 X33.5766 Y28.8165
G01 X33.5645 Y28.8138
G01 X33.5333 Y28.8058
G01 X33.4900 Y28.7928
G01 X33.4787 Y28.7890
G01 X33.4468 Y28.7775
G01 X33.4027 Y28.7592
G01 X33.3725 Y28.7451
G01 X33.3609 Y28.7392
G01 X33.3185 Y28.7164
G01 X33.2873 Y28.6976
G01 X33.2502 Y28.6729
G01 X33.2400 Y28.6657
G01 X33.2137 Y28.6461
G01 X33.1760 Y28.6151
G01 X33.1512 Y28.5928
G01 X33.1421 Y28.5842
G01 X33.1086 Y28.5506
G01 X33.0834 Y28.5227
G01 X33.0551 Y28.4882
G01 X33.0474 Y28.4784
G01 X33.0280 Y28.4520
G01 X33.0008 Y28.4114
G01 X32.9835 Y28.3829
G01 X32.9774 Y28.3721
G01 X32.9561 Y28.3322
G01 X32.9420 Y28.3026
G01 X32.9370 Y28.2912
G01 X32.9199 Y28.2499
G01 X32.9072 Y28.2146
G01 X32.8904 Y28.1588
G01 X32.8823 Y28.1259
G01 X32.8750 Y28.0895
G01 X32.8677 Y28.1259
G01 X32.8599 Y28.1577
G01 X32.8450 Y28.2078
G01 X32.8309 Y28.2478
G01 X32.8122 Y28.2933
G01 X32.7939 Y28.3322
G01 X32.7692 Y28.3783
G01 X32.7492 Y28.4114
G01 X32.7179 Y28.4578
G01 X32.6949 Y28.4882
G01 X32.6666 Y28.5227
G01 X32.6450 Y28.5466
G01 X32.6364 Y28.5557
G01 X32.6053 Y28.5868
G01 X32.5766 Y28.6129
G01 X32.5363 Y28.6461
G01 X32.5017 Y28.6716
G01 X32.4576 Y28.7008
G01 X32.4305 Y28.7170
G01 X32.4039 Y28.7313
G01 X32.4034 Y28.9105
G01 X32.4028 Y28.9360
G01 X32.4008 Y28.9773
G01 X32.3966 Y29.0211
G01 X32.2848 Y29.1149
G01 X36.8285 Y29.1149
G01 X36.8075 Y29.0950
G01 X36.0825 Y28.3699
G01 X35.5392 Y28.3699
G01 X35.5204 Y28.3980
G01 X35.5026 Y28.4221
G01 X35.4725 Y28.4591
G01 X35.4485 Y28.4859
G01 X35.4162 Y28.5183
G01 X35.3886 Y28.5434
G01 X35.3517 Y28.5736
G01 X35.3252 Y28.5932
G01 X35.2855 Y28.6196
G01 X35.2572 Y28.6365
G01 X35.2151 Y28.6590
G01 X35.1853 Y28.6730
G01 X35.1383 Y28.6923
G01 X35.1102 Y28.7023
G01 X35.0697 Y28.7146
G01 X35.0377 Y28.7228
G01 X34.9880 Y28.7329
G01 X34.9573 Y28.7375
G01 X34.9056 Y28.7427
G01 X34.8769 Y28.7441
G01 X34.8500 Y28.7447
G01 X33.7719 Y28.7447
G01 X33.7481 Y28.7441
G01 X33.7194 Y28.7427
G01 X33.6677 Y28.7375
G01 X33.6370 Y28.7329
G01 X33.5955 Y28.7246
G01 X33.5564 Y28.7149
G01 X33.5148 Y28.7023
G01 X33.4867 Y28.6923
G01 X33.4376 Y28.6721
G01 X33.4078 Y28.6579
G01 X33.3705 Y28.6380
G01 X33.3349 Y28.6167
G01 X33.2998 Y28.5932
G01 X33.2757 Y28.5754
G01 X33.2323 Y28.5398
G01 X33.2102 Y28.5197
G01 X33.1765 Y28.4859
G01 X33.1544 Y28.4614
G01 X33.1276 Y28.4287
G01 X33.1029 Y28.3955
G01 X33.0794 Y28.3603
G01 X33.0613 Y28.3300
G01 X33.0399 Y28.2900
G01 X33.0270 Y28.2630
G01 X33.0066 Y28.2140
G01 X32.9955 Y28.1830
G01 X32.9832 Y28.1425
G01 X32.9738 Y28.1053
G01 X32.9641 Y28.0555
G01 X32.9598 Y28.0259
G01 X32.9553 Y27.9807
G01 X32.9537 Y27.9497
G01 X32.9531 Y27.9228
G01 X32.9531 Y27.0728
G01 X32.9536 Y27.0493
G01 X32.9551 Y27.0183
G01 X32.9587 Y26.9786
G01 X32.9636 Y26.9429
G01 X32.9725 Y26.8959
G01 X32.9790 Y26.8685
G01 X32.9902 Y26.8292
G01 X33.0013 Y26.7960
G01 X33.0175 Y26.7541
G01 X33.0301 Y26.7258
G01 X33.0516 Y26.6831
G01 X33.0653 Y26.6585
G01 X33.0863 Y26.6246
G01 X33.1037 Y26.5989
G01 X33.1323 Y26.5607
G01 X33.1535 Y26.5352
G01 X33.1823 Y26.5036
G01 X33.2079 Y26.4781
G01 X33.2374 Y26.4513
G01 X33.2590 Y26.4333
G01 X33.2955 Y26.4054
G01 X33.3244 Y26.3856
G01 X33.3626 Y26.3620
G01 X33.3913 Y26.3461
G01 X33.4263 Y26.3287
G01 X33.4404 Y26.3223
G01 X33.4404 Y24.8178
G01 X33.4249 Y24.8113
G01 X33.3972 Y24.7982
G01 X33.3514 Y24.7736
G01 X33.3248 Y24.7576
G01 X33.2896 Y24.7341
G01 X33.2606 Y24.7128
G01 X33.2196 Y24.6790
G01 X33.1975 Y24.6589
G01 X33.1676 Y24.6290
G01 X33.1417 Y24.6006
G01 X33.1104 Y24.5622
G01 X33.0919 Y24.5372
G01 X33.0684 Y24.5021
G01 X33.0486 Y24.4692
G01 X33.0248 Y24.4244
G01 X33.0121 Y24.3973
G01 X32.9959 Y24.3582
G01 X32.9828 Y24.3222
G01 X32.9683 Y24.2735
G01 X32.9611 Y24.2445
G01 X32.9528 Y24.2030
G01 X32.9471 Y24.1651
G01 X32.9424 Y24.1176
G01 X32.9410 Y24.0889
G01 X32.9404 Y24.0620
G01 X32.9404 Y23.2120
G01 X32.9410 Y23.1851
G01 X32.9426 Y23.1541
G01 X32.9471 Y23.1089
G01 X32.9518 Y23.0763
G01 X32.9611 Y23.0295
G01 X32.9705 Y22.9923
G01 X32.9828 Y22.9518
G01 X32.9928 Y22.9237
G01 X33.0109 Y22.8795
G01 X33.0261 Y22.8469
G01 X33.0476 Y22.8065
G01 X33.0684 Y22.7719
G01 X33.0919 Y22.7368
G01 X33.1097 Y22.7127
G01 X33.1417 Y22.6734
G01 X33.1676 Y22.6450
G01 X33.1975 Y22.6151
G01 X33.2196 Y22.5950
G01 X33.2587 Y22.5626
G01 X33.2896 Y22.5399
G01 X33.3248 Y22.5164
G01 X33.3514 Y22.5004
G01 X33.3951 Y22.4769
G01 X33.4298 Y22.4606
G01 X33.4689 Y22.4444
G01 X33.4971 Y22.4343
G01 X33.5478 Y22.4188
G01 X33.5828 Y22.4102
G01 X33.6243 Y22.4019
G01 X33.6569 Y22.3970
G01 X33.7067 Y22.3921
G01 X33.7354 Y22.3907
G01 X33.7611 Y22.3901
G01 X34.8385 Y22.3901
G01 X34.8642 Y22.3907
G01 X34.8952 Y22.3923
G01 X34.9404 Y22.3968
G01 X34.9711 Y22.4012
G01 X35.0198 Y22.4108
G01 X35.0518 Y22.4188
G01 X35.0975 Y22.4325
G01 X35.1285 Y22.4436
G01 X35.1726 Y22.4618
G01 X35.2024 Y22.4758
G01 X35.2445 Y22.4983
G01 X35.2774 Y22.5181
G01 X35.3144 Y22.5430
G01 X35.3432 Y22.5646
G01 X35.3800 Y22.5950
G01 X35.4021 Y22.6151
G01 X35.4320 Y22.6450
G01 X35.4579 Y22.6734
G01 X35.4881 Y22.7103
G01 X35.5077 Y22.7368
G01 X35.5348 Y22.7776
G01 X36.2504 Y22.7776
G01 X36.2440 Y22.7590
G01 X36.2307 Y22.7152
G01 X36.2252 Y22.6927
G01 X36.2163 Y22.6482
G01 X36.2126 Y22.6230
G01 X36.2081 Y22.5778
G01 X36.2069 Y22.5547
G01 X36.2064 Y22.5297
G01 X36.2064 Y22.2297
G01 X36.2069 Y22.2047
G01 X36.2081 Y22.1816
G01 X36.2126 Y22.1364
G01 X36.2154 Y22.1165
G01 X36.2252 Y22.0667
G01 X36.2322 Y22.0391
G01 X36.2445 Y21.9986
G01 X36.2504 Y21.9818
G01 X32.5250 Y21.9818
G01 X32.2969 Y22.2099
G01 X32.2969 Y22.4615
G01 X32.3322 Y22.4783
G01 X32.3695 Y22.4983
G01 X32.3952 Y22.5136
G01 X32.4375 Y22.5416
G01 X32.4682 Y22.5646
G01 X32.5009 Y22.5914
G01 X32.5232 Y22.6115
G01 X32.5592 Y22.6472
G01 X32.5829 Y22.6734
G01 X32.6097 Y22.7061
G01 X32.6327 Y22.7368
G01 X32.6607 Y22.7791
G01 X32.6760 Y22.8048
G01 X32.6960 Y22.8421
G01 X32.7125 Y22.8767
G01 X32.7318 Y22.9237
G01 X32.7418 Y22.9518
G01 X32.7541 Y22.9923
G01 X32.7635 Y23.0295
G01 X32.7732 Y23.0793
G01 X32.7775 Y23.1089
G01 X32.7818 Y23.1522
G01 X32.7836 Y23.1851
G01 X32.7842 Y23.2120
G01 X32.7842 Y24.0662
G01 X32.7836 Y24.0889
G01 X32.7822 Y24.1176
G01 X32.7770 Y24.1693
G01 X32.7724 Y24.2000
G01 X32.7641 Y24.2415
G01 X32.7549 Y24.2787
G01 X32.7418 Y24.3222
G01 X32.7287 Y24.3582
G01 X32.7125 Y24.3973
G01 X32.6998 Y24.4244
G01 X32.6775 Y24.4665
G01 X32.6579 Y24.4995
G01 X32.6313 Y24.5391
G01 X32.6117 Y24.5656
G01 X32.5829 Y24.6006
G01 X32.5592 Y24.6268
G01 X32.5254 Y24.6605
G01 X32.5009 Y24.6826
G01 X32.4625 Y24.7139
G01 X32.4375 Y24.7324
G01 X32.3952 Y24.7604
G01 X32.3668 Y24.7772
G01 X32.3295 Y24.7971
G01 X32.3096 Y24.8066
G01 X32.3096 Y26.3223
G01 X32.3237 Y26.3287
G01 X32.3587 Y26.3461
G01 X32.3874 Y26.3620
G01 X32.4256 Y26.3856
G01 X32.4545 Y26.4054
G01 X32.4910 Y26.4333
G01 X32.5126 Y26.4513
G01 X32.5421 Y26.4781
G01 X32.5677 Y26.5036
G01 X32.5965 Y26.5352
G01 X32.6177 Y26.5607
G01 X32.6447 Y26.5966
G01 X32.6622 Y26.6222
G01 X32.6872 Y26.6629
G01 X32.7008 Y26.6875
G01 X32.7186 Y26.7232
G01 X32.7313 Y26.7515
G01 X32.7487 Y26.7960
G01 X32.7593 Y26.8274
G01 X32.7722 Y26.8734
G01 X32.7786 Y26.9009
G01 X32.7864 Y26.9429
G01 X32.7913 Y26.9786
G01 X32.7949 Y27.0183
G01 X32.7964 Y27.0493
G01 X32.7969 Y27.0728
G01 X32.7969 Y27.9270
G01 X32.7963 Y27.9497
G01 X32.7949 Y27.9784
G01 X32.7897 Y28.0301
G01 X32.7851 Y28.0608
G01 X32.7768 Y28.1023
G01 X32.7671 Y28.1414
G01 X32.7545 Y28.1830
G01 X32.7445 Y28.2111
G01 X32.7252 Y28.2581
G01 X32.7101 Y28.2900
G01 X32.6902 Y28.3273
G01 X32.6695 Y28.3619
G01 X32.6454 Y28.3980
G01 X32.6276 Y28.4221
G01 X32.5956 Y28.4614
G01 X32.5697 Y28.4898
G01 X32.5398 Y28.5197
G01 X32.5154 Y28.5419
G01 X32.4743 Y28.5754
G01 X32.4502 Y28.5932
G01 X32.4125 Y28.6184
G01 X32.3822 Y28.6365
G01 X32.3449 Y28.6565
G01 X32.3096 Y28.6733
G01 X32.3096 Y28.9111
G01 X32.3089 Y28.9368
G01 X32.3074 Y28.9685
G01 X32.3026 Y29.0179
G01 X32.2976 Y29.0524
G01 X32.2885 Y29.0992
G01 X32.2848 Y29.1149
G01 X32.1556 Y29.2087
G01 X37.1564 Y29.2087
G01 X37.1447 Y29.2044
G01 X37.1049 Y29.1878
G01 X37.0766 Y29.1744
G01 X37.0369 Y29.1531
G01 X37.0100 Y29.1370
G01 X36.9742 Y29.1130
G01 X36.9474 Y29.0932
G01 X36.9127 Y29.0646
G01 X36.8909 Y29.0448
G01 X36.8739 Y29.0286
G01 X36.1213 Y28.2761
G01 X35.4863 Y28.2761
G01 X35.4806 Y28.2865
G01 X35.4670 Y28.3091
G01 X35.4430 Y28.3450
G01 X35.4261 Y28.3678
G01 X35.3975 Y28.4025
G01 X35.3784 Y28.4235
G01 X35.3493 Y28.4526
G01 X35.3297 Y28.4703
G01 X35.2950 Y28.4989
G01 X35.2722 Y28.5158
G01 X35.2363 Y28.5398
G01 X35.2103 Y28.5553
G01 X35.1740 Y28.5747
G01 X35.1501 Y28.5860
G01 X35.1103 Y28.6026
G01 X35.0818 Y28.6129
G01 X35.0406 Y28.6254
G01 X35.0131 Y28.6323
G01 X34.9689 Y28.6410
G01 X34.9428 Y28.6448
G01 X34.8999 Y28.6491
G01 X34.8735 Y28.6504
G01 X34.8500 Y28.6509
G01 X33.7750 Y28.6509
G01 X33.7515 Y28.6504
G01 X33.7251 Y28.6491
G01 X33.6822 Y28.6448
G01 X33.6542 Y28.6407
G01 X33.6119 Y28.6323
G01 X33.5862 Y28.6259
G01 X33.5413 Y28.6122
G01 X33.5164 Y28.6033
G01 X33.4766 Y28.5868
G01 X33.4510 Y28.5747
G01 X33.4130 Y28.5544
G01 X33.3887 Y28.5398
G01 X33.3544 Y28.5169
G01 X33.3285 Y28.4977
G01 X33.2967 Y28.4716
G01 X33.2757 Y28.4526
G01 X33.2452 Y28.4221
G01 X33.2262 Y28.4011
G01 X33.1989 Y28.3678
G01 X33.1831 Y28.3465
G01 X33.1570 Y28.3075
G01 X33.1434 Y28.2848
G01 X33.1231 Y28.2468
G01 X33.1110 Y28.2212
G01 X33.0945 Y28.1814
G01 X33.0849 Y28.1546
G01 X33.0730 Y28.1152
G01 X33.0651 Y28.0840
G01 X33.0571 Y28.0436
G01 X33.0528 Y28.0137
G01 X33.0487 Y27.9727
G01 X33.0474 Y27.9463
G01 X33.0469 Y27.9228
G01 X33.0469 Y27.0728
G01 X33.0473 Y27.0525
G01 X33.0487 Y27.0240
G01 X33.0523 Y26.9855
G01 X33.0560 Y26.9590
G01 X33.0638 Y26.9174
G01 X33.0695 Y26.8932
G01 X33.0801 Y26.8559
G01 X33.0891 Y26.8288
G01 X33.1045 Y26.7894
G01 X33.1145 Y26.7666
G01 X33.1318 Y26.7319
G01 X33.1456 Y26.7070
G01 X33.1670 Y26.6725
G01 X33.1831 Y26.6490
G01 X33.2065 Y26.6181
G01 X33.2224 Y26.5989
G01 X33.2509 Y26.5676
G01 X33.2711 Y26.5475
G01 X33.2997 Y26.5214
G01 X33.3189 Y26.5054
G01 X33.3526 Y26.4799
G01 X33.3747 Y26.4648
G01 X33.4107 Y26.4425
G01 X33.4325 Y26.4304
G01 X33.4672 Y26.4131
G01 X33.4932 Y26.4016
G01 X33.5342 Y26.3858
G01 X33.5342 Y24.7532
G01 X33.5037 Y24.7425
G01 X33.4622 Y24.7252
G01 X33.4383 Y24.7139
G01 X33.4020 Y24.6945
G01 X33.3743 Y24.6779
G01 X33.3401 Y24.6550
G01 X33.3189 Y24.6393
G01 X33.2840 Y24.6108
G01 X33.2630 Y24.5918
G01 X33.2339 Y24.5627
G01 X33.2123 Y24.5388
G01 X33.1862 Y24.5070
G01 X33.1704 Y24.4857
G01 X33.1453 Y24.4483
G01 X33.1307 Y24.4240
G01 X33.1113 Y24.3877
G01 X33.0983 Y24.3604
G01 X33.0811 Y24.3188
G01 X33.0722 Y24.2938
G01 X33.0597 Y24.2526
G01 X33.0524 Y24.2232
G01 X33.0444 Y24.1828
G01 X33.0403 Y24.1548
G01 X33.0360 Y24.1119
G01 X33.0347 Y24.0855
G01 X33.0342 Y24.0620
G01 X33.0342 Y23.2120
G01 X33.0347 Y23.1885
G01 X33.0360 Y23.1621
G01 X33.0403 Y23.1192
G01 X33.0444 Y23.0912
G01 X33.0528 Y23.0489
G01 X33.0603 Y23.0196
G01 X33.0722 Y22.9802
G01 X33.0811 Y22.9552
G01 X33.0975 Y22.9154
G01 X33.1104 Y22.8880
G01 X33.1298 Y22.8517
G01 X33.1453 Y22.8257
G01 X33.1693 Y22.7898
G01 X33.1862 Y22.7670
G01 X33.2135 Y22.7337
G01 X33.2325 Y22.7127
G01 X33.2630 Y22.6822
G01 X33.2840 Y22.6632
G01 X33.3189 Y22.6347
G01 X33.3401 Y22.6190
G01 X33.3776 Y22.5940
G01 X33.4003 Y22.5804
G01 X33.4366 Y22.5610
G01 X33.4622 Y22.5488
G01 X33.5037 Y22.5315
G01 X33.5305 Y22.5219
G01 X33.5717 Y22.5094
G01 X33.5992 Y22.5025
G01 X33.6415 Y22.4941
G01 X33.6695 Y22.4900
G01 X33.7124 Y22.4857
G01 X33.7388 Y22.4844
G01 X33.7604 Y22.4839
G01 X34.8373 Y22.4839
G01 X34.8608 Y22.4844
G01 X34.8872 Y22.4857
G01 X34.9301 Y22.4900
G01 X34.9600 Y22.4945
G01 X35.0004 Y22.5025
G01 X35.0279 Y22.5094
G01 X35.0691 Y22.5219
G01 X35.0941 Y22.5308
G01 X35.1357 Y22.5480
G01 X35.1630 Y22.5610
G01 X35.1993 Y22.5804
G01 X35.2220 Y22.5940
G01 X35.2595 Y22.6190
G01 X35.2838 Y22.6371
G01 X35.3156 Y22.6632
G01 X35.3352 Y22.6809
G01 X35.3671 Y22.7127
G01 X35.3873 Y22.7352
G01 X35.4134 Y22.7670
G01 X35.4303 Y22.7898
G01 X35.4553 Y22.8273
G01 X35.4689 Y22.8500
G01 X35.4803 Y22.8714
G01 X36.4017 Y22.8714
G01 X36.3945 Y22.8605
G01 X36.3849 Y22.8446
G01 X36.3646 Y22.8066
G01 X36.3567 Y22.7898
G01 X36.3395 Y22.7482
G01 X36.3339 Y22.7325
G01 X36.3220 Y22.6931
G01 X36.3165 Y22.6714
G01 X36.3085 Y22.6310
G01 X36.3058 Y22.6127
G01 X36.3016 Y22.5698
G01 X36.3007 Y22.5512
G01 X36.3002 Y22.5297
G01 X36.3002 Y22.2278
G01 X36.3016 Y22.1896
G01 X36.3058 Y22.1467
G01 X36.3082 Y22.1303
G01 X36.3169 Y22.0861
G01 X36.3214 Y22.0681
G01 X36.3339 Y22.0269
G01 X36.3402 Y22.0094
G01 X36.3567 Y21.9696
G01 X36.3646 Y21.9528
G01 X36.3849 Y21.9148
G01 X36.3945 Y21.8989
G01 X36.4017 Y21.8880
G01 X32.4862 Y21.8880
G01 X32.2031 Y22.1711
G01 X32.2031 Y22.5251
G01 X32.2209 Y22.5315
G01 X32.2589 Y22.5472
G01 X32.2863 Y22.5601
G01 X32.3260 Y22.5814
G01 X32.3486 Y22.5950
G01 X32.3845 Y22.6190
G01 X32.4073 Y22.6359
G01 X32.4391 Y22.6620
G01 X32.4616 Y22.6822
G01 X32.4934 Y22.7141
G01 X32.5111 Y22.7337
G01 X32.5384 Y22.7670
G01 X32.5553 Y22.7898
G01 X32.5782 Y22.8240
G01 X32.5939 Y22.8500
G01 X32.6150 Y22.8897
G01 X32.6263 Y22.9136
G01 X32.6428 Y22.9534
G01 X32.6529 Y22.9820
G01 X32.6649 Y23.0214
G01 X32.6718 Y23.0489
G01 X32.6805 Y23.0931
G01 X32.6843 Y23.1192
G01 X32.6884 Y23.1602
G01 X32.6899 Y23.1885
G01 X32.6904 Y23.2120
G01 X32.6904 Y24.0639
G01 X32.6899 Y24.0855
G01 X32.6886 Y24.1119
G01 X32.6841 Y24.1567
G01 X32.6802 Y24.1828
G01 X32.6722 Y24.2232
G01 X32.6643 Y24.2544
G01 X32.6524 Y24.2938
G01 X32.6435 Y24.3188
G01 X32.6271 Y24.3586
G01 X32.6142 Y24.3860
G01 X32.5939 Y24.4240
G01 X32.5793 Y24.4483
G01 X32.5542 Y24.4857
G01 X32.5372 Y24.5085
G01 X32.5111 Y24.5403
G01 X32.4934 Y24.5599
G01 X32.4616 Y24.5918
G01 X32.4391 Y24.6120
G01 X32.4073 Y24.6381
G01 X32.3860 Y24.6539
G01 X32.3503 Y24.6779
G01 X32.3243 Y24.6936
G01 X32.2863 Y24.7139
G01 X32.2607 Y24.7260
G01 X32.2158 Y24.7443
G01 X32.2158 Y26.3858
G01 X32.2568 Y26.4016
G01 X32.2828 Y26.4131
G01 X32.3175 Y26.4304
G01 X32.3393 Y26.4425
G01 X32.3753 Y26.4648
G01 X32.3974 Y26.4799
G01 X32.4311 Y26.5054
G01 X32.4503 Y26.5214
G01 X32.4789 Y26.5475
G01 X32.4991 Y26.5676
G01 X32.5264 Y26.5975
G01 X32.5446 Y26.6195
G01 X32.5679 Y26.6504
G01 X32.5820 Y26.6710
G01 X32.6044 Y26.7070
G01 X32.6174 Y26.7303
G01 X32.6362 Y26.7682
G01 X32.6462 Y26.7910
G01 X32.6603 Y26.8271
G01 X32.6694 Y26.8541
G01 X32.6809 Y26.8949
G01 X32.6866 Y26.9192
G01 X32.6940 Y26.9590
G01 X32.6977 Y26.9855
G01 X32.7013 Y27.0240
G01 X32.7027 Y27.0525
G01 X32.7031 Y27.0728
G01 X32.7031 Y27.9228
G01 X32.7026 Y27.9463
G01 X32.7013 Y27.9727
G01 X32.6970 Y28.0156
G01 X32.6929 Y28.0436
G01 X32.6840 Y28.0878
G01 X32.6776 Y28.1134
G01 X32.6651 Y28.1546
G01 X32.6548 Y28.1831
G01 X32.6390 Y28.2212
G01 X32.6269 Y28.2468
G01 X32.6056 Y28.2865
G01 X32.5920 Y28.3091
G01 X32.5680 Y28.3450
G01 X32.5499 Y28.3693
G01 X32.5238 Y28.4011
G01 X32.5048 Y28.4221
G01 X32.4743 Y28.4526
G01 X32.4547 Y28.4703
G01 X32.4184 Y28.5001
G01 X32.3972 Y28.5158
G01 X32.3630 Y28.5387
G01 X32.3353 Y28.5553
G01 X32.2990 Y28.5747
G01 X32.2734 Y28.5868
G01 X32.2336 Y28.6033
G01 X32.2158 Y28.6097
G01 X32.2158 Y28.9118
G01 X32.2152 Y28.9334
G01 X32.2137 Y28.9647
G01 X32.2096 Y29.0057
G01 X32.2042 Y29.0424
G01 X32.1961 Y29.0828
G01 X32.1881 Y29.1151
G01 X32.1749 Y29.1581
G01 X32.1643 Y29.1876
G01 X32.1556 Y29.2087
G00 Z2.0000
G00 X32.8750 Y26.9062
G01 F80.00
G01 Z-0.1590
G01 F80.00
G01 X32.8699 Y26.8794
G01 X32.8630 Y26.8499
G01 X32.8492 Y26.8007
G01 X32.8369 Y26.7641
G01 X32.8187 Y26.7172
G01 X32.8026 Y26.6814
G01 X32.7838 Y26.6438
G01 X32.7691 Y26.6173
G01 X32.7413 Y26.5719
G01 X32.7189 Y26.5391
G01 X32.6867 Y26.4969
G01 X32.6672 Y26.4736
G01 X32.6390 Y26.4425
G01 X32.6105 Y26.4138
G01 X32.5742 Y26.3806
G01 X32.5418 Y26.3538
G01 X32.5078 Y26.3283
G01 X32.4828 Y26.3110
G01 X32.4377 Y26.2828
G01 X32.4034 Y26.2637
G01 X32.4034 Y24.8640
G01 X32.4188 Y24.8556
G01 X32.4470 Y24.8387
G01 X32.4915 Y24.8090
G01 X32.5236 Y24.7853
G01 X32.5662 Y24.7500
G01 X32.5956 Y24.7230
G01 X32.6271 Y24.6914
G01 X32.6488 Y24.6677
G01 X32.6570 Y24.6582
G01 X32.6849 Y24.6242
G01 X32.7074 Y24.5940
G01 X32.7371 Y24.5497
G01 X32.7565 Y24.5175
G01 X32.7812 Y24.4714
G01 X32.7997 Y24.4320
G01 X32.8182 Y24.3870
G01 X32.8323 Y24.3470
G01 X32.8472 Y24.2969
G01 X32.8550 Y24.2651
G01 X32.8623 Y24.2287
G01 X32.8696 Y24.2651
G01 X32.8774 Y24.2969
G01 X32.8923 Y24.3470
G01 X32.9064 Y24.3870
G01 X32.9264 Y24.4353
G01 X32.9439 Y24.4724
G01 X32.9705 Y24.5216
G01 X32.9904 Y24.5542
G01 X33.0153 Y24.5912
G01 X33.0343 Y24.6172
G01 X33.0420 Y24.6270
G01 X33.0700 Y24.6610
G01 X33.0959 Y24.6898
G01 X33.1329 Y24.7268
G01 X33.1652 Y24.7559
G01 X33.2029 Y24.7867
G01 X33.2375 Y24.8121
G01 X33.2812 Y24.8409
G01 X33.3088 Y24.8573
G01 X33.3466 Y24.8776
G01 X33.3466 Y26.2637
G01 X33.3123 Y26.2828
G01 X33.2672 Y26.3110
G01 X33.2422 Y26.3283
G01 X33.2082 Y26.3538
G01 X33.1758 Y26.3806
G01 X33.1395 Y26.4138
G01 X33.1110 Y26.4425
G01 X33.0828 Y26.4736
G01 X33.0633 Y26.4969
G01 X33.0311 Y26.5391
G01 X33.0087 Y26.5719
G01 X32.9809 Y26.6173
G01 X32.9662 Y26.6438
G01 X32.9474 Y26.6814
G01 X32.9313 Y26.7172
G01 X32.9131 Y26.7641
G01 X32.9008 Y26.8007
G01 X32.8870 Y26.8499
G01 X32.8801 Y26.8794
G01 X32.8750 Y26.9062
G01 X32.8750 Y26.0208
G01 X32.8723 Y26.0185
G01 X32.8723 Y25.1221
G01 X32.8776 Y25.1265
G01 X32.8772 Y26.0190
G01 X32.8750 Y26.0208
G01 X32.7785 Y25.0614
G01 X32.8012 Y25.0428
G01 X32.8161 Y25.0298
G01 X32.8448 Y25.0038
G01 X32.8623 Y24.9868
G01 X32.8821 Y25.0059
G01 X32.9141 Y25.0348
G01 X32.9283 Y25.0468
G01 X32.9714 Y25.0819
G01 X32.9710 Y26.0632
G01 X32.9410 Y26.0878
G01 X32.9271 Y26.0998
G01 X32.8902 Y26.1333
G01 X32.8825 Y26.1405
G01 X32.8788 Y26.1440
G01 X32.8770 Y26.1457
G01 X32.8765 Y26.1462
G01 X32.8751 Y26.1476
G01 X32.8750 Y26.1477
G01 X32.8597 Y26.1332
G01 X32.8220 Y26.0990
G01 X32.7785 Y26.0627
G01 X32.7785 Y25.0614
G01 X32.6847 Y25.0162
G01 X32.7029 Y25.0021
G01 X32.7425 Y24.9696
G01 X32.7807 Y24.9353
G01 X32.7934 Y24.9231
G01 X32.8286 Y24.8878
G01 X32.8623 Y24.8510
G01 X32.8968 Y24.8887
G01 X32.9330 Y24.9249
G01 X32.9495 Y24.9405
G01 X32.9796 Y24.9675
G01 X33.0190 Y25.0000
G01 X33.0356 Y25.0130
G01 X33.0652 Y25.0349
G01 X33.0647 Y26.1097
G01 X33.0304 Y26.1357
G01 X33.0011 Y26.1598
G01 X32.9859 Y26.1730
G01 X32.9541 Y26.2019
G01 X32.9396 Y26.2157
G01 X32.9136 Y26.2418
G01 X32.9040 Y26.2520
G01 X32.8782 Y26.2803
G01 X32.8768 Y26.2819
G01 X32.8759 Y26.2829
G01 X32.8755 Y26.2833
G01 X32.8751 Y26.2838
G01 X32.8750 Y26.2839
G01 X32.8364 Y26.2418
G01 X32.8103 Y26.2157
G01 X32.7958 Y26.2018
G01 X32.7640 Y26.1729
G01 X32.7489 Y26.1598
G01 X32.7196 Y26.1357
G01 X32.6847 Y26.1092
G01 X32.6847 Y25.0162
G01 X32.5909 Y24.9683
G01 X32.6095 Y24.9552
G01 X32.6329 Y24.9378
G01 X32.6466 Y24.9270
G01 X32.6873 Y24.8933
G01 X32.7143 Y24.8690
G01 X32.7271 Y24.8568
G01 X32.7645 Y24.8191
G01 X32.7959 Y24.7844
G01 X32.8333 Y24.7389
G01 X32.8623 Y24.6998
G01 X32.8917 Y24.7393
G01 X32.9304 Y24.7864
G01 X32.9623 Y24.8214
G01 X33.0027 Y24.8618
G01 X33.0399 Y24.8956
G01 X33.0847 Y24.9324
G01 X33.1225 Y24.9606
G01 X33.1590 Y24.9852
G01 X33.1585 Y26.1582
G01 X33.1301 Y26.1779
G01 X33.0840 Y26.2130
G01 X33.0510 Y26.2405
G01 X33.0076 Y26.2804
G01 X32.9773 Y26.3109
G01 X32.9385 Y26.3538
G01 X32.9104 Y26.3877
G01 X32.8831 Y26.4238
G01 X32.8788 Y26.4296
G01 X32.8768 Y26.4325
G01 X32.8757 Y26.4340
G01 X32.8752 Y26.4347
G01 X32.8751 Y26.4349
G01 X32.8750 Y26.4350
G01 X32.8396 Y26.3877
G01 X32.8115 Y26.3538
G01 X32.7727 Y26.3109
G01 X32.7424 Y26.2804
G01 X32.6990 Y26.2405
G01 X32.6660 Y26.2130
G01 X32.6199 Y26.1779
G01 X32.5909 Y26.1577
G01 X32.5909 Y24.9683
G01 X32.4971 Y24.9179
G01 X32.5394 Y24.8899
G01 X32.5527 Y24.8806
G01 X32.5817 Y24.8589
G01 X32.6178 Y24.8293
G01 X32.6301 Y24.8188
G01 X32.6564 Y24.7947
G01 X32.6905 Y24.7608
G01 X32.7012 Y24.7495
G01 X32.7253 Y24.7227
G01 X32.7555 Y24.6860
G01 X32.7651 Y24.6737
G01 X32.7864 Y24.6448
G01 X32.8128 Y24.6053
G01 X32.8215 Y24.5916
G01 X32.8395 Y24.5612
G01 X32.8623 Y24.5187
G01 X32.8851 Y24.5612
G01 X32.9031 Y24.5916
G01 X32.9118 Y24.6053
G01 X32.9386 Y24.6452
G01 X32.9597 Y24.6739
G01 X32.9699 Y24.6869
G01 X32.9997 Y24.7232
G01 X33.0276 Y24.7540
G01 X33.0633 Y24.7900
G01 X33.0753 Y24.8013
G01 X33.1016 Y24.8250
G01 X33.1415 Y24.8578
G01 X33.1712 Y24.8801
G01 X33.1835 Y24.8888
G01 X33.2240 Y24.9157
G01 X33.2528 Y24.9332
G01 X33.2522 Y26.2097
G01 X33.2220 Y26.2285
G01 X33.1931 Y26.2481
G01 X33.1819 Y26.2563
G01 X33.1435 Y26.2855
G01 X33.1142 Y26.3098
G01 X33.0807 Y26.3403
G01 X33.0695 Y26.3510
G01 X33.0434 Y26.3776
G01 X33.0124 Y26.4116
G01 X32.9907 Y26.4376
G01 X32.9810 Y26.4497
G01 X32.9518 Y26.4888
G01 X32.9304 Y26.5202
G01 X32.9047 Y26.5616
G01 X32.8861 Y26.5946
G01 X32.8814 Y26.6036
G01 X32.8800 Y26.6065
G01 X32.8750 Y26.6164
G01 X32.8639 Y26.5946
G01 X32.8453 Y26.5616
G01 X32.8196 Y26.5202
G01 X32.7982 Y26.4888
G01 X32.7690 Y26.4497
G01 X32.7593 Y26.4376
G01 X32.7376 Y26.4116
G01 X32.7062 Y26.3772
G01 X32.6803 Y26.3508
G01 X32.6691 Y26.3401
G01 X32.6358 Y26.3098
G01 X32.6065 Y26.2855
G01 X32.5681 Y26.2563
G01 X32.5569 Y26.2481
G01 X32.5280 Y26.2285
G01 X32.4971 Y26.2093
G01 X32.4971 Y24.9179
G00 Z2.0000
G00 X30.0343 Y26.2463
G01 F80.00
G01 Z-0.1590
G01 F80.00
G01 X30.0717 Y26.2088
G01 X30.1149 Y26.1694
G01 X30.1523 Y26.1382
G01 X30.1897 Y26.1097
G01 X30.1902 Y25.0349
G01 X30.1616 Y25.0137
G01 X30.1467 Y25.0021
G01 X30.1070 Y24.9695
G01 X30.0860 Y24.9509
G01 X30.0851 Y25.9109
G01 X30.0844 Y25.9470
G01 X30.0818 Y25.9955
G01 X30.0768 Y26.0462
G01 X30.0739 Y26.0688
G01 X30.0684 Y26.1044
G01 X30.0585 Y26.1547
G01 X30.0541 Y26.1746
G01 X30.0459 Y26.2070
G01 X30.0343 Y26.2463
G01 X29.4216 Y27.5207
G01 X29.4216 Y27.4472
G01 X29.4172 Y27.4516
G01 X29.4195 Y27.4797
G01 X29.4216 Y27.5207
G01 X29.2743 Y28.4585
G01 X29.5223 Y28.4585
G01 X29.5129 Y28.4336
G01 X29.4970 Y28.3881
G01 X29.4796 Y28.3317
G01 X29.4728 Y28.3076
G01 X29.4623 Y28.2665
G01 X29.4566 Y28.2415
G01 X29.4452 Y28.1842
G01 X29.4397 Y28.1521
G01 X29.4344 Y28.1154
G01 X29.4312 Y28.0874
G01 X29.4258 Y28.0313
G01 X29.4231 Y27.9831
G01 X29.4216 Y27.9287
G01 X29.4216 Y27.7797
G01 X29.4198 Y27.8150
G01 X29.4183 Y27.8374
G01 X29.4130 Y27.8918
G01 X29.4101 Y27.9163
G01 X29.3918 Y28.0397
G01 X29.3875 Y28.0630
G01 X29.3764 Y28.1181
G01 X29.3711 Y28.1412
G01 X29.3461 Y28.2412
G01 X29.3363 Y28.2765
G01 X29.3227 Y28.3210
G01 X29.3158 Y28.3424
G01 X29.2743 Y28.4585
G01 X29.1315 Y28.5522
G01 X29.6670 Y28.5522
G01 X29.6561 Y28.5304
G01 X29.6381 Y28.4923
G01 X29.6301 Y28.4738
G01 X29.6133 Y28.4332
G01 X29.6043 Y28.4105
G01 X29.5925 Y28.3776
G01 X29.5815 Y28.3444
G01 X29.5639 Y28.2855
G01 X29.5539 Y28.2461
G01 X29.5492 Y28.2259
G01 X29.5351 Y28.1544
G01 X29.5286 Y28.1118
G01 X29.5256 Y28.0891
G01 X29.5203 Y28.0361
G01 X29.5186 Y28.0141
G01 X29.5164 Y27.9710
G01 X29.5154 Y27.9309
G01 X29.5154 Y27.9230
G01 X29.5154 Y27.2216
G01 X29.3195 Y27.4165
G01 X29.3246 Y27.4680
G01 X29.3265 Y27.4963
G01 X29.3318 Y27.6069
G01 X29.3322 Y27.6271
G01 X29.3322 Y27.6727
G01 X29.3315 Y27.7033
G01 X29.3259 Y27.8156
G01 X29.3239 Y27.8396
G01 X29.3196 Y27.8835
G01 X29.3173 Y27.9030
G01 X29.3008 Y28.0146
G01 X29.2953 Y28.0462
G01 X29.2865 Y28.0903
G01 X29.2823 Y28.1092
G01 X29.2556 Y28.2162
G01 X29.2474 Y28.2463
G01 X29.2288 Y28.3068
G01 X29.1861 Y28.4264
G01 X29.1781 Y28.4467
G01 X29.1574 Y28.4965
G01 X29.1315 Y28.5522
G01 X28.9790 Y28.6460
G01 X29.8049 Y28.6460
G01 X29.8208 Y28.6302
G01 X29.8043 Y28.6049
G01 X29.7816 Y28.5669
G01 X29.7718 Y28.5494
G01 X29.7467 Y28.5022
G01 X29.7281 Y28.4635
G01 X29.7202 Y28.4461
G01 X29.6994 Y28.3962
G01 X29.6912 Y28.3749
G01 X29.6785 Y28.3396
G01 X29.6712 Y28.3170
G01 X29.6559 Y28.2660
G01 X29.6449 Y28.2235
G01 X29.6393 Y28.1986
G01 X29.6288 Y28.1458
G01 X29.6256 Y28.1264
G01 X29.6199 Y28.0873
G01 X29.6139 Y28.0295
G01 X29.6123 Y28.0093
G01 X29.6101 Y27.9671
G01 X29.6092 Y27.9273
G01 X29.6092 Y27.9230
G01 X29.6092 Y27.0728
G01 X29.6092 Y27.0712
G01 X29.6100 Y27.0332
G01 X29.6119 Y26.9913
G01 X29.2204 Y27.3829
G01 X29.2257 Y27.4213
G01 X29.2317 Y27.4828
G01 X29.2329 Y27.5010
G01 X29.2382 Y27.6130
G01 X29.2384 Y27.6701
G01 X29.2381 Y27.6904
G01 X29.2317 Y27.8169
G01 X29.2266 Y27.8707
G01 X29.2242 Y27.8913
G01 X29.2083 Y27.9990
G01 X29.2047 Y28.0203
G01 X29.1949 Y28.0702
G01 X29.1902 Y28.0915
G01 X29.1640 Y28.1960
G01 X29.1564 Y28.2233
G01 X29.1384 Y28.2814
G01 X29.1020 Y28.3835
G01 X29.0930 Y28.4071
G01 X29.0747 Y28.4514
G01 X29.0638 Y28.4759
G01 X29.0167 Y28.5753
G01 X29.0070 Y28.5943
G01 X28.9790 Y28.6460
G01 X28.8112 Y28.7398
G01 X29.8438 Y28.7398
G01 X29.9426 Y28.6409
G01 X29.9212 Y28.6115
G01 X29.8914 Y28.5670
