( pcb2gcode 2.1.0 )
( Software-independent Gcode )

G94 ( Millimeters per minute feed rate. )
G21 ( Units == Millimeters. )

G90 ( Absolute coordinates. )
G00 S10000 ( RPM spindle speed. )
G64 P0.01016 ( set maximum deviation from commanded toolpath )
G01 F100.00000 ( Feedrate. )


G00 Z10.00000 (Retract to tool change height)
T0
M5      (Spindle stop.)
G04 P1.00000 (Wait for spindle to stop)
(MSG, Change tool bit to mill diameter 0.12000mm)
M6      (Tool change.)
M0      (Temporary machine stop.)
M3 ( Spindle on clockwise. )
G04 P1.00000 (Wait for spindle to get up to speed)
G04 P0 ( dwell for no time -- G64 should not smooth over this point )
G00 Z2.00000 ( retract )


G00 X21.91275 Y20.33375 ( rapid move to begin. )
G01 F40.00000
( Mill infeed pass 1/1 )
G01 Z-0.1280
G04 P0 ( dwell for no time -- G64 should not smooth over this point )
G01 F100.00000
G01 X21.91275 Y20.33375
G01 X22.19723 Y20.33375
G01 X22.21806 Y20.31292
G01 X22.19723 Y20.33375
G01 X22.19723 Y20.41823
G01 X22.21806 Y20.43906
G01 X22.19723 Y20.41823
G01 X21.91275 Y20.41823
G01 X21.89192 Y20.43906
G01 X21.91275 Y20.41823
G01 X21.91275 Y20.33375
G01 X21.84166 Y20.26265
G01 X22.26833 Y20.26265
G01 X22.28915 Y20.24183
G01 X22.26833 Y20.26265
G01 X22.26833 Y20.48932
G01 X22.28915 Y20.51015
G01 X22.26833 Y20.48932
G01 X21.84166 Y20.48932
G01 X21.82083 Y20.51015
G01 X21.84166 Y20.48932
G01 X21.84166 Y20.26265
G01 X21.77054 Y20.19153
G01 X22.33945 Y20.19153
G01 X22.36027 Y20.17071
G01 X22.33945 Y20.19153
G01 X22.33945 Y20.56044
G01 X22.36027 Y20.58127
G01 X22.33945 Y20.56044
G01 X21.77054 Y20.56044
G01 X21.74971 Y20.58127
G01 X21.77054 Y20.56044
G01 X21.77054 Y20.19153
G01 X21.69942 Y20.12041
G01 X22.41054 Y20.12041
G01 X22.43137 Y20.09959
G01 X22.41054 Y20.12041
G01 X22.41054 Y20.63154
G01 X22.43137 Y20.65237
G01 X22.41054 Y20.63154
G01 X21.69942 Y20.63154
G01 X21.67859 Y20.65237
G01 X21.69942 Y20.63154
G01 X21.69942 Y20.12041
G01 X21.62832 Y20.04932
G01 X22.48166 Y20.04932
G01 X22.50249 Y20.02849
G01 X22.48166 Y20.04932
G01 X22.48166 Y20.70266
G01 X22.50249 Y20.72349
G01 X22.48166 Y20.70266
G01 X21.62832 Y20.70266
G01 X21.60749 Y20.72349
G01 X21.62832 Y20.70266
G01 X21.62832 Y20.04932
G01 X21.60749 Y20.02849
G01 X21.55624 Y20.03575
G01 X21.48486 Y20.03220
G01 X21.48611 Y20.03245
G01 X21.48611 Y20.71952
G01 X21.48580 Y20.71957
G01 X21.48611 Y20.71952
G01 X21.48900 Y20.74906
G01 X21.49573 Y20.77124
G01 X21.49363 Y20.77220
G01 X21.49573 Y20.77124
G01 X21.50666 Y20.79168
G01 X21.52136 Y20.80962
G01 X21.53930 Y20.82432
G01 X21.53742 Y20.82714
G01 X21.53930 Y20.82432
G01 X21.55974 Y20.83525
G01 X21.58192 Y20.84198
G01 X21.61141 Y20.84487
G01 X21.61130 Y20.84556
G01 X21.61141 Y20.84487
G01 X22.49858 Y20.84487
G01 X22.49860 Y20.84518
G01 X22.49858 Y20.84487
G01 X22.52807 Y20.84198
G01 X22.55024 Y20.83525
G01 X22.55121 Y20.83733
G01 X22.55024 Y20.83525
G01 X22.57069 Y20.82432
G01 X22.58862 Y20.80962
G01 X22.60330 Y20.79168
G01 X22.60615 Y20.79354
G01 X22.60330 Y20.79168
G01 X22.61425 Y20.77124
G01 X22.62098 Y20.74906
G01 X22.62388 Y20.71952
G01 X22.62456 Y20.71962
G01 X22.62388 Y20.71952
G01 X22.62388 Y20.03245
G01 X22.62418 Y20.03240
G01 X22.62388 Y20.03245
G01 X22.62098 Y20.00291
G01 X22.61425 Y19.98074
G01 X22.61633 Y19.97977
G01 X22.61425 Y19.98074
G01 X22.60330 Y19.96029
G01 X22.58859 Y19.94236
G01 X22.57069 Y19.92765
G01 X22.57254 Y19.92483
G01 X22.57069 Y19.92765
G01 X22.55024 Y19.91673
G01 X22.52807 Y19.91000
G01 X22.49858 Y19.90710
G01 X22.49868 Y19.90642
G01 X22.49858 Y19.90710
G01 X21.61141 Y19.90710
G01 X21.61115 Y19.90586
G01 X21.61141 Y19.90710
G01 X21.58192 Y19.91000
G01 X21.55974 Y19.91673
G01 X21.53927 Y19.92765
G01 X21.52136 Y19.94236
G01 X21.51679 Y19.93776
G01 X21.52136 Y19.94236
G01 X21.50666 Y19.96029
G01 X21.49573 Y19.98074
G01 X21.48900 Y20.00291
G01 X21.48611 Y20.03245
G01 X21.48486 Y20.03220
G01 X21.41499 Y20.02892
G01 X21.41892 Y19.98897
G01 X21.42972 Y19.95338
G01 X21.44725 Y19.92059
G01 X21.47084 Y19.89184
G01 X21.49959 Y19.86824
G01 X21.53239 Y19.85072
G01 X21.56797 Y19.83992
G01 X21.60798 Y19.83598
G01 X22.50201 Y19.83598
G01 X22.54199 Y19.83992
G01 X22.57760 Y19.85072
G01 X22.61036 Y19.86824
G01 X22.63914 Y19.89184
G01 X22.66271 Y19.92059
G01 X22.68026 Y19.95338
G01 X22.69106 Y19.98897
G01 X22.69500 Y20.02897
G01 X22.69500 Y20.72300
G01 X22.69106 Y20.76301
G01 X22.68026 Y20.79859
G01 X22.66271 Y20.83138
G01 X22.63914 Y20.86014
G01 X22.61039 Y20.88371
G01 X22.57760 Y20.90126
G01 X22.54199 Y20.91205
G01 X22.50201 Y20.91599
G01 X21.60798 Y20.91599
G01 X21.56797 Y20.91205
G01 X21.53239 Y20.90126
G01 X21.49957 Y20.88371
G01 X21.47084 Y20.86014
G01 X21.44725 Y20.83138
G01 X21.42972 Y20.79859
G01 X21.41892 Y20.76298
G01 X21.41826 Y20.75635
G01 X21.41499 Y20.72305
G01 X21.41499 Y20.02892
G01 X21.48611 Y20.03225
G01 X21.55624 Y20.03575
G01 X21.55720 Y20.03591
G01 X21.55908 Y20.01686
G01 X21.56175 Y20.00807
G01 X21.56607 Y19.99999
G01 X21.57188 Y19.99291
G01 X21.56617 Y19.98716
G01 X21.57188 Y19.99291
G01 X21.57900 Y19.98706
G01 X21.58707 Y19.98275
G01 X21.59586 Y19.98008
G01 X21.61491 Y19.97820
G01 X21.61473 Y19.97718
G01 X21.61491 Y19.97820
G01 X22.49507 Y19.97820
G01 X22.51412 Y19.98008
G01 X22.52288 Y19.98275
G01 X22.53099 Y19.98706
G01 X22.53833 Y19.97586
G01 X22.53099 Y19.98706
G01 X22.53807 Y19.99291
G01 X22.54392 Y19.99999
G01 X22.54823 Y20.00807
G01 X22.55090 Y20.01686
G01 X22.55276 Y20.03591
G01 X22.55443 Y20.03558
G01 X22.55276 Y20.03591
G01 X22.55276 Y20.71607
G01 X22.55090 Y20.73512
G01 X22.54823 Y20.74388
G01 X22.54389 Y20.75198
G01 X22.55504 Y20.75932
G01 X22.54389 Y20.75198
G01 X22.53807 Y20.75907
G01 X22.53099 Y20.76491
G01 X22.52291 Y20.76923
G01 X22.51412 Y20.77190
G01 X22.49502 Y20.77378
G01 X22.49535 Y20.77540
G01 X22.49502 Y20.77378
G01 X21.61496 Y20.77378
G01 X21.59586 Y20.77190
G01 X21.58707 Y20.76923
G01 X21.57900 Y20.76491
G01 X21.57163 Y20.77611
G01 X21.57900 Y20.76491
G01 X21.57188 Y20.75907
G01 X21.56607 Y20.75198
G01 X21.56175 Y20.74388
G01 X21.55908 Y20.73512
G01 X21.55720 Y20.71607
G01 X21.55565 Y20.71640
G01 X21.55720 Y20.71607
G01 X21.55720 Y20.03591
G04 P0 ( dwell for no time -- G64 should not smooth over this point )
G00 Z2.00000 ( retract )

G00 X17.98632 Y23.88932 ( rapid move to begin. )
G01 F40.00000
( Mill infeed pass 1/1 )
G01 Z-0.1280
G04 P0 ( dwell for no time -- G64 should not smooth over this point )
G01 F100.00000
G01 X17.98632 Y23.88932
G01 X17.98632 Y23.94266
G01 X17.96549 Y23.96348
G01 X17.98632 Y23.94266
G01 X19.38967 Y23.94266
G01 X19.41050 Y23.96348
G01 X19.38967 Y23.94266
G01 X19.38967 Y23.88932
G01 X19.41050 Y23.86849
G01 X19.38967 Y23.88932
G01 X17.98632 Y23.88932
G01 X17.91520 Y23.81820
G01 X19.46076 Y23.81820
G01 X19.48159 Y23.79737
G01 X19.46076 Y23.81820
G01 X19.46076 Y24.01378
G01 X19.48159 Y24.03460
G01 X19.46076 Y24.01378
G01 X17.91520 Y24.01378
G01 X17.89437 Y24.03460
G01 X17.91520 Y24.01378
G01 X17.91520 Y23.81820
G01 X17.89437 Y23.79737
G01 X17.83869 Y23.77022
G01 X17.77298 Y23.76897
G01 X17.77499 Y23.74850
G01 X17.78010 Y23.73166
G01 X17.78840 Y23.71614
G01 X17.79955 Y23.70255
G01 X17.81314 Y23.69140
G01 X17.82869 Y23.68309
G01 X17.84550 Y23.67799
G01 X17.86595 Y23.67598
G01 X19.51001 Y23.67598
G01 X19.53049 Y23.67801
G01 X19.54730 Y23.68309
G01 X19.56284 Y23.69140
G01 X19.57643 Y23.70255
G01 X19.58756 Y23.71614
G01 X19.59586 Y23.73166
G01 X19.60097 Y23.74850
G01 X19.60298 Y23.76895
G01 X19.60298 Y24.06303
G01 X19.60097 Y24.08350
G01 X19.59586 Y24.10031
G01 X19.58758 Y24.11583
G01 X19.57643 Y24.12942
G01 X19.56282 Y24.14057
G01 X19.54733 Y24.14888
G01 X19.53049 Y24.15398
G01 X19.51001 Y24.15599
G01 X17.86595 Y24.15599
G01 X17.84547 Y24.15398
G01 X17.82866 Y24.14888
G01 X17.82348 Y24.14611
G01 X17.81314 Y24.14057
G01 X17.79955 Y24.12942
G01 X17.78840 Y24.11583
G01 X17.78010 Y24.10031
G01 X17.77499 Y24.08347
G01 X17.77298 Y24.06300
G01 X17.77298 Y23.76897
G01 X17.83869 Y23.77022
G01 X17.84410 Y23.77245
G01 X17.84509 Y23.76244
G01 X17.84611 Y23.75901
G01 X17.84781 Y23.75584
G01 X17.85010 Y23.75307
G01 X17.85284 Y23.75081
G01 X17.85602 Y23.74911
G01 X17.85942 Y23.74809
G01 X17.86940 Y23.74710
G01 X17.86714 Y23.74167
G01 X17.86940 Y23.74710
G01 X19.50658 Y23.74710
G01 X19.51654 Y23.74809
G01 X19.52142 Y23.73923
G01 X19.51654 Y23.74809
G01 X19.51997 Y23.74911
G01 X19.52314 Y23.75081
G01 X19.52589 Y23.75307
G01 X19.52817 Y23.75584
G01 X19.52985 Y23.75901
G01 X19.53089 Y23.76244
G01 X19.53188 Y23.77245
G01 X19.53470 Y23.77164
G01 X19.53188 Y23.77245
G01 X19.53188 Y24.05952
G01 X19.53089 Y24.06953
G01 X19.53968 Y24.07441
G01 X19.53089 Y24.06953
G01 X19.52985 Y24.07298
G01 X19.52817 Y24.07613
G01 X19.52589 Y24.07890
G01 X19.52314 Y24.08116
G01 X19.51997 Y24.08286
G01 X19.51657 Y24.08388
G01 X19.50651 Y24.08487
G01 X19.50732 Y24.08766
G01 X19.50651 Y24.08487
G01 X17.86945 Y24.08487
G01 X17.85942 Y24.08388
G01 X17.85452 Y24.09274
G01 X17.85942 Y24.08388
G01 X17.85602 Y24.08286
G01 X17.85284 Y24.08116
G01 X17.85010 Y24.07890
G01 X17.84781 Y24.07613
G01 X17.84611 Y24.07298
G01 X17.84509 Y24.06953
G01 X17.84410 Y24.05952
G01 X17.84131 Y24.06033
G01 X17.84410 Y24.05952
G01 X17.84410 Y23.77245
G04 P0 ( dwell for no time -- G64 should not smooth over this point )
G00 Z2.00000 ( retract )

G00 X17.98632 Y22.61932 ( rapid move to begin. )
G01 F40.00000
( Mill infeed pass 1/1 )
G01 Z-0.1280
G04 P0 ( dwell for no time -- G64 should not smooth over this point )
G01 F100.00000
G01 X17.98632 Y22.61932
G01 X17.98632 Y22.67266
G01 X17.96549 Y22.69348
G01 X17.98632 Y22.67266
G01 X19.38967 Y22.67266
G01 X19.41050 Y22.69348
G01 X19.38967 Y22.67266
G01 X19.38967 Y22.61932
G01 X19.41050 Y22.59849
G01 X19.38967 Y22.61932
G01 X17.98632 Y22.61932
G01 X17.91520 Y22.54820
G01 X19.46076 Y22.54820
G01 X19.48159 Y22.52737
G01 X19.46076 Y22.54820
G01 X19.46076 Y22.74378
G01 X19.48159 Y22.76460
G01 X19.46076 Y22.74378
G01 X17.91520 Y22.74378
G01 X17.89437 Y22.76460
G01 X17.91520 Y22.74378
G01 X17.91520 Y22.54820
G01 X17.89437 Y22.52737
G01 X17.83869 Y22.50022
G01 X17.77298 Y22.49897
G01 X17.77499 Y22.47850
G01 X17.78010 Y22.46166
G01 X17.78840 Y22.44614
G01 X17.79955 Y22.43255
G01 X17.81314 Y22.42140
G01 X17.82869 Y22.41309
G01 X17.84547 Y22.40801
G01 X17.86595 Y22.40598
G01 X19.51001 Y22.40598
G01 X19.53049 Y22.40801
G01 X19.54730 Y22.41309
G01 X19.56284 Y22.42140
G01 X19.57641 Y22.43255
G01 X19.58758 Y22.44614
G01 X19.59586 Y22.46168
G01 X19.60097 Y22.47847
G01 X19.60298 Y22.49895
G01 X19.60298 Y22.79303
G01 X19.60097 Y22.81350
G01 X19.59586 Y22.83031
G01 X19.58756 Y22.84586
G01 X19.57641 Y22.85942
G01 X19.56282 Y22.87057
G01 X19.54733 Y22.87888
G01 X19.53049 Y22.88398
G01 X19.50999 Y22.88599
G01 X17.86597 Y22.88599
G01 X17.84547 Y22.88398
G01 X17.82866 Y22.87888
G01 X17.81317 Y22.87057
G01 X17.79955 Y22.85942
G01 X17.78840 Y22.84583
G01 X17.78010 Y22.83031
G01 X17.77499 Y22.81347
G01 X17.77298 Y22.79300
G01 X17.77298 Y22.49897
G01 X17.83869 Y22.50022
G01 X17.84410 Y22.50245
G01 X17.84509 Y22.49244
G01 X17.84611 Y22.48901
G01 X17.84781 Y22.48584
G01 X17.85010 Y22.48307
G01 X17.85284 Y22.48081
G01 X17.85602 Y22.47911
G01 X17.85942 Y22.47809
G01 X17.86940 Y22.47710
G01 X17.86714 Y22.47167
G01 X17.86940 Y22.47710
G01 X19.50658 Y22.47710
G01 X19.51654 Y22.47809
G01 X19.52142 Y22.46923
G01 X19.51654 Y22.47809
G01 X19.51997 Y22.47911
G01 X19.52314 Y22.48081
G01 X19.52589 Y22.48307
G01 X19.52817 Y22.48584
G01 X19.52985 Y22.48901
G01 X19.53089 Y22.49244
G01 X19.53188 Y22.50245
G01 X19.53470 Y22.50164
G01 X19.53188 Y22.50245
G01 X19.53188 Y22.78952
G01 X19.53089 Y22.79953
G01 X19.53968 Y22.80441
G01 X19.53089 Y22.79953
G01 X19.52985 Y22.80298
G01 X19.52817 Y22.80613
G01 X19.52589 Y22.80890
G01 X19.52314 Y22.81116
G01 X19.51997 Y22.81286
G01 X19.51657 Y22.81388
G01 X19.50651 Y22.81487
G01 X19.50732 Y22.81766
G01 X19.50651 Y22.81487
G01 X17.86945 Y22.81487
G01 X17.85942 Y22.81388
G01 X17.85452 Y22.82274
G01 X17.85942 Y22.81388
G01 X17.85602 Y22.81286
G01 X17.85284 Y22.81116
G01 X17.85010 Y22.80890
G01 X17.84781 Y22.80613
G01 X17.84611 Y22.80298
G01 X17.84509 Y22.79953
G01 X17.84410 Y22.78952
G01 X17.84131 Y22.79033
G01 X17.84410 Y22.78952
G01 X17.84410 Y22.50245
G04 P0 ( dwell for no time -- G64 should not smooth over this point )
G00 Z2.00000 ( retract )

G00 X17.98632 Y21.34932 ( rapid move to begin. )
G01 F40.00000
( Mill infeed pass 1/1 )
G01 Z-0.1280
G04 P0 ( dwell for no time -- G64 should not smooth over this point )
G01 F100.00000
G01 X17.98632 Y21.34932
G01 X17.98632 Y21.40266
G01 X17.96549 Y21.42348
G01 X17.98632 Y21.40266
G01 X19.38967 Y21.40266
G01 X19.41050 Y21.42348
G01 X19.38967 Y21.40266
G01 X19.38967 Y21.34932
G01 X19.41050 Y21.32849
G01 X19.38967 Y21.34932
G01 X17.98632 Y21.34932
G01 X17.91520 Y21.27820
G01 X19.46076 Y21.27820
G01 X19.48159 Y21.25737
G01 X19.46076 Y21.27820
G01 X19.46076 Y21.47378
G01 X19.48159 Y21.49460
G01 X19.46076 Y21.47378
G01 X17.91520 Y21.47378
G01 X17.89437 Y21.49460
G01 X17.91520 Y21.47378
G01 X17.91520 Y21.27820
G01 X17.89437 Y21.25737
G01 X17.84128 Y21.23164
G01 X17.77298 Y21.22897
G01 X17.77499 Y21.20850
G01 X17.78010 Y21.19166
G01 X17.78840 Y21.17614
G01 X17.79955 Y21.16255
G01 X17.81314 Y21.15140
G01 X17.82866 Y21.14309
G01 X17.84547 Y21.13801
G01 X17.86597 Y21.13598
G01 X19.50999 Y21.13598
G01 X19.53049 Y21.13801
G01 X19.54733 Y21.14309
G01 X19.56282 Y21.15140
G01 X19.57641 Y21.16255
G01 X19.58756 Y21.17614
G01 X19.59586 Y21.19168
G01 X19.60097 Y21.20847
G01 X19.60298 Y21.22895
G01 X19.60298 Y21.52303
G01 X19.60097 Y21.54350
G01 X19.59586 Y21.56031
G01 X19.58758 Y21.57583
G01 X19.57643 Y21.58942
G01 X19.56284 Y21.60057
G01 X19.54730 Y21.60888
G01 X19.53049 Y21.61398
G01 X19.51001 Y21.61599
G01 X17.86595 Y21.61599
G01 X17.84547 Y21.61398
G01 X17.82869 Y21.60888
G01 X17.81314 Y21.60057
G01 X17.79955 Y21.58942
G01 X17.78840 Y21.57583
G01 X17.78010 Y21.56031
G01 X17.77499 Y21.54347
G01 X17.77298 Y21.52300
G01 X17.77298 Y21.22897
G01 X17.84128 Y21.23164
G01 X17.84410 Y21.23245
G01 X17.84509 Y21.22244
G01 X17.84611 Y21.21901
G01 X17.84781 Y21.21584
G01 X17.85010 Y21.21307
G01 X17.85284 Y21.21081
G01 X17.85602 Y21.20911
G01 X17.85942 Y21.20809
G01 X17.85454 Y21.19923
G01 X17.85942 Y21.20809
G01 X17.86940 Y21.20710
G01 X19.50658 Y21.20710
G01 X19.50882 Y21.20167
G01 X19.50658 Y21.20710
G01 X19.51654 Y21.20809
G01 X19.51997 Y21.20911
G01 X19.52314 Y21.21081
G01 X19.52589 Y21.21307
G01 X19.52817 Y21.21584
G01 X19.52985 Y21.21901
G01 X19.53089 Y21.22244
G01 X19.53188 Y21.23245
G01 X19.53729 Y21.23022
G01 X19.53188 Y21.23245
G01 X19.53188 Y21.51952
G01 X19.53465 Y21.52033
G01 X19.53188 Y21.51952
G01 X19.53089 Y21.52953
G01 X19.52985 Y21.53298
G01 X19.52817 Y21.53613
G01 X19.52589 Y21.53890
G01 X19.52314 Y21.54116
G01 X19.51997 Y21.54286
G01 X19.51657 Y21.54388
G01 X19.52144 Y21.55274
G01 X19.51657 Y21.54388
G01 X19.50651 Y21.54487
G01 X17.86945 Y21.54487
G01 X17.86864 Y21.54766
G01 X17.86945 Y21.54487
G01 X17.85942 Y21.54388
G01 X17.85602 Y21.54286
G01 X17.85284 Y21.54116
G01 X17.85010 Y21.53890
G01 X17.84781 Y21.53613
G01 X17.84611 Y21.53298
G01 X17.84509 Y21.52953
G01 X17.83628 Y21.53441
G01 X17.84509 Y21.52953
G01 X17.84410 Y21.51952
G01 X17.84410 Y21.23245
G04 P0 ( dwell for no time -- G64 should not smooth over this point )
G00 Z2.00000 ( retract )

G00 X17.98632 Y20.07932 ( rapid move to begin. )
G01 F40.00000
( Mill infeed pass 1/1 )
G01 Z-0.1280
G04 P0 ( dwell for no time -- G64 should not smooth over this point )
G01 F100.00000
G01 X17.98632 Y20.07932
G01 X17.98632 Y20.13266
G01 X17.96549 Y20.15348
G01 X17.98632 Y20.13266
G01 X19.38967 Y20.13266
G01 X19.41050 Y20.15348
G01 X19.38967 Y20.13266
G01 X19.38967 Y20.07932
G01 X19.41050 Y20.05849
G01 X19.38967 Y20.07932
G01 X17.98632 Y20.07932
G01 X17.91520 Y20.00820
G01 X19.46076 Y20.00820
G01 X19.48159 Y19.98737
G01 X19.46076 Y20.00820
G01 X19.46076 Y20.20378
G01 X19.48159 Y20.22460
G01 X19.46076 Y20.20378
G01 X17.91520 Y20.20378
G01 X17.89437 Y20.22460
G01 X17.91520 Y20.20378
G01 X17.91520 Y20.00820
G01 X17.89437 Y19.98737
G01 X17.83869 Y19.96022
G01 X17.77298 Y19.95897
G01 X17.77499 Y19.93850
G01 X17.78010 Y19.92166
G01 X17.78840 Y19.90614
G01 X17.79955 Y19.89255
G01 X17.81314 Y19.88140
G01 X17.82866 Y19.87309
G01 X17.84547 Y19.86801
G01 X17.86595 Y19.86598
G01 X19.51001 Y19.86598
G01 X19.53049 Y19.86801
G01 X19.54733 Y19.87309
G01 X19.56282 Y19.88140
G01 X19.57641 Y19.89255
G01 X19.58758 Y19.90614
G01 X19.59586 Y19.92166
G01 X19.60097 Y19.93850
G01 X19.60298 Y19.95895
G01 X19.60298 Y20.25303
G01 X19.60097 Y20.27350
G01 X19.59586 Y20.29031
G01 X19.58756 Y20.30583
G01 X19.57643 Y20.31942
G01 X19.56284 Y20.33057
G01 X19.54730 Y20.33888
G01 X19.53049 Y20.34398
G01 X19.51001 Y20.34599
G01 X17.86597 Y20.34599
G01 X17.84550 Y20.34398
G01 X17.82869 Y20.33888
G01 X17.81314 Y20.33057
G01 X17.79955 Y20.31942
G01 X17.78840 Y20.30583
G01 X17.78010 Y20.29031
G01 X17.77499 Y20.27347
G01 X17.77298 Y20.25300
G01 X17.77298 Y19.95897
G01 X17.83869 Y19.96022
G01 X17.84410 Y19.96245
G01 X17.84509 Y19.95244
G01 X17.84611 Y19.94901
G01 X17.84781 Y19.94584
G01 X17.85010 Y19.94307
G01 X17.85284 Y19.94081
G01 X17.85602 Y19.93911
G01 X17.85942 Y19.93809
G01 X17.86940 Y19.93710
G01 X17.86714 Y19.93167
G01 X17.86940 Y19.93710
G01 X19.50658 Y19.93710
G01 X19.51654 Y19.93809
G01 X19.52142 Y19.92923
G01 X19.51654 Y19.93809
G01 X19.51997 Y19.93911
G01 X19.52314 Y19.94081
G01 X19.52589 Y19.94307
G01 X19.52817 Y19.94584
G01 X19.52985 Y19.94901
G01 X19.53089 Y19.95244
G01 X19.53188 Y19.96245
G01 X19.53470 Y19.96164
G01 X19.53188 Y19.96245
G01 X19.53188 Y20.24952
G01 X19.53089 Y20.25953
G01 X19.53968 Y20.26441
G01 X19.53089 Y20.25953
G01 X19.52985 Y20.26298
G01 X19.52817 Y20.26613
G01 X19.52589 Y20.26890
G01 X19.52314 Y20.27116
G01 X19.51997 Y20.27286
G01 X19.51657 Y20.27388
G01 X19.50651 Y20.27487
G01 X19.50732 Y20.27766
G01 X19.50651 Y20.27487
G01 X17.86945 Y20.27487
G01 X17.85942 Y20.27388
G01 X17.85452 Y20.28274
G01 X17.85942 Y20.27388
G01 X17.85602 Y20.27286
G01 X17.85284 Y20.27116
G01 X17.85010 Y20.26890
G01 X17.84781 Y20.26613
G01 X17.84611 Y20.26298
G01 X17.84509 Y20.25953
G01 X17.84410 Y20.24952
G01 X17.84131 Y20.25033
G01 X17.84410 Y20.24952
G01 X17.84410 Y19.96245
G04 P0 ( dwell for no time -- G64 should not smooth over this point )
G00 Z2.00000 ( retract )

G00 X13.03632 Y20.07932 ( rapid move to begin. )
G01 F40.00000
( Mill infeed pass 1/1 )
G01 Z-0.1280
G04 P0 ( dwell for no time -- G64 should not smooth over this point )
G01 F100.00000
G01 X13.03632 Y20.07932
G01 X13.03632 Y20.13266
G01 X13.01549 Y20.15348
G01 X13.03632 Y20.13266
G01 X14.43966 Y20.13266
G01 X14.46049 Y20.15348
G01 X14.43966 Y20.13266
G01 X14.43966 Y20.07932
G01 X14.46049 Y20.05849
G01 X14.43966 Y20.07932
G01 X13.03632 Y20.07932
G01 X12.96519 Y20.00820
G01 X14.51076 Y20.00820
G01 X14.53159 Y19.98737
G01 X14.51076 Y20.00820
G01 X14.51076 Y20.20378
G01 X14.53159 Y20.22460
G01 X14.51076 Y20.20378
G01 X12.96519 Y20.20378
G01 X12.94437 Y20.22460
G01 X12.96519 Y20.20378
G01 X12.96519 Y20.00820
G01 X12.94437 Y19.98737
G01 X12.88869 Y19.96022
G01 X12.82298 Y19.95892
G01 X12.82499 Y19.93850
G01 X12.83007 Y19.92166
G01 X12.83840 Y19.90614
G01 X12.84955 Y19.89255
G01 X12.86314 Y19.88140
G01 X12.87863 Y19.87309
G01 X12.89550 Y19.86801
G01 X12.91594 Y19.86598
G01 X14.56004 Y19.86598
G01 X14.58048 Y19.86801
G01 X14.59730 Y19.87309
G01 X14.61282 Y19.88140
G01 X14.62643 Y19.89255
G01 X14.63756 Y19.90614
G01 X14.64589 Y19.92168
G01 X14.65097 Y19.93850
G01 X14.65300 Y19.95895
G01 X14.65300 Y20.25303
G01 X14.65097 Y20.27350
G01 X14.64586 Y20.29031
G01 X14.63756 Y20.30586
G01 X14.62643 Y20.31942
G01 X14.61284 Y20.33057
G01 X14.59730 Y20.33888
G01 X14.58048 Y20.34398
G01 X14.56001 Y20.34599
G01 X12.91597 Y20.34599
G01 X12.89550 Y20.34398
G01 X12.87868 Y20.33888
G01 X12.86314 Y20.33057
G01 X12.84955 Y20.31942
G01 X12.83840 Y20.30583
G01 X12.83012 Y20.29031
G01 X12.82499 Y20.27347
G01 X12.82298 Y20.25305
G01 X12.82298 Y19.95892
G01 X12.88869 Y19.96022
G01 X12.89410 Y19.96245
G01 X12.89509 Y19.95244
G01 X12.89608 Y19.94901
G01 X12.89781 Y19.94584
G01 X12.90009 Y19.94307
G01 X12.90284 Y19.94081
G01 X12.90599 Y19.93911
G01 X12.90942 Y19.93809
G01 X12.91940 Y19.93710
G01 X12.91714 Y19.93167
G01 X12.91940 Y19.93710
G01 X14.55658 Y19.93710
G01 X14.56654 Y19.93809
G01 X14.57144 Y19.92923
G01 X14.56654 Y19.93809
G01 X14.56997 Y19.93911
G01 X14.57314 Y19.94081
G01 X14.57589 Y19.94307
G01 X14.57817 Y19.94584
G01 X14.57985 Y19.94901
G01 X14.58089 Y19.95244
G01 X14.58188 Y19.96245
G01 X14.58470 Y19.96164
G01 X14.58188 Y19.96245
G01 X14.58188 Y20.24952
G01 X14.58089 Y20.25953
G01 X14.58968 Y20.26441
G01 X14.58089 Y20.25953
G01 X14.57985 Y20.26298
G01 X14.57817 Y20.26613
G01 X14.57589 Y20.26890
G01 X14.57314 Y20.27116
G01 X14.56997 Y20.27286
G01 X14.56656 Y20.27388
G01 X14.55653 Y20.27487
G01 X14.55732 Y20.27766
G01 X14.55653 Y20.27487
G01 X12.91942 Y20.27487
G01 X12.90942 Y20.27388
G01 X12.90451 Y20.28274
G01 X12.90942 Y20.27388
G01 X12.90599 Y20.27286
G01 X12.90284 Y20.27116
G01 X12.90009 Y20.26890
G01 X12.89781 Y20.26613
G01 X12.89613 Y20.26298
G01 X12.89509 Y20.25953
G01 X12.89410 Y20.24952
G01 X12.89128 Y20.25033
G01 X12.89410 Y20.24952
G01 X12.89410 Y19.96245
G04 P0 ( dwell for no time -- G64 should not smooth over this point )
G00 Z2.00000 ( retract )

G00 X12.89410 Y21.23245 ( rapid move to begin. )
G01 F40.00000
( Mill infeed pass 1/1 )
G01 Z-0.1280
G04 P0 ( dwell for no time -- G64 should not smooth over this point )
G01 F100.00000
G01 X12.89410 Y21.23245
G01 X12.89410 Y21.51952
G01 X12.89128 Y21.52033
G01 X12.89410 Y21.51952
G01 X12.89509 Y21.52953
G01 X12.89613 Y21.53298
G01 X12.89781 Y21.53613
G01 X12.90009 Y21.53890
G01 X12.90284 Y21.54116
G01 X12.90599 Y21.54286
G01 X12.90942 Y21.54388
G01 X12.90451 Y21.55274
G01 X12.90942 Y21.54388
G01 X12.91942 Y21.54487
G01 X14.55653 Y21.54487
G01 X14.55732 Y21.54766
G01 X14.55653 Y21.54487
G01 X14.56656 Y21.54388
G01 X14.56997 Y21.54286
G01 X14.57314 Y21.54116
G01 X14.57589 Y21.53890
G01 X14.57817 Y21.53613
G01 X14.57985 Y21.53298
G01 X14.58089 Y21.52953
G01 X14.58968 Y21.53441
G01 X14.58089 Y21.52953
G01 X14.58188 Y21.51952
G01 X14.58188 Y21.23245
G01 X14.58470 Y21.23164
G01 X14.58188 Y21.23245
G01 X14.58089 Y21.22244
G01 X14.57985 Y21.21901
G01 X14.57817 Y21.21584
G01 X14.57589 Y21.21307
G01 X14.57314 Y21.21081
G01 X14.56997 Y21.20911
G01 X14.56654 Y21.20809
G01 X14.57144 Y21.19923
G01 X14.56654 Y21.20809
G01 X14.55658 Y21.20710
G01 X12.91940 Y21.20710
G01 X12.91714 Y21.20167
G01 X12.91940 Y21.20710
G01 X12.90942 Y21.20809
G01 X12.90599 Y21.20911
G01 X12.90284 Y21.21081
G01 X12.90009 Y21.21307
G01 X12.89781 Y21.21584
G01 X12.89608 Y21.21901
G01 X12.89509 Y21.22244
G01 X12.89410 Y21.23245
G01 X12.88869 Y21.23022
G01 X12.82298 Y21.22892
G01 X12.82298 Y21.52305
G01 X12.82499 Y21.54347
G01 X12.83007 Y21.56031
G01 X12.83840 Y21.57583
G01 X12.84955 Y21.58942
G01 X12.86314 Y21.60057
G01 X12.87863 Y21.60888
G01 X12.89550 Y21.61398
G01 X12.91594 Y21.61599
G01 X14.56004 Y21.61599
G01 X14.58048 Y21.61398
G01 X14.59730 Y21.60888
G01 X14.61284 Y21.60057
G01 X14.62643 Y21.58942
G01 X14.63756 Y21.57583
G01 X14.64589 Y21.56029
G01 X14.65097 Y21.54350
G01 X14.65300 Y21.52303
G01 X14.65300 Y21.22895
G01 X14.65097 Y21.20847
G01 X14.64589 Y21.19168
G01 X14.63756 Y21.17614
G01 X14.62643 Y21.16255
G01 X14.61282 Y21.15140
G01 X14.59732 Y21.14309
G01 X14.58048 Y21.13801
G01 X14.55998 Y21.13598
G01 X12.91597 Y21.13598
G01 X12.89550 Y21.13801
G01 X12.87863 Y21.14312
G01 X12.86314 Y21.15140
G01 X12.84955 Y21.16255
G01 X12.83840 Y21.17614
G01 X12.83007 Y21.19166
G01 X12.82499 Y21.20850
G01 X12.82298 Y21.22892
G01 X12.88869 Y21.23022
G01 X12.94437 Y21.25737
G01 X12.96519 Y21.27820
G01 X12.96519 Y21.47378
G01 X12.94437 Y21.49460
G01 X12.96519 Y21.47378
G01 X14.51076 Y21.47378
G01 X14.53159 Y21.49460
G01 X14.51076 Y21.47378
G01 X14.51076 Y21.27820
G01 X14.53159 Y21.25737
G01 X14.51076 Y21.27820
G01 X12.96519 Y21.27820
G01 X13.03632 Y21.34932
G01 X14.43966 Y21.34932
G01 X14.46049 Y21.32849
G01 X14.43966 Y21.34932
G01 X14.43966 Y21.40266
G01 X14.46049 Y21.42348
G01 X14.43966 Y21.40266
G01 X13.03632 Y21.40266
G01 X13.01549 Y21.42348
G01 X13.03632 Y21.40266
G01 X13.03632 Y21.34932
G04 P0 ( dwell for no time -- G64 should not smooth over this point )
G00 Z2.00000 ( retract )

G00 X12.89410 Y22.50245 ( rapid move to begin. )
G01 F40.00000
( Mill infeed pass 1/1 )
G01 Z-0.1280
G04 P0 ( dwell for no time -- G64 should not smooth over this point )
G01 F100.00000
G01 X12.89410 Y22.50245
G01 X12.89410 Y22.78952
G01 X12.89128 Y22.79033
G01 X12.89410 Y22.78952
G01 X12.89509 Y22.79953
G01 X12.89613 Y22.80298
G01 X12.89781 Y22.80613
G01 X12.90009 Y22.80890
G01 X12.90284 Y22.81116
G01 X12.90599 Y22.81286
G01 X12.90942 Y22.81388
G01 X12.90451 Y22.82274
G01 X12.90942 Y22.81388
G01 X12.91942 Y22.81487
G01 X14.55653 Y22.81487
G01 X14.55732 Y22.81766
G01 X14.55653 Y22.81487
G01 X14.56656 Y22.81388
G01 X14.56997 Y22.81286
G01 X14.57314 Y22.81116
G01 X14.57589 Y22.80890
G01 X14.57817 Y22.80613
G01 X14.57985 Y22.80298
G01 X14.58089 Y22.79953
G01 X14.58968 Y22.80441
G01 X14.58089 Y22.79953
G01 X14.58188 Y22.78952
G01 X14.58188 Y22.50245
G01 X14.58470 Y22.50164
G01 X14.58188 Y22.50245
G01 X14.58089 Y22.49244
G01 X14.57985 Y22.48901
G01 X14.57817 Y22.48584
G01 X14.57589 Y22.48307
G01 X14.57314 Y22.48081
G01 X14.56997 Y22.47911
G01 X14.56654 Y22.47809
G01 X14.57144 Y22.46923
G01 X14.56654 Y22.47809
G01 X14.55658 Y22.47710
G01 X12.91940 Y22.47710
G01 X12.91714 Y22.47167
G01 X12.91940 Y22.47710
G01 X12.90942 Y22.47809
G01 X12.90599 Y22.47911
G01 X12.90284 Y22.48081
G01 X12.90009 Y22.48307
G01 X12.89781 Y22.48584
G01 X12.89608 Y22.48901
G01 X12.89509 Y22.49244
G01 X12.89410 Y22.50245
G01 X12.88869 Y22.50022
G01 X12.82298 Y22.49892
G01 X12.82298 Y22.79305
G01 X12.82499 Y22.81347
G01 X12.83007 Y22.83031
G01 X12.83840 Y22.84583
G01 X12.84955 Y22.85940
G01 X12.86314 Y22.87060
G01 X12.87863 Y22.87888
G01 X12.89550 Y22.88398
G01 X12.91597 Y22.88599
G01 X14.55998 Y22.88599
G01 X14.58048 Y22.88398
G01 X14.59730 Y22.87888
G01 X14.61282 Y22.87057
G01 X14.62643 Y22.85942
G01 X14.63756 Y22.84586
G01 X14.64589 Y22.83029
G01 X14.65097 Y22.81350
G01 X14.65300 Y22.79303
G01 X14.65300 Y22.49895
G01 X14.65097 Y22.47847
G01 X14.64589 Y22.46168
G01 X14.63756 Y22.44614
G01 X14.62643 Y22.43255
G01 X14.61284 Y22.42140
G01 X14.59730 Y22.41309
G01 X14.58048 Y22.40801
G01 X14.56004 Y22.40598
G01 X12.91594 Y22.40598
G01 X12.89550 Y22.40801
G01 X12.87863 Y22.41309
G01 X12.86314 Y22.42140
G01 X12.84955 Y22.43255
G01 X12.83840 Y22.44614
G01 X12.83007 Y22.46166
G01 X12.82499 Y22.47850
G01 X12.82298 Y22.49892
G01 X12.88869 Y22.50022
G01 X12.94437 Y22.52737
G01 X12.96519 Y22.54820
G01 X12.96519 Y22.74378
G01 X12.94437 Y22.76460
G01 X12.96519 Y22.74378
G01 X14.51076 Y22.74378
G01 X14.53159 Y22.76460
G01 X14.51076 Y22.74378
G01 X14.51076 Y22.54820
G01 X14.53159 Y22.52737
G01 X14.51076 Y22.54820
G01 X12.96519 Y22.54820
G01 X13.03632 Y22.61932
G01 X14.43966 Y22.61932
G01 X14.46049 Y22.59849
G01 X14.43966 Y22.61932
G01 X14.43966 Y22.67266
G01 X14.46049 Y22.69348
G01 X14.43966 Y22.67266
G01 X13.03632 Y22.67266
G01 X13.01549 Y22.69348
G01 X13.03632 Y22.67266
G01 X13.03632 Y22.61932
G04 P0 ( dwell for no time -- G64 should not smooth over this point )
G00 Z2.00000 ( retract )

G00 X13.03632 Y23.88932 ( rapid move to begin. )
G01 F40.00000
( Mill infeed pass 1/1 )
G01 Z-0.1280
G04 P0 ( dwell for no time -- G64 should not smooth over this point )
G01 F100.00000
G01 X13.03632 Y23.88932
G01 X13.03632 Y23.94266
G01 X13.01549 Y23.96348
G01 X13.03632 Y23.94266
G01 X14.43966 Y23.94266
G01 X14.46049 Y23.96348
G01 X14.43966 Y23.94266
G01 X14.43966 Y23.88932
G01 X14.46049 Y23.86849
G01 X14.43966 Y23.88932
G01 X13.03632 Y23.88932
G01 X12.96519 Y23.81820
G01 X14.51076 Y23.81820
G01 X14.53159 Y23.79737
G01 X14.51076 Y23.81820
G01 X14.51076 Y24.01378
G01 X14.53159 Y24.03460
G01 X14.51076 Y24.01378
G01 X12.96519 Y24.01378
G01 X12.94437 Y24.03460
G01 X12.96519 Y24.01378
G01 X12.96519 Y23.81820
G01 X12.94437 Y23.79737
G01 X12.88869 Y23.77022
G01 X12.82298 Y23.76892
G01 X12.82499 Y23.74850
G01 X12.83012 Y23.73166
G01 X12.83840 Y23.71614
G01 X12.84955 Y23.70255
G01 X12.86314 Y23.69140
G01 X12.87868 Y23.68309
G01 X12.89550 Y23.67799
G01 X12.91594 Y23.67598
G01 X14.56004 Y23.67598
G01 X14.58048 Y23.67801
G01 X14.59730 Y23.68309
G01 X14.61284 Y23.69140
G01 X14.62643 Y23.70255
G01 X14.63756 Y23.71611
G01 X14.64586 Y23.73166
G01 X14.65097 Y23.74850
G01 X14.65300 Y23.76895
G01 X14.65300 Y24.06303
G01 X14.65097 Y24.08350
G01 X14.64589 Y24.10029
G01 X14.63756 Y24.11583
G01 X14.62643 Y24.12942
G01 X14.61282 Y24.14057
G01 X14.59730 Y24.14888
G01 X14.58048 Y24.15398
G01 X14.56004 Y24.15599
G01 X12.91594 Y24.15599
G01 X12.89550 Y24.15398
G01 X12.87863 Y24.14888
G01 X12.86314 Y24.14057
G01 X12.84955 Y24.12942
G01 X12.83840 Y24.11583
G01 X12.83007 Y24.10031
G01 X12.82499 Y24.08347
G01 X12.82298 Y24.06305
G01 X12.82298 Y23.76892
G01 X12.88869 Y23.77022
G01 X12.89410 Y23.77245
G01 X12.89509 Y23.76244
G01 X12.89608 Y23.75901
G01 X12.89781 Y23.75584
G01 X12.90009 Y23.75307
G01 X12.90284 Y23.75081
G01 X12.90599 Y23.74911
G01 X12.90942 Y23.74809
G01 X12.91940 Y23.74710
G01 X12.91714 Y23.74167
G01 X12.91940 Y23.74710
G01 X14.55658 Y23.74710
G01 X14.56654 Y23.74809
G01 X14.57144 Y23.73923
G01 X14.56654 Y23.74809
G01 X14.56997 Y23.74911
G01 X14.57314 Y23.75081
G01 X14.57589 Y23.75307
G01 X14.57817 Y23.75584
G01 X14.57985 Y23.75901
G01 X14.58089 Y23.76244
G01 X14.58188 Y23.77245
G01 X14.58470 Y23.77164
G01 X14.58188 Y23.77245
G01 X14.58188 Y24.05952
G01 X14.58089 Y24.06953
G01 X14.58968 Y24.07441
G01 X14.58089 Y24.06953
G01 X14.57985 Y24.07298
G01 X14.57817 Y24.07613
G01 X14.57589 Y24.07890
G01 X14.57314 Y24.08116
G01 X14.56997 Y24.08286
G01 X14.56656 Y24.08388
G01 X14.55653 Y24.08487
G01 X14.55732 Y24.08766
G01 X14.55653 Y24.08487
G01 X12.91942 Y24.08487
G01 X12.90942 Y24.08388
G01 X12.90451 Y24.09274
G01 X12.90942 Y24.08388
G01 X12.90599 Y24.08286
G01 X12.90284 Y24.08116
G01 X12.90009 Y24.07890
G01 X12.89781 Y24.07613
G01 X12.89613 Y24.07298
G01 X12.89509 Y24.06953
G01 X12.89410 Y24.05952
G01 X12.89128 Y24.06033
G01 X12.89410 Y24.05952
G01 X12.89410 Y23.77245
G04 P0 ( dwell for no time -- G64 should not smooth over this point )
G00 Z2.00000 ( retract )
