( pcb2gcode 2.1.0 )
( Software-independent Gcode )

G94 ( Millimeters per minute feed rate. )
G21 ( Units == Millimeters. )

G90 ( Absolute coordinates. )
G00 S10000 ( RPM spindle speed. )
G64 P0.01016 ( set maximum deviation from commanded toolpath )
G01 F100.00000 ( Feedrate. )


G00 Z10.00000 (Retract to tool change height)
T0
M5      (Spindle stop.)
G04 P1.00000 (Wait for spindle to stop)
(MSG, Change tool bit to mill diameter 0.12000mm)
M6      (Tool change.)
M0      (Temporary machine stop.)
M3 ( Spindle on clockwise. )
G04 P1.00000 (Wait for spindle to get up to speed)
G04 P0 ( dwell for no time -- G64 should not smooth over this point )
G00 Z2.00000 ( retract )


G00 X11.87820 Y4.29891 ( rapid move to begin. )
G01 F40.00000
( Mill infeed pass 1/1 )
G01 Z-0.1280
G04 P0 ( dwell for no time -- G64 should not smooth over this point )
G01 F100.00000
G01 X11.87820 Y4.29891
G01 X11.87820 Y5.17907
G01 X11.87724 Y5.17922
G01 X11.87820 Y5.17907
G01 X11.88008 Y5.19812
G01 X11.88275 Y5.20690
G01 X11.88707 Y5.21498
G01 X11.89288 Y5.22209
G01 X11.88717 Y5.22781
G01 X11.89288 Y5.22209
G01 X11.89997 Y5.22791
G01 X11.90810 Y5.23223
G01 X11.91686 Y5.23490
G01 X11.93591 Y5.23678
G01 X11.93576 Y5.23771
G01 X11.93591 Y5.23678
G01 X12.61607 Y5.23678
G01 X12.61622 Y5.23771
G01 X12.61607 Y5.23678
G01 X12.63512 Y5.23490
G01 X12.64388 Y5.23223
G01 X12.65199 Y5.22791
G01 X12.65907 Y5.22209
G01 X12.66481 Y5.22783
G01 X12.65907 Y5.22209
G01 X12.66492 Y5.21498
G01 X12.66923 Y5.20690
G01 X12.67190 Y5.19814
G01 X12.67376 Y5.17907
G01 X12.67472 Y5.17922
G01 X12.67376 Y5.17907
G01 X12.67376 Y4.29891
G01 X12.67472 Y4.29875
G01 X12.67376 Y4.29891
G01 X12.67190 Y4.27983
G01 X12.66923 Y4.27109
G01 X12.66492 Y4.26299
G01 X12.65907 Y4.25588
G01 X12.66481 Y4.25014
G01 X12.65907 Y4.25588
G01 X12.65199 Y4.25006
G01 X12.64388 Y4.24574
G01 X12.63512 Y4.24308
G01 X12.61607 Y4.24120
G01 X12.61622 Y4.24026
G01 X12.61607 Y4.24120
G01 X11.93591 Y4.24120
G01 X11.93576 Y4.24026
G01 X11.93591 Y4.24120
G01 X11.91686 Y4.24308
G01 X11.90810 Y4.24574
G01 X11.89997 Y4.25009
G01 X11.89288 Y4.25590
G01 X11.88717 Y4.25016
G01 X11.89288 Y4.25590
G01 X11.88707 Y4.26299
G01 X11.88275 Y4.27107
G01 X11.88008 Y4.27986
G01 X11.87820 Y4.29891
G01 X11.87724 Y4.29875
G01 X11.80711 Y4.29520
G01 X11.73599 Y4.29197
G01 X11.73599 Y5.18600
G01 X11.73992 Y5.22601
G01 X11.75072 Y5.26157
G01 X11.76825 Y5.29438
G01 X11.79184 Y5.32314
G01 X11.82059 Y5.34673
G01 X11.85341 Y5.36426
G01 X11.88897 Y5.37505
G01 X11.92898 Y5.37899
G01 X12.62301 Y5.37899
G01 X12.66299 Y5.37505
G01 X12.69857 Y5.36426
G01 X12.73139 Y5.34673
G01 X12.76014 Y5.32314
G01 X12.78374 Y5.29438
G01 X12.80124 Y5.26157
G01 X12.81203 Y5.22601
G01 X12.81600 Y5.18600
G01 X12.81600 Y4.29197
G01 X12.81203 Y4.25199
G01 X12.80124 Y4.21641
G01 X12.78374 Y4.18359
G01 X12.76014 Y4.15484
G01 X12.73136 Y4.13124
G01 X12.69857 Y4.11371
G01 X12.66299 Y4.10292
G01 X12.62303 Y4.09898
G01 X11.92895 Y4.09898
G01 X11.88897 Y4.10292
G01 X11.85341 Y4.11371
G01 X11.82059 Y4.13124
G01 X11.79184 Y4.15484
G01 X11.76827 Y4.18356
G01 X11.75072 Y4.21641
G01 X11.73992 Y4.25197
G01 X11.73599 Y4.29197
G01 X11.80586 Y4.29515
G01 X11.80711 Y4.29540
G01 X11.81000 Y4.26591
G01 X11.81673 Y4.24374
G01 X11.82766 Y4.22329
G01 X11.84236 Y4.20536
G01 X11.83777 Y4.20079
G01 X11.84236 Y4.20536
G01 X11.86027 Y4.19068
G01 X11.88074 Y4.17973
G01 X11.90292 Y4.17300
G01 X11.93238 Y4.17010
G01 X11.93215 Y4.16886
G01 X11.93238 Y4.17010
G01 X12.61958 Y4.17010
G01 X12.61983 Y4.16886
G01 X12.61958 Y4.17010
G01 X12.64907 Y4.17300
G01 X12.67124 Y4.17973
G01 X12.69169 Y4.19068
G01 X12.70959 Y4.20536
G01 X12.71417 Y4.20079
G01 X12.70959 Y4.20536
G01 X12.72428 Y4.22329
G01 X12.73525 Y4.24374
G01 X12.74198 Y4.26591
G01 X12.74485 Y4.29540
G01 X12.74612 Y4.29515
G01 X12.74485 Y4.29540
G01 X12.74485 Y5.18257
G01 X12.74612 Y5.18280
G01 X12.74485 Y5.18257
G01 X12.74198 Y5.21206
G01 X12.73525 Y5.23424
G01 X12.72428 Y5.25468
G01 X12.70959 Y5.27261
G01 X12.71417 Y5.27721
G01 X12.70959 Y5.27261
G01 X12.69169 Y5.28732
G01 X12.67124 Y5.29824
G01 X12.64904 Y5.30497
G01 X12.61953 Y5.30787
G01 X12.61978 Y5.30914
G01 X12.61953 Y5.30787
G01 X11.93243 Y5.30787
G01 X11.90292 Y5.30497
G01 X11.90200 Y5.30800
G01 X11.90292 Y5.30497
G01 X11.88074 Y5.29824
G01 X11.86029 Y5.28732
G01 X11.84236 Y5.27261
G01 X11.82766 Y5.25468
G01 X11.82390 Y5.25743
G01 X11.82766 Y5.25468
G01 X11.81673 Y5.23424
G01 X11.81000 Y5.21206
G01 X11.80711 Y5.18257
G01 X11.80642 Y5.18267
G01 X11.80711 Y5.18257
G01 X11.80711 Y4.29540
G01 X11.80586 Y4.29515
G01 X11.87724 Y4.29875
G01 X11.92849 Y4.29149
G01 X11.94932 Y4.31232
G01 X11.94932 Y5.16566
G01 X11.92849 Y5.18648
G01 X11.94932 Y5.16566
G01 X12.60266 Y5.16566
G01 X12.62349 Y5.18648
G01 X12.60266 Y5.16566
G01 X12.60266 Y4.31232
G01 X12.62349 Y4.29149
G01 X12.60266 Y4.31232
G01 X11.94932 Y4.31232
G01 X12.02042 Y4.38344
G01 X12.02042 Y5.09456
G01 X11.99959 Y5.11539
G01 X12.02042 Y5.09456
G01 X12.53154 Y5.09456
G01 X12.55237 Y5.11539
G01 X12.53154 Y5.09456
G01 X12.53154 Y4.38344
G01 X12.55237 Y4.36261
G01 X12.53154 Y4.38344
G01 X12.02042 Y4.38344
G01 X12.09154 Y4.45453
G01 X12.09154 Y5.02344
G01 X12.07071 Y5.04427
G01 X12.09154 Y5.02344
G01 X12.46045 Y5.02344
G01 X12.48127 Y5.04427
G01 X12.46045 Y5.02344
G01 X12.46045 Y4.45453
G01 X12.48127 Y4.43370
G01 X12.46045 Y4.45453
G01 X12.09154 Y4.45453
G01 X12.16266 Y4.52565
G01 X12.16266 Y4.95232
G01 X12.14183 Y4.97315
G01 X12.16266 Y4.95232
G01 X12.38933 Y4.95232
G01 X12.41015 Y4.97315
G01 X12.38933 Y4.95232
G01 X12.38933 Y4.52565
G01 X12.41015 Y4.50482
G01 X12.38933 Y4.52565
G01 X12.16266 Y4.52565
G01 X12.23375 Y4.59675
G01 X12.23375 Y4.88123
G01 X12.21292 Y4.90205
G01 X12.23375 Y4.88123
G01 X12.31823 Y4.88123
G01 X12.33906 Y4.90205
G01 X12.31823 Y4.88123
G01 X12.31823 Y4.59675
G01 X12.33906 Y4.57592
G01 X12.31823 Y4.59675
G01 X12.23375 Y4.59675
G04 P0 ( dwell for no time -- G64 should not smooth over this point )
G00 Z2.00000 ( retract )

G00 X13.87820 Y4.29891 ( rapid move to begin. )
G01 F40.00000
( Mill infeed pass 1/1 )
G01 Z-0.1280
G04 P0 ( dwell for no time -- G64 should not smooth over this point )
G01 F100.00000
G01 X13.87820 Y4.29891
G01 X13.87820 Y5.17907
G01 X13.87726 Y5.17922
G01 X13.87820 Y5.17907
G01 X13.88008 Y5.19814
G01 X13.88274 Y5.20690
G01 X13.88706 Y5.21498
G01 X13.89290 Y5.22209
G01 X13.88716 Y5.22781
G01 X13.89290 Y5.22209
G01 X13.89999 Y5.22791
G01 X13.90809 Y5.23223
G01 X13.91686 Y5.23490
G01 X13.93591 Y5.23678
G01 X13.93575 Y5.23771
G01 X13.93591 Y5.23678
G01 X14.61607 Y5.23678
G01 X14.61622 Y5.23771
G01 X14.61607 Y5.23678
G01 X14.63512 Y5.23490
G01 X14.64388 Y5.23223
G01 X14.65198 Y5.22791
G01 X14.65907 Y5.22209
G01 X14.66481 Y5.22781
G01 X14.65907 Y5.22209
G01 X14.66491 Y5.21498
G01 X14.66923 Y5.20690
G01 X14.67190 Y5.19812
G01 X14.67378 Y5.17907
G01 X14.67472 Y5.17922
G01 X14.67378 Y5.17907
G01 X14.67378 Y4.29891
G01 X14.67472 Y4.29875
G01 X14.67378 Y4.29891
G01 X14.67190 Y4.27986
G01 X14.66923 Y4.27107
G01 X14.66491 Y4.26299
G01 X14.65907 Y4.25590
G01 X14.66481 Y4.25016
G01 X14.65907 Y4.25590
G01 X14.65198 Y4.25009
G01 X14.64388 Y4.24574
G01 X14.63512 Y4.24308
G01 X14.61607 Y4.24120
G01 X14.61622 Y4.24026
G01 X14.61607 Y4.24120
G01 X13.93591 Y4.24120
G01 X13.93575 Y4.24026
G01 X13.93591 Y4.24120
G01 X13.91686 Y4.24308
G01 X13.90809 Y4.24574
G01 X13.89999 Y4.25006
G01 X13.89290 Y4.25588
G01 X13.88716 Y4.25016
G01 X13.89290 Y4.25588
G01 X13.88706 Y4.26299
G01 X13.88274 Y4.27109
G01 X13.88008 Y4.27983
G01 X13.87820 Y4.29891
G01 X13.87726 Y4.29875
G01 X13.80710 Y4.29525
G01 X13.73598 Y4.29195
G01 X13.73598 Y5.18603
G01 X13.73992 Y5.22601
G01 X13.75072 Y5.26159
G01 X13.76824 Y5.29438
G01 X13.79184 Y5.32314
G01 X13.82059 Y5.34673
G01 X13.85341 Y5.36426
G01 X13.88899 Y5.37505
G01 X13.92897 Y5.37899
G01 X14.62300 Y5.37899
G01 X14.66298 Y5.37505
G01 X14.69857 Y5.36426
G01 X14.73138 Y5.34673
G01 X14.76014 Y5.32314
G01 X14.78371 Y5.29441
G01 X14.80126 Y5.26157
G01 X14.81205 Y5.22598
G01 X14.81599 Y5.18603
G01 X14.81599 Y4.29195
G01 X14.81205 Y4.25199
G01 X14.80126 Y4.21641
G01 X14.78371 Y4.18359
G01 X14.76014 Y4.15484
G01 X14.73138 Y4.13124
G01 X14.69857 Y4.11371
G01 X14.66298 Y4.10292
G01 X14.62303 Y4.09898
G01 X13.92895 Y4.09898
G01 X13.88899 Y4.10292
G01 X13.85338 Y4.11371
G01 X13.82059 Y4.13124
G01 X13.79184 Y4.15484
G01 X13.76824 Y4.18359
G01 X13.75072 Y4.21641
G01 X13.73992 Y4.25197
G01 X13.73598 Y4.29195
G01 X13.80586 Y4.29520
G01 X13.80710 Y4.29545
G01 X13.81000 Y4.26594
G01 X13.81673 Y4.24371
G01 X13.82765 Y4.22329
G01 X13.84236 Y4.20536
G01 X13.83776 Y4.20079
G01 X13.84236 Y4.20536
G01 X13.86029 Y4.19068
G01 X13.88074 Y4.17973
G01 X13.90291 Y4.17300
G01 X13.93240 Y4.17010
G01 X13.93217 Y4.16886
G01 X13.93240 Y4.17010
G01 X14.61957 Y4.17010
G01 X14.61980 Y4.16886
G01 X14.61957 Y4.17010
G01 X14.64906 Y4.17300
G01 X14.67124 Y4.17973
G01 X14.69168 Y4.19065
G01 X14.70962 Y4.20536
G01 X14.71421 Y4.20079
G01 X14.70962 Y4.20536
G01 X14.72432 Y4.22329
G01 X14.73524 Y4.24374
G01 X14.74198 Y4.26594
G01 X14.74487 Y4.29545
G01 X14.74612 Y4.29520
G01 X14.74487 Y4.29545
G01 X14.74487 Y5.18252
G01 X14.74612 Y5.18275
G01 X14.74487 Y5.18252
G01 X14.74198 Y5.21206
G01 X14.73524 Y5.23426
G01 X14.72432 Y5.25468
G01 X14.70962 Y5.27261
G01 X14.71421 Y5.27721
G01 X14.70962 Y5.27261
G01 X14.69168 Y5.28732
G01 X14.67124 Y5.29824
G01 X14.64906 Y5.30497
G01 X14.61952 Y5.30787
G01 X14.61975 Y5.30914
G01 X14.61952 Y5.30787
G01 X13.93245 Y5.30787
G01 X13.90291 Y5.30497
G01 X13.90200 Y5.30800
G01 X13.90291 Y5.30497
G01 X13.88074 Y5.29824
G01 X13.86029 Y5.28732
G01 X13.84236 Y5.27261
G01 X13.82765 Y5.25468
G01 X13.82389 Y5.25743
G01 X13.82765 Y5.25468
G01 X13.81673 Y5.23426
G01 X13.81000 Y5.21204
G01 X13.80710 Y5.18252
G01 X13.80642 Y5.18262
G01 X13.80710 Y5.18252
G01 X13.80710 Y4.29545
G01 X13.80586 Y4.29520
G01 X13.87726 Y4.29875
G01 X13.92849 Y4.29149
G01 X13.94932 Y4.31232
G01 X13.94932 Y5.16566
G01 X13.92849 Y5.18648
G01 X13.94932 Y5.16566
G01 X14.60266 Y5.16566
G01 X14.62348 Y5.18648
G01 X14.60266 Y5.16566
G01 X14.60266 Y4.31232
G01 X14.62348 Y4.29149
G01 X14.60266 Y4.31232
G01 X13.94932 Y4.31232
G01 X14.02041 Y4.38344
G01 X14.02041 Y5.09456
G01 X13.99958 Y5.11539
G01 X14.02041 Y5.09456
G01 X14.53156 Y5.09456
G01 X14.55239 Y5.11539
G01 X14.53156 Y5.09456
G01 X14.53156 Y4.38344
G01 X14.55239 Y4.36261
G01 X14.53156 Y4.38344
G01 X14.02041 Y4.38344
G01 X14.09153 Y4.45453
G01 X14.09153 Y5.02344
G01 X14.07070 Y5.04427
G01 X14.09153 Y5.02344
G01 X14.46044 Y5.02344
G01 X14.48127 Y5.04427
G01 X14.46044 Y5.02344
G01 X14.46044 Y4.45453
G01 X14.48127 Y4.43370
G01 X14.46044 Y4.45453
G01 X14.09153 Y4.45453
G01 X14.16265 Y4.52565
G01 X14.16265 Y4.95232
G01 X14.14182 Y4.97315
G01 X14.16265 Y4.95232
G01 X14.38932 Y4.95232
G01 X14.41015 Y4.97315
G01 X14.38932 Y4.95232
G01 X14.38932 Y4.52565
G01 X14.41015 Y4.50482
G01 X14.38932 Y4.52565
G01 X14.16265 Y4.52565
G01 X14.23375 Y4.59675
G01 X14.23375 Y4.88123
G01 X14.21292 Y4.90205
G01 X14.23375 Y4.88123
G01 X14.31823 Y4.88123
G01 X14.33906 Y4.90205
G01 X14.31823 Y4.88123
G01 X14.31823 Y4.59675
G01 X14.33906 Y4.57592
G01 X14.31823 Y4.59675
G01 X14.23375 Y4.59675
G04 P0 ( dwell for no time -- G64 should not smooth over this point )
G00 Z2.00000 ( retract )

G00 X11.72700 Y6.67995 ( rapid move to begin. )
G01 F40.00000
( Mill infeed pass 1/1 )
G01 Z-0.1280
G04 P0 ( dwell for no time -- G64 should not smooth over this point )
G01 F100.00000
G01 X11.72700 Y6.67995
G01 X11.72700 Y7.62402
G01 X11.73093 Y7.66400
G01 X11.74173 Y7.69958
G01 X11.75925 Y7.73238
G01 X11.78285 Y7.76113
G01 X11.81158 Y7.78473
G01 X11.84439 Y7.80225
G01 X11.87998 Y7.81305
G01 X11.91998 Y7.81698
G01 X12.58900 Y7.81698
G01 X12.62900 Y7.81305
G01 X12.66456 Y7.80225
G01 X12.69738 Y7.78473
G01 X12.72613 Y7.76113
G01 X12.74973 Y7.73240
G01 X12.76723 Y7.69958
G01 X12.77805 Y7.66400
G01 X12.78198 Y7.62399
G01 X12.78198 Y6.67998
G01 X12.77805 Y6.63997
G01 X12.76723 Y6.60439
G01 X12.74970 Y6.57157
G01 X12.72613 Y6.54284
G01 X12.69738 Y6.51925
G01 X12.66459 Y6.50172
G01 X12.62900 Y6.49093
G01 X12.58902 Y6.48699
G01 X11.91993 Y6.48699
G01 X11.87998 Y6.49093
G01 X11.84437 Y6.50172
G01 X11.81158 Y6.51925
G01 X11.78285 Y6.54284
G01 X11.75925 Y6.57160
G01 X11.74173 Y6.60434
G01 X11.73093 Y6.63997
G01 X11.72700 Y6.67995
G01 X11.79740 Y6.68333
G01 X11.79809 Y6.68346
G01 X11.80101 Y6.65389
G01 X11.80772 Y6.63174
G01 X11.81866 Y6.61130
G01 X11.81582 Y6.60942
G01 X11.81866 Y6.61130
G01 X11.83337 Y6.59336
G01 X11.85128 Y6.57866
G01 X11.87172 Y6.56771
G01 X11.87076 Y6.56565
G01 X11.87172 Y6.56771
G01 X11.89390 Y6.56100
G01 X11.92339 Y6.55811
G01 X11.92336 Y6.55780
G01 X11.92339 Y6.55811
G01 X12.58557 Y6.55811
G01 X12.58567 Y6.55742
G01 X12.58557 Y6.55811
G01 X12.61506 Y6.56100
G01 X12.63723 Y6.56771
G01 X12.65768 Y6.57866
G01 X12.65956 Y6.57584
G01 X12.65768 Y6.57866
G01 X12.67561 Y6.59336
G01 X12.69032 Y6.61130
G01 X12.70121 Y6.63169
G01 X12.70332 Y6.63075
G01 X12.70121 Y6.63169
G01 X12.70797 Y6.65394
G01 X12.71089 Y6.68346
G01 X12.71117 Y6.68341
G01 X12.71089 Y6.68346
G01 X12.71089 Y7.62051
G01 X12.71153 Y7.62062
G01 X12.71089 Y7.62051
G01 X12.70797 Y7.65005
G01 X12.70121 Y7.67225
G01 X12.69032 Y7.69268
G01 X12.69316 Y7.69456
G01 X12.69032 Y7.69268
G01 X12.67561 Y7.71061
G01 X12.65768 Y7.72531
G01 X12.63726 Y7.73624
G01 X12.63822 Y7.73832
G01 X12.63726 Y7.73624
G01 X12.61503 Y7.74297
G01 X12.58552 Y7.74589
G01 X12.58557 Y7.74617
G01 X12.58552 Y7.74589
G01 X11.92344 Y7.74589
G01 X11.92321 Y7.74711
G01 X11.92344 Y7.74589
G01 X11.89392 Y7.74297
G01 X11.87172 Y7.73624
G01 X11.85128 Y7.72531
G01 X11.83337 Y7.71061
G01 X11.82877 Y7.71521
G01 X11.83337 Y7.71061
G01 X11.81866 Y7.69268
G01 X11.80772 Y7.67223
G01 X11.80101 Y7.65008
G01 X11.79809 Y7.62051
G01 X11.79687 Y7.62077
G01 X11.79809 Y7.62051
G01 X11.79809 Y6.68346
G01 X11.79740 Y6.68333
G01 X11.86921 Y6.68691
G01 X11.86921 Y7.61706
G01 X11.86819 Y7.61724
G01 X11.86921 Y7.61706
G01 X11.87109 Y7.63611
G01 X11.87376 Y7.64490
G01 X11.87807 Y7.65300
G01 X11.88389 Y7.66009
G01 X11.87815 Y7.66583
G01 X11.88389 Y7.66009
G01 X11.89098 Y7.66590
G01 X11.89908 Y7.67022
G01 X11.90784 Y7.67289
G01 X11.92692 Y7.67477
G01 X11.92674 Y7.67573
G01 X11.92692 Y7.67477
G01 X12.58206 Y7.67477
G01 X12.58239 Y7.67632
G01 X12.58206 Y7.67477
G01 X12.60111 Y7.67289
G01 X12.60987 Y7.67022
G01 X12.61800 Y7.66590
G01 X12.62509 Y7.66009
G01 X12.63091 Y7.65300
G01 X12.64211 Y7.66034
G01 X12.63091 Y7.65300
G01 X12.63522 Y7.64490
G01 X12.63789 Y7.63611
G01 X12.63977 Y7.61701
G01 X12.63977 Y6.68696
G01 X12.64140 Y6.68663
G01 X12.63977 Y6.68696
G01 X12.63789 Y6.66784
G01 X12.63522 Y6.65907
G01 X12.63091 Y6.65100
G01 X12.62509 Y6.64386
G01 X12.61800 Y6.63807
G01 X12.62532 Y6.62694
G01 X12.61800 Y6.63807
G01 X12.60990 Y6.63375
G01 X12.60111 Y6.63106
G01 X12.58206 Y6.62920
G01 X11.92692 Y6.62920
G01 X11.92656 Y6.62753
G01 X11.92692 Y6.62920
G01 X11.90784 Y6.63106
G01 X11.89908 Y6.63375
G01 X11.89098 Y6.63807
G01 X11.88389 Y6.64386
G01 X11.87807 Y6.65100
G01 X11.86685 Y6.64360
G01 X11.87807 Y6.65100
G01 X11.87376 Y6.65907
G01 X11.87109 Y6.66784
G01 X11.86921 Y6.68691
G01 X11.91950 Y6.67950
G01 X11.94033 Y6.70032
G01 X11.94033 Y7.60365
G01 X11.91950 Y7.62448
G01 X11.94033 Y7.60365
G01 X12.56865 Y7.60365
G01 X12.58948 Y7.62448
G01 X12.56865 Y7.60365
G01 X12.56865 Y6.70032
G01 X12.58948 Y6.67950
G01 X12.56865 Y6.70032
G01 X11.94033 Y6.70032
G01 X12.01142 Y6.77142
G01 X12.01142 Y7.53255
G01 X11.99060 Y7.55338
G01 X12.01142 Y7.53255
G01 X12.49756 Y7.53255
G01 X12.51838 Y7.55338
G01 X12.49756 Y7.53255
G01 X12.49756 Y6.77142
G01 X12.51838 Y6.75059
G01 X12.49756 Y6.77142
G01 X12.01142 Y6.77142
G01 X12.08254 Y6.84254
G01 X12.08254 Y7.46143
G01 X12.06172 Y7.48226
G01 X12.08254 Y7.46143
G01 X12.42644 Y7.46143
G01 X12.44726 Y7.48226
G01 X12.42644 Y7.46143
G01 X12.42644 Y6.84254
G01 X12.44726 Y6.82171
G01 X12.42644 Y6.84254
G01 X12.08254 Y6.84254
G01 X12.15364 Y6.91363
G01 X12.15364 Y7.39034
G01 X12.13281 Y7.41117
G01 X12.15364 Y7.39034
G01 X12.35534 Y7.39034
G01 X12.37617 Y7.41117
G01 X12.35534 Y7.39034
G01 X12.35534 Y6.91363
G01 X12.37617 Y6.89280
G01 X12.35534 Y6.91363
G01 X12.15364 Y6.91363
G01 X12.22476 Y6.98475
G01 X12.22476 Y7.31922
G01 X12.20393 Y7.34005
G01 X12.22476 Y7.31922
G01 X12.28422 Y7.31922
G01 X12.30505 Y7.34005
G01 X12.28422 Y7.31922
G01 X12.28422 Y6.98475
G01 X12.30505 Y6.96392
G01 X12.28422 Y6.98475
G01 X12.22476 Y6.98475
G04 P0 ( dwell for no time -- G64 should not smooth over this point )
G00 Z2.00000 ( retract )

G00 X13.94421 Y6.68696 ( rapid move to begin. )
G01 F40.00000
( Mill infeed pass 1/1 )
G01 Z-0.1280
G04 P0 ( dwell for no time -- G64 should not smooth over this point )
G01 F100.00000
G01 X13.94421 Y6.68696
G01 X13.94421 Y7.61701
G01 X13.94609 Y7.63611
G01 X13.94876 Y7.64490
G01 X13.95308 Y7.65300
G01 X13.94185 Y7.66034
G01 X13.95308 Y7.65300
G01 X13.95889 Y7.66009
G01 X13.96598 Y7.66590
G01 X13.97408 Y7.67022
G01 X13.98285 Y7.67289
G01 X14.00192 Y7.67477
G01 X14.00157 Y7.67642
G01 X14.00192 Y7.67477
G01 X14.65706 Y7.67477
G01 X14.67611 Y7.67289
G01 X14.68488 Y7.67022
G01 X14.69300 Y7.66590
G01 X14.70032 Y7.67703
G01 X14.69300 Y7.66590
G01 X14.70009 Y7.66009
G01 X14.70591 Y7.65300
G01 X14.71023 Y7.64490
G01 X14.71289 Y7.63611
G01 X14.71477 Y7.61706
G01 X14.71640 Y7.61739
G01 X14.71477 Y7.61706
G01 X14.71477 Y6.68691
G01 X14.71289 Y6.66784
G01 X14.71023 Y6.65907
G01 X14.70591 Y6.65100
G01 X14.71711 Y6.64360
G01 X14.70591 Y6.65100
G01 X14.70009 Y6.64386
G01 X14.69300 Y6.63807
G01 X14.68488 Y6.63375
G01 X14.67611 Y6.63106
G01 X14.65706 Y6.62920
G01 X14.65739 Y6.62763
G01 X14.65706 Y6.62920
G01 X14.00192 Y6.62920
G01 X14.00174 Y6.62821
G01 X14.00192 Y6.62920
G01 X13.98285 Y6.63106
G01 X13.97408 Y6.63375
G01 X13.96598 Y6.63807
G01 X13.95889 Y6.64386
G01 X13.95315 Y6.63812
G01 X13.95889 Y6.64386
G01 X13.95308 Y6.65100
G01 X13.94876 Y6.65907
G01 X13.94609 Y6.66784
G01 X13.94421 Y6.68696
G01 X13.94320 Y6.68678
G01 X13.80200 Y6.67995
G01 X13.80200 Y7.62402
G01 X13.80593 Y7.66400
G01 X13.81670 Y7.69958
G01 X13.83426 Y7.73238
G01 X13.85785 Y7.76113
G01 X13.88658 Y7.78473
G01 X13.91937 Y7.80225
G01 X13.95498 Y7.81305
G01 X13.99499 Y7.81698
G01 X14.66400 Y7.81698
G01 X14.70400 Y7.81305
G01 X14.73956 Y7.80225
G01 X14.77240 Y7.78473
G01 X14.80113 Y7.76113
G01 X14.82473 Y7.73240
G01 X14.84225 Y7.69958
G01 X14.85305 Y7.66400
G01 X14.85699 Y7.62399
G01 X14.85699 Y6.67998
G01 X14.85305 Y6.63997
G01 X14.84225 Y6.60439
G01 X14.82470 Y6.57157
G01 X14.80113 Y6.54284
G01 X14.77238 Y6.51925
G01 X14.73959 Y6.50172
G01 X14.70400 Y6.49093
G01 X14.66402 Y6.48699
G01 X13.99496 Y6.48699
G01 X13.95498 Y6.49093
G01 X13.91940 Y6.50172
G01 X13.88658 Y6.51925
G01 X13.85783 Y6.54284
G01 X13.83426 Y6.57160
G01 X13.81673 Y6.60439
G01 X13.80593 Y6.63997
G01 X13.80200 Y6.67995
G01 X13.87241 Y6.68333
G01 X13.87309 Y6.68346
G01 X13.87601 Y6.65394
G01 X13.88274 Y6.63169
G01 X13.89367 Y6.61130
G01 X13.88991 Y6.60855
G01 X13.89367 Y6.61130
G01 X13.90837 Y6.59336
G01 X13.92628 Y6.57866
G01 X13.94673 Y6.56771
G01 X13.96890 Y6.56100
G01 X13.96799 Y6.55798
G01 X13.96890 Y6.56100
G01 X13.99839 Y6.55811
G01 X14.66057 Y6.55811
G01 X14.66082 Y6.55684
G01 X14.66057 Y6.55811
G01 X14.69006 Y6.56100
G01 X14.71223 Y6.56771
G01 X14.73268 Y6.57866
G01 X14.75061 Y6.59336
G01 X14.75521 Y6.58874
G01 X14.75061 Y6.59336
G01 X14.76532 Y6.61130
G01 X14.77624 Y6.63174
G01 X14.78297 Y6.65389
G01 X14.78587 Y6.68346
G01 X14.78711 Y6.68318
G01 X14.78587 Y6.68346
G01 X14.78587 Y7.62051
G01 X14.78711 Y7.62077
G01 X14.78587 Y7.62051
G01 X14.78297 Y7.65008
G01 X14.77624 Y7.67223
G01 X14.76532 Y7.69268
G01 X14.75061 Y7.71061
G01 X14.75521 Y7.71521
G01 X14.75061 Y7.71061
G01 X14.73268 Y7.72531
G01 X14.71226 Y7.73624
G01 X14.69003 Y7.74297
G01 X14.66052 Y7.74589
G01 X14.66077 Y7.74711
G01 X14.66052 Y7.74589
G01 X13.99844 Y7.74589
G01 X13.99821 Y7.74711
G01 X13.99844 Y7.74589
G01 X13.96893 Y7.74297
G01 X13.94673 Y7.73624
G01 X13.92628 Y7.72531
G01 X13.90837 Y7.71061
G01 X13.90378 Y7.71521
G01 X13.90837 Y7.71061
G01 X13.89367 Y7.69268
G01 X13.88274 Y7.67225
G01 X13.87601 Y7.65005
G01 X13.87309 Y7.62051
G01 X13.87187 Y7.62077
G01 X13.87309 Y7.62051
G01 X13.87309 Y6.68346
G01 X13.87241 Y6.68333
G01 X13.94320 Y6.68678
G01 X13.99448 Y6.67950
G01 X14.01531 Y6.70032
G01 X14.01531 Y7.60365
G01 X13.99448 Y7.62448
G01 X14.01531 Y7.60365
G01 X14.64365 Y7.60365
G01 X14.66448 Y7.62448
G01 X14.64365 Y7.60365
G01 X14.64365 Y6.70032
G01 X14.66448 Y6.67950
G01 X14.64365 Y6.70032
G01 X14.01531 Y6.70032
G01 X14.08643 Y6.77142
G01 X14.08643 Y7.53255
G01 X14.06560 Y7.55338
G01 X14.08643 Y7.53255
G01 X14.57256 Y7.53255
G01 X14.59339 Y7.55338
G01 X14.57256 Y7.53255
G01 X14.57256 Y6.77142
G01 X14.59339 Y6.75059
G01 X14.57256 Y6.77142
G01 X14.08643 Y6.77142
G01 X14.15752 Y6.84254
G01 X14.15752 Y7.46143
G01 X14.13669 Y7.48226
G01 X14.15752 Y7.46143
G01 X14.50144 Y7.46143
G01 X14.52227 Y7.48226
G01 X14.50144 Y7.46143
G01 X14.50144 Y6.84254
G01 X14.52227 Y6.82171
G01 X14.50144 Y6.84254
G01 X14.15752 Y6.84254
G01 X14.22864 Y6.91363
G01 X14.22864 Y7.39034
G01 X14.20781 Y7.41117
G01 X14.22864 Y7.39034
G01 X14.43034 Y7.39034
G01 X14.45117 Y7.41117
G01 X14.43034 Y7.39034
G01 X14.43034 Y6.91363
G01 X14.45117 Y6.89280
G01 X14.43034 Y6.91363
G01 X14.22864 Y6.91363
G01 X14.29976 Y6.98475
G01 X14.29976 Y7.31922
G01 X14.27893 Y7.34005
G01 X14.29976 Y7.31922
G01 X14.35922 Y7.31922
G01 X14.38005 Y7.34005
G01 X14.35922 Y7.31922
G01 X14.35922 Y6.98475
G01 X14.38005 Y6.96392
G01 X14.35922 Y6.98475
G01 X14.29976 Y6.98475
G04 P0 ( dwell for no time -- G64 should not smooth over this point )
G00 Z2.00000 ( retract )

G00 X12.68511 Y9.76339 ( rapid move to begin. )
G01 F40.00000
( Mill infeed pass 1/1 )
G01 Z-0.1280
G04 P0 ( dwell for no time -- G64 should not smooth over this point )
G01 F100.00000
G01 X12.68511 Y9.76339
G01 X12.68511 Y10.05058
G01 X12.67965 Y10.05282
G01 X12.68511 Y10.05058
G01 X12.68607 Y10.06057
G01 X12.68709 Y10.06397
G01 X12.68877 Y10.06712
G01 X12.69108 Y10.06991
G01 X12.69385 Y10.07217
G01 X12.69700 Y10.07385
G01 X12.70043 Y10.07489
G01 X12.71043 Y10.07588
G01 X12.70817 Y10.08129
G01 X12.71043 Y10.07588
G01 X14.34754 Y10.07588
G01 X14.35755 Y10.07489
G01 X14.36242 Y10.08373
G01 X14.35755 Y10.07489
G01 X14.36098 Y10.07385
G01 X14.36413 Y10.07217
G01 X14.36689 Y10.06989
G01 X14.36915 Y10.06712
G01 X14.37086 Y10.06397
G01 X14.37190 Y10.06057
G01 X14.37289 Y10.05053
G01 X14.37571 Y10.05132
G01 X14.37289 Y10.05053
G01 X14.37289 Y9.76346
G01 X14.37190 Y9.75343
G01 X14.38069 Y9.74855
G01 X14.37190 Y9.75343
G01 X14.37086 Y9.75000
G01 X14.36915 Y9.74685
G01 X14.36689 Y9.74408
G01 X14.36413 Y9.74180
G01 X14.36098 Y9.74012
G01 X14.35755 Y9.73908
G01 X14.34754 Y9.73809
G01 X14.34835 Y9.73532
G01 X14.34754 Y9.73809
G01 X12.71043 Y9.73809
G01 X12.70043 Y9.73908
G01 X12.69552 Y9.73024
G01 X12.70043 Y9.73908
G01 X12.69700 Y9.74012
G01 X12.69385 Y9.74180
G01 X12.69108 Y9.74408
G01 X12.68877 Y9.74685
G01 X12.68709 Y9.75000
G01 X12.68607 Y9.75343
G01 X12.68511 Y9.76339
G01 X12.68229 Y9.76260
G01 X12.61399 Y9.75993
G01 X12.61399 Y10.05406
G01 X12.61600 Y10.07448
G01 X12.62110 Y10.09130
G01 X12.62941 Y10.10684
G01 X12.64056 Y10.12043
G01 X12.65415 Y10.13158
G01 X12.66136 Y10.13544
G01 X12.66964 Y10.13986
G01 X12.68648 Y10.14497
G01 X12.70690 Y10.14698
G01 X14.35104 Y10.14698
G01 X14.37149 Y10.14497
G01 X14.38833 Y10.13986
G01 X14.40383 Y10.13158
G01 X14.41741 Y10.12043
G01 X14.42857 Y10.10684
G01 X14.43687 Y10.09130
G01 X14.44198 Y10.07446
G01 X14.44398 Y10.05404
G01 X14.44398 Y9.75996
G01 X14.44198 Y9.73951
G01 X14.43687 Y9.72267
G01 X14.42857 Y9.70712
G01 X14.41741 Y9.69356
G01 X14.40383 Y9.68238
G01 X14.38833 Y9.67410
G01 X14.37149 Y9.66900
G01 X14.35102 Y9.66699
G01 X12.70695 Y9.66699
G01 X12.68648 Y9.66900
G01 X12.66964 Y9.67410
G01 X12.65415 Y9.68238
G01 X12.64056 Y9.69356
G01 X12.62941 Y9.70712
G01 X12.62110 Y9.72264
G01 X12.61600 Y9.73948
G01 X12.61399 Y9.75993
G01 X12.68229 Y9.76260
G01 X12.73535 Y9.78838
G01 X12.75620 Y9.80921
G01 X12.75620 Y10.00476
G01 X12.73535 Y10.02559
G01 X12.75620 Y10.00476
G01 X14.30177 Y10.00476
G01 X14.32260 Y10.02559
G01 X14.30177 Y10.00476
G01 X14.30177 Y9.80921
G01 X14.32260 Y9.78838
G01 X14.30177 Y9.80921
G01 X12.75620 Y9.80921
G01 X12.82732 Y9.88033
G01 X14.23065 Y9.88033
G01 X14.25148 Y9.85950
G01 X14.23065 Y9.88033
G01 X14.23065 Y9.93367
G01 X14.25148 Y9.95449
G01 X14.23065 Y9.93367
G01 X12.82732 Y9.93367
G01 X12.80650 Y9.95449
G01 X12.82732 Y9.93367
G01 X12.82732 Y9.88033
G04 P0 ( dwell for no time -- G64 should not smooth over this point )
G00 Z2.00000 ( retract )

G00 X12.68511 Y11.03339 ( rapid move to begin. )
G01 F40.00000
( Mill infeed pass 1/1 )
G01 Z-0.1280
G04 P0 ( dwell for no time -- G64 should not smooth over this point )
G01 F100.00000
G01 X12.68511 Y11.03339
G01 X12.68511 Y11.32058
G01 X12.67965 Y11.32282
G01 X12.68511 Y11.32058
G01 X12.68607 Y11.33057
G01 X12.68709 Y11.33397
G01 X12.68877 Y11.33712
G01 X12.69108 Y11.33991
G01 X12.69385 Y11.34217
G01 X12.69700 Y11.34385
G01 X12.70043 Y11.34489
G01 X12.71043 Y11.34588
G01 X12.70817 Y11.35129
G01 X12.71043 Y11.34588
G01 X14.34754 Y11.34588
G01 X14.35755 Y11.34489
G01 X14.36242 Y11.35373
G01 X14.35755 Y11.34489
G01 X14.36098 Y11.34385
G01 X14.36413 Y11.34217
G01 X14.36689 Y11.33989
G01 X14.36915 Y11.33712
G01 X14.37086 Y11.33397
G01 X14.37190 Y11.33057
G01 X14.37289 Y11.32053
G01 X14.37571 Y11.32132
G01 X14.37289 Y11.32053
G01 X14.37289 Y11.03346
G01 X14.37190 Y11.02343
G01 X14.38069 Y11.01855
G01 X14.37190 Y11.02343
G01 X14.37086 Y11.02000
G01 X14.36915 Y11.01685
G01 X14.36689 Y11.01408
G01 X14.36413 Y11.01180
G01 X14.36100 Y11.01012
G01 X14.35755 Y11.00908
G01 X14.34754 Y11.00809
G01 X14.34835 Y11.00532
G01 X14.34754 Y11.00809
G01 X12.71043 Y11.00809
G01 X12.70043 Y11.00908
G01 X12.69552 Y11.00024
G01 X12.70043 Y11.00908
G01 X12.69700 Y11.01012
G01 X12.69385 Y11.01180
G01 X12.69108 Y11.01408
G01 X12.68877 Y11.01685
G01 X12.68709 Y11.02000
G01 X12.68607 Y11.02343
G01 X12.68511 Y11.03339
G01 X12.68229 Y11.03260
G01 X12.61399 Y11.02993
G01 X12.61399 Y11.32406
G01 X12.61600 Y11.34448
G01 X12.62110 Y11.36132
G01 X12.62941 Y11.37682
G01 X12.64056 Y11.39041
G01 X12.65415 Y11.40158
G01 X12.66967 Y11.40986
G01 X12.68648 Y11.41497
G01 X12.70698 Y11.41698
G01 X14.35099 Y11.41698
G01 X14.37149 Y11.41497
G01 X14.38833 Y11.40986
G01 X14.40383 Y11.40158
G01 X14.41741 Y11.39041
G01 X14.42857 Y11.37684
G01 X14.43687 Y11.36130
G01 X14.44198 Y11.34446
G01 X14.44398 Y11.32404
G01 X14.44398 Y11.02996
G01 X14.44198 Y11.00951
G01 X14.43687 Y10.99267
G01 X14.42857 Y10.97712
G01 X14.41741 Y10.96354
G01 X14.40383 Y10.95241
G01 X14.38833 Y10.94410
G01 X14.37149 Y10.93900
G01 X14.35104 Y10.93699
G01 X12.70690 Y10.93699
G01 X12.68648 Y10.93900
G01 X12.66967 Y10.94410
G01 X12.65415 Y10.95238
G01 X12.64056 Y10.96356
G01 X12.62938 Y10.97715
G01 X12.62110 Y10.99264
G01 X12.61600 Y11.00948
G01 X12.61399 Y11.02993
G01 X12.68229 Y11.03260
G01 X12.73535 Y11.05838
G01 X12.75620 Y11.07921
G01 X12.75620 Y11.27476
G01 X12.73535 Y11.29559
G01 X12.75620 Y11.27476
G01 X14.30177 Y11.27476
G01 X14.32260 Y11.29559
G01 X14.30177 Y11.27476
G01 X14.30177 Y11.07921
G01 X14.32260 Y11.05838
G01 X14.30177 Y11.07921
G01 X12.75620 Y11.07921
G01 X12.82732 Y11.15033
G01 X14.23065 Y11.15033
G01 X14.25148 Y11.12950
G01 X14.23065 Y11.15033
G01 X14.23065 Y11.20367
G01 X14.25148 Y11.22449
G01 X14.23065 Y11.20367
G01 X12.82732 Y11.20367
G01 X12.80650 Y11.22449
G01 X12.82732 Y11.20367
G01 X12.82732 Y11.15033
G04 P0 ( dwell for no time -- G64 should not smooth over this point )
G00 Z2.00000 ( retract )


G00 X12.68511 Y12.30339 ( rapid move to begin. )
G01 F40.00000
( Mill infeed pass 1/1 )
G01 Z-0.1280
G04 P0 ( dwell for no time -- G64 should not smooth over this point )
G01 F100.00000
G01 X12.68511 Y12.30339
G01 X12.68511 Y12.59058
G01 X12.67965 Y12.59282
G01 X12.68511 Y12.59058
G01 X12.68607 Y12.60057
G01 X12.68709 Y12.60397
G01 X12.68877 Y12.60712
G01 X12.69108 Y12.60991
G01 X12.69385 Y12.61217
G01 X12.69700 Y12.61385
G01 X12.70043 Y12.61489
G01 X12.71043 Y12.61588
G01 X12.70817 Y12.62129
G01 X12.71043 Y12.61588
G01 X14.34754 Y12.61588
G01 X14.35755 Y12.61489
G01 X14.36242 Y12.62373
G01 X14.35755 Y12.61489
G01 X14.36098 Y12.61385
G01 X14.36413 Y12.61217
G01 X14.36689 Y12.60989
G01 X14.36915 Y12.60712
G01 X14.37086 Y12.60397
G01 X14.37190 Y12.60057
G01 X14.37289 Y12.59053
G01 X14.37571 Y12.59132
G01 X14.37289 Y12.59053
G01 X14.37289 Y12.30346
G01 X14.37190 Y12.29343
G01 X14.38069 Y12.28855
G01 X14.37190 Y12.29343
G01 X14.37086 Y12.29000
G01 X14.36915 Y12.28685
G01 X14.36689 Y12.28408
G01 X14.36413 Y12.28180
G01 X14.36098 Y12.28012
G01 X14.35755 Y12.27908
G01 X14.34754 Y12.27809
G01 X14.34835 Y12.27532
G01 X14.34754 Y12.27809
G01 X12.71043 Y12.27809
G01 X12.70043 Y12.27908
G01 X12.69552 Y12.27024
G01 X12.70043 Y12.27908
G01 X12.69700 Y12.28012
G01 X12.69385 Y12.28180
G01 X12.69108 Y12.28408
G01 X12.68877 Y12.28685
G01 X12.68709 Y12.29000
G01 X12.68607 Y12.29343
G01 X12.68511 Y12.30339
G01 X12.68229 Y12.30260
G01 X12.61399 Y12.29991
G01 X12.61399 Y12.59406
G01 X12.61600 Y12.61448
G01 X12.62110 Y12.63130
G01 X12.62941 Y12.64682
G01 X12.64056 Y12.66041
G01 X12.65415 Y12.67158
G01 X12.66964 Y12.67986
G01 X12.68648 Y12.68497
G01 X12.70695 Y12.68698
G01 X14.35102 Y12.68698
G01 X14.37149 Y12.68497
G01 X14.38833 Y12.67986
G01 X14.40383 Y12.67158
G01 X14.41741 Y12.66043
G01 X14.42857 Y12.64684
G01 X14.43687 Y12.63130
G01 X14.44198 Y12.61446
G01 X14.44398 Y12.59404
G01 X14.44398 Y12.29996
G01 X14.44198 Y12.27951
G01 X14.43687 Y12.26267
G01 X14.42857 Y12.24712
G01 X14.41741 Y12.23356
G01 X14.40383 Y12.22238
G01 X14.38833 Y12.21410
G01 X14.37149 Y12.20900
G01 X14.35099 Y12.20699
G01 X12.70698 Y12.20699
G01 X12.68648 Y12.20900
G01 X12.66967 Y12.21410
G01 X12.65415 Y12.22238
G01 X12.64056 Y12.23356
G01 X12.62941 Y12.24715
G01 X12.62110 Y12.26264
G01 X12.61600 Y12.27948
G01 X12.61399 Y12.29991
G01 X12.68229 Y12.30260
G01 X12.73535 Y12.32838
G01 X12.75620 Y12.34921
G01 X12.75620 Y12.54476
G01 X12.73535 Y12.56559
G01 X12.75620 Y12.54476
G01 X14.30177 Y12.54476
G01 X14.32260 Y12.56559
G01 X14.30177 Y12.54476
G01 X14.30177 Y12.34921
G01 X14.32260 Y12.32838
G01 X14.30177 Y12.34921
G01 X12.75620 Y12.34921
G01 X12.82732 Y12.42033
G01 X12.82732 Y12.47367
G01 X12.80650 Y12.49449
G01 X12.82732 Y12.47367
G01 X14.23065 Y12.47367
G01 X14.25148 Y12.49449
G01 X14.23065 Y12.47367
G01 X14.23065 Y12.42033
G01 X14.25148 Y12.39950
G01 X14.23065 Y12.42033
G01 X12.82732 Y12.42033
G04 P0 ( dwell for no time -- G64 should not smooth over this point )
G00 Z2.00000 ( retract )

G00 X12.68511 Y13.57339 ( rapid move to begin. )
G01 F40.00000
( Mill infeed pass 1/1 )
G01 Z-0.1280
G04 P0 ( dwell for no time -- G64 should not smooth over this point )
G01 F100.00000
G01 X12.68511 Y13.57339
G01 X12.68511 Y13.86058
G01 X12.67965 Y13.86282
G01 X12.68511 Y13.86058
G01 X12.68607 Y13.87057
G01 X12.68709 Y13.87397
G01 X12.68877 Y13.87712
G01 X12.69108 Y13.87991
G01 X12.69385 Y13.88217
G01 X12.69700 Y13.88385
G01 X12.70043 Y13.88489
G01 X12.71043 Y13.88588
G01 X12.70817 Y13.89129
G01 X12.71043 Y13.88588
G01 X14.34754 Y13.88588
G01 X14.35755 Y13.88489
G01 X14.36242 Y13.89373
G01 X14.35755 Y13.88489
G01 X14.36098 Y13.88385
G01 X14.36413 Y13.88217
G01 X14.36689 Y13.87989
G01 X14.36915 Y13.87712
G01 X14.37086 Y13.87397
G01 X14.37190 Y13.87057
G01 X14.37289 Y13.86053
G01 X14.37571 Y13.86132
G01 X14.37289 Y13.86053
G01 X14.37289 Y13.57346
G01 X14.37190 Y13.56343
G01 X14.38069 Y13.55855
G01 X14.37190 Y13.56343
G01 X14.37086 Y13.56000
G01 X14.36915 Y13.55685
G01 X14.36689 Y13.55408
G01 X14.36413 Y13.55180
G01 X14.36100 Y13.55012
G01 X14.35755 Y13.54908
G01 X14.34754 Y13.54809
G01 X14.34835 Y13.54532
G01 X14.34754 Y13.54809
G01 X12.71043 Y13.54809
G01 X12.70043 Y13.54908
G01 X12.69552 Y13.54024
G01 X12.70043 Y13.54908
G01 X12.69700 Y13.55012
G01 X12.69385 Y13.55180
G01 X12.69108 Y13.55408
G01 X12.68877 Y13.55685
G01 X12.68709 Y13.56000
G01 X12.68607 Y13.56343
G01 X12.68511 Y13.57339
G01 X12.68229 Y13.57260
G01 X12.61399 Y13.56993
G01 X12.61399 Y13.86406
G01 X12.61600 Y13.88448
G01 X12.62110 Y13.90132
G01 X12.62941 Y13.91684
G01 X12.64056 Y13.93041
G01 X12.65415 Y13.94158
G01 X12.66964 Y13.94986
G01 X12.68648 Y13.95497
G01 X12.70695 Y13.95698
G01 X14.35102 Y13.95698
G01 X14.37149 Y13.95497
G01 X14.38833 Y13.94986
G01 X14.40383 Y13.94158
G01 X14.41741 Y13.93043
G01 X14.42857 Y13.91684
G01 X14.43687 Y13.90130
G01 X14.44198 Y13.88448
G01 X14.44398 Y13.86401
G01 X14.44398 Y13.56996
G01 X14.44198 Y13.54951
G01 X14.43687 Y13.53269
G01 X14.42857 Y13.51712
G01 X14.41741 Y13.50356
G01 X14.40383 Y13.49238
G01 X14.38833 Y13.48410
G01 X14.37149 Y13.47900
G01 X14.35102 Y13.47699
G01 X12.70695 Y13.47699
G01 X12.68648 Y13.47900
G01 X12.66964 Y13.48410
G01 X12.65415 Y13.49238
G01 X12.64056 Y13.50356
G01 X12.62941 Y13.51715
G01 X12.62110 Y13.53267
G01 X12.61600 Y13.54948
G01 X12.61399 Y13.56993
G01 X12.68229 Y13.57260
G01 X12.73535 Y13.59838
G01 X12.75620 Y13.61921
G01 X12.75620 Y13.81476
G01 X12.73535 Y13.83559
G01 X12.75620 Y13.81476
G01 X14.30177 Y13.81476
G01 X14.32260 Y13.83559
G01 X14.30177 Y13.81476
G01 X14.30177 Y13.61921
G01 X14.32260 Y13.59838
G01 X14.30177 Y13.61921
G01 X12.75620 Y13.61921
G01 X12.82732 Y13.69033
G01 X14.23065 Y13.69033
G01 X14.25148 Y13.66950
G01 X14.23065 Y13.69033
G01 X14.23065 Y13.74367
G01 X14.25148 Y13.76449
G01 X14.23065 Y13.74367
G01 X12.82732 Y13.74367
G01 X12.80650 Y13.76449
G01 X12.82732 Y13.74367
G01 X12.82732 Y13.69033
G04 P0 ( dwell for no time -- G64 should not smooth over this point )
G00 Z2.00000 ( retract )
