( pcb2gcode 2.1.0 )
( Software-independent Gcode )

G94 ( Millimeters per minute feed rate. )
G21 ( Units == Millimeters. )

G90 ( Absolute coordinates. )
G00 S10000 ( RPM spindle speed. )
G64 P0.01016 ( set maximum deviation from commanded toolpath )
G01 F100.00000 ( Feedrate. )


G00 Z10.00000 (Retract to tool change height)
T0
M5      (Spindle stop.)
G04 P1.00000 (Wait for spindle to stop)
(MSG, Change tool bit to mill diameter 0.12000mm)
M6      (Tool change.)
M0      (Temporary machine stop.)
M3 ( Spindle on clockwise. )
G04 P1.00000 (Wait for spindle to get up to speed)
G04 P0 ( dwell for no time -- G64 should not smooth over this point )
G00 Z2.00000 ( retract )


G00 X17.63511 Y13.57339 ( rapid move to begin. )
G01 F40.00000
( Mill infeed pass 1/1 )
G01 Z-0.1280
G04 P0 ( dwell for no time -- G64 should not smooth over this point )
G01 F100.00000
G01 X17.63511 Y13.57339
G01 X17.63511 Y13.86058
G01 X17.62968 Y13.86282
G01 X17.63511 Y13.86058
G01 X17.63608 Y13.87054
G01 X17.63712 Y13.87397
G01 X17.63882 Y13.87712
G01 X17.64108 Y13.87989
G01 X17.64385 Y13.88217
G01 X17.64700 Y13.88385
G01 X17.65043 Y13.88489
G01 X17.66044 Y13.88588
G01 X17.65820 Y13.89129
G01 X17.66044 Y13.88588
G01 X19.29754 Y13.88588
G01 X19.30755 Y13.88489
G01 X19.31243 Y13.89373
G01 X19.30755 Y13.88489
G01 X19.31098 Y13.88385
G01 X19.31413 Y13.88217
G01 X19.31690 Y13.87989
G01 X19.31916 Y13.87712
G01 X19.32086 Y13.87397
G01 X19.32190 Y13.87057
G01 X19.32289 Y13.86053
G01 X19.32571 Y13.86132
G01 X19.32289 Y13.86053
G01 X19.32289 Y13.57346
G01 X19.32190 Y13.56343
G01 X19.33069 Y13.55855
G01 X19.32190 Y13.56343
G01 X19.32086 Y13.56000
G01 X19.31916 Y13.55685
G01 X19.31690 Y13.55408
G01 X19.31413 Y13.55180
G01 X19.31098 Y13.55012
G01 X19.30755 Y13.54908
G01 X19.29754 Y13.54809
G01 X19.29833 Y13.54532
G01 X19.29754 Y13.54809
G01 X17.66044 Y13.54809
G01 X17.65043 Y13.54908
G01 X17.64555 Y13.54024
G01 X17.65043 Y13.54908
G01 X17.64700 Y13.55012
G01 X17.64385 Y13.55180
G01 X17.64108 Y13.55408
G01 X17.63882 Y13.55685
G01 X17.63712 Y13.56000
G01 X17.63608 Y13.56343
G01 X17.63511 Y13.57339
G01 X17.63229 Y13.57260
G01 X17.56399 Y13.56993
G01 X17.56399 Y13.86406
G01 X17.56600 Y13.88448
G01 X17.57110 Y13.90130
G01 X17.57941 Y13.91684
G01 X17.59056 Y13.93043
G01 X17.60415 Y13.94158
G01 X17.61967 Y13.94986
G01 X17.63648 Y13.95497
G01 X17.65696 Y13.95698
G01 X19.30102 Y13.95698
G01 X19.32149 Y13.95497
G01 X19.33833 Y13.94986
G01 X19.35383 Y13.94158
G01 X19.36742 Y13.93043
G01 X19.37857 Y13.91684
G01 X19.38687 Y13.90130
G01 X19.39198 Y13.88448
G01 X19.39399 Y13.86401
G01 X19.39399 Y13.56996
G01 X19.39198 Y13.54948
G01 X19.38687 Y13.53267
G01 X19.37857 Y13.51715
G01 X19.36742 Y13.50356
G01 X19.35383 Y13.49238
G01 X19.33831 Y13.48410
G01 X19.32149 Y13.47900
G01 X19.30102 Y13.47699
G01 X17.65696 Y13.47699
G01 X17.63648 Y13.47900
G01 X17.61964 Y13.48410
G01 X17.60415 Y13.49238
G01 X17.59056 Y13.50356
G01 X17.57941 Y13.51715
G01 X17.57110 Y13.53267
G01 X17.56600 Y13.54951
G01 X17.56399 Y13.56993
G01 X17.63229 Y13.57260
G01 X17.68538 Y13.59838
G01 X17.70621 Y13.61921
G01 X17.70621 Y13.81476
G01 X17.68538 Y13.83559
G01 X17.70621 Y13.81476
G01 X19.25177 Y13.81476
G01 X19.27260 Y13.83559
G01 X19.25177 Y13.81476
G01 X19.25177 Y13.61921
G01 X19.27260 Y13.59838
G01 X19.25177 Y13.61921
G01 X17.70621 Y13.61921
G01 X17.77733 Y13.69033
G01 X19.18065 Y13.69033
G01 X19.20148 Y13.66950
G01 X19.18065 Y13.69033
G01 X19.18065 Y13.74367
G01 X19.20148 Y13.76449
G01 X19.18065 Y13.74367
G01 X17.77733 Y13.74367
G01 X17.75650 Y13.76449
G01 X17.77733 Y13.74367
G01 X17.77733 Y13.69033
G04 P0 ( dwell for no time -- G64 should not smooth over this point )
G00 Z2.00000 ( retract )

G00 X17.77733 Y12.42033 ( rapid move to begin. )
G01 F40.00000
( Mill infeed pass 1/1 )
G01 Z-0.1280
G04 P0 ( dwell for no time -- G64 should not smooth over this point )
G01 F100.00000
G01 X17.77733 Y12.42033
G01 X19.18065 Y12.42033
G01 X19.20148 Y12.39950
G01 X19.18065 Y12.42033
G01 X19.18065 Y12.47367
G01 X19.20148 Y12.49449
G01 X19.18065 Y12.47367
G01 X17.77733 Y12.47367
G01 X17.75650 Y12.49449
G01 X17.77733 Y12.47367
G01 X17.77733 Y12.42033
G01 X17.70621 Y12.34921
G01 X19.25177 Y12.34921
G01 X19.27260 Y12.32838
G01 X19.25177 Y12.34921
G01 X19.25177 Y12.54476
G01 X19.27260 Y12.56559
G01 X19.25177 Y12.54476
G01 X17.70621 Y12.54476
G01 X17.68538 Y12.56559
G01 X17.70621 Y12.54476
G01 X17.70621 Y12.34921
G01 X17.68538 Y12.32838
G01 X17.63229 Y12.30260
G01 X17.56399 Y12.29991
G01 X17.56600 Y12.27951
G01 X17.57110 Y12.26267
G01 X17.57941 Y12.24715
G01 X17.59056 Y12.23354
G01 X17.60415 Y12.22238
G01 X17.61967 Y12.21410
G01 X17.63648 Y12.20900
G01 X17.65698 Y12.20699
G01 X19.30100 Y12.20699
G01 X19.32149 Y12.20900
G01 X19.33831 Y12.21410
G01 X19.35383 Y12.22238
G01 X19.36742 Y12.23356
G01 X19.37857 Y12.24715
G01 X19.38687 Y12.26267
G01 X19.39198 Y12.27948
G01 X19.39399 Y12.29996
G01 X19.39399 Y12.59404
G01 X19.39198 Y12.61448
G01 X19.38687 Y12.63130
G01 X19.37857 Y12.64684
G01 X19.36742 Y12.66043
G01 X19.35383 Y12.67158
G01 X19.33833 Y12.67986
G01 X19.32149 Y12.68497
G01 X19.30102 Y12.68698
G01 X17.65696 Y12.68698
G01 X17.63648 Y12.68497
G01 X17.61967 Y12.67986
G01 X17.60415 Y12.67158
G01 X17.59056 Y12.66043
G01 X17.57941 Y12.64682
G01 X17.57110 Y12.63130
G01 X17.56600 Y12.61446
G01 X17.56399 Y12.59406
G01 X17.56399 Y12.29991
G01 X17.63229 Y12.30260
G01 X17.63511 Y12.30339
G01 X17.63608 Y12.29343
G01 X17.63712 Y12.29000
G01 X17.63882 Y12.28685
G01 X17.64108 Y12.28408
G01 X17.64385 Y12.28180
G01 X17.64700 Y12.28012
G01 X17.65043 Y12.27908
G01 X17.64555 Y12.27024
G01 X17.65043 Y12.27908
G01 X17.66044 Y12.27809
G01 X19.29754 Y12.27809
G01 X19.29833 Y12.27532
G01 X19.29754 Y12.27809
G01 X19.30755 Y12.27908
G01 X19.31098 Y12.28012
G01 X19.31413 Y12.28180
G01 X19.31690 Y12.28408
G01 X19.31916 Y12.28685
G01 X19.32086 Y12.29000
G01 X19.32190 Y12.29343
G01 X19.33069 Y12.28855
G01 X19.32190 Y12.29343
G01 X19.32289 Y12.30346
G01 X19.32289 Y12.59053
G01 X19.32571 Y12.59132
G01 X19.32289 Y12.59053
G01 X19.32190 Y12.60057
G01 X19.32086 Y12.60397
G01 X19.31916 Y12.60712
G01 X19.31690 Y12.60989
G01 X19.31413 Y12.61217
G01 X19.31098 Y12.61385
G01 X19.30755 Y12.61489
G01 X19.31243 Y12.62373
G01 X19.30755 Y12.61489
G01 X19.29754 Y12.61588
G01 X17.66044 Y12.61588
G01 X17.65820 Y12.62129
G01 X17.66044 Y12.61588
G01 X17.65043 Y12.61489
G01 X17.64700 Y12.61385
G01 X17.64385 Y12.61217
G01 X17.64108 Y12.60989
G01 X17.63882 Y12.60712
G01 X17.63712 Y12.60397
G01 X17.63608 Y12.60054
G01 X17.63511 Y12.59058
G01 X17.62968 Y12.59282
G01 X17.63511 Y12.59058
G01 X17.63511 Y12.30339
G04 P0 ( dwell for no time -- G64 should not smooth over this point )
G00 Z2.00000 ( retract )

G00 X17.77733 Y11.15033 ( rapid move to begin. )
G01 F40.00000
( Mill infeed pass 1/1 )
G01 Z-0.1280
G04 P0 ( dwell for no time -- G64 should not smooth over this point )
G01 F100.00000
G01 X17.77733 Y11.15033
G01 X17.77733 Y11.20367
G01 X17.75650 Y11.22449
G01 X17.77733 Y11.20367
G01 X19.18065 Y11.20367
G01 X19.20148 Y11.22449
G01 X19.18065 Y11.20367
G01 X19.18065 Y11.15033
G01 X19.20148 Y11.12950
G01 X19.18065 Y11.15033
G01 X17.77733 Y11.15033
G01 X17.70621 Y11.07921
G01 X19.25177 Y11.07921
G01 X19.27260 Y11.05838
G01 X19.25177 Y11.07921
G01 X19.25177 Y11.27476
G01 X19.27260 Y11.29559
G01 X19.25177 Y11.27476
G01 X17.70621 Y11.27476
G01 X17.68538 Y11.29559
G01 X17.70621 Y11.27476
G01 X17.70621 Y11.07921
G01 X17.68538 Y11.05838
G01 X17.63229 Y11.03260
G01 X17.56399 Y11.02993
G01 X17.56600 Y11.00951
G01 X17.57110 Y10.99267
G01 X17.57941 Y10.97715
G01 X17.59056 Y10.96354
G01 X17.60415 Y10.95241
G01 X17.61967 Y10.94410
G01 X17.63648 Y10.93900
G01 X17.65693 Y10.93699
G01 X19.30105 Y10.93699
G01 X19.32149 Y10.93900
G01 X19.33831 Y10.94410
G01 X19.35383 Y10.95241
G01 X19.36742 Y10.96354
G01 X19.37857 Y10.97715
G01 X19.38123 Y10.98210
G01 X19.38687 Y10.99267
G01 X19.39198 Y11.00948
G01 X19.39399 Y11.02996
G01 X19.39399 Y11.32404
G01 X19.39198 Y11.34448
G01 X19.38687 Y11.36132
G01 X19.37857 Y11.37684
G01 X19.36742 Y11.39041
G01 X19.35383 Y11.40158
G01 X19.33831 Y11.40986
G01 X19.32149 Y11.41497
G01 X19.30100 Y11.41698
G01 X17.65698 Y11.41698
G01 X17.63648 Y11.41497
G01 X17.61967 Y11.40986
G01 X17.60415 Y11.40158
G01 X17.59056 Y11.39043
G01 X17.57941 Y11.37682
G01 X17.57110 Y11.36132
G01 X17.56600 Y11.34446
G01 X17.56399 Y11.32406
G01 X17.56399 Y11.02993
G01 X17.63229 Y11.03260
G01 X17.63511 Y11.03339
G01 X17.63608 Y11.02343
G01 X17.63712 Y11.02000
G01 X17.63882 Y11.01685
G01 X17.64108 Y11.01408
G01 X17.64385 Y11.01180
G01 X17.64700 Y11.01012
G01 X17.65043 Y11.00908
G01 X17.64555 Y11.00024
G01 X17.65043 Y11.00908
G01 X17.66044 Y11.00809
G01 X19.29754 Y11.00809
G01 X19.29833 Y11.00532
G01 X19.29754 Y11.00809
G01 X19.30755 Y11.00908
G01 X19.31098 Y11.01012
G01 X19.31413 Y11.01180
G01 X19.31690 Y11.01408
G01 X19.31916 Y11.01685
G01 X19.32086 Y11.02000
G01 X19.32190 Y11.02343
G01 X19.33069 Y11.01855
G01 X19.32190 Y11.02343
G01 X19.32289 Y11.03346
G01 X19.32289 Y11.32053
G01 X19.32571 Y11.32132
G01 X19.32289 Y11.32053
G01 X19.32190 Y11.33057
G01 X19.32086 Y11.33397
G01 X19.31916 Y11.33712
G01 X19.31690 Y11.33989
G01 X19.31413 Y11.34217
G01 X19.31098 Y11.34385
G01 X19.30755 Y11.34489
G01 X19.31243 Y11.35373
G01 X19.30755 Y11.34489
G01 X19.29754 Y11.34588
G01 X17.66044 Y11.34588
G01 X17.65820 Y11.35129
G01 X17.66044 Y11.34588
G01 X17.65043 Y11.34489
G01 X17.64700 Y11.34385
G01 X17.64385 Y11.34217
G01 X17.64108 Y11.33989
G01 X17.63882 Y11.33712
G01 X17.63712 Y11.33397
G01 X17.63608 Y11.33054
G01 X17.63511 Y11.32058
G01 X17.62968 Y11.32282
G01 X17.63511 Y11.32058
G01 X17.63511 Y11.03339
G04 P0 ( dwell for no time -- G64 should not smooth over this point )
G00 Z2.00000 ( retract )

G00 X17.63511 Y9.76339 ( rapid move to begin. )
G01 F40.00000
( Mill infeed pass 1/1 )
G01 Z-0.1280
G04 P0 ( dwell for no time -- G64 should not smooth over this point )
G01 F100.00000
G01 X17.63511 Y9.76339
G01 X17.63511 Y10.05058
G01 X17.62968 Y10.05282
G01 X17.63511 Y10.05058
G01 X17.63608 Y10.06054
G01 X17.63712 Y10.06397
G01 X17.63882 Y10.06712
G01 X17.64108 Y10.06989
G01 X17.64385 Y10.07217
G01 X17.64700 Y10.07385
G01 X17.65043 Y10.07489
G01 X17.66044 Y10.07588
G01 X17.65820 Y10.08129
G01 X17.66044 Y10.07588
G01 X19.29754 Y10.07588
G01 X19.30755 Y10.07489
G01 X19.31243 Y10.08373
G01 X19.30755 Y10.07489
G01 X19.31098 Y10.07385
G01 X19.31413 Y10.07217
G01 X19.31690 Y10.06989
G01 X19.31916 Y10.06712
G01 X19.32086 Y10.06397
G01 X19.32190 Y10.06057
G01 X19.32289 Y10.05053
G01 X19.32571 Y10.05132
G01 X19.32289 Y10.05053
G01 X19.32289 Y9.76346
G01 X19.32190 Y9.75343
G01 X19.33069 Y9.74855
G01 X19.32190 Y9.75343
G01 X19.32086 Y9.75000
G01 X19.31916 Y9.74685
G01 X19.31690 Y9.74408
G01 X19.31413 Y9.74180
G01 X19.31098 Y9.74012
G01 X19.30755 Y9.73908
G01 X19.29754 Y9.73809
G01 X19.29833 Y9.73532
G01 X19.29754 Y9.73809
G01 X17.66044 Y9.73809
G01 X17.65043 Y9.73908
G01 X17.64555 Y9.73024
G01 X17.65043 Y9.73908
G01 X17.64700 Y9.74012
G01 X17.64385 Y9.74180
G01 X17.64108 Y9.74408
G01 X17.63882 Y9.74685
G01 X17.63712 Y9.75000
G01 X17.63608 Y9.75343
G01 X17.63511 Y9.76339
G01 X17.63229 Y9.76260
G01 X17.56399 Y9.75993
G01 X17.56399 Y10.05406
G01 X17.56600 Y10.07446
G01 X17.57110 Y10.09132
G01 X17.57941 Y10.10684
G01 X17.59056 Y10.12043
G01 X17.60415 Y10.13158
G01 X17.61787 Y10.13892
G01 X17.61964 Y10.13986
G01 X17.63648 Y10.14497
G01 X17.65693 Y10.14698
G01 X19.30105 Y10.14698
G01 X19.32149 Y10.14497
G01 X19.33833 Y10.13986
G01 X19.35380 Y10.13158
G01 X19.36742 Y10.12043
G01 X19.37857 Y10.10684
G01 X19.38687 Y10.09130
G01 X19.39198 Y10.07448
G01 X19.39399 Y10.05404
G01 X19.39399 Y9.75996
G01 X19.39198 Y9.73948
G01 X19.38687 Y9.72267
G01 X19.37857 Y9.70712
G01 X19.36742 Y9.69356
G01 X19.35383 Y9.68238
G01 X19.33833 Y9.67410
G01 X19.32149 Y9.66900
G01 X19.30102 Y9.66699
G01 X17.65696 Y9.66699
G01 X17.63648 Y9.66900
G01 X17.61964 Y9.67410
G01 X17.60415 Y9.68238
G01 X17.59056 Y9.69354
G01 X17.57941 Y9.70712
G01 X17.57110 Y9.72267
G01 X17.56600 Y9.73951
G01 X17.56399 Y9.75993
G01 X17.63229 Y9.76260
G01 X17.68538 Y9.78838
G01 X17.70621 Y9.80921
G01 X17.70621 Y10.00476
G01 X17.68538 Y10.02559
G01 X17.70621 Y10.00476
G01 X19.25177 Y10.00476
G01 X19.27260 Y10.02559
G01 X19.25177 Y10.00476
G01 X19.25177 Y9.80921
G01 X19.27260 Y9.78838
G01 X19.25177 Y9.80921
G01 X17.70621 Y9.80921
G01 X17.77733 Y9.88033
G01 X19.18065 Y9.88033
G01 X19.20148 Y9.85950
G01 X19.18065 Y9.88033
G01 X19.18065 Y9.93367
G01 X19.20148 Y9.95449
G01 X19.18065 Y9.93367
G01 X17.77733 Y9.93367
G01 X17.75650 Y9.95449
G01 X17.77733 Y9.93367
G01 X17.77733 Y9.88033
G04 P0 ( dwell for no time -- G64 should not smooth over this point )
G00 Z2.00000 ( retract )

G00 X21.32769 Y8.06298 ( rapid move to begin. )
G01 F40.00000
( Mill infeed pass 1/1 )
G01 Z-0.1280
G04 P0 ( dwell for no time -- G64 should not smooth over this point )
G01 F100.00000
G01 X21.32769 Y8.06298
G01 X21.32769 Y9.54299
G01 X22.80769 Y9.54299
G01 X22.80769 Y8.06298
G01 X21.32769 Y8.06298
G01 X21.39881 Y8.13410
G01 X21.39881 Y9.47187
G01 X21.37798 Y9.49270
G01 X21.39881 Y9.47187
G01 X22.73657 Y9.47187
G01 X22.75740 Y9.49270
G01 X22.73657 Y9.47187
G01 X22.73657 Y8.13410
G01 X22.75740 Y8.11327
G01 X22.73657 Y8.13410
G01 X21.39881 Y8.13410
G01 X21.46990 Y8.20520
G01 X21.46990 Y9.40077
G01 X21.44907 Y9.42160
G01 X21.46990 Y9.40077
G01 X22.66548 Y9.40077
G01 X22.68631 Y9.42160
G01 X22.66548 Y9.40077
G01 X22.66548 Y8.20520
G01 X22.68631 Y8.18437
G01 X22.66548 Y8.20520
G01 X21.46990 Y8.20520
G01 X21.54102 Y8.27632
G01 X21.54102 Y9.32965
G01 X21.52019 Y9.35048
G01 X21.54102 Y9.32965
G01 X22.59436 Y9.32965
G01 X22.61519 Y9.35048
G01 X22.59436 Y9.32965
G01 X22.59436 Y8.27632
G01 X22.61519 Y8.25549
G01 X22.59436 Y8.27632
G01 X21.54102 Y8.27632
G01 X21.61212 Y8.34744
G01 X21.61212 Y9.25856
G01 X21.59129 Y9.27936
G01 X21.61212 Y9.25856
G01 X22.52324 Y9.25856
G01 X22.54407 Y9.27936
G01 X22.52324 Y9.25856
G01 X22.52324 Y8.34744
G01 X22.54407 Y8.32661
G01 X22.52324 Y8.34744
G01 X21.61212 Y8.34744
G01 X21.68324 Y8.41853
G01 X21.68324 Y9.18744
G01 X21.66241 Y9.20827
G01 X21.68324 Y9.18744
G01 X22.45215 Y9.18744
G01 X22.47297 Y9.20827
G01 X22.45215 Y9.18744
G01 X22.45215 Y8.41853
G01 X22.47297 Y8.39770
G01 X22.45215 Y8.41853
G01 X21.68324 Y8.41853
G01 X21.75436 Y8.48965
G01 X21.75436 Y9.11632
G01 X21.73353 Y9.13715
G01 X21.75436 Y9.11632
G01 X22.38103 Y9.11632
G01 X22.40185 Y9.13715
G01 X22.38103 Y9.11632
G01 X22.38103 Y8.48965
G01 X22.40185 Y8.46882
G01 X22.38103 Y8.48965
G01 X21.75436 Y8.48965
G01 X21.82545 Y8.56075
G01 X21.82545 Y9.04523
G01 X21.80462 Y9.06605
G01 X21.82545 Y9.04523
G01 X22.30993 Y9.04523
G01 X22.33076 Y9.06605
G01 X22.30993 Y9.04523
G01 X22.30993 Y8.56075
G01 X22.33076 Y8.53992
G01 X22.30993 Y8.56075
G01 X21.82545 Y8.56075
G01 X21.89657 Y8.63187
G01 X21.89657 Y8.97411
G01 X21.87574 Y8.99493
G01 X21.89657 Y8.97411
G01 X22.23881 Y8.97411
G01 X22.25964 Y8.99493
G01 X22.23881 Y8.97411
G01 X22.23881 Y8.63187
G01 X22.25964 Y8.61104
G01 X22.23881 Y8.63187
G01 X21.89657 Y8.63187
G01 X21.96767 Y8.70299
G01 X21.96767 Y8.90301
G01 X21.94684 Y8.92384
G01 X21.96767 Y8.90301
G01 X22.16769 Y8.90301
G01 X22.18852 Y8.92384
G01 X22.16769 Y8.90301
G01 X22.16769 Y8.70299
G01 X22.18852 Y8.68216
G01 X22.16769 Y8.70299
G01 X21.96767 Y8.70299
G01 X22.03879 Y8.77408
G01 X22.09660 Y8.77408
G01 X22.11742 Y8.75325
G01 X22.09660 Y8.77408
G01 X22.09660 Y8.83189
G01 X22.11742 Y8.85272
G01 X22.09660 Y8.83189
G01 X22.03879 Y8.83189
G01 X22.01796 Y8.85272
G01 X22.03879 Y8.83189
G01 X22.03879 Y8.77408
G04 P0 ( dwell for no time -- G64 should not smooth over this point )
G00 Z2.00000 ( retract )

G00 X23.32801 Y8.80299 ( rapid move to begin. )
G01 F40.00000
( Mill infeed pass 1/1 )
G01 Z-0.1280
G04 P0 ( dwell for no time -- G64 should not smooth over this point )
G01 F100.00000
G01 X23.32801 Y8.80299
G01 X23.34419 Y8.64919
G01 X23.39197 Y8.50212
G01 X23.46929 Y8.36821
G01 X23.57277 Y8.25330
G01 X23.69786 Y8.16242
G01 X23.83911 Y8.09953
G01 X23.99037 Y8.06738
G01 X24.14500 Y8.06738
G01 X24.29626 Y8.09953
G01 X24.43751 Y8.16242
G01 X24.56261 Y8.25330
G01 X24.66609 Y8.36821
G01 X24.74340 Y8.50215
G01 X24.79118 Y8.64919
G01 X24.80736 Y8.80299
G01 X24.79121 Y8.95676
G01 X24.74340 Y9.10385
G01 X24.66609 Y9.23776
G01 X24.56261 Y9.35267
G01 X24.43751 Y9.44357
G01 X24.29626 Y9.50646
G01 X24.14500 Y9.53860
G01 X23.99040 Y9.53860
G01 X23.83911 Y9.50646
G01 X23.69786 Y9.44357
G01 X23.57274 Y9.35267
G01 X23.46929 Y9.23776
G01 X23.39197 Y9.10385
G01 X23.34419 Y8.95678
G01 X23.32801 Y8.80299
G01 X23.39951 Y8.80299
G01 X23.41412 Y8.66407
G01 X23.41374 Y8.66400
G01 X23.41412 Y8.66407
G01 X23.45727 Y8.53123
G01 X23.45692 Y8.53105
G01 X23.45727 Y8.53123
G01 X23.52712 Y8.41023
G01 X23.52682 Y8.41000
G01 X23.52712 Y8.41023
G01 X23.62060 Y8.30644
G01 X23.62034 Y8.30616
G01 X23.62060 Y8.30644
G01 X23.73360 Y8.22432
G01 X23.73340 Y8.22399
G01 X23.73360 Y8.22432
G01 X23.86121 Y8.16753
G01 X23.86108 Y8.16715
G01 X23.86121 Y8.16753
G01 X23.99784 Y8.13847
G01 X23.99779 Y8.13809
G01 X23.99784 Y8.13847
G01 X24.13754 Y8.13847
G01 X24.13759 Y8.13809
G01 X24.13754 Y8.13847
G01 X24.27416 Y8.16753
G01 X24.27429 Y8.16715
G01 X24.27416 Y8.16753
G01 X24.40175 Y8.22432
G01 X24.40195 Y8.22399
G01 X24.40175 Y8.22432
G01 X24.51478 Y8.30644
G01 X24.51503 Y8.30616
G01 X24.51478 Y8.30644
G01 X24.60825 Y8.41025
G01 X24.60855 Y8.41002
G01 X24.60825 Y8.41025
G01 X24.67810 Y8.53123
G01 X24.67846 Y8.53105
G01 X24.67810 Y8.53123
G01 X24.72125 Y8.66407
G01 X24.72164 Y8.66400
G01 X24.72125 Y8.66407
G01 X24.73586 Y8.80299
G01 X24.73624 Y8.80299
G01 X24.73586 Y8.80299
G01 X24.72125 Y8.94190
G01 X24.72164 Y8.94197
G01 X24.72125 Y8.94190
G01 X24.67810 Y9.07474
G01 X24.67846 Y9.07489
G01 X24.67810 Y9.07474
G01 X24.60825 Y9.19572
G01 X24.60855 Y9.19595
G01 X24.60825 Y9.19572
G01 X24.51478 Y9.29953
G01 X24.51503 Y9.29984
G01 X24.51478 Y9.29953
G01 X24.40175 Y9.38165
G01 X24.40195 Y9.38198
G01 X24.40175 Y9.38165
G01 X24.27416 Y9.43844
G01 X24.27429 Y9.43882
G01 X24.27416 Y9.43844
G01 X24.13754 Y9.46750
G01 X24.13759 Y9.46788
G01 X24.13754 Y9.46750
G01 X23.99784 Y9.46750
G01 X23.99779 Y9.46788
G01 X23.99784 Y9.46750
G01 X23.86121 Y9.43844
G01 X23.86108 Y9.43882
G01 X23.86121 Y9.43844
G01 X23.73360 Y9.38165
G01 X23.73340 Y9.38198
G01 X23.73360 Y9.38165
G01 X23.62060 Y9.29956
G01 X23.62034 Y9.29984
G01 X23.62060 Y9.29956
G01 X23.52715 Y9.19575
G01 X23.52682 Y9.19597
G01 X23.52715 Y9.19575
G01 X23.45727 Y9.07474
G01 X23.45692 Y9.07489
G01 X23.45727 Y9.07474
G01 X23.41412 Y8.94190
G01 X23.41374 Y8.94197
G01 X23.41412 Y8.94190
G01 X23.39951 Y8.80299
G01 X23.47102 Y8.80299
G01 X23.48407 Y8.67893
G01 X23.48367 Y8.67886
G01 X23.48407 Y8.67893
G01 X23.52260 Y8.56029
G01 X23.52225 Y8.56014
G01 X23.52260 Y8.56029
G01 X23.58499 Y8.45226
G01 X23.58466 Y8.45203
G01 X23.58499 Y8.45226
G01 X23.66842 Y8.35958
G01 X23.66817 Y8.35930
G01 X23.66842 Y8.35958
G01 X23.76936 Y8.28625
G01 X23.76916 Y8.28592
G01 X23.76936 Y8.28625
G01 X23.88331 Y8.23552
G01 X23.88318 Y8.23514
G01 X23.88331 Y8.23552
G01 X24.00530 Y8.20959
G01 X24.00528 Y8.20921
G01 X24.00530 Y8.20959
G01 X24.13007 Y8.20959
G01 X24.13010 Y8.20921
G01 X24.13007 Y8.20959
G01 X24.25207 Y8.23552
G01 X24.25219 Y8.23514
G01 X24.25207 Y8.23552
G01 X24.36604 Y8.28625
G01 X24.36621 Y8.28592
G01 X24.36604 Y8.28625
G01 X24.46695 Y8.35958
G01 X24.46720 Y8.35930
G01 X24.46695 Y8.35958
G01 X24.55041 Y8.45229
G01 X24.55072 Y8.45206
G01 X24.55041 Y8.45229
G01 X24.61277 Y8.56029
G01 X24.61313 Y8.56014
G01 X24.61277 Y8.56029
G01 X24.65133 Y8.67896
G01 X24.65171 Y8.67888
G01 X24.65133 Y8.67896
G01 X24.66436 Y8.80299
G01 X24.66474 Y8.80299
G01 X24.66436 Y8.80299
G01 X24.65133 Y8.92701
G01 X24.65171 Y8.92712
G01 X24.65133 Y8.92701
G01 X24.61277 Y9.04568
G01 X24.61313 Y9.04584
G01 X24.61277 Y9.04568
G01 X24.55041 Y9.15368
G01 X24.55072 Y9.15391
G01 X24.55041 Y9.15368
G01 X24.46692 Y9.24639
G01 X24.46720 Y9.24670
G01 X24.46692 Y9.24639
G01 X24.36604 Y9.31972
G01 X24.36621 Y9.32005
G01 X24.36604 Y9.31972
G01 X24.25207 Y9.37045
G01 X24.25219 Y9.37083
G01 X24.25207 Y9.37045
G01 X24.13007 Y9.39638
G01 X24.13010 Y9.39679
G01 X24.13007 Y9.39638
G01 X24.00530 Y9.39638
G01 X24.00528 Y9.39679
G01 X24.00530 Y9.39638
G01 X23.88331 Y9.37045
G01 X23.88318 Y9.37083
G01 X23.88331 Y9.37045
G01 X23.76936 Y9.31972
G01 X23.76916 Y9.32005
G01 X23.76936 Y9.31972
G01 X23.66845 Y9.24639
G01 X23.66817 Y9.24670
G01 X23.66845 Y9.24639
G01 X23.58499 Y9.15371
G01 X23.58466 Y9.15394
G01 X23.58499 Y9.15371
G01 X23.52260 Y9.04568
G01 X23.52225 Y9.04584
G01 X23.52260 Y9.04568
G01 X23.48407 Y8.92704
G01 X23.48367 Y8.92712
G01 X23.48407 Y8.92704
G01 X23.47102 Y8.80299
G01 X23.54252 Y8.80299
G01 X23.55400 Y8.69379
G01 X23.55362 Y8.69372
G01 X23.55400 Y8.69379
G01 X23.58793 Y8.58940
G01 X23.58755 Y8.58925
G01 X23.58793 Y8.58940
G01 X23.64282 Y8.49430
G01 X23.64252 Y8.49407
G01 X23.64282 Y8.49430
G01 X23.71628 Y8.41271
G01 X23.71602 Y8.41244
G01 X23.71628 Y8.41271
G01 X23.80510 Y8.34817
G01 X23.80492 Y8.34784
G01 X23.80510 Y8.34817
G01 X23.90541 Y8.30352
G01 X23.90528 Y8.30316
G01 X23.90541 Y8.30352
G01 X24.01280 Y8.28069
G01 X24.01275 Y8.28030
G01 X24.01280 Y8.28069
G01 X24.12258 Y8.28069
G01 X24.12263 Y8.28030
G01 X24.12258 Y8.28069
G01 X24.22997 Y8.30352
G01 X24.23009 Y8.30316
G01 X24.22997 Y8.30352
G01 X24.33027 Y8.34817
G01 X24.33048 Y8.34784
G01 X24.33027 Y8.34817
G01 X24.41910 Y8.41271
G01 X24.41935 Y8.41244
G01 X24.41910 Y8.41271
G01 X24.49255 Y8.49430
G01 X24.49286 Y8.49407
G01 X24.49255 Y8.49430
G01 X24.54744 Y8.58937
G01 X24.54780 Y8.58922
G01 X24.54744 Y8.58937
G01 X24.58138 Y8.69382
G01 X24.58176 Y8.69372
G01 X24.58138 Y8.69382
G01 X24.59286 Y8.80299
G01 X24.59324 Y8.80299
G01 X24.59286 Y8.80299
G01 X24.58138 Y8.91216
G01 X24.58176 Y8.91226
G01 X24.58138 Y8.91216
G01 X24.54744 Y9.01660
G01 X24.54780 Y9.01675
G01 X24.54744 Y9.01660
G01 X24.49255 Y9.11167
G01 X24.49286 Y9.11190
G01 X24.49255 Y9.11167
G01 X24.41910 Y9.19326
G01 X24.41935 Y9.19356
G01 X24.41910 Y9.19326
G01 X24.33027 Y9.25780
G01 X24.33048 Y9.25813
G01 X24.33027 Y9.25780
G01 X24.22997 Y9.30245
G01 X24.23009 Y9.30283
G01 X24.22997 Y9.30245
G01 X24.12258 Y9.32529
G01 X24.12263 Y9.32567
G01 X24.12258 Y9.32529
G01 X24.01280 Y9.32529
G01 X24.01275 Y9.32567
G01 X24.01280 Y9.32529
G01 X23.90541 Y9.30245
G01 X23.90528 Y9.30283
G01 X23.90541 Y9.30245
G01 X23.80510 Y9.25780
G01 X23.80492 Y9.25813
G01 X23.80510 Y9.25780
G01 X23.71628 Y9.19326
G01 X23.71602 Y9.19354
G01 X23.71628 Y9.19326
G01 X23.64282 Y9.11167
G01 X23.64252 Y9.11190
G01 X23.64282 Y9.11167
G01 X23.58793 Y9.01657
G01 X23.58755 Y9.01673
G01 X23.58793 Y9.01657
G01 X23.55400 Y8.91218
G01 X23.55362 Y8.91226
G01 X23.55400 Y8.91218
G01 X23.54252 Y8.80299
G01 X23.61402 Y8.80299
G01 X23.62395 Y8.70868
G01 X23.65324 Y8.61848
G01 X23.65179 Y8.61782
G01 X23.65324 Y8.61848
G01 X23.70066 Y8.53634
G01 X23.76413 Y8.46585
G01 X23.76307 Y8.46466
G01 X23.76413 Y8.46585
G01 X23.84087 Y8.41010
G01 X23.92748 Y8.37154
G01 X23.92717 Y8.37070
G01 X23.92748 Y8.37154
G01 X24.02029 Y8.35181
G01 X24.02024 Y8.35092
G01 X24.02029 Y8.35181
G01 X24.11508 Y8.35181
G01 X24.20790 Y8.37154
G01 X24.20838 Y8.37002
G01 X24.20790 Y8.37154
G01 X24.29453 Y8.41010
G01 X24.37124 Y8.46585
G01 X24.37231 Y8.46466
G01 X24.37124 Y8.46585
G01 X24.43472 Y8.53634
G01 X24.48214 Y8.61848
G01 X24.48359 Y8.61782
G01 X24.48214 Y8.61848
G01 X24.51143 Y8.70868
G01 X24.52136 Y8.80299
G01 X24.52293 Y8.80299
G01 X24.52136 Y8.80299
G01 X24.51143 Y8.89732
G01 X24.48214 Y8.98749
G01 X24.48295 Y8.98782
G01 X24.48214 Y8.98749
G01 X24.43472 Y9.06964
G01 X24.43540 Y9.07019
G01 X24.43472 Y9.06964
G01 X24.37124 Y9.14012
G01 X24.29451 Y9.19587
G01 X24.29532 Y9.19724
G01 X24.29451 Y9.19587
G01 X24.20787 Y9.23446
G01 X24.11511 Y9.25417
G01 X24.11529 Y9.25574
G01 X24.11511 Y9.25417
G01 X24.02027 Y9.25417
G01 X23.92750 Y9.23446
G01 X23.92702 Y9.23595
G01 X23.92750 Y9.23446
G01 X23.84087 Y9.19587
G01 X23.76413 Y9.14012
G01 X23.76307 Y9.14131
G01 X23.76413 Y9.14012
G01 X23.70066 Y9.06964
G01 X23.65324 Y8.98749
G01 X23.65179 Y8.98815
G01 X23.65324 Y8.98749
G01 X23.62395 Y8.89732
G01 X23.61402 Y8.80299
G01 X23.68552 Y8.80299
G01 X23.69388 Y8.72353
G01 X23.71856 Y8.64756
G01 X23.71773 Y8.64723
G01 X23.71856 Y8.64756
G01 X23.75852 Y8.57835
G01 X23.75783 Y8.57779
G01 X23.75852 Y8.57835
G01 X23.81196 Y8.51899
G01 X23.87663 Y8.47202
G01 X23.87582 Y8.47065
G01 X23.87663 Y8.47202
G01 X23.94960 Y8.43954
G01 X24.02773 Y8.42293
G01 X24.02756 Y8.42133
G01 X24.02773 Y8.42293
G01 X24.10764 Y8.42293
G01 X24.18577 Y8.43954
G01 X24.18628 Y8.43801
G01 X24.18577 Y8.43954
G01 X24.25877 Y8.47202
G01 X24.32341 Y8.51899
G01 X24.32446 Y8.51779
G01 X24.32341 Y8.51899
G01 X24.37686 Y8.57837
G01 X24.41681 Y8.64754
G01 X24.41826 Y8.64688
G01 X24.41681 Y8.64754
G01 X24.44150 Y8.72353
G01 X24.44986 Y8.80299
G01 X24.45143 Y8.80299
G01 X24.44986 Y8.80299
G01 X24.44150 Y8.88244
G01 X24.41681 Y8.95846
G01 X24.41826 Y8.95909
G01 X24.41681 Y8.95846
G01 X24.37688 Y9.02760
G01 X24.32341 Y9.08698
G01 X24.32446 Y9.08818
G01 X24.32341 Y9.08698
G01 X24.25877 Y9.13395
G01 X24.18577 Y9.16643
G01 X24.18610 Y9.16727
G01 X24.18577 Y9.16643
G01 X24.10762 Y9.18305
G01 X24.10767 Y9.18394
G01 X24.10762 Y9.18305
G01 X24.02776 Y9.18305
G01 X23.94960 Y9.16643
G01 X23.94909 Y9.16796
G01 X23.94960 Y9.16643
G01 X23.87663 Y9.13395
G01 X23.81196 Y9.08698
G01 X23.81089 Y9.08815
G01 X23.81196 Y9.08698
G01 X23.75852 Y9.02762
G01 X23.71856 Y8.95843
G01 X23.71712 Y8.95907
G01 X23.71856 Y8.95843
G01 X23.69388 Y8.88244
G01 X23.68552 Y8.80299
G01 X23.75702 Y8.80299
G01 X23.76380 Y8.73842
G01 X23.76294 Y8.73827
G01 X23.76380 Y8.73842
G01 X23.78389 Y8.67662
G01 X23.78311 Y8.67621
G01 X23.78389 Y8.67662
G01 X23.81635 Y8.62039
G01 X23.85981 Y8.57213
G01 X23.85875 Y8.57093
G01 X23.85981 Y8.57213
G01 X23.91237 Y8.53395
G01 X23.97168 Y8.50753
G01 X23.97117 Y8.50603
G01 X23.97168 Y8.50753
G01 X24.03520 Y8.49402
G01 X24.10017 Y8.49402
G01 X24.10035 Y8.49245
G01 X24.10017 Y8.49402
G01 X24.16370 Y8.50753
G01 X24.22301 Y8.53395
G01 X24.22380 Y8.53258
G01 X24.22301 Y8.53395
G01 X24.27556 Y8.57213
G01 X24.31902 Y8.62039
G01 X24.32032 Y8.61947
G01 X24.31902 Y8.62039
G01 X24.35148 Y8.67662
G01 X24.37155 Y8.73839
G01 X24.37312 Y8.73806
G01 X24.37155 Y8.73839
G01 X24.37835 Y8.80299
G01 X24.37157 Y8.86758
G01 X24.37312 Y8.86791
G01 X24.37157 Y8.86758
G01 X24.35148 Y8.92935
G01 X24.31902 Y8.98559
G01 X24.32032 Y8.98653
G01 X24.31902 Y8.98559
G01 X24.27556 Y9.03385
G01 X24.22301 Y9.07202
G01 X24.22382 Y9.07339
G01 X24.22301 Y9.07202
G01 X24.16367 Y9.09844
G01 X24.10017 Y9.11195
G01 X24.10030 Y9.11282
G01 X24.10017 Y9.11195
G01 X24.03520 Y9.11195
G01 X24.03507 Y9.11282
G01 X24.03520 Y9.11195
G01 X23.97170 Y9.09844
G01 X23.91237 Y9.07202
G01 X23.91155 Y9.07339
G01 X23.91237 Y9.07202
G01 X23.85981 Y9.03385
G01 X23.81635 Y8.98559
G01 X23.81506 Y8.98653
G01 X23.81635 Y8.98559
G01 X23.78389 Y8.92935
G01 X23.76380 Y8.86755
G01 X23.76225 Y8.86788
G01 X23.76380 Y8.86755
G01 X23.75702 Y8.80299
G01 X23.82852 Y8.80299
G01 X23.83375 Y8.75328
G01 X23.83286 Y8.75313
G01 X23.83375 Y8.75328
G01 X23.84920 Y8.70570
G01 X23.84841 Y8.70530
G01 X23.84920 Y8.70570
G01 X23.87419 Y8.66242
G01 X23.90764 Y8.62526
G01 X23.90658 Y8.62409
G01 X23.90764 Y8.62526
G01 X23.94810 Y8.59587
G01 X23.99380 Y8.57553
G01 X23.99329 Y8.57400
G01 X23.99380 Y8.57553
G01 X24.04269 Y8.56514
G01 X24.09268 Y8.56514
G01 X24.09286 Y8.56357
G01 X24.09268 Y8.56514
G01 X24.14158 Y8.57553
G01 X24.18727 Y8.59587
G01 X24.18806 Y8.59450
G01 X24.18727 Y8.59587
G01 X24.22771 Y8.62526
G01 X24.26118 Y8.66242
G01 X24.26245 Y8.66148
G01 X24.26118 Y8.66242
G01 X24.28618 Y8.70570
G01 X24.30162 Y8.75328
G01 X24.30317 Y8.75295
G01 X24.30162 Y8.75328
G01 X24.30685 Y8.80299
G01 X24.30162 Y8.85272
G01 X24.30317 Y8.85305
G01 X24.30162 Y8.85272
G01 X24.28618 Y8.90027
G01 X24.26118 Y8.94355
G01 X24.26192 Y8.94403
G01 X24.26118 Y8.94355
G01 X24.22771 Y8.98074
G01 X24.22827 Y8.98142
G01 X24.22771 Y8.98074
G01 X24.18725 Y9.01012
G01 X24.14160 Y9.03044
G01 X24.14211 Y9.03194
G01 X24.14160 Y9.03044
G01 X24.09266 Y9.04083
G01 X24.04272 Y9.04083
G01 X24.04254 Y9.04241
G01 X24.04272 Y9.04083
G01 X23.99377 Y9.03044
G01 X23.94813 Y9.01012
G01 X23.94732 Y9.01149
G01 X23.94813 Y9.01012
G01 X23.90767 Y8.98071
G01 X23.87419 Y8.94355
G01 X23.87292 Y8.94449
G01 X23.87419 Y8.94355
G01 X23.84920 Y8.90027
G01 X23.83375 Y8.85272
G01 X23.83220 Y8.85305
G01 X23.83375 Y8.85272
G01 X23.82852 Y8.80299
G01 X23.90002 Y8.80299
G01 X23.90370 Y8.76814
G01 X23.90122 Y8.76773
G01 X23.90370 Y8.76814
G01 X23.91453 Y8.73479
G01 X23.93205 Y8.70443
G01 X23.93076 Y8.70349
G01 X23.93205 Y8.70443
G01 X23.95550 Y8.67840
G01 X23.98384 Y8.65780
G01 X23.98305 Y8.65640
G01 X23.98384 Y8.65780
G01 X24.01587 Y8.64352
G01 X24.05016 Y8.63623
G01 X24.05001 Y8.63466
G01 X24.05016 Y8.63623
G01 X24.08521 Y8.63623
G01 X24.11950 Y8.64352
G01 X24.12039 Y8.64119
G01 X24.11950 Y8.64352
G01 X24.15153 Y8.65780
G01 X24.17988 Y8.67840
G01 X24.20332 Y8.70443
G01 X24.20528 Y8.70286
G01 X24.20332 Y8.70443
G01 X24.22085 Y8.73479
G01 X24.23167 Y8.76814
G01 X24.23324 Y8.76781
G01 X24.23167 Y8.76814
G01 X24.23535 Y8.80299
G01 X24.23170 Y8.83786
G01 X24.23324 Y8.83819
G01 X24.23170 Y8.83786
G01 X24.22085 Y8.87118
G01 X24.20332 Y8.90154
G01 X24.20462 Y8.90248
G01 X24.20332 Y8.90154
G01 X24.17988 Y8.92757
G01 X24.15153 Y8.94817
G01 X24.15232 Y8.94957
G01 X24.15153 Y8.94817
G01 X24.11950 Y8.96245
G01 X24.08521 Y8.96974
G01 X24.08537 Y8.97131
G01 X24.08521 Y8.96974
G01 X24.05016 Y8.96974
G01 X24.01587 Y8.96245
G01 X24.01539 Y8.96395
G01 X24.01587 Y8.96245
G01 X23.98384 Y8.94817
G01 X23.95550 Y8.92757
G01 X23.95443 Y8.92874
G01 X23.95550 Y8.92757
G01 X23.93205 Y8.90154
G01 X23.91453 Y8.87118
G01 X23.91219 Y8.87207
G01 X23.91453 Y8.87118
G01 X23.90370 Y8.83786
G01 X23.90002 Y8.80299
G01 X23.96479 Y8.80299
G01 X24.02486 Y8.76994
G01 X24.04775 Y8.78848
G01 X24.04516 Y8.79295
G01 X24.04356 Y8.79786
G01 X24.04302 Y8.80299
G01 X24.04356 Y8.80812
G01 X24.04516 Y8.81302
G01 X24.04775 Y8.81749
G01 X24.05118 Y8.82130
G01 X24.03264 Y8.84416
G01 X24.05118 Y8.82130
G01 X24.05537 Y8.82435
G01 X24.06004 Y8.82643
G01 X24.06512 Y8.82750
G01 X24.07025 Y8.82750
G01 X24.07533 Y8.82643
G01 X24.08001 Y8.82435
G01 X24.08420 Y8.82130
G01 X24.08763 Y8.81749
G01 X24.11051 Y8.83606
G01 X24.08763 Y8.81749
G01 X24.09022 Y8.81302
G01 X24.09182 Y8.80812
G01 X24.09235 Y8.80299
G01 X24.09182 Y8.79786
G01 X24.09022 Y8.79295
G01 X24.08763 Y8.78848
G01 X24.08420 Y8.78467
G01 X24.10276 Y8.76179
G01 X24.08420 Y8.78467
G01 X24.08001 Y8.78162
G01 X24.07531 Y8.77954
G01 X24.07025 Y8.77848
G01 X24.06512 Y8.77848
G01 X24.06007 Y8.77954
G01 X24.05537 Y8.78162
G01 X24.05118 Y8.78467
G01 X24.04775 Y8.78848
G01 X24.02486 Y8.76994
G01 X23.96479 Y8.80299
G01 X23.97152 Y8.80299
G01 X23.97363 Y8.82298
G01 X23.97983 Y8.84210
G01 X23.98989 Y8.85953
G01 X24.00335 Y8.87444
G01 X23.99885 Y8.87944
G01 X24.00335 Y8.87444
G01 X24.01961 Y8.88627
G01 X24.03797 Y8.89443
G01 X24.05765 Y8.89862
G01 X24.07775 Y8.89862
G01 X24.07800 Y8.90367
G01 X24.07775 Y8.89862
G01 X24.09741 Y8.89443
G01 X24.11577 Y8.88627
G01 X24.13203 Y8.87444
G01 X24.13561 Y8.87802
G01 X24.13203 Y8.87444
G01 X24.14549 Y8.85953
G01 X24.15552 Y8.84210
G01 X24.16174 Y8.82298
G01 X24.16385 Y8.80299
G01 X24.16891 Y8.80324
G01 X24.16385 Y8.80299
G01 X24.16174 Y8.78300
G01 X24.15555 Y8.76387
G01 X24.14549 Y8.74645
G01 X24.14940 Y8.74327
G01 X24.14549 Y8.74645
G01 X24.13203 Y8.73154
G01 X24.11577 Y8.71972
G01 X24.09738 Y8.71152
G01 X24.07775 Y8.70735
G01 X24.07846 Y8.70067
G01 X24.07775 Y8.70735
G01 X24.05763 Y8.70735
G01 X24.03799 Y8.71152
G01 X24.01961 Y8.71972
G01 X24.00335 Y8.73154
G01 X23.99885 Y8.72653
G01 X24.00335 Y8.73154
G01 X23.98989 Y8.74645
G01 X23.97983 Y8.76390
G01 X23.97363 Y8.78300
G01 X23.97152 Y8.80299
G04 P0 ( dwell for no time -- G64 should not smooth over this point )
G00 Z2.00000 ( retract )

G00 X21.02220 Y12.04596 ( rapid move to begin. )
G01 F40.00000
( Mill infeed pass 1/1 )
G01 Z-0.1280
G04 P0 ( dwell for no time -- G64 should not smooth over this point )
G01 F100.00000
G01 X21.02220 Y12.04596
G01 X21.02220 Y12.92602
G01 X21.02124 Y12.92617
G01 X21.02220 Y12.92602
G01 X21.02408 Y12.94509
G01 X21.02675 Y12.95390
G01 X21.03107 Y12.96196
G01 X21.03688 Y12.96907
G01 X21.03114 Y12.97481
G01 X21.03688 Y12.96907
G01 X21.04400 Y12.97491
G01 X21.05210 Y12.97923
G01 X21.06084 Y12.98187
G01 X21.07991 Y12.98378
G01 X21.07976 Y12.98471
G01 X21.07991 Y12.98378
G01 X21.76007 Y12.98378
G01 X21.76022 Y12.98471
G01 X21.76007 Y12.98378
G01 X21.77912 Y12.98187
G01 X21.78788 Y12.97923
G01 X21.79596 Y12.97491
G01 X21.80310 Y12.96907
G01 X21.80881 Y12.97481
G01 X21.80310 Y12.96907
G01 X21.80889 Y12.96196
G01 X21.81323 Y12.95390
G01 X21.81590 Y12.94509
G01 X21.81776 Y12.92607
G01 X21.81872 Y12.92624
G01 X21.81776 Y12.92607
G01 X21.81776 Y12.04591
G01 X21.81872 Y12.04573
G01 X21.81776 Y12.04591
G01 X21.81590 Y12.02686
G01 X21.81323 Y12.01809
G01 X21.80889 Y12.00999
G01 X21.80307 Y12.00288
G01 X21.80881 Y11.99716
G01 X21.80307 Y12.00288
G01 X21.79599 Y11.99706
G01 X21.78791 Y11.99274
G01 X21.77910 Y11.99008
G01 X21.76007 Y11.98820
G01 X21.76022 Y11.98726
G01 X21.76007 Y11.98820
G01 X21.07991 Y11.98820
G01 X21.07976 Y11.98726
G01 X21.07991 Y11.98820
G01 X21.06086 Y11.99008
G01 X21.05207 Y11.99274
G01 X21.04397 Y11.99709
G01 X21.03688 Y12.00290
G01 X21.03114 Y11.99716
G01 X21.03688 Y12.00290
G01 X21.03107 Y12.00999
G01 X21.02675 Y12.01807
G01 X21.02408 Y12.02686
G01 X21.02220 Y12.04596
G01 X21.02124 Y12.04580
G01 X20.95111 Y12.04232
G01 X20.87999 Y12.03895
G01 X20.87999 Y12.93303
G01 X20.88392 Y12.97301
G01 X20.89472 Y13.00859
G01 X20.91225 Y13.04138
G01 X20.93584 Y13.07014
G01 X20.96459 Y13.09373
G01 X20.99434 Y13.10963
G01 X20.99739 Y13.11123
G01 X21.03297 Y13.12205
G01 X21.07295 Y13.12599
G01 X21.76703 Y13.12599
G01 X21.80699 Y13.12205
G01 X21.84257 Y13.11123
G01 X21.87539 Y13.09373
G01 X21.90414 Y13.07014
G01 X21.92774 Y13.04138
G01 X21.94524 Y13.00859
G01 X21.95606 Y12.97301
G01 X21.96000 Y12.93303
G01 X21.96000 Y12.03895
G01 X21.95606 Y11.99899
G01 X21.94524 Y11.96338
G01 X21.92774 Y11.93059
G01 X21.90414 Y11.90184
G01 X21.87539 Y11.87824
G01 X21.84257 Y11.86071
G01 X21.80699 Y11.84992
G01 X21.76701 Y11.84598
G01 X21.07298 Y11.84598
G01 X21.03297 Y11.84992
G01 X20.99741 Y11.86071
G01 X20.96459 Y11.87824
G01 X20.93584 Y11.90184
G01 X20.91225 Y11.93059
G01 X20.89472 Y11.96338
G01 X20.88392 Y11.99897
G01 X20.87999 Y12.03895
G01 X20.95042 Y12.04230
G01 X20.95111 Y12.04240
G01 X20.95400 Y12.01291
G01 X20.96073 Y11.99074
G01 X20.97166 Y11.97029
G01 X20.96792 Y11.96755
G01 X20.97166 Y11.97029
G01 X20.98636 Y11.95236
G01 X21.00427 Y11.93768
G01 X21.02474 Y11.92673
G01 X21.04692 Y11.92000
G01 X21.04600 Y11.91698
G01 X21.04692 Y11.92000
G01 X21.07638 Y11.91710
G01 X21.76358 Y11.91710
G01 X21.76383 Y11.91583
G01 X21.76358 Y11.91710
G01 X21.79307 Y11.92000
G01 X21.81524 Y11.92673
G01 X21.83569 Y11.93768
G01 X21.85359 Y11.95236
G01 X21.85819 Y11.94779
G01 X21.85359 Y11.95236
G01 X21.86830 Y11.97029
G01 X21.87925 Y11.99074
G01 X21.88598 Y12.01291
G01 X21.88888 Y12.04240
G01 X21.89012 Y12.04215
G01 X21.88888 Y12.04240
G01 X21.88888 Y12.92957
G01 X21.89012 Y12.92980
G01 X21.88888 Y12.92957
G01 X21.88598 Y12.95906
G01 X21.87925 Y12.98124
G01 X21.86830 Y13.00168
G01 X21.85362 Y13.01961
G01 X21.85819 Y13.02421
G01 X21.85362 Y13.01961
G01 X21.83569 Y13.03432
G01 X21.81524 Y13.04522
G01 X21.79304 Y13.05197
G01 X21.76353 Y13.05484
G01 X21.76375 Y13.05611
G01 X21.76353 Y13.05484
G01 X21.07643 Y13.05484
G01 X21.07620 Y13.05611
G01 X21.07643 Y13.05484
G01 X21.04692 Y13.05197
G01 X21.02474 Y13.04522
G01 X21.00429 Y13.03432
G01 X20.98636 Y13.01961
G01 X20.98177 Y13.02421
G01 X20.98636 Y13.01961
G01 X20.97166 Y13.00168
G01 X20.96073 Y12.98124
G01 X20.95400 Y12.95906
G01 X20.95111 Y12.92957
G01 X20.94986 Y12.92980
G01 X20.95111 Y12.92957
G01 X20.95111 Y12.04240
G01 X20.95042 Y12.04230
G01 X21.02124 Y12.04580
G01 X21.07249 Y12.03849
G01 X21.09332 Y12.05932
G01 X21.09332 Y12.91263
G01 X21.07249 Y12.93348
G01 X21.09332 Y12.91263
G01 X21.74666 Y12.91263
G01 X21.76749 Y12.93348
G01 X21.74666 Y12.91263
G01 X21.74666 Y12.05932
G01 X21.76749 Y12.03849
G01 X21.74666 Y12.05932
G01 X21.09332 Y12.05932
G01 X21.16442 Y12.13044
G01 X21.16442 Y12.84154
G01 X21.14359 Y12.86239
G01 X21.16442 Y12.84154
G01 X21.67554 Y12.84154
G01 X21.69637 Y12.86239
G01 X21.67554 Y12.84154
G01 X21.67554 Y12.13044
G01 X21.69637 Y12.10961
G01 X21.67554 Y12.13044
G01 X21.16442 Y12.13044
G01 X21.23554 Y12.20153
G01 X21.23554 Y12.77044
G01 X21.21471 Y12.79127
G01 X21.23554 Y12.77044
G01 X21.60445 Y12.77044
G01 X21.62527 Y12.79127
G01 X21.60445 Y12.77044
G01 X21.60445 Y12.20153
G01 X21.62527 Y12.18070
G01 X21.60445 Y12.20153
G01 X21.23554 Y12.20153
G01 X21.30666 Y12.27265
G01 X21.30666 Y12.69932
G01 X21.28583 Y12.72015
G01 X21.30666 Y12.69932
G01 X21.53333 Y12.69932
G01 X21.55415 Y12.72015
G01 X21.53333 Y12.69932
G01 X21.53333 Y12.27265
G01 X21.55415 Y12.25182
G01 X21.53333 Y12.27265
G01 X21.30666 Y12.27265
G01 X21.37775 Y12.34375
G01 X21.46223 Y12.34375
G01 X21.48306 Y12.32292
G01 X21.46223 Y12.34375
G01 X21.46223 Y12.62823
G01 X21.48306 Y12.64905
G01 X21.46223 Y12.62823
G01 X21.37775 Y12.62823
G01 X21.35692 Y12.64905
G01 X21.37775 Y12.62823
G01 X21.37775 Y12.34375
G04 P0 ( dwell for no time -- G64 should not smooth over this point )
G00 Z2.00000 ( retract )

G00 X22.87998 Y12.03897 ( rapid move to begin. )
G01 F40.00000
( Mill infeed pass 1/1 )
G01 Z-0.1280
G04 P0 ( dwell for no time -- G64 should not smooth over this point )
G01 F100.00000
G01 X22.87998 Y12.03897
G01 X22.87998 Y12.93300
G01 X22.88392 Y12.97301
G01 X22.89472 Y13.00859
G01 X22.91224 Y13.04138
G01 X22.93586 Y13.07014
G01 X22.96459 Y13.09373
G01 X22.99741 Y13.11123
G01 X23.03299 Y13.12205
G01 X23.07295 Y13.12599
G01 X23.76703 Y13.12599
G01 X23.80698 Y13.12205
G01 X23.84257 Y13.11123
G01 X23.87538 Y13.09373
G01 X23.90414 Y13.07014
G01 X23.92773 Y13.04138
G01 X23.94526 Y13.00859
G01 X23.95605 Y12.97301
G01 X23.95999 Y12.93303
G01 X23.95999 Y12.03895
G01 X23.95605 Y11.99897
G01 X23.94526 Y11.96338
G01 X23.92773 Y11.93059
G01 X23.90414 Y11.90184
G01 X23.87538 Y11.87824
G01 X23.84257 Y11.86071
G01 X23.80701 Y11.84992
G01 X23.76700 Y11.84598
G01 X23.07297 Y11.84598
G01 X23.03297 Y11.84992
G01 X22.99741 Y11.86071
G01 X22.96459 Y11.87827
G01 X22.93584 Y11.90184
G01 X22.91224 Y11.93059
G01 X22.89472 Y11.96338
G01 X22.88392 Y11.99897
G01 X22.87998 Y12.03897
G01 X22.95042 Y12.04235
G01 X22.95110 Y12.04245
G01 X22.95400 Y12.01294
G01 X22.96073 Y11.99071
G01 X22.97165 Y11.97029
G01 X22.96883 Y11.96844
G01 X22.97165 Y11.97029
G01 X22.98636 Y11.95236
G01 X23.00429 Y11.93768
G01 X23.02474 Y11.92673
G01 X23.02377 Y11.92465
G01 X23.02474 Y11.92673
G01 X23.04691 Y11.92000
G01 X23.07640 Y11.91710
G01 X23.07638 Y11.91680
G01 X23.07640 Y11.91710
G01 X23.76357 Y11.91710
G01 X23.76367 Y11.91642
G01 X23.76357 Y11.91710
G01 X23.79306 Y11.92000
G01 X23.81524 Y11.92673
G01 X23.83568 Y11.93768
G01 X23.83756 Y11.93483
G01 X23.83568 Y11.93768
G01 X23.85362 Y11.95236
G01 X23.86832 Y11.97029
G01 X23.87924 Y11.99074
G01 X23.88133 Y11.98975
G01 X23.87924 Y11.99074
G01 X23.88598 Y12.01294
G01 X23.88887 Y12.04245
G01 X23.88918 Y12.04240
G01 X23.88887 Y12.04245
G01 X23.88887 Y12.92950
G01 X23.88956 Y12.92960
G01 X23.88887 Y12.92950
G01 X23.88598 Y12.95906
G01 X23.87924 Y12.98124
G01 X23.86832 Y13.00166
G01 X23.87117 Y13.00354
G01 X23.86832 Y13.00166
G01 X23.85362 Y13.01961
G01 X23.83568 Y13.03432
G01 X23.81524 Y13.04522
G01 X23.81623 Y13.04733
G01 X23.81524 Y13.04522
G01 X23.79306 Y13.05197
G01 X23.76352 Y13.05484
G01 X23.76355 Y13.05517
G01 X23.76352 Y13.05484
G01 X23.07645 Y13.05484
G01 X23.07622 Y13.05611
G01 X23.07645 Y13.05484
G01 X23.04691 Y13.05197
G01 X23.02474 Y13.04522
G01 X23.00429 Y13.03432
G01 X22.98636 Y13.01961
G01 X22.98176 Y13.02421
G01 X22.98636 Y13.01961
G01 X22.97165 Y13.00168
G01 X22.96073 Y12.98126
G01 X22.95400 Y12.95904
G01 X22.95110 Y12.92950
G01 X22.94986 Y12.92975
G01 X22.95110 Y12.92950
G01 X22.95110 Y12.04245
G01 X22.95042 Y12.04235
G01 X23.02220 Y12.04591
G01 X23.02220 Y12.92607
G01 X23.02118 Y12.92622
G01 X23.02220 Y12.92607
G01 X23.02408 Y12.94509
G01 X23.02674 Y12.95390
G01 X23.03106 Y12.96196
G01 X23.03688 Y12.96907
G01 X23.03114 Y12.97481
G01 X23.03688 Y12.96907
G01 X23.04399 Y12.97491
G01 X23.05209 Y12.97923
G01 X23.06083 Y12.98187
G01 X23.07991 Y12.98378
G01 X23.07975 Y12.98471
G01 X23.07991 Y12.98378
G01 X23.76007 Y12.98378
G01 X23.76040 Y12.98530
G01 X23.76007 Y12.98378
G01 X23.77914 Y12.98187
G01 X23.78788 Y12.97923
G01 X23.79598 Y12.97491
G01 X23.80307 Y12.96909
G01 X23.80891 Y12.96196
G01 X23.82011 Y12.96932
G01 X23.80891 Y12.96196
G01 X23.81323 Y12.95390
G01 X23.81590 Y12.94509
G01 X23.81778 Y12.92607
G01 X23.81778 Y12.04591
G01 X23.81940 Y12.04558
G01 X23.81778 Y12.04591
G01 X23.81590 Y12.02686
G01 X23.81323 Y12.01807
G01 X23.80891 Y12.00999
G01 X23.80307 Y12.00288
G01 X23.79598 Y11.99706
G01 X23.80332 Y11.98594
G01 X23.79598 Y11.99706
G01 X23.78791 Y11.99274
G01 X23.77912 Y11.99008
G01 X23.76007 Y11.98820
G01 X23.07991 Y11.98820
G01 X23.07958 Y11.98655
G01 X23.07991 Y11.98820
G01 X23.06086 Y11.99008
G01 X23.05207 Y11.99274
G01 X23.04399 Y11.99706
G01 X23.03690 Y12.00290
G01 X23.03106 Y12.00999
G01 X23.01986 Y12.00262
G01 X23.03106 Y12.00999
G01 X23.02674 Y12.01807
G01 X23.02408 Y12.02686
G01 X23.02220 Y12.04591
G01 X23.07249 Y12.03849
G01 X23.09332 Y12.05932
G01 X23.09332 Y12.91263
G01 X23.07249 Y12.93348
G01 X23.09332 Y12.91263
G01 X23.74666 Y12.91263
G01 X23.76748 Y12.93348
G01 X23.74666 Y12.91263
G01 X23.74666 Y12.05932
G01 X23.76748 Y12.03849
G01 X23.74666 Y12.05932
G01 X23.09332 Y12.05932
G01 X23.16441 Y12.13044
G01 X23.16441 Y12.84154
G01 X23.14358 Y12.86239
G01 X23.16441 Y12.84154
G01 X23.67556 Y12.84154
G01 X23.69639 Y12.86239
G01 X23.67556 Y12.84154
G01 X23.67556 Y12.13044
G01 X23.69639 Y12.10961
G01 X23.67556 Y12.13044
G01 X23.16441 Y12.13044
G01 X23.23553 Y12.20153
G01 X23.23553 Y12.77044
G01 X23.21470 Y12.79127
G01 X23.23553 Y12.77044
G01 X23.60444 Y12.77044
G01 X23.62527 Y12.79127
G01 X23.60444 Y12.77044
G01 X23.60444 Y12.20153
G01 X23.62527 Y12.18070
G01 X23.60444 Y12.20153
G01 X23.23553 Y12.20153
G01 X23.30665 Y12.27265
G01 X23.30665 Y12.69932
G01 X23.28582 Y12.72015
G01 X23.30665 Y12.69932
G01 X23.53332 Y12.69932
G01 X23.55415 Y12.72015
G01 X23.53332 Y12.69932
G01 X23.53332 Y12.27265
G01 X23.55415 Y12.25182
G01 X23.53332 Y12.27265
G01 X23.30665 Y12.27265
G01 X23.37775 Y12.34375
G01 X23.37775 Y12.62823
G01 X23.35692 Y12.64905
G01 X23.37775 Y12.62823
G01 X23.46223 Y12.62823
G01 X23.48306 Y12.64905
G01 X23.46223 Y12.62823
G01 X23.46223 Y12.34375
G01 X23.48306 Y12.32292
G01 X23.46223 Y12.34375
G01 X23.37775 Y12.34375
G04 P0 ( dwell for no time -- G64 should not smooth over this point )
G00 Z2.00000 ( retract )
