( pcb2gcode 2.1.0 )
( Software-independent Gcode )

G94 ( Millimeters per minute feed rate. )
G21 ( Units == Millimeters. )

G90 ( Absolute coordinates. )
G00 S10000 ( RPM spindle speed. )
G64 P0.01016 ( set maximum deviation from commanded toolpath )
G01 F100.00000 ( Feedrate. )


G00 Z10.00000 (Retract to tool change height)
T0
M5      (Spindle stop.)
G04 P1.00000 (Wait for spindle to stop)
(MSG, Change tool bit to mill diameter 0.12000mm)
M6      (Tool change.)
M0      (Temporary machine stop.)
M3 ( Spindle on clockwise. )
G04 P1.00000 (Wait for spindle to get up to speed)
G04 P0 ( dwell for no time -- G64 should not smooth over this point )
G00 Z2.00000 ( retract )


G00 X8.67976 Y20.81675 ( rapid move to begin. )
G01 F40.00000
( Mill infeed pass 1/1 )
G01 Z-0.1280
G04 P0 ( dwell for no time -- G64 should not smooth over this point )
G01 F100.00000
G01 X8.67976 Y20.81675
G01 X9.01422 Y20.81675
G01 X9.03505 Y20.79593
G01 X9.01422 Y20.81675
G01 X9.01422 Y20.87622
G01 X9.03505 Y20.89704
G01 X9.01422 Y20.87622
G01 X8.67976 Y20.87622
G01 X8.65893 Y20.89704
G01 X8.67976 Y20.87622
G01 X8.67976 Y20.81675
G01 X8.60864 Y20.74563
G01 X9.08532 Y20.74563
G01 X9.10615 Y20.72481
G01 X9.08532 Y20.74563
G01 X9.08532 Y20.94734
G01 X9.10615 Y20.96816
G01 X9.08532 Y20.94734
G01 X8.60864 Y20.94734
G01 X8.58781 Y20.96816
G01 X8.60864 Y20.94734
G01 X8.60864 Y20.74563
G01 X8.53754 Y20.67454
G01 X9.15644 Y20.67454
G01 X9.17727 Y20.65371
G01 X9.15644 Y20.67454
G01 X9.15644 Y21.01843
G01 X9.17727 Y21.03926
G01 X9.15644 Y21.01843
G01 X8.53754 Y21.01843
G01 X8.51672 Y21.03926
G01 X8.53754 Y21.01843
G01 X8.53754 Y20.67454
G01 X8.46642 Y20.60342
G01 X9.22756 Y20.60342
G01 X9.24839 Y20.58259
G01 X9.22756 Y20.60342
G01 X9.22756 Y21.08955
G01 X9.24839 Y21.11038
G01 X9.22756 Y21.08955
G01 X8.46642 Y21.08955
G01 X8.44560 Y21.11038
G01 X8.46642 Y21.08955
G01 X8.46642 Y20.60342
G01 X8.37450 Y20.51150
G01 X8.39530 Y20.53232
G01 X9.29865 Y20.53232
G01 X9.31948 Y20.51150
G01 X9.29865 Y20.53232
G01 X9.29865 Y21.16064
G01 X9.31948 Y21.18147
G01 X9.29865 Y21.16064
G01 X8.39530 Y21.16064
G01 X8.37450 Y21.18147
G01 X8.39530 Y21.16064
G01 X8.39530 Y20.53232
G01 X8.37450 Y20.51150
G01 X8.32324 Y20.51876
G01 X8.25309 Y20.51543
G01 X8.25601 Y20.48589
G01 X8.25299 Y20.48498
G01 X8.25601 Y20.48589
G01 X8.26274 Y20.46374
G01 X8.27366 Y20.44330
G01 X8.28837 Y20.42537
G01 X8.30628 Y20.41066
G01 X8.30356 Y20.40690
G01 X8.30628 Y20.41066
G01 X8.32672 Y20.39974
G01 X8.34890 Y20.39301
G01 X8.37839 Y20.39008
G01 X8.37831 Y20.38940
G01 X8.37839 Y20.39008
G01 X9.31557 Y20.39008
G01 X9.31580 Y20.38887
G01 X9.31557 Y20.39008
G01 X9.34506 Y20.39301
G01 X9.36723 Y20.39974
G01 X9.38768 Y20.41066
G01 X9.40561 Y20.42537
G01 X9.41021 Y20.42077
G01 X9.40561 Y20.42537
G01 X9.42032 Y20.44330
G01 X9.43124 Y20.46374
G01 X9.43797 Y20.48589
G01 X9.44087 Y20.51543
G01 X9.44211 Y20.51521
G01 X9.44087 Y20.51543
G01 X9.44087 Y21.17754
G01 X9.44211 Y21.17776
G01 X9.44087 Y21.17754
G01 X9.43797 Y21.20708
G01 X9.43124 Y21.22922
G01 X9.42029 Y21.24970
G01 X9.40559 Y21.26760
G01 X9.41019 Y21.27220
G01 X9.40559 Y21.26760
G01 X9.38768 Y21.28231
G01 X9.36723 Y21.29323
G01 X9.34506 Y21.29996
G01 X9.31557 Y21.30288
G01 X9.31580 Y21.30410
G01 X9.31557 Y21.30288
G01 X8.37839 Y21.30288
G01 X8.37816 Y21.30410
G01 X8.37839 Y21.30288
G01 X8.34890 Y21.29996
G01 X8.32672 Y21.29323
G01 X8.30628 Y21.28231
G01 X8.28837 Y21.26760
G01 X8.28377 Y21.27220
G01 X8.28837 Y21.26760
G01 X8.27366 Y21.24970
G01 X8.26274 Y21.22922
G01 X8.25601 Y21.20708
G01 X8.25309 Y21.17754
G01 X8.25184 Y21.17776
G01 X8.25309 Y21.17754
G01 X8.25309 Y20.51543
G01 X8.18199 Y20.51195
G01 X8.18593 Y20.47197
G01 X8.19673 Y20.43639
G01 X8.21425 Y20.40360
G01 X8.23782 Y20.37484
G01 X8.26660 Y20.35125
G01 X8.29937 Y20.33372
G01 X8.33498 Y20.32293
G01 X8.37496 Y20.31899
G01 X9.31902 Y20.31899
G01 X9.35900 Y20.32293
G01 X9.39459 Y20.33372
G01 X9.42738 Y20.35125
G01 X9.45613 Y20.37484
G01 X9.47973 Y20.40360
G01 X9.49726 Y20.43639
G01 X9.50805 Y20.47197
G01 X9.51199 Y20.51195
G01 X9.51199 Y21.18104
G01 X9.50805 Y21.22100
G01 X9.49726 Y21.25656
G01 X9.47973 Y21.28940
G01 X9.45613 Y21.31812
G01 X9.42741 Y21.34172
G01 X9.39459 Y21.35925
G01 X9.35900 Y21.37004
G01 X9.31902 Y21.37398
G01 X8.37496 Y21.37398
G01 X8.33498 Y21.37004
G01 X8.29937 Y21.35925
G01 X8.26658 Y21.34172
G01 X8.23782 Y21.31812
G01 X8.21425 Y21.28940
G01 X8.19673 Y21.25661
G01 X8.18593 Y21.22100
G01 X8.18199 Y21.18104
G01 X8.18199 Y20.51195
G01 X8.25309 Y20.51543
G01 X8.32324 Y20.51876
G01 X8.32421 Y20.51891
G01 X8.32609 Y20.49984
G01 X8.32876 Y20.49108
G01 X8.33307 Y20.48300
G01 X8.33889 Y20.47589
G01 X8.33315 Y20.47015
G01 X8.33889 Y20.47589
G01 X8.34600 Y20.47007
G01 X8.35408 Y20.46575
G01 X8.36284 Y20.46308
G01 X8.38192 Y20.46120
G01 X8.38174 Y20.46019
G01 X8.38192 Y20.46120
G01 X9.31207 Y20.46120
G01 X9.33114 Y20.46308
G01 X9.33988 Y20.46575
G01 X9.34798 Y20.47007
G01 X9.35532 Y20.45884
G01 X9.34798 Y20.47007
G01 X9.35509 Y20.47591
G01 X9.36091 Y20.48297
G01 X9.36523 Y20.49108
G01 X9.36789 Y20.49986
G01 X9.36977 Y20.51891
G01 X9.37143 Y20.51856
G01 X9.36977 Y20.51891
G01 X9.36977 Y21.17406
G01 X9.36789 Y21.19311
G01 X9.36523 Y21.20189
G01 X9.36091 Y21.21000
G01 X9.37201 Y21.21731
G01 X9.36091 Y21.21000
G01 X9.35509 Y21.21708
G01 X9.34798 Y21.22290
G01 X9.33988 Y21.22724
G01 X9.33112 Y21.22989
G01 X9.31207 Y21.23176
G01 X9.31242 Y21.23339
G01 X9.31207 Y21.23176
G01 X8.38189 Y21.23176
G01 X8.36287 Y21.22989
G01 X8.35408 Y21.22722
G01 X8.34598 Y21.22290
G01 X8.33864 Y21.23413
G01 X8.34598 Y21.22290
G01 X8.33889 Y21.21708
G01 X8.33307 Y21.20997
G01 X8.32876 Y21.20189
G01 X8.32609 Y21.19313
G01 X8.32421 Y21.17406
G01 X8.32266 Y21.17439
G01 X8.32421 Y21.17406
G01 X8.32421 Y20.51891
G04 P0 ( dwell for no time -- G64 should not smooth over this point )
G00 Z2.00000 ( retract )

G00 X8.67976 Y22.89176 ( rapid move to begin. )
G01 F40.00000
( Mill infeed pass 1/1 )
G01 Z-0.1280
G04 P0 ( dwell for no time -- G64 should not smooth over this point )
G01 F100.00000
G01 X8.67976 Y22.89176
G01 X9.01422 Y22.89176
G01 X9.03505 Y22.87093
G01 X9.01422 Y22.89176
G01 X9.01422 Y22.95122
G01 X9.03505 Y22.97205
G01 X9.01422 Y22.95122
G01 X8.67976 Y22.95122
G01 X8.65893 Y22.97205
G01 X8.67976 Y22.95122
G01 X8.67976 Y22.89176
G01 X8.60864 Y22.82064
G01 X9.08532 Y22.82064
G01 X9.10615 Y22.79981
G01 X9.08532 Y22.82064
G01 X9.08532 Y23.02234
G01 X9.10615 Y23.04317
G01 X9.08532 Y23.02234
G01 X8.60864 Y23.02234
G01 X8.58781 Y23.04317
G01 X8.60864 Y23.02234
G01 X8.60864 Y22.82064
G01 X8.53754 Y22.74954
G01 X9.15644 Y22.74954
G01 X9.17727 Y22.72871
G01 X9.15644 Y22.74954
G01 X9.15644 Y23.09343
G01 X9.17727 Y23.11426
G01 X9.15644 Y23.09343
G01 X8.53754 Y23.09343
G01 X8.51672 Y23.11426
G01 X8.53754 Y23.09343
G01 X8.53754 Y22.74954
G01 X8.46642 Y22.67842
G01 X9.22756 Y22.67842
G01 X9.24839 Y22.65759
G01 X9.22756 Y22.67842
G01 X9.22756 Y23.16455
G01 X9.24839 Y23.18538
G01 X9.22756 Y23.16455
G01 X8.46642 Y23.16455
G01 X8.44560 Y23.18538
G01 X8.46642 Y23.16455
G01 X8.46642 Y22.67842
G01 X8.37450 Y22.58650
G01 X8.39530 Y22.60733
G01 X9.29865 Y22.60733
G01 X9.31948 Y22.58650
G01 X9.29865 Y22.60733
G01 X9.29865 Y23.23565
G01 X9.31948 Y23.25647
G01 X9.29865 Y23.23565
G01 X8.39530 Y23.23565
G01 X8.37450 Y23.25647
G01 X8.39530 Y23.23565
G01 X8.39530 Y22.60733
G01 X8.37450 Y22.58650
G01 X8.32324 Y22.59376
G01 X8.25309 Y22.59044
G01 X8.25601 Y22.56090
G01 X8.25299 Y22.55998
G01 X8.25601 Y22.56090
G01 X8.26274 Y22.53872
G01 X8.27366 Y22.51830
G01 X8.28837 Y22.50037
G01 X8.30630 Y22.48566
G01 X8.30356 Y22.48190
G01 X8.30630 Y22.48566
G01 X8.32672 Y22.47474
G01 X8.34892 Y22.46801
G01 X8.37844 Y22.46509
G01 X8.37836 Y22.46440
G01 X8.37844 Y22.46509
G01 X9.31552 Y22.46509
G01 X9.31575 Y22.46387
G01 X9.31552 Y22.46509
G01 X9.34506 Y22.46801
G01 X9.36726 Y22.47474
G01 X9.38768 Y22.48566
G01 X9.40559 Y22.50037
G01 X9.41019 Y22.49577
G01 X9.40559 Y22.50037
G01 X9.42032 Y22.51830
G01 X9.43124 Y22.53872
G01 X9.43797 Y22.56090
G01 X9.44087 Y22.59044
G01 X9.44211 Y22.59021
G01 X9.44087 Y22.59044
G01 X9.44087 Y23.25254
G01 X9.44211 Y23.25277
G01 X9.44087 Y23.25254
G01 X9.43797 Y23.28208
G01 X9.43124 Y23.30423
G01 X9.42032 Y23.32470
G01 X9.40559 Y23.34261
G01 X9.41019 Y23.34720
G01 X9.40559 Y23.34261
G01 X9.38768 Y23.35731
G01 X9.36723 Y23.36823
G01 X9.34506 Y23.37497
G01 X9.31552 Y23.37789
G01 X9.31575 Y23.37911
G01 X9.31552 Y23.37789
G01 X8.37844 Y23.37789
G01 X8.37821 Y23.37911
G01 X8.37844 Y23.37789
G01 X8.34892 Y23.37497
G01 X8.32672 Y23.36823
G01 X8.30628 Y23.35731
G01 X8.28837 Y23.34261
G01 X8.28377 Y23.34720
G01 X8.28837 Y23.34261
G01 X8.27366 Y23.32470
G01 X8.26274 Y23.30423
G01 X8.25601 Y23.28208
G01 X8.25309 Y23.25254
G01 X8.25184 Y23.25277
G01 X8.25309 Y23.25254
G01 X8.25309 Y22.59044
G01 X8.18199 Y22.58696
G01 X8.18593 Y22.54698
G01 X8.19673 Y22.51139
G01 X8.21425 Y22.47860
G01 X8.23785 Y22.44985
G01 X8.26660 Y22.42625
G01 X8.29937 Y22.40872
G01 X8.33498 Y22.39793
G01 X8.37496 Y22.39399
G01 X9.31902 Y22.39399
G01 X9.35900 Y22.39793
G01 X9.39459 Y22.40872
G01 X9.42738 Y22.42625
G01 X9.45613 Y22.44985
G01 X9.47973 Y22.47860
G01 X9.49726 Y22.51139
G01 X9.50805 Y22.54698
G01 X9.51199 Y22.58696
G01 X9.51199 Y23.25602
G01 X9.50805 Y23.29600
G01 X9.49726 Y23.33158
G01 X9.47973 Y23.36437
G01 X9.45613 Y23.39313
G01 X9.44176 Y23.40494
G01 X9.42738 Y23.41672
G01 X9.39459 Y23.43425
G01 X9.35900 Y23.44504
G01 X9.31902 Y23.44898
G01 X8.37496 Y23.44898
G01 X8.33498 Y23.44504
G01 X8.29937 Y23.43425
G01 X8.26660 Y23.41672
G01 X8.23785 Y23.39313
G01 X8.21425 Y23.36437
G01 X8.19673 Y23.33161
G01 X8.18593 Y23.29600
G01 X8.18199 Y23.25602
G01 X8.18199 Y22.58696
G01 X8.25309 Y22.59044
G01 X8.32324 Y22.59376
G01 X8.32421 Y22.59392
G01 X8.32609 Y22.57484
G01 X8.32876 Y22.56608
G01 X8.33307 Y22.55800
G01 X8.33892 Y22.55089
G01 X8.33317 Y22.54515
G01 X8.33892 Y22.55089
G01 X8.34598 Y22.54507
G01 X8.35408 Y22.54075
G01 X8.36287 Y22.53809
G01 X8.38192 Y22.53621
G01 X8.38174 Y22.53519
G01 X8.38192 Y22.53621
G01 X9.31207 Y22.53621
G01 X9.33112 Y22.53809
G01 X9.33988 Y22.54075
G01 X9.34798 Y22.54507
G01 X9.35535 Y22.53384
G01 X9.34798 Y22.54507
G01 X9.35509 Y22.55089
G01 X9.36091 Y22.55797
G01 X9.36523 Y22.56608
G01 X9.36789 Y22.57487
G01 X9.36977 Y22.59392
G01 X9.37143 Y22.59356
G01 X9.36977 Y22.59392
G01 X9.36977 Y23.24906
G01 X9.36789 Y23.26811
G01 X9.36523 Y23.27692
G01 X9.36091 Y23.28497
G01 X9.37203 Y23.29231
G01 X9.36091 Y23.28497
G01 X9.35507 Y23.29209
G01 X9.34798 Y23.29790
G01 X9.33990 Y23.30222
G01 X9.33112 Y23.30489
G01 X9.31201 Y23.30677
G01 X9.31234 Y23.30839
G01 X9.31201 Y23.30677
G01 X8.38197 Y23.30677
G01 X8.36287 Y23.30489
G01 X8.35408 Y23.30222
G01 X8.34598 Y23.29790
G01 X8.33864 Y23.30913
G01 X8.34598 Y23.29790
G01 X8.33892 Y23.29209
G01 X8.33305 Y23.28497
G01 X8.32876 Y23.27690
G01 X8.32609 Y23.26813
G01 X8.32421 Y23.24906
G01 X8.32266 Y23.24939
G01 X8.32421 Y23.24906
G01 X8.32421 Y22.59392
G04 P0 ( dwell for no time -- G64 should not smooth over this point )
G00 Z2.00000 ( retract )

G00 X5.65675 Y20.82575 ( rapid move to begin. )
G01 F40.00000
( Mill infeed pass 1/1 )
G01 Z-0.1280
G04 P0 ( dwell for no time -- G64 should not smooth over this point )
G01 F100.00000
G01 X5.65675 Y20.82575
G01 X5.65675 Y20.91023
G01 X5.63592 Y20.93105
G01 X5.65675 Y20.91023
G01 X5.94123 Y20.91023
G01 X5.96206 Y20.93105
G01 X5.94123 Y20.91023
G01 X5.94123 Y20.82575
G01 X5.96206 Y20.80492
G01 X5.94123 Y20.82575
G01 X5.65675 Y20.82575
G01 X5.58566 Y20.75465
G01 X6.01233 Y20.75465
G01 X6.03315 Y20.73382
G01 X6.01233 Y20.75465
G01 X6.01233 Y20.98132
G01 X6.03315 Y21.00215
G01 X6.01233 Y20.98132
G01 X5.58566 Y20.98132
G01 X5.56483 Y21.00215
G01 X5.58566 Y20.98132
G01 X5.58566 Y20.75465
G01 X5.51454 Y20.68353
G01 X6.08345 Y20.68353
G01 X6.10427 Y20.66270
G01 X6.08345 Y20.68353
G01 X6.08345 Y21.05244
G01 X6.10427 Y21.07327
G01 X6.08345 Y21.05244
G01 X5.51454 Y21.05244
G01 X5.49371 Y21.07327
G01 X5.51454 Y21.05244
G01 X5.51454 Y20.68353
G01 X5.44342 Y20.61244
G01 X6.15454 Y20.61244
G01 X6.17537 Y20.59161
G01 X6.15454 Y20.61244
G01 X6.15454 Y21.12354
G01 X6.17537 Y21.14436
G01 X6.15454 Y21.12354
G01 X5.44342 Y21.12354
G01 X5.42259 Y21.14436
G01 X5.44342 Y21.12354
G01 X5.44342 Y20.61244
G01 X5.37232 Y20.54132
G01 X6.22566 Y20.54132
G01 X6.24649 Y20.52049
G01 X6.22566 Y20.54132
G01 X6.22566 Y21.19466
G01 X6.24649 Y21.21548
G01 X6.22566 Y21.19466
G01 X5.37232 Y21.19466
G01 X5.35149 Y21.21548
G01 X5.37232 Y21.19466
G01 X5.37232 Y20.54132
G01 X5.35149 Y20.52049
G01 X5.30024 Y20.52780
G01 X5.22942 Y20.52435
G01 X5.23011 Y20.52445
G01 X5.23011 Y21.21152
G01 X5.22980 Y21.21155
G01 X5.23011 Y21.21152
G01 X5.23300 Y21.24106
G01 X5.23973 Y21.26324
G01 X5.23763 Y21.26423
G01 X5.23973 Y21.26324
G01 X5.25066 Y21.28368
G01 X5.26536 Y21.30161
G01 X5.28330 Y21.31632
G01 X5.28142 Y21.31914
G01 X5.28330 Y21.31632
G01 X5.30374 Y21.32724
G01 X5.32592 Y21.33397
G01 X5.35546 Y21.33687
G01 X5.35536 Y21.33756
G01 X5.35546 Y21.33687
G01 X6.24253 Y21.33687
G01 X6.24263 Y21.33756
G01 X6.24253 Y21.33687
G01 X6.27207 Y21.33397
G01 X6.29424 Y21.32724
G01 X6.31469 Y21.31632
G01 X6.31743 Y21.32008
G01 X6.31469 Y21.31632
G01 X6.33259 Y21.30161
G01 X6.34730 Y21.28368
G01 X6.35825 Y21.26324
G01 X6.36498 Y21.24106
G01 X6.36798 Y21.24200
G01 X6.36498 Y21.24106
G01 X6.36788 Y21.21152
G01 X6.36788 Y20.52445
G01 X6.36815 Y20.52443
G01 X6.36788 Y20.52445
G01 X6.36498 Y20.49491
G01 X6.35825 Y20.47274
G01 X6.36031 Y20.47177
G01 X6.35825 Y20.47274
G01 X6.34730 Y20.45229
G01 X6.33259 Y20.43436
G01 X6.31469 Y20.41968
G01 X6.31657 Y20.41683
G01 X6.31469 Y20.41968
G01 X6.29424 Y20.40873
G01 X6.27207 Y20.40200
G01 X6.24253 Y20.39910
G01 X6.24263 Y20.39842
G01 X6.24253 Y20.39910
G01 X5.35546 Y20.39910
G01 X5.35543 Y20.39880
G01 X5.35546 Y20.39910
G01 X5.32592 Y20.40200
G01 X5.30374 Y20.40873
G01 X5.30275 Y20.40665
G01 X5.30374 Y20.40873
G01 X5.28327 Y20.41968
G01 X5.26536 Y20.43436
G01 X5.25066 Y20.45229
G01 X5.24781 Y20.45044
G01 X5.25066 Y20.45229
G01 X5.23973 Y20.47274
G01 X5.23300 Y20.49491
G01 X5.23011 Y20.52445
G01 X5.22942 Y20.52435
G01 X5.15899 Y20.52097
G01 X5.16292 Y20.48099
G01 X5.17372 Y20.44538
G01 X5.19125 Y20.41259
G01 X5.21484 Y20.38384
G01 X5.24357 Y20.36027
G01 X5.27641 Y20.34271
G01 X5.31197 Y20.33192
G01 X5.35195 Y20.32798
G01 X6.24603 Y20.32798
G01 X6.28601 Y20.33192
G01 X6.32157 Y20.34271
G01 X6.35439 Y20.36027
G01 X6.38314 Y20.38384
G01 X6.40671 Y20.41259
G01 X6.42426 Y20.44538
G01 X6.43503 Y20.48097
G01 X6.43900 Y20.52095
G01 X6.43900 Y21.21503
G01 X6.43503 Y21.25501
G01 X6.42424 Y21.29059
G01 X6.40671 Y21.32338
G01 X6.38314 Y21.35214
G01 X6.35439 Y21.37573
G01 X6.32157 Y21.39326
G01 X6.28599 Y21.40405
G01 X6.24606 Y21.40799
G01 X5.35193 Y21.40799
G01 X5.31197 Y21.40405
G01 X5.27639 Y21.39326
G01 X5.24360 Y21.37573
G01 X5.21484 Y21.35214
G01 X5.19125 Y21.32338
G01 X5.17372 Y21.29059
G01 X5.16292 Y21.25501
G01 X5.15899 Y21.21500
G01 X5.15899 Y20.52097
G01 X5.30024 Y20.52780
G01 X5.30120 Y20.52796
G01 X5.30308 Y20.50886
G01 X5.30575 Y20.50007
G01 X5.31007 Y20.49199
G01 X5.31588 Y20.48490
G01 X5.31014 Y20.47916
G01 X5.31588 Y20.48490
G01 X5.32297 Y20.47909
G01 X5.33110 Y20.47474
G01 X5.33984 Y20.47208
G01 X5.35891 Y20.47020
G01 X5.35876 Y20.46926
G01 X5.35891 Y20.47020
G01 X6.23907 Y20.47020
G01 X6.23922 Y20.46926
G01 X6.23907 Y20.47020
G01 X6.25812 Y20.47208
G01 X6.26688 Y20.47474
G01 X6.27499 Y20.47906
G01 X6.28207 Y20.48490
G01 X6.28781 Y20.47916
G01 X6.28207 Y20.48490
G01 X6.28789 Y20.49199
G01 X6.29223 Y20.50009
G01 X6.29490 Y20.50883
G01 X6.29676 Y20.52791
G01 X6.29772 Y20.52775
G01 X6.29676 Y20.52791
G01 X6.29676 Y21.20807
G01 X6.29772 Y21.20822
G01 X6.29676 Y21.20807
G01 X6.29490 Y21.22714
G01 X6.29223 Y21.23588
G01 X6.28789 Y21.24398
G01 X6.28207 Y21.25109
G01 X6.28781 Y21.25681
G01 X6.28207 Y21.25109
G01 X6.27499 Y21.25691
G01 X6.26691 Y21.26123
G01 X6.25810 Y21.26390
G01 X6.23907 Y21.26578
G01 X6.23922 Y21.26672
G01 X6.23907 Y21.26578
G01 X5.35891 Y21.26578
G01 X5.35876 Y21.26672
G01 X5.35891 Y21.26578
G01 X5.33986 Y21.26390
G01 X5.33107 Y21.26123
G01 X5.32297 Y21.25691
G01 X5.31588 Y21.25109
G01 X5.31014 Y21.25681
G01 X5.31588 Y21.25109
G01 X5.31007 Y21.24398
G01 X5.30575 Y21.23590
G01 X5.30308 Y21.22712
G01 X5.30120 Y21.20802
G01 X5.30024 Y21.20817
G01 X5.30120 Y21.20802
G01 X5.30120 Y20.52796
G04 P0 ( dwell for no time -- G64 should not smooth over this point )
G00 Z2.00000 ( retract )

G00 X5.30120 Y22.52795 ( rapid move to begin. )
G01 F40.00000
( Mill infeed pass 1/1 )
G01 Z-0.1280
G04 P0 ( dwell for no time -- G64 should not smooth over this point )
G01 F100.00000
G01 X5.30120 Y22.52795
G01 X5.30120 Y23.20801
G01 X5.30308 Y23.22711
G01 X5.30575 Y23.23590
G01 X5.31007 Y23.24400
G01 X5.29894 Y23.25132
G01 X5.31007 Y23.24400
G01 X5.31588 Y23.25109
G01 X5.32297 Y23.25691
G01 X5.33107 Y23.26122
G01 X5.33986 Y23.26389
G01 X5.35896 Y23.26577
G01 X5.35863 Y23.26740
G01 X5.35896 Y23.26577
G01 X6.23902 Y23.26577
G01 X6.25812 Y23.26389
G01 X6.26691 Y23.26122
G01 X6.27499 Y23.25691
G01 X6.28233 Y23.26811
G01 X6.27499 Y23.25691
G01 X6.28207 Y23.25109
G01 X6.28789 Y23.24400
G01 X6.29223 Y23.23588
G01 X6.29490 Y23.22714
G01 X6.29676 Y23.20806
G01 X6.29833 Y23.20839
G01 X6.29676 Y23.20806
G01 X6.29676 Y22.52790
G01 X6.29772 Y22.52775
G01 X6.29676 Y22.52790
G01 X6.29490 Y22.50885
G01 X6.29223 Y22.50009
G01 X6.28792 Y22.49199
G01 X6.28207 Y22.48490
G01 X6.28781 Y22.47916
G01 X6.28207 Y22.48490
G01 X6.27499 Y22.47908
G01 X6.26688 Y22.47474
G01 X6.25812 Y22.47207
G01 X6.23907 Y22.47022
G01 X6.23925 Y22.46920
G01 X6.23907 Y22.47022
G01 X5.35891 Y22.47022
G01 X5.33986 Y22.47207
G01 X5.33110 Y22.47474
G01 X5.32297 Y22.47908
G01 X5.31563 Y22.46786
G01 X5.32297 Y22.47908
G01 X5.31588 Y22.48490
G01 X5.31007 Y22.49199
G01 X5.30575 Y22.50006
G01 X5.30308 Y22.50885
G01 X5.30120 Y22.52795
G01 X5.29955 Y22.52762
G01 X5.22980 Y22.52442
G01 X5.23011 Y22.52445
G01 X5.23011 Y23.21152
G01 X5.22942 Y23.21162
G01 X5.23011 Y23.21152
G01 X5.23300 Y23.24108
G01 X5.23973 Y23.26323
G01 X5.25066 Y23.28368
G01 X5.24784 Y23.28556
G01 X5.25066 Y23.28368
G01 X5.26536 Y23.30161
G01 X5.28330 Y23.31632
G01 X5.30372 Y23.32724
G01 X5.30273 Y23.32932
G01 X5.30372 Y23.32724
G01 X5.32594 Y23.33397
G01 X5.35546 Y23.33687
G01 X5.35541 Y23.33717
G01 X5.35546 Y23.33687
G01 X6.24253 Y23.33687
G01 X6.24263 Y23.33755
G01 X6.24253 Y23.33687
G01 X6.27204 Y23.33397
G01 X6.29427 Y23.32724
G01 X6.31469 Y23.31632
G01 X6.31654 Y23.31916
G01 X6.31469 Y23.31632
G01 X6.33259 Y23.30161
G01 X6.34730 Y23.28368
G01 X6.35825 Y23.26323
G01 X6.36031 Y23.26420
G01 X6.35825 Y23.26323
G01 X6.36498 Y23.24108
G01 X6.36788 Y23.21152
G01 X6.36815 Y23.21157
G01 X6.36788 Y23.21152
G01 X6.36788 Y22.52445
G01 X6.36912 Y22.52422
G01 X6.36788 Y22.52445
G01 X6.36498 Y22.49491
G01 X6.35825 Y22.47273
G01 X6.34730 Y22.45229
G01 X6.33259 Y22.43438
G01 X6.33717 Y22.42978
G01 X6.33259 Y22.43438
G01 X6.31469 Y22.41967
G01 X6.29424 Y22.40872
G01 X6.27204 Y22.40199
G01 X6.24253 Y22.39910
G01 X6.24275 Y22.39785
G01 X6.24253 Y22.39910
G01 X5.35546 Y22.39910
G01 X5.35536 Y22.39841
G01 X5.35546 Y22.39910
G01 X5.32592 Y22.40199
G01 X5.30372 Y22.40872
G01 X5.28330 Y22.41967
G01 X5.28142 Y22.41683
G01 X5.28330 Y22.41967
G01 X5.26536 Y22.43438
G01 X5.25066 Y22.45229
G01 X5.23973 Y22.47273
G01 X5.23763 Y22.47177
G01 X5.23973 Y22.47273
G01 X5.23300 Y22.49491
G01 X5.23011 Y22.52445
G01 X5.15899 Y22.52097
G01 X5.15899 Y23.21500
G01 X5.16292 Y23.25500
G01 X5.17372 Y23.29059
G01 X5.19127 Y23.32340
G01 X5.21484 Y23.35213
G01 X5.24357 Y23.37573
G01 X5.27639 Y23.39325
G01 X5.31197 Y23.40405
G01 X5.35198 Y23.40799
G01 X6.24601 Y23.40799
G01 X6.28601 Y23.40405
G01 X6.32157 Y23.39325
G01 X6.35439 Y23.37573
G01 X6.38314 Y23.35213
G01 X6.40671 Y23.32340
G01 X6.42426 Y23.29059
G01 X6.43503 Y23.25500
G01 X6.43900 Y23.21502
G01 X6.43900 Y22.52094
G01 X6.43503 Y22.48096
G01 X6.42426 Y22.44538
G01 X6.40671 Y22.41259
G01 X6.38314 Y22.38383
G01 X6.35439 Y22.36026
G01 X6.32157 Y22.34271
G01 X6.28599 Y22.33191
G01 X6.24601 Y22.32798
G01 X5.35198 Y22.32798
G01 X5.31197 Y22.33191
G01 X5.27641 Y22.34271
G01 X5.24357 Y22.36026
G01 X5.21484 Y22.38383
G01 X5.19125 Y22.41261
G01 X5.17372 Y22.44538
G01 X5.16292 Y22.48099
G01 X5.15899 Y22.52097
G01 X5.22980 Y22.52442
G01 X5.29955 Y22.52762
G01 X5.35149 Y22.52048
G01 X5.37232 Y22.54131
G01 X5.37232 Y23.19465
G01 X5.35149 Y23.21548
G01 X5.37232 Y23.19465
G01 X6.22566 Y23.19465
G01 X6.24649 Y23.21548
G01 X6.22566 Y23.19465
G01 X6.22566 Y22.54131
G01 X6.24649 Y22.52048
G01 X6.22566 Y22.54131
G01 X5.37232 Y22.54131
G01 X5.44342 Y22.61243
G01 X5.44342 Y23.12356
G01 X5.42259 Y23.14438
G01 X5.44342 Y23.12356
G01 X6.15454 Y23.12356
G01 X6.17537 Y23.14438
G01 X6.15454 Y23.12356
G01 X6.15454 Y22.61243
G01 X6.17537 Y22.59160
G01 X6.15454 Y22.61243
G01 X5.44342 Y22.61243
G01 X5.51454 Y22.68353
G01 X5.51454 Y23.05244
G01 X5.49371 Y23.07326
G01 X5.51454 Y23.05244
G01 X6.08345 Y23.05244
G01 X6.10427 Y23.07326
G01 X6.08345 Y23.05244
G01 X6.08345 Y22.68353
G01 X6.10427 Y22.66270
G01 X6.08345 Y22.68353
G01 X5.51454 Y22.68353
G01 X5.58566 Y22.75465
G01 X5.58566 Y22.98132
G01 X5.56483 Y23.00214
G01 X5.58566 Y22.98132
G01 X6.01233 Y22.98132
G01 X6.03315 Y23.00214
G01 X6.01233 Y22.98132
G01 X6.01233 Y22.75465
G01 X6.03315 Y22.73382
G01 X6.01233 Y22.75465
G01 X5.58566 Y22.75465
G01 X5.65675 Y22.82574
G01 X5.65675 Y22.91022
G01 X5.63592 Y22.93105
G01 X5.65675 Y22.91022
G01 X5.94123 Y22.91022
G01 X5.96206 Y22.93105
G01 X5.94123 Y22.91022
G01 X5.94123 Y22.82574
G01 X5.96206 Y22.80491
G01 X5.94123 Y22.82574
G01 X5.65675 Y22.82574
G04 P0 ( dwell for no time -- G64 should not smooth over this point )
G00 Z2.00000 ( retract )

G00 X5.17420 Y25.13196 ( rapid move to begin. )
G01 F40.00000
( Mill infeed pass 1/1 )
G01 Z-0.1280
G04 P0 ( dwell for no time -- G64 should not smooth over this point )
G01 F100.00000
G01 X5.17420 Y25.13196
G01 X5.17420 Y25.81202
G01 X5.17265 Y25.81235
G01 X5.17420 Y25.81202
G01 X5.17608 Y25.83112
G01 X5.17875 Y25.83991
G01 X5.18307 Y25.84799
G01 X5.18888 Y25.85507
G01 X5.19597 Y25.86089
G01 X5.18863 Y25.87212
G01 X5.19597 Y25.86089
G01 X5.20410 Y25.86521
G01 X5.21286 Y25.86787
G01 X5.23191 Y25.86978
G01 X6.11207 Y25.86978
G01 X6.11240 Y25.87138
G01 X6.11207 Y25.86978
G01 X6.13112 Y25.86787
G01 X6.13988 Y25.86521
G01 X6.14799 Y25.86089
G01 X6.15507 Y25.85507
G01 X6.16092 Y25.84799
G01 X6.17204 Y25.85530
G01 X6.16092 Y25.84799
G01 X6.16523 Y25.83988
G01 X6.16790 Y25.83112
G01 X6.16976 Y25.81207
G01 X6.16976 Y25.13191
G01 X6.17143 Y25.13155
G01 X6.16976 Y25.13191
G01 X6.16790 Y25.11286
G01 X6.16523 Y25.10407
G01 X6.16092 Y25.09599
G01 X6.15507 Y25.08888
G01 X6.14799 Y25.08307
G01 X6.15533 Y25.07186
G01 X6.14799 Y25.08307
G01 X6.13988 Y25.07875
G01 X6.13112 Y25.07608
G01 X6.11207 Y25.07420
G01 X5.23191 Y25.07420
G01 X5.23176 Y25.07318
G01 X5.23191 Y25.07420
G01 X5.21286 Y25.07608
G01 X5.20410 Y25.07875
G01 X5.19597 Y25.08307
G01 X5.18888 Y25.08888
G01 X5.18314 Y25.08317
G01 X5.18888 Y25.08888
G01 X5.18307 Y25.09599
G01 X5.17875 Y25.10407
G01 X5.17608 Y25.11286
G01 X5.17420 Y25.13196
G01 X5.17324 Y25.13181
G01 X5.10280 Y25.12840
G01 X5.10311 Y25.12843
G01 X5.10311 Y25.81550
G01 X5.10242 Y25.81563
G01 X5.10311 Y25.81550
G01 X5.10600 Y25.84504
G01 X5.11273 Y25.86724
G01 X5.12366 Y25.88769
G01 X5.12084 Y25.88954
G01 X5.12366 Y25.88769
G01 X5.13836 Y25.90562
G01 X5.15627 Y25.92030
G01 X5.17674 Y25.93122
G01 X5.17575 Y25.93333
G01 X5.17674 Y25.93122
G01 X5.19892 Y25.93798
G01 X5.22841 Y25.94087
G01 X5.22835 Y25.94118
G01 X5.22841 Y25.94087
G01 X6.11558 Y25.94087
G01 X6.11568 Y25.94156
G01 X6.11558 Y25.94087
G01 X6.14507 Y25.93798
G01 X6.16724 Y25.93122
G01 X6.18769 Y25.92030
G01 X6.18957 Y25.92314
G01 X6.18769 Y25.92030
G01 X6.20559 Y25.90562
G01 X6.22030 Y25.88769
G01 X6.23125 Y25.86724
G01 X6.23333 Y25.86820
G01 X6.23125 Y25.86724
G01 X6.23798 Y25.84504
G01 X6.24088 Y25.81550
G01 X6.24118 Y25.81555
G01 X6.24088 Y25.81550
G01 X6.24088 Y25.12843
G01 X6.24212 Y25.12820
G01 X6.24088 Y25.12843
G01 X6.23798 Y25.09891
G01 X6.23125 Y25.07674
G01 X6.22030 Y25.05629
G01 X6.20562 Y25.03836
G01 X6.21019 Y25.03376
G01 X6.20562 Y25.03836
G01 X6.18769 Y25.02365
G01 X6.16724 Y25.01273
G01 X6.14507 Y25.00600
G01 X6.11558 Y25.00311
G01 X6.11581 Y25.00186
G01 X6.11558 Y25.00311
G01 X5.22841 Y25.00311
G01 X5.22830 Y25.00242
G01 X5.22841 Y25.00311
G01 X5.19892 Y25.00600
G01 X5.17674 Y25.01273
G01 X5.15630 Y25.02365
G01 X5.15442 Y25.02084
G01 X5.15630 Y25.02365
G01 X5.13836 Y25.03836
G01 X5.12366 Y25.05629
G01 X5.11273 Y25.07674
G01 X5.11063 Y25.07578
G01 X5.11273 Y25.07674
G01 X5.10600 Y25.09891
G01 X5.10311 Y25.12843
G01 X5.03199 Y25.12495
G01 X5.03199 Y25.81903
G01 X5.03592 Y25.85901
G01 X5.04672 Y25.89460
G01 X5.06427 Y25.92739
G01 X5.08784 Y25.95611
G01 X5.11659 Y25.97974
G01 X5.14939 Y25.99724
G01 X5.18497 Y26.00806
G01 X5.22495 Y26.01199
G01 X6.11903 Y26.01199
G01 X6.15899 Y26.00806
G01 X6.19460 Y25.99724
G01 X6.22739 Y25.97974
G01 X6.25614 Y25.95611
G01 X6.27971 Y25.92739
G01 X6.29726 Y25.89460
G01 X6.30806 Y25.85896
G01 X6.31200 Y25.81903
G01 X6.31200 Y25.12495
G01 X6.30806 Y25.08497
G01 X6.29724 Y25.04936
G01 X6.27971 Y25.01657
G01 X6.25614 Y24.98784
G01 X6.22739 Y24.96424
G01 X6.19460 Y24.94672
G01 X6.15899 Y24.93592
G01 X6.11906 Y24.93199
G01 X5.22493 Y24.93199
G01 X5.18497 Y24.93592
G01 X5.14939 Y24.94672
G01 X5.11659 Y24.96424
G01 X5.08784 Y24.98784
G01 X5.06425 Y25.01659
G01 X5.04672 Y25.04936
G01 X5.03592 Y25.08497
G01 X5.03199 Y25.12495
G01 X5.17324 Y25.13181
G01 X5.22449 Y25.12449
G01 X5.24532 Y25.14532
G01 X5.24532 Y25.79863
G01 X5.22449 Y25.81949
G01 X5.24532 Y25.79863
G01 X6.09866 Y25.79863
G01 X6.11949 Y25.81949
G01 X6.09866 Y25.79863
G01 X6.09866 Y25.14532
G01 X6.11949 Y25.12449
G01 X6.09866 Y25.14532
G01 X5.24532 Y25.14532
G01 X5.31642 Y25.21642
G01 X5.31642 Y25.72754
G01 X5.29559 Y25.74837
G01 X5.31642 Y25.72754
G01 X6.02754 Y25.72754
G01 X6.04837 Y25.74837
G01 X6.02754 Y25.72754
G01 X6.02754 Y25.21642
G01 X6.04837 Y25.19559
G01 X6.02754 Y25.21642
G01 X5.31642 Y25.21642
G01 X5.38754 Y25.28754
G01 X5.38754 Y25.65644
G01 X5.36671 Y25.67727
G01 X5.38754 Y25.65644
G01 X5.95645 Y25.65644
G01 X5.97727 Y25.67727
G01 X5.95645 Y25.65644
G01 X5.95645 Y25.28754
G01 X5.97727 Y25.26671
G01 X5.95645 Y25.28754
G01 X5.38754 Y25.28754
G01 X5.45866 Y25.35866
G01 X5.45866 Y25.58532
G01 X5.43783 Y25.60613
G01 X5.45866 Y25.58532
G01 X5.88533 Y25.58532
G01 X5.90615 Y25.60613
G01 X5.88533 Y25.58532
G01 X5.88533 Y25.35866
G01 X5.90615 Y25.33783
G01 X5.88533 Y25.35866
G01 X5.45866 Y25.35866
G01 X5.52975 Y25.42972
G01 X5.81423 Y25.42972
G01 X5.83506 Y25.40892
G01 X5.81423 Y25.42972
G01 X5.81423 Y25.51423
G01 X5.83506 Y25.53503
G01 X5.81423 Y25.51423
G01 X5.52975 Y25.51423
G01 X5.50892 Y25.53503
G01 X5.52975 Y25.51423
G01 X5.52975 Y25.42972
G04 P0 ( dwell for no time -- G64 should not smooth over this point )
G00 Z2.00000 ( retract )

G00 X5.17420 Y27.13196 ( rapid move to begin. )
G01 F40.00000
( Mill infeed pass 1/1 )
G01 Z-0.1280
G04 P0 ( dwell for no time -- G64 should not smooth over this point )
G01 F100.00000
G01 X5.17420 Y27.13196
G01 X5.17420 Y27.81202
G01 X5.17324 Y27.81217
G01 X5.17420 Y27.81202
G01 X5.17608 Y27.83112
G01 X5.17875 Y27.83990
G01 X5.18307 Y27.84798
G01 X5.18888 Y27.85509
G01 X5.18314 Y27.86083
G01 X5.18888 Y27.85509
G01 X5.19597 Y27.86091
G01 X5.20407 Y27.86523
G01 X5.21286 Y27.86790
G01 X5.23196 Y27.86978
G01 X5.23181 Y27.87074
G01 X5.23196 Y27.86978
G01 X6.11202 Y27.86978
G01 X6.11217 Y27.87074
G01 X6.11202 Y27.86978
G01 X6.13112 Y27.86790
G01 X6.13991 Y27.86523
G01 X6.14799 Y27.86091
G01 X6.15507 Y27.85509
G01 X6.16081 Y27.86083
G01 X6.15507 Y27.85509
G01 X6.16089 Y27.84798
G01 X6.16523 Y27.83988
G01 X6.16790 Y27.83112
G01 X6.16976 Y27.81207
G01 X6.17072 Y27.81224
G01 X6.16976 Y27.81207
G01 X6.16976 Y27.13191
G01 X6.17072 Y27.13173
G01 X6.16976 Y27.13191
G01 X6.16790 Y27.11286
G01 X6.16523 Y27.10407
G01 X6.16092 Y27.09599
G01 X6.15507 Y27.08890
G01 X6.16081 Y27.08316
G01 X6.15507 Y27.08890
G01 X6.14799 Y27.08306
G01 X6.13988 Y27.07874
G01 X6.13112 Y27.07608
G01 X6.11207 Y27.07420
G01 X6.11222 Y27.07326
G01 X6.11207 Y27.07420
G01 X5.23191 Y27.07420
G01 X5.23173 Y27.07326
G01 X5.23191 Y27.07420
G01 X5.21286 Y27.07608
G01 X5.20410 Y27.07874
G01 X5.19597 Y27.08309
G01 X5.18888 Y27.08890
G01 X5.18314 Y27.08316
G01 X5.18888 Y27.08890
G01 X5.18307 Y27.09599
G01 X5.17875 Y27.10407
G01 X5.17608 Y27.11286
G01 X5.17420 Y27.13196
G01 X5.17324 Y27.13180
G01 X5.03199 Y27.12495
G01 X5.03199 Y27.81903
G01 X5.03592 Y27.85901
G01 X5.04672 Y27.89459
G01 X5.06425 Y27.92738
G01 X5.08784 Y27.95614
G01 X5.11659 Y27.97973
G01 X5.14939 Y27.99726
G01 X5.18497 Y28.00805
G01 X5.22493 Y28.01199
G01 X6.11906 Y28.01199
G01 X6.15899 Y28.00805
G01 X6.19460 Y27.99726
G01 X6.22739 Y27.97973
G01 X6.25614 Y27.95614
G01 X6.27971 Y27.92738
G01 X6.29726 Y27.89459
G01 X6.30806 Y27.85901
G01 X6.31200 Y27.81903
G01 X6.31200 Y27.12495
G01 X6.30806 Y27.08499
G01 X6.29726 Y27.04938
G01 X6.27971 Y27.01659
G01 X6.25612 Y26.98784
G01 X6.22739 Y26.96427
G01 X6.19460 Y26.94671
G01 X6.15899 Y26.93592
G01 X6.11901 Y26.93198
G01 X5.22498 Y26.93198
G01 X5.18497 Y26.93592
G01 X5.14939 Y26.94671
G01 X5.11659 Y26.96424
G01 X5.08784 Y26.98784
G01 X5.06425 Y27.01659
G01 X5.04672 Y27.04938
G01 X5.03592 Y27.08497
G01 X5.03199 Y27.12495
G01 X5.10242 Y27.12835
G01 X5.10311 Y27.12845
G01 X5.10600 Y27.09891
G01 X5.11273 Y27.07674
G01 X5.12366 Y27.05629
G01 X5.12084 Y27.05444
G01 X5.12366 Y27.05629
G01 X5.13836 Y27.03836
G01 X5.15627 Y27.02368
G01 X5.17674 Y27.01273
G01 X5.17575 Y27.01065
G01 X5.17674 Y27.01273
G01 X5.19892 Y27.00600
G01 X5.22846 Y27.00310
G01 X5.22843 Y27.00280
G01 X5.22846 Y27.00310
G01 X6.11553 Y27.00310
G01 X6.11563 Y27.00242
G01 X6.11553 Y27.00310
G01 X6.14507 Y27.00600
G01 X6.16724 Y27.01273
G01 X6.18769 Y27.02368
G01 X6.18957 Y27.02083
G01 X6.18769 Y27.02368
G01 X6.20559 Y27.03836
G01 X6.22030 Y27.05629
G01 X6.23125 Y27.07674
G01 X6.23333 Y27.07577
G01 X6.23125 Y27.07674
G01 X6.23798 Y27.09891
G01 X6.24088 Y27.12845
G01 X6.24123 Y27.12843
G01 X6.24088 Y27.12845
G01 X6.24088 Y27.81552
G01 X6.23798 Y27.84506
G01 X6.23125 Y27.86724
G01 X6.23524 Y27.86871
G01 X6.23125 Y27.86724
G01 X6.22030 Y27.88768
G01 X6.20562 Y27.90561
G01 X6.18769 Y27.92032
G01 X6.18954 Y27.92314
G01 X6.18769 Y27.92032
G01 X6.16724 Y27.93124
G01 X6.14507 Y27.93797
G01 X6.11553 Y27.94087
G01 X6.11563 Y27.94156
G01 X6.11553 Y27.94087
G01 X5.22846 Y27.94087
G01 X5.22835 Y27.94156
G01 X5.22846 Y27.94087
G01 X5.19892 Y27.93797
G01 X5.17674 Y27.93124
G01 X5.15630 Y27.92032
G01 X5.15442 Y27.92314
G01 X5.15630 Y27.92032
G01 X5.13836 Y27.90561
G01 X5.12366 Y27.88768
G01 X5.11273 Y27.86724
G01 X5.11065 Y27.86823
G01 X5.11273 Y27.86724
G01 X5.10600 Y27.84506
G01 X5.10311 Y27.81552
G01 X5.10280 Y27.81555
G01 X5.10311 Y27.81552
G01 X5.10311 Y27.12845
G01 X5.10242 Y27.12835
G01 X5.17324 Y27.13180
G01 X5.22449 Y27.12449
G01 X5.24532 Y27.14532
G01 X5.24532 Y27.79866
G01 X5.22449 Y27.81948
G01 X5.24532 Y27.79866
G01 X6.09866 Y27.79866
G01 X6.11949 Y27.81948
G01 X6.09866 Y27.79866
G01 X6.09866 Y27.14532
G01 X6.11949 Y27.12449
G01 X6.09866 Y27.14532
G01 X5.24532 Y27.14532
G01 X5.31642 Y27.21641
G01 X5.31642 Y27.72756
G01 X5.29559 Y27.74839
G01 X5.31642 Y27.72756
G01 X6.02754 Y27.72756
G01 X6.04837 Y27.74839
G01 X6.02754 Y27.72756
G01 X6.02754 Y27.21641
G01 X6.04837 Y27.19558
G01 X6.02754 Y27.21641
G01 X5.31642 Y27.21641
G01 X5.38754 Y27.28753
G01 X5.38754 Y27.65644
G01 X5.36671 Y27.67727
G01 X5.38754 Y27.65644
G01 X5.95645 Y27.65644
G01 X5.97727 Y27.67727
G01 X5.95645 Y27.65644
G01 X5.95645 Y27.28753
G01 X5.97727 Y27.26670
G01 X5.95645 Y27.28753
G01 X5.38754 Y27.28753
G01 X5.45866 Y27.35865
G01 X5.45866 Y27.58532
G01 X5.43783 Y27.60615
G01 X5.45866 Y27.58532
G01 X5.88533 Y27.58532
G01 X5.90615 Y27.60615
G01 X5.88533 Y27.58532
G01 X5.88533 Y27.35865
G01 X5.90615 Y27.33782
G01 X5.88533 Y27.35865
G01 X5.45866 Y27.35865
G01 X5.52975 Y27.42975
G01 X5.52975 Y27.51423
G01 X5.50892 Y27.53505
G01 X5.52975 Y27.51423
G01 X5.81423 Y27.51423
G01 X5.83506 Y27.53505
G01 X5.81423 Y27.51423
G01 X5.81423 Y27.42975
G01 X5.83506 Y27.40892
G01 X5.81423 Y27.42975
G01 X5.52975 Y27.42975
G04 P0 ( dwell for no time -- G64 should not smooth over this point )
G00 Z2.00000 ( retract )

G00 X8.10732 Y25.47196 ( rapid move to begin. )
G01 F40.00000
( Mill infeed pass 1/1 )
G01 Z-0.1280
G04 P0 ( dwell for no time -- G64 should not smooth over this point )
G01 F100.00000
G01 X8.10732 Y25.47196
G01 X8.12347 Y25.62579
G01 X8.17128 Y25.77283
G01 X8.24859 Y25.90676
G01 X8.35205 Y26.02165
G01 X8.47714 Y26.11255
G01 X8.61842 Y26.17542
G01 X8.76967 Y26.20757
G01 X8.92428 Y26.20757
G01 X9.07557 Y26.17542
G01 X9.21682 Y26.11255
G01 X9.34191 Y26.02165
G01 X9.44539 Y25.90674
G01 X9.52271 Y25.77283
G01 X9.57048 Y25.62574
G01 X9.58666 Y25.47196
G01 X9.57048 Y25.31822
G01 X9.54572 Y25.24192
G01 X9.52271 Y25.17113
G01 X9.44539 Y25.03722
G01 X9.34191 Y24.92231
G01 X9.21682 Y24.83140
G01 X9.07557 Y24.76851
G01 X8.92428 Y24.73636
G01 X8.76970 Y24.73636
G01 X8.61842 Y24.76851
G01 X8.47717 Y24.83140
G01 X8.35205 Y24.92231
G01 X8.24859 Y25.03722
G01 X8.17128 Y25.17115
G01 X8.12350 Y25.31819
G01 X8.10732 Y25.47196
G01 X8.17882 Y25.47196
G01 X8.19342 Y25.33308
G01 X8.19304 Y25.33300
G01 X8.19342 Y25.33308
G01 X8.23658 Y25.20021
G01 X8.23622 Y25.20006
G01 X8.23658 Y25.20021
G01 X8.30643 Y25.07926
G01 X8.30610 Y25.07903
G01 X8.30643 Y25.07926
G01 X8.39990 Y24.97545
G01 X8.39962 Y24.97517
G01 X8.39990 Y24.97545
G01 X8.51291 Y24.89333
G01 X8.51270 Y24.89300
G01 X8.51291 Y24.89333
G01 X8.64051 Y24.83653
G01 X8.64039 Y24.83615
G01 X8.64051 Y24.83653
G01 X8.77717 Y24.80748
G01 X8.77712 Y24.80709
G01 X8.77717 Y24.80748
G01 X8.91682 Y24.80748
G01 X8.91684 Y24.80709
G01 X8.91682 Y24.80748
G01 X9.05347 Y24.83653
G01 X9.05359 Y24.83615
G01 X9.05347 Y24.83653
G01 X9.18108 Y24.89333
G01 X9.18126 Y24.89300
G01 X9.18108 Y24.89333
G01 X9.29408 Y24.97545
G01 X9.29434 Y24.97514
G01 X9.29408 Y24.97545
G01 X9.38755 Y25.07926
G01 X9.38786 Y25.07903
G01 X9.38755 Y25.07926
G01 X9.45738 Y25.20021
G01 X9.45773 Y25.20006
G01 X9.45738 Y25.20021
G01 X9.50056 Y25.33308
G01 X9.50094 Y25.33300
G01 X9.50056 Y25.33308
G01 X9.51516 Y25.47196
G01 X9.51554 Y25.47196
G01 X9.51516 Y25.47196
G01 X9.50056 Y25.61090
G01 X9.50094 Y25.61098
G01 X9.50056 Y25.61090
G01 X9.45738 Y25.74377
G01 X9.45773 Y25.74392
G01 X9.45738 Y25.74377
G01 X9.38755 Y25.86472
G01 X9.38786 Y25.86493
G01 X9.38755 Y25.86472
G01 X9.29408 Y25.96853
G01 X9.29434 Y25.96879
G01 X9.29408 Y25.96853
G01 X9.18108 Y26.05063
G01 X9.18128 Y26.05096
G01 X9.18108 Y26.05063
G01 X9.05347 Y26.10742
G01 X9.05359 Y26.10783
G01 X9.05347 Y26.10742
G01 X8.91684 Y26.13648
G01 X8.91687 Y26.13689
G01 X8.91684 Y26.13648
G01 X8.77714 Y26.13648
G01 X8.77709 Y26.13689
G01 X8.77714 Y26.13648
G01 X8.64051 Y26.10742
G01 X8.64039 Y26.10783
G01 X8.64051 Y26.10742
G01 X8.51288 Y26.05063
G01 X8.51270 Y26.05096
G01 X8.51288 Y26.05063
G01 X8.39990 Y25.96853
G01 X8.39962 Y25.96879
G01 X8.39990 Y25.96853
G01 X8.30643 Y25.86472
G01 X8.30610 Y25.86493
G01 X8.30643 Y25.86472
G01 X8.23660 Y25.74377
G01 X8.23625 Y25.74392
G01 X8.23660 Y25.74377
G01 X8.19342 Y25.61090
G01 X8.19304 Y25.61098
G01 X8.19342 Y25.61090
G01 X8.17882 Y25.47196
G01 X8.25032 Y25.47196
G01 X8.26335 Y25.34794
G01 X8.26297 Y25.34786
G01 X8.26335 Y25.34794
G01 X8.30191 Y25.22932
G01 X8.30155 Y25.22914
G01 X8.30191 Y25.22932
G01 X8.36429 Y25.12127
G01 X8.36396 Y25.12104
G01 X8.36429 Y25.12127
G01 X8.44775 Y25.02858
G01 X8.44747 Y25.02828
G01 X8.44775 Y25.02858
G01 X8.54867 Y24.95525
G01 X8.54847 Y24.95492
G01 X8.54867 Y24.95525
G01 X8.66261 Y24.90453
G01 X8.66249 Y24.90415
G01 X8.66261 Y24.90453
G01 X8.78463 Y24.87860
G01 X8.78458 Y24.87819
G01 X8.78463 Y24.87860
G01 X8.90935 Y24.87860
G01 X8.90937 Y24.87819
G01 X8.90935 Y24.87860
G01 X9.03137 Y24.90453
G01 X9.03150 Y24.90415
G01 X9.03137 Y24.90453
G01 X9.14531 Y24.95525
G01 X9.14552 Y24.95492
G01 X9.14531 Y24.95525
G01 X9.24623 Y25.02856
G01 X9.24648 Y25.02828
G01 X9.24623 Y25.02856
G01 X9.32969 Y25.12127
G01 X9.33002 Y25.12104
G01 X9.32969 Y25.12127
G01 X9.39208 Y25.22932
G01 X9.39243 Y25.22914
G01 X9.39208 Y25.22932
G01 X9.43061 Y25.34794
G01 X9.43099 Y25.34786
G01 X9.43061 Y25.34794
G01 X9.44366 Y25.47196
G01 X9.44404 Y25.47196
G01 X9.44366 Y25.47196
G01 X9.43061 Y25.59604
G01 X9.43099 Y25.59612
G01 X9.43061 Y25.59604
G01 X9.39208 Y25.71466
G01 X9.39243 Y25.71479
G01 X9.39208 Y25.71466
G01 X9.32969 Y25.82271
G01 X9.33002 Y25.82294
G01 X9.32969 Y25.82271
G01 X9.24623 Y25.91542
G01 X9.24648 Y25.91570
G01 X9.24623 Y25.91542
G01 X9.14534 Y25.98868
G01 X9.14552 Y25.98906
G01 X9.14534 Y25.98868
G01 X9.03137 Y26.03945
G01 X9.03150 Y26.03983
G01 X9.03137 Y26.03945
G01 X8.90935 Y26.06538
G01 X8.90937 Y26.06579
G01 X8.90935 Y26.06538
G01 X8.78463 Y26.06538
G01 X8.78458 Y26.06579
G01 X8.78463 Y26.06538
G01 X8.66261 Y26.03945
G01 X8.66249 Y26.03983
G01 X8.66261 Y26.03945
G01 X8.54867 Y25.98873
G01 X8.54847 Y25.98906
G01 X8.54867 Y25.98873
G01 X8.44775 Y25.91540
G01 X8.44747 Y25.91570
G01 X8.44775 Y25.91540
G01 X8.36429 Y25.82271
G01 X8.36396 Y25.82294
G01 X8.36429 Y25.82271
G01 X8.30191 Y25.71466
G01 X8.30155 Y25.71479
G01 X8.30191 Y25.71466
G01 X8.26335 Y25.59604
G01 X8.26297 Y25.59612
G01 X8.26335 Y25.59604
G01 X8.25032 Y25.47196
G01 X8.32182 Y25.47196
G01 X8.33330 Y25.36280
G01 X8.33292 Y25.36272
G01 X8.33330 Y25.36280
G01 X8.36721 Y25.25840
G01 X8.36686 Y25.25825
G01 X8.36721 Y25.25840
G01 X8.42213 Y25.16330
G01 X8.42180 Y25.16308
G01 X8.42213 Y25.16330
G01 X8.49558 Y25.08172
G01 X8.49533 Y25.08141
G01 X8.49558 Y25.08172
G01 X8.58441 Y25.01718
G01 X8.58420 Y25.01685
G01 X8.58441 Y25.01718
G01 X8.68471 Y24.97252
G01 X8.68458 Y24.97214
G01 X8.68471 Y24.97252
G01 X8.79210 Y24.94969
G01 X8.79205 Y24.94931
G01 X8.79210 Y24.94969
G01 X8.90188 Y24.94969
G01 X8.90191 Y24.94931
G01 X8.90188 Y24.94969
G01 X9.00927 Y24.97252
G01 X9.00940 Y24.97214
G01 X9.00927 Y24.97252
G01 X9.10958 Y25.01718
G01 X9.10978 Y25.01685
G01 X9.10958 Y25.01718
G01 X9.19840 Y25.08172
G01 X9.19865 Y25.08141
G01 X9.19840 Y25.08172
G01 X9.27186 Y25.16330
G01 X9.27216 Y25.16308
G01 X9.27186 Y25.16330
G01 X9.32675 Y25.25838
G01 X9.32710 Y25.25822
G01 X9.32675 Y25.25838
G01 X9.36068 Y25.36282
G01 X9.36106 Y25.36272
G01 X9.36068 Y25.36282
G01 X9.37216 Y25.47196
G01 X9.37254 Y25.47196
G01 X9.37216 Y25.47196
G01 X9.36068 Y25.58116
G01 X9.36106 Y25.58124
G01 X9.36068 Y25.58116
G01 X9.32675 Y25.68558
G01 X9.32710 Y25.68576
G01 X9.32675 Y25.68558
G01 X9.27186 Y25.78068
G01 X9.27216 Y25.78088
G01 X9.27186 Y25.78068
G01 X9.19840 Y25.86226
G01 X9.19865 Y25.86254
G01 X9.19840 Y25.86226
G01 X9.10958 Y25.92680
G01 X9.10978 Y25.92711
G01 X9.10958 Y25.92680
G01 X9.00927 Y25.97146
G01 X9.00940 Y25.97181
G01 X9.00927 Y25.97146
G01 X8.90188 Y25.99426
G01 X8.90191 Y25.99465
G01 X8.90188 Y25.99426
G01 X8.79210 Y25.99426
G01 X8.79205 Y25.99465
G01 X8.79210 Y25.99426
G01 X8.68471 Y25.97146
G01 X8.68458 Y25.97181
G01 X8.68471 Y25.97146
G01 X8.58441 Y25.92680
G01 X8.58420 Y25.92711
G01 X8.58441 Y25.92680
G01 X8.49558 Y25.86226
G01 X8.49533 Y25.86254
G01 X8.49558 Y25.86226
G01 X8.42213 Y25.78068
G01 X8.42180 Y25.78088
G01 X8.42213 Y25.78068
G01 X8.36721 Y25.68558
G01 X8.36686 Y25.68573
G01 X8.36721 Y25.68558
G01 X8.33330 Y25.58116
G01 X8.33292 Y25.58124
G01 X8.33330 Y25.58116
G01 X8.32182 Y25.47196
G01 X8.39332 Y25.47196
G01 X8.40323 Y25.37765
G01 X8.43254 Y25.28748
G01 X8.43109 Y25.28682
G01 X8.43254 Y25.28748
G01 X8.47996 Y25.20534
G01 X8.54344 Y25.13483
G01 X8.54237 Y25.13366
G01 X8.54344 Y25.13483
G01 X8.62014 Y25.07910
G01 X8.70678 Y25.04052
G01 X8.70630 Y25.03902
G01 X8.70678 Y25.04052
G01 X8.79957 Y25.02081
G01 X8.89439 Y25.02081
G01 X8.89457 Y25.01923
G01 X8.89439 Y25.02081
G01 X8.98720 Y25.04052
G01 X9.07384 Y25.07910
G01 X9.07463 Y25.07773
G01 X9.07384 Y25.07910
G01 X9.15055 Y25.13483
G01 X9.21400 Y25.20532
G01 X9.21471 Y25.20476
G01 X9.21400 Y25.20532
G01 X9.26144 Y25.28748
G01 X9.26226 Y25.28715
G01 X9.26144 Y25.28748
G01 X9.29073 Y25.37765
G01 X9.30066 Y25.47196
G01 X9.30224 Y25.47196
G01 X9.30066 Y25.47196
G01 X9.29073 Y25.56630
G01 X9.26144 Y25.65650
G01 X9.26289 Y25.65713
G01 X9.26144 Y25.65650
G01 X9.21400 Y25.73864
G01 X9.15055 Y25.80912
G01 X9.15118 Y25.80973
G01 X9.15055 Y25.80912
G01 X9.07384 Y25.86488
G01 X9.07425 Y25.86566
G01 X9.07384 Y25.86488
G01 X8.98717 Y25.90346
G01 X8.89441 Y25.92317
G01 X8.89459 Y25.92475
G01 X8.89441 Y25.92317
G01 X8.79954 Y25.92317
G01 X8.70681 Y25.90346
G01 X8.70633 Y25.90496
G01 X8.70681 Y25.90346
G01 X8.62014 Y25.86488
G01 X8.54344 Y25.80912
G01 X8.54237 Y25.81029
G01 X8.54344 Y25.80912
G01 X8.47996 Y25.73864
G01 X8.43254 Y25.65650
G01 X8.43109 Y25.65713
G01 X8.43254 Y25.65650
G01 X8.40323 Y25.56630
G01 X8.39332 Y25.47196
G01 X8.46482 Y25.47196
G01 X8.47318 Y25.39251
G01 X8.47163 Y25.39218
G01 X8.47318 Y25.39251
G01 X8.49787 Y25.31654
G01 X8.53780 Y25.24735
G01 X8.53706 Y25.24687
G01 X8.53780 Y25.24735
G01 X8.59126 Y25.18799
G01 X8.59071 Y25.18731
G01 X8.59126 Y25.18799
G01 X8.65591 Y25.14103
G01 X8.72891 Y25.10852
G01 X8.72840 Y25.10702
G01 X8.72891 Y25.10852
G01 X8.80704 Y25.09193
G01 X8.88695 Y25.09193
G01 X8.88710 Y25.09033
G01 X8.88695 Y25.09193
G01 X8.96508 Y25.10852
G01 X9.03808 Y25.14103
G01 X9.03886 Y25.13966
G01 X9.03808 Y25.14103
G01 X9.10269 Y25.18799
G01 X9.15616 Y25.24735
G01 X9.15746 Y25.24644
G01 X9.15616 Y25.24735
G01 X9.19611 Y25.31654
G01 X9.22080 Y25.39254
G01 X9.22235 Y25.39221
G01 X9.22080 Y25.39254
G01 X9.22916 Y25.47196
G01 X9.22080 Y25.55142
G01 X9.22235 Y25.55177
G01 X9.22080 Y25.55142
G01 X9.19611 Y25.62744
G01 X9.15619 Y25.69660
G01 X9.15692 Y25.69708
G01 X9.15619 Y25.69660
G01 X9.10269 Y25.75599
G01 X9.10325 Y25.75667
G01 X9.10269 Y25.75599
G01 X9.03808 Y25.80295
G01 X8.96508 Y25.83544
G01 X8.96556 Y25.83696
G01 X8.96508 Y25.83544
G01 X8.88692 Y25.85205
G01 X8.80706 Y25.85205
G01 X8.80688 Y25.85362
G01 X8.80706 Y25.85205
G01 X8.72891 Y25.83544
G01 X8.65591 Y25.80295
G01 X8.65512 Y25.80432
G01 X8.65591 Y25.80295
G01 X8.59126 Y25.75599
G01 X8.53780 Y25.69660
G01 X8.53653 Y25.69752
G01 X8.53780 Y25.69660
G01 X8.49787 Y25.62739
G01 X8.47318 Y25.55147
G01 X8.47163 Y25.55180
G01 X8.47318 Y25.55147
G01 X8.46482 Y25.47196
G01 X8.60782 Y25.47196
G01 X8.61306 Y25.42226
G01 X8.62850 Y25.37473
G01 X8.62705 Y25.37407
G01 X8.62850 Y25.37473
G01 X8.65352 Y25.33140
G01 X8.68695 Y25.29427
G01 X8.68590 Y25.29307
G01 X8.68695 Y25.29427
G01 X8.72738 Y25.26488
G01 X8.77310 Y25.24453
G01 X8.77259 Y25.24301
G01 X8.77310 Y25.24453
G01 X8.82197 Y25.23414
G01 X8.87199 Y25.23414
G01 X8.87216 Y25.23257
G01 X8.87199 Y25.23414
G01 X8.92088 Y25.24453
G01 X8.96657 Y25.26488
G01 X8.96698 Y25.26409
G01 X8.96657 Y25.26488
G01 X9.00704 Y25.29427
G01 X9.00767 Y25.29363
G01 X9.00704 Y25.29427
G01 X9.04046 Y25.33140
G01 X9.06548 Y25.37471
G01 X9.06693 Y25.37407
G01 X9.06548 Y25.37471
G01 X9.08093 Y25.42226
G01 X9.08616 Y25.47196
G01 X9.08773 Y25.47196
G01 X9.08616 Y25.47196
G01 X9.08093 Y25.52172
G01 X9.06548 Y25.56925
G01 X9.06693 Y25.56991
G01 X9.06548 Y25.56925
G01 X9.04046 Y25.61258
G01 X9.00701 Y25.64971
G01 X9.00808 Y25.65091
G01 X9.00701 Y25.64971
G01 X8.96657 Y25.67908
G01 X8.92091 Y25.69945
G01 X8.92139 Y25.70095
G01 X8.92091 Y25.69945
G01 X8.87196 Y25.70984
G01 X8.82200 Y25.70984
G01 X8.82185 Y25.71144
G01 X8.82200 Y25.70984
G01 X8.77308 Y25.69945
G01 X8.72741 Y25.67908
G01 X8.72660 Y25.68045
G01 X8.72741 Y25.67908
G01 X8.68697 Y25.64974
G01 X8.65349 Y25.61255
G01 X8.65222 Y25.61347
G01 X8.65349 Y25.61255
G01 X8.62850 Y25.56925
G01 X8.61306 Y25.52172
G01 X8.61219 Y25.52195
G01 X8.61306 Y25.52172
G01 X8.60782 Y25.47196
G01 X8.60694 Y25.47194
G01 X8.67933 Y25.47196
G01 X8.68298 Y25.43712
G01 X8.68143 Y25.43679
G01 X8.68298 Y25.43712
G01 X8.69383 Y25.40382
G01 X8.71136 Y25.37344
G01 X8.71006 Y25.37250
G01 X8.71136 Y25.37344
G01 X8.73480 Y25.34738
G01 X8.76315 Y25.32680
G01 X8.76236 Y25.32541
G01 X8.76315 Y25.32680
G01 X8.79518 Y25.31253
G01 X8.82947 Y25.30524
G01 X8.82934 Y25.30275
G01 X8.82947 Y25.30524
G01 X8.86452 Y25.30524
G01 X8.89881 Y25.31253
G01 X8.93084 Y25.32680
G01 X8.93195 Y25.32457
G01 X8.93084 Y25.32680
G01 X8.95916 Y25.34738
G01 X8.98263 Y25.37344
G01 X8.98390 Y25.37250
G01 X8.98263 Y25.37344
G01 X9.00015 Y25.40379
G01 X9.01097 Y25.43712
G01 X9.01255 Y25.43679
G01 X9.01097 Y25.43712
G01 X9.01466 Y25.47196
G01 X9.01097 Y25.50684
G01 X9.01255 Y25.50717
G01 X9.01097 Y25.50684
G01 X9.00015 Y25.54016
G01 X8.98263 Y25.57054
G01 X8.98458 Y25.57212
G01 X8.98263 Y25.57054
G01 X8.95916 Y25.59660
G01 X8.93084 Y25.61718
G01 X8.89878 Y25.63143
G01 X8.89967 Y25.63376
G01 X8.89878 Y25.63143
G01 X8.86454 Y25.63869
G01 X8.82944 Y25.63869
G01 X8.82926 Y25.64026
G01 X8.82944 Y25.63869
G01 X8.79520 Y25.63143
G01 X8.76315 Y25.61718
G01 X8.76236 Y25.61855
G01 X8.76315 Y25.61718
G01 X8.73480 Y25.59658
G01 X8.71136 Y25.57054
G01 X8.71006 Y25.57148
G01 X8.71136 Y25.57054
G01 X8.69380 Y25.54016
G01 X8.68298 Y25.50686
G01 X8.68143 Y25.50719
G01 X8.68298 Y25.50686
G01 X8.67933 Y25.47196
G01 X8.74410 Y25.47196
G01 X8.79444 Y25.45921
G01 X8.82286 Y25.46686
G01 X8.82233 Y25.47196
G01 X8.82286 Y25.47712
G01 X8.82446 Y25.48202
G01 X8.82703 Y25.48647
G01 X8.83048 Y25.49030
G01 X8.83467 Y25.49335
G01 X8.83935 Y25.49541
G01 X8.83173 Y25.52386
G01 X8.83935 Y25.49541
G01 X8.84440 Y25.49650
G01 X8.84956 Y25.49650
G01 X8.85461 Y25.49541
G01 X8.85931 Y25.49335
G01 X8.86350 Y25.49030
G01 X8.86693 Y25.48649
G01 X8.86952 Y25.48197
G01 X8.87110 Y25.47712
G01 X8.89957 Y25.48472
G01 X8.87110 Y25.47712
G01 X8.87165 Y25.47196
G01 X8.87110 Y25.46686
G01 X8.86952 Y25.46196
G01 X8.86693 Y25.45749
G01 X8.86350 Y25.45365
G01 X8.85931 Y25.45063
G01 X8.85459 Y25.44852
G01 X8.86221 Y25.42010
G01 X8.85459 Y25.44852
G01 X8.84956 Y25.44745
G01 X8.84440 Y25.44745
G01 X8.83937 Y25.44852
G01 X8.83467 Y25.45063
G01 X8.83048 Y25.45365
G01 X8.82703 Y25.45751
G01 X8.82446 Y25.46196
G01 X8.82286 Y25.46686
G01 X8.79444 Y25.45921
G01 X8.74410 Y25.47196
G01 X8.75083 Y25.47196
G01 X8.75294 Y25.49198
G01 X8.75916 Y25.51111
G01 X8.76919 Y25.52850
G01 X8.78265 Y25.54344
G01 X8.77813 Y25.54844
G01 X8.78265 Y25.54344
G01 X8.79891 Y25.55525
G01 X8.81727 Y25.56343
G01 X8.83693 Y25.56760
G01 X8.85702 Y25.56760
G01 X8.85774 Y25.57433
G01 X8.85702 Y25.56760
G01 X8.87671 Y25.56343
G01 X8.89507 Y25.55525
G01 X8.91133 Y25.54344
G01 X8.92479 Y25.52850
G01 X8.93023 Y25.53244
G01 X8.92479 Y25.52850
G01 X8.93482 Y25.51111
G01 X8.94105 Y25.49198
G01 X8.94316 Y25.47196
G01 X8.94105 Y25.45200
G01 X8.94605 Y25.45119
G01 X8.94105 Y25.45200
G01 X8.93482 Y25.43287
G01 X8.92479 Y25.41547
G01 X8.91133 Y25.40051
G01 X8.91377 Y25.39780
G01 X8.91133 Y25.40051
G01 X8.89507 Y25.38873
G01 X8.87671 Y25.38052
G01 X8.85702 Y25.37636
G01 X8.85730 Y25.37130
G01 X8.85702 Y25.37636
G01 X8.83693 Y25.37636
G01 X8.81727 Y25.38052
G01 X8.79891 Y25.38870
G01 X8.78265 Y25.40051
G01 X8.77816 Y25.39551
G01 X8.78265 Y25.40051
G01 X8.76919 Y25.41547
G01 X8.75916 Y25.43287
G01 X8.75294 Y25.45200
G01 X8.75083 Y25.47196
G01 X8.53472 Y25.47196
G01 X8.53632 Y25.47196
G01 X8.54311 Y25.53658
G01 X8.56317 Y25.59836
G01 X8.56172 Y25.59899
G01 X8.56317 Y25.59836
G01 X8.59566 Y25.65459
G01 X8.63909 Y25.70285
G01 X8.63803 Y25.70402
G01 X8.63909 Y25.70285
G01 X8.69167 Y25.74103
G01 X8.75100 Y25.76744
G01 X8.75050 Y25.76897
G01 X8.75100 Y25.76744
G01 X8.81450 Y25.78096
G01 X8.87948 Y25.78096
G01 X8.87963 Y25.78253
G01 X8.87948 Y25.78096
G01 X8.94298 Y25.76744
G01 X9.00231 Y25.74103
G01 X9.00272 Y25.74181
G01 X9.00231 Y25.74103
G01 X9.05486 Y25.70285
G01 X9.05550 Y25.70346
G01 X9.05486 Y25.70285
G01 X9.09830 Y25.65459
G01 X9.13079 Y25.59836
G01 X9.13223 Y25.59899
G01 X9.13079 Y25.59836
G01 X9.15085 Y25.53658
G01 X9.15766 Y25.47196
G01 X9.15923 Y25.47196
G01 X9.15766 Y25.47196
G01 X9.15085 Y25.40740
G01 X9.13079 Y25.34562
G01 X9.13223 Y25.34499
G01 X9.13079 Y25.34562
G01 X9.09830 Y25.28936
G01 X9.05486 Y25.24113
G01 X9.05593 Y25.23996
G01 X9.05486 Y25.24113
G01 X9.00231 Y25.20293
G01 X8.94298 Y25.17654
G01 X8.94349 Y25.17501
G01 X8.94298 Y25.17654
G01 X8.87948 Y25.16302
G01 X8.81450 Y25.16302
G01 X8.81433 Y25.16145
G01 X8.81450 Y25.16302
G01 X8.75100 Y25.17654
G01 X8.69167 Y25.20295
G01 X8.69126 Y25.20217
G01 X8.69167 Y25.20295
G01 X8.63909 Y25.24113
G01 X8.63848 Y25.24049
G01 X8.63909 Y25.24113
G01 X8.59566 Y25.28936
G01 X8.56317 Y25.34562
G01 X8.56172 Y25.34499
G01 X8.56317 Y25.34562
G01 X8.54311 Y25.40740
G01 X8.53632 Y25.47196
G04 P0 ( dwell for no time -- G64 should not smooth over this point )
G00 Z2.00000 ( retract )

G00 X8.10699 Y26.73198 ( rapid move to begin. )
G01 F40.00000
( Mill infeed pass 1/1 )
G01 Z-0.1280
G04 P0 ( dwell for no time -- G64 should not smooth over this point )
G01 F100.00000
G01 X8.10699 Y26.73198
G01 X8.10699 Y28.21199
G01 X9.58699 Y28.21199
G01 X9.58699 Y26.73198
G01 X8.10699 Y26.73198
G01 X8.17811 Y26.80310
G01 X8.17811 Y28.14087
G01 X8.15728 Y28.16170
G01 X8.17811 Y28.14087
G01 X9.51587 Y28.14087
G01 X9.53670 Y28.16170
G01 X9.51587 Y28.14087
G01 X9.51587 Y26.80310
G01 X9.53670 Y26.78227
G01 X9.51587 Y26.80310
G01 X8.17811 Y26.80310
G01 X8.24920 Y26.87420
G01 X8.24920 Y28.06977
G01 X8.22837 Y28.09060
G01 X8.24920 Y28.06977
G01 X9.44478 Y28.06977
G01 X9.46561 Y28.09060
G01 X9.44478 Y28.06977
G01 X9.44478 Y26.87420
G01 X9.46561 Y26.85337
G01 X9.44478 Y26.87420
G01 X8.24920 Y26.87420
G01 X8.32032 Y26.94532
G01 X8.32032 Y27.99865
G01 X8.29949 Y28.01948
G01 X8.32032 Y27.99865
G01 X9.37366 Y27.99865
G01 X9.39449 Y28.01948
G01 X9.37366 Y27.99865
G01 X9.37366 Y26.94532
G01 X9.39449 Y26.92449
G01 X9.37366 Y26.94532
G01 X8.32032 Y26.94532
G01 X8.39142 Y27.01641
G01 X8.39142 Y27.92756
G01 X8.37059 Y27.94836
G01 X8.39142 Y27.92756
G01 X9.30254 Y27.92756
G01 X9.32337 Y27.94836
G01 X9.30254 Y27.92756
G01 X9.30254 Y27.01641
G01 X9.32337 Y26.99558
G01 X9.30254 Y27.01641
G01 X8.39142 Y27.01641
G01 X8.46254 Y27.08753
G01 X8.46254 Y27.85644
G01 X8.44171 Y27.87727
G01 X8.46254 Y27.85644
G01 X9.23145 Y27.85644
G01 X9.25227 Y27.87727
G01 X9.23145 Y27.85644
G01 X9.23145 Y27.08753
G01 X9.25227 Y27.06670
G01 X9.23145 Y27.08753
G01 X8.46254 Y27.08753
G01 X8.53366 Y27.15865
G01 X8.53366 Y27.78535
G01 X8.51283 Y27.80615
G01 X8.53366 Y27.78535
G01 X9.16033 Y27.78535
G01 X9.18115 Y27.80615
G01 X9.16033 Y27.78535
G01 X9.16033 Y27.15865
G01 X9.18115 Y27.13782
G01 X9.16033 Y27.15865
G01 X8.53366 Y27.15865
G01 X8.60475 Y27.22975
G01 X8.60475 Y27.71423
G01 X8.58392 Y27.73505
G01 X8.60475 Y27.71423
G01 X9.08923 Y27.71423
G01 X9.11006 Y27.73505
G01 X9.08923 Y27.71423
G01 X9.08923 Y27.22975
G01 X9.11006 Y27.20892
G01 X9.08923 Y27.22975
G01 X8.60475 Y27.22975
G01 X8.67587 Y27.30087
G01 X8.67587 Y27.64311
G01 X8.65504 Y27.66393
G01 X8.67587 Y27.64311
G01 X9.01811 Y27.64311
G01 X9.03894 Y27.66393
G01 X9.01811 Y27.64311
G01 X9.01811 Y27.30087
G01 X9.03894 Y27.28004
G01 X9.01811 Y27.30087
G01 X8.67587 Y27.30087
G01 X8.74697 Y27.37196
G01 X8.74697 Y27.57201
G01 X8.72614 Y27.59284
G01 X8.74697 Y27.57201
G01 X8.94699 Y27.57201
G01 X8.96782 Y27.59284
G01 X8.94699 Y27.57201
G01 X8.94699 Y27.37196
G01 X8.96782 Y27.35113
G01 X8.94699 Y27.37196
G01 X8.74697 Y27.37196
G01 X8.81809 Y27.44308
G01 X8.81809 Y27.50089
G01 X8.79726 Y27.52172
G01 X8.81809 Y27.50089
G01 X8.87590 Y27.50089
G01 X8.89672 Y27.52172
G01 X8.87590 Y27.50089
G01 X8.87590 Y27.44308
G01 X8.89672 Y27.42225
G01 X8.87590 Y27.44308
G01 X8.81809 Y27.44308
G04 P0 ( dwell for no time -- G64 should not smooth over this point )
G00 Z2.00000 ( retract )
