( pcb2gcode 2.1.0 )
( Software-independent Gcode )

G94 ( Millimeters per minute feed rate. )
G21 ( Units == Millimeters. )

G90 ( Absolute coordinates. )
G00 S10000 ( RPM spindle speed. )
G64 P0.01016 ( set maximum deviation from commanded toolpath )
G01 F100.00000 ( Feedrate. )


G00 Z10.00000 (Retract to tool change height)
T0
M5      (Spindle stop.)
G04 P1.00000 (Wait for spindle to stop)
(MSG, Change tool bit to mill diameter 0.12000mm)
M6      (Tool change.)
M0      (Temporary machine stop.)
M3 ( Spindle on clockwise. )
G04 P1.00000 (Wait for spindle to get up to speed)
G04 P0 ( dwell for no time -- G64 should not smooth over this point )
G00 Z2.00000 ( retract )


G00 X25.88099 Y14.50295 ( rapid move to begin. )
G01 F40.00000
( Mill infeed pass 1/1 )
G01 Z-0.1280
G04 P0 ( dwell for no time -- G64 should not smooth over this point )
G01 F100.00000
G01 X25.88099 Y14.50295
G01 X25.88203 Y14.49223
G01 X25.88430 Y14.48479
G01 X25.88798 Y14.47790
G01 X25.89288 Y14.47191
G01 X25.89893 Y14.46696
G01 X25.90581 Y14.46330
G01 X25.91325 Y14.46104
G01 X25.92394 Y14.46000
G01 X27.19303 Y14.46000
G01 X27.20372 Y14.46104
G01 X27.21119 Y14.46330
G01 X27.21805 Y14.46696
G01 X27.22407 Y14.47191
G01 X27.22900 Y14.47790
G01 X27.23268 Y14.48479
G01 X27.23494 Y14.49223
G01 X27.23598 Y14.50295
G01 X27.23598 Y14.69703
G01 X27.23494 Y14.70772
G01 X27.23268 Y14.71517
G01 X27.22900 Y14.72205
G01 X27.22407 Y14.72807
G01 X27.21805 Y14.73300
G01 X27.21117 Y14.73668
G01 X27.20375 Y14.73894
G01 X27.19300 Y14.73998
G01 X25.92397 Y14.73998
G01 X25.91323 Y14.73894
G01 X25.90578 Y14.73668
G01 X25.89893 Y14.73300
G01 X25.89288 Y14.72807
G01 X25.88798 Y14.72205
G01 X25.88430 Y14.71517
G01 X25.88203 Y14.70772
G01 X25.88099 Y14.69703
G01 X25.88099 Y14.50295
G01 X25.93126 Y14.51026
G01 X25.95209 Y14.53109
G01 X27.16489 Y14.53109
G01 X27.18572 Y14.51026
G01 X27.16489 Y14.53109
G01 X27.16489 Y14.66889
G01 X27.18572 Y14.68972
G01 X27.16489 Y14.66889
G01 X25.95209 Y14.66889
G01 X25.93126 Y14.68972
G01 X25.95209 Y14.66889
G01 X25.95209 Y14.53109
G04 P0 ( dwell for no time -- G64 should not smooth over this point )
G00 Z2.00000 ( retract )

G00 X25.88099 Y15.15296 ( rapid move to begin. )
G01 F40.00000
( Mill infeed pass 1/1 )
G01 Z-0.1280
G04 P0 ( dwell for no time -- G64 should not smooth over this point )
G01 F100.00000
G01 X25.88099 Y15.15296
G01 X25.88203 Y15.14224
G01 X25.88430 Y15.13480
G01 X25.88795 Y15.12794
G01 X25.89288 Y15.12190
G01 X25.89893 Y15.11697
G01 X25.90581 Y15.11329
G01 X25.91323 Y15.11105
G01 X25.92392 Y15.10998
G01 X27.19306 Y15.10998
G01 X27.20372 Y15.11105
G01 X27.21117 Y15.11329
G01 X27.21805 Y15.11697
G01 X27.22407 Y15.12190
G01 X27.22902 Y15.12794
G01 X27.23268 Y15.13480
G01 X27.23494 Y15.14224
G01 X27.23598 Y15.15296
G01 X27.23598 Y15.34702
G01 X27.23494 Y15.35774
G01 X27.23268 Y15.36518
G01 X27.22900 Y15.37206
G01 X27.22407 Y15.37806
G01 X27.21805 Y15.38301
G01 X27.21119 Y15.38667
G01 X27.20372 Y15.38893
G01 X27.19303 Y15.38999
G01 X25.92394 Y15.38999
G01 X25.91323 Y15.38893
G01 X25.90578 Y15.38667
G01 X25.90111 Y15.38418
G01 X25.89893 Y15.38301
G01 X25.89288 Y15.37806
G01 X25.88798 Y15.37206
G01 X25.88430 Y15.36518
G01 X25.88203 Y15.35774
G01 X25.88099 Y15.34702
G01 X25.88099 Y15.15296
G01 X25.93126 Y15.16028
G01 X25.95209 Y15.18110
G01 X27.16489 Y15.18110
G01 X27.18572 Y15.16028
G01 X27.16489 Y15.18110
G01 X27.16489 Y15.31887
G01 X27.18572 Y15.33970
G01 X27.16489 Y15.31887
G01 X25.95209 Y15.31887
G01 X25.93126 Y15.33970
G01 X25.95209 Y15.31887
G01 X25.95209 Y15.18110
G04 P0 ( dwell for no time -- G64 should not smooth over this point )
G00 Z2.00000 ( retract )

G00 X25.88099 Y15.80295 ( rapid move to begin. )
G01 F40.00000
( Mill infeed pass 1/1 )
G01 Z-0.1280
G04 P0 ( dwell for no time -- G64 should not smooth over this point )
G01 F100.00000
G01 X25.88099 Y15.80295
G01 X25.88203 Y15.79225
G01 X25.88430 Y15.78479
G01 X25.88798 Y15.77793
G01 X25.89288 Y15.77191
G01 X25.89893 Y15.76698
G01 X25.90578 Y15.76330
G01 X25.91325 Y15.76104
G01 X25.92394 Y15.76000
G01 X27.19303 Y15.76000
G01 X27.20372 Y15.76104
G01 X27.21119 Y15.76330
G01 X27.21805 Y15.76695
G01 X27.22407 Y15.77191
G01 X27.22900 Y15.77793
G01 X27.23268 Y15.78479
G01 X27.23494 Y15.79225
G01 X27.23598 Y15.80295
G01 X27.23598 Y15.99703
G01 X27.23494 Y16.00775
G01 X27.23268 Y16.01516
G01 X27.22900 Y16.02205
G01 X27.22407 Y16.02807
G01 X27.21805 Y16.03302
G01 X27.21119 Y16.03668
G01 X27.20372 Y16.03894
G01 X27.19303 Y16.03998
G01 X25.92394 Y16.03998
G01 X25.91325 Y16.03894
G01 X25.90578 Y16.03668
G01 X25.89893 Y16.03299
G01 X25.89288 Y16.02807
G01 X25.88798 Y16.02207
G01 X25.88430 Y16.01516
G01 X25.88203 Y16.00775
G01 X25.88099 Y15.99703
G01 X25.88099 Y15.80295
G01 X25.93126 Y15.81026
G01 X25.95209 Y15.83109
G01 X27.16489 Y15.83109
G01 X27.18572 Y15.81026
G01 X27.16489 Y15.83109
G01 X27.16489 Y15.96888
G01 X27.18572 Y15.98971
G01 X27.16489 Y15.96888
G01 X25.95209 Y15.96888
G01 X25.93126 Y15.98971
G01 X25.95209 Y15.96888
G01 X25.95209 Y15.83109
G04 P0 ( dwell for no time -- G64 should not smooth over this point )
G00 Z2.00000 ( retract )

G00 X25.88099 Y16.45296 ( rapid move to begin. )
G01 F40.00000
( Mill infeed pass 1/1 )
G01 Z-0.1280
G04 P0 ( dwell for no time -- G64 should not smooth over this point )
G01 F100.00000
G01 X25.88099 Y16.45296
G01 X25.88203 Y16.44224
G01 X25.88430 Y16.43480
G01 X25.88798 Y16.42791
G01 X25.89288 Y16.42192
G01 X25.89893 Y16.41697
G01 X25.90578 Y16.41331
G01 X25.91323 Y16.41105
G01 X25.92397 Y16.40998
G01 X27.19300 Y16.40998
G01 X27.20375 Y16.41105
G01 X27.21119 Y16.41331
G01 X27.21805 Y16.41697
G01 X27.22407 Y16.42192
G01 X27.22900 Y16.42794
G01 X27.22938 Y16.42862
G01 X27.23268 Y16.43480
G01 X27.23494 Y16.44224
G01 X27.23598 Y16.45296
G01 X27.23598 Y16.64701
G01 X27.23494 Y16.65773
G01 X27.23268 Y16.66517
G01 X27.22902 Y16.67203
G01 X27.22407 Y16.67808
G01 X27.21805 Y16.68301
G01 X27.21119 Y16.68666
G01 X27.20372 Y16.68892
G01 X27.19303 Y16.68999
G01 X25.92394 Y16.68999
G01 X25.91325 Y16.68892
G01 X25.90578 Y16.68666
G01 X25.89890 Y16.68298
G01 X25.89288 Y16.67808
G01 X25.88795 Y16.67203
G01 X25.88610 Y16.66860
G01 X25.88430 Y16.66517
G01 X25.88203 Y16.65773
G01 X25.88099 Y16.64701
G01 X25.88099 Y16.45296
G01 X25.93126 Y16.46027
G01 X25.95209 Y16.48110
G01 X25.95209 Y16.61887
G01 X25.93126 Y16.63970
G01 X25.95209 Y16.61887
G01 X27.16489 Y16.61887
G01 X27.18572 Y16.63970
G01 X27.16489 Y16.61887
G01 X27.16489 Y16.48110
G01 X27.18572 Y16.46027
G01 X27.16489 Y16.48110
G01 X25.95209 Y16.48110
G04 P0 ( dwell for no time -- G64 should not smooth over this point )
G00 Z2.00000 ( retract )

G00 X25.88099 Y17.10294 ( rapid move to begin. )
G01 F40.00000
( Mill infeed pass 1/1 )
G01 Z-0.1280
G04 P0 ( dwell for no time -- G64 should not smooth over this point )
G01 F100.00000
G01 X25.88099 Y17.10294
G01 X25.88203 Y17.09225
G01 X25.88430 Y17.08478
G01 X25.88798 Y17.07790
G01 X25.89288 Y17.07191
G01 X25.89890 Y17.06698
G01 X25.90581 Y17.06329
G01 X25.91325 Y17.06103
G01 X25.92394 Y17.05999
G01 X27.19303 Y17.05999
G01 X27.20372 Y17.06103
G01 X27.21117 Y17.06329
G01 X27.21805 Y17.06698
G01 X27.22407 Y17.07191
G01 X27.22900 Y17.07793
G01 X27.23268 Y17.08478
G01 X27.23494 Y17.09225
G01 X27.23598 Y17.10294
G01 X27.23598 Y17.29703
G01 X27.23494 Y17.30774
G01 X27.23268 Y17.31519
G01 X27.22900 Y17.32207
G01 X27.22407 Y17.32806
G01 X27.21805 Y17.33299
G01 X27.21117 Y17.33667
G01 X27.20372 Y17.33894
G01 X27.19306 Y17.33998
G01 X25.92392 Y17.33998
G01 X25.91323 Y17.33894
G01 X25.90581 Y17.33667
G01 X25.89890 Y17.33299
G01 X25.89288 Y17.32806
G01 X25.88798 Y17.32207
G01 X25.88430 Y17.31519
G01 X25.88203 Y17.30774
G01 X25.88099 Y17.29703
G01 X25.88099 Y17.10294
G01 X25.93126 Y17.11026
G01 X25.95209 Y17.13109
G01 X25.95209 Y17.26888
G01 X25.93126 Y17.28971
G01 X25.95209 Y17.26888
G01 X27.16489 Y17.26888
G01 X27.18572 Y17.28971
G01 X27.16489 Y17.26888
G01 X27.16489 Y17.13109
G01 X27.18572 Y17.11026
G01 X27.16489 Y17.13109
G01 X25.95209 Y17.13109
G04 P0 ( dwell for no time -- G64 should not smooth over this point )
G00 Z2.00000 ( retract )

G00 X25.88099 Y17.75296 ( rapid move to begin. )
G01 F40.00000
( Mill infeed pass 1/1 )
G01 Z-0.1280
G04 P0 ( dwell for no time -- G64 should not smooth over this point )
G01 F100.00000
G01 X25.88099 Y17.75296
G01 X25.88203 Y17.74224
G01 X25.88430 Y17.73479
G01 X25.88798 Y17.72791
G01 X25.89288 Y17.72189
G01 X25.89893 Y17.71696
G01 X25.90581 Y17.71331
G01 X25.91323 Y17.71105
G01 X25.92397 Y17.70998
G01 X27.19300 Y17.70998
G01 X27.20372 Y17.71105
G01 X27.21119 Y17.71331
G01 X27.21805 Y17.71696
G01 X27.22407 Y17.72189
G01 X27.22900 Y17.72794
G01 X27.23268 Y17.73479
G01 X27.23494 Y17.74224
G01 X27.23598 Y17.75296
G01 X27.23598 Y17.94704
G01 X27.23494 Y17.95773
G01 X27.23268 Y17.96517
G01 X27.22900 Y17.97206
G01 X27.22407 Y17.97808
G01 X27.21805 Y17.98300
G01 X27.21117 Y17.98669
G01 X27.20372 Y17.98892
G01 X27.19300 Y17.98999
G01 X25.92397 Y17.98999
G01 X25.91325 Y17.98892
G01 X25.90581 Y17.98669
G01 X25.89893 Y17.98300
G01 X25.89288 Y17.97808
G01 X25.88798 Y17.97206
G01 X25.88430 Y17.96517
G01 X25.88203 Y17.95773
G01 X25.88099 Y17.94704
G01 X25.88099 Y17.75296
G01 X25.93126 Y17.76027
G01 X25.95209 Y17.78110
G01 X25.95209 Y17.91887
G01 X25.93126 Y17.93970
G01 X25.95209 Y17.91887
G01 X27.16489 Y17.91887
G01 X27.18572 Y17.93970
G01 X27.16489 Y17.91887
G01 X27.16489 Y17.78110
G01 X27.18572 Y17.76027
G01 X27.16489 Y17.78110
G01 X25.95209 Y17.78110
G04 P0 ( dwell for no time -- G64 should not smooth over this point )
G00 Z2.00000 ( retract )

G00 X25.95209 Y18.43108 ( rapid move to begin. )
G01 F40.00000
( Mill infeed pass 1/1 )
G01 Z-0.1280
G04 P0 ( dwell for no time -- G64 should not smooth over this point )
G01 F100.00000
G01 X25.95209 Y18.43108
G01 X25.95209 Y18.56888
G01 X25.93126 Y18.58971
G01 X25.95209 Y18.56888
G01 X27.16489 Y18.56888
G01 X27.18572 Y18.58971
G01 X27.16489 Y18.56888
G01 X27.16489 Y18.43108
G01 X27.18572 Y18.41026
G01 X27.16489 Y18.43108
G01 X25.95209 Y18.43108
G01 X25.93126 Y18.41026
G01 X25.88099 Y18.40294
G01 X25.88099 Y18.59702
G01 X25.88203 Y18.60774
G01 X25.88430 Y18.61518
G01 X25.88798 Y18.62207
G01 X25.89288 Y18.62806
G01 X25.89893 Y18.63301
G01 X25.90578 Y18.63667
G01 X25.91325 Y18.63893
G01 X25.92394 Y18.64000
G01 X27.19303 Y18.64000
G01 X27.20372 Y18.63893
G01 X27.21119 Y18.63667
G01 X27.21805 Y18.63301
G01 X27.22407 Y18.62806
G01 X27.22900 Y18.62207
G01 X27.23268 Y18.61518
G01 X27.23494 Y18.60774
G01 X27.23598 Y18.59702
G01 X27.23598 Y18.40294
G01 X27.23494 Y18.39225
G01 X27.23268 Y18.38478
G01 X27.22900 Y18.37792
G01 X27.22407 Y18.37190
G01 X27.21805 Y18.36698
G01 X27.21119 Y18.36329
G01 X27.20372 Y18.36103
G01 X27.19303 Y18.35999
G01 X25.92394 Y18.35999
G01 X25.91325 Y18.36103
G01 X25.90578 Y18.36329
G01 X25.89890 Y18.36698
G01 X25.89288 Y18.37190
G01 X25.88798 Y18.37790
G01 X25.88430 Y18.38478
G01 X25.88203 Y18.39225
G01 X25.88099 Y18.40294
G04 P0 ( dwell for no time -- G64 should not smooth over this point )
G00 Z2.00000 ( retract )
