( pcb2gcode 2.1.0 )
( Software-independent Gcode )
G94 ( Millimeters per minute feed rate. )
G21 ( Units == Millimeters. )
G90 ( Absolute coordinates. )
G00 S10000 ( RPM spindle speed. )
G64 P0.01016 ( set maximum deviation from commanded toolpath )
G01 F100.00000 ( Feedrate. )
G00 Z10.00000 (Retract to tool change height)
T0
M5      (Spindle stop.)
G04 P1.00000 (Wait for spindle to stop)
(MSG, Change tool bit to mill diameter 0.12000mm)
M6      (Tool change.)
M0      (Temporary machine stop.)
M3 ( Spindle on clockwise. )
G04 P1.00000 (Wait for spindle to get up to speed)
G04 P0 ( dwell for no time -- G64 should not smooth over this point )
G00 Z5.00000 ( retract )
G00X6.583Y4.507Z5.026
G01F40.00000X6.583Y4.507Z5.026
( Mill infeed pass 1/1 )
G01X6.583Y4.507Z0.021
G04 P0 ( dwell for no time -- G64 should not smooth over this point )
G01F100.00000X6.583Y4.507Z0.021
G01X6.583Y4.507Z0.021
G01X6.583Y5.987Z0.020
G01X8.063Y5.987Z0.023
G01X8.063Y4.507Z0.024
G01X6.583Y4.507Z0.021
G01X6.654Y4.578Z0.021
G01X6.654Y5.916Z0.020
G01X6.633Y5.937Z0.020
G01X6.654Y5.916Z0.020
G01X7.992Y5.916Z0.023
G01X8.013Y5.937Z0.023
G01X7.992Y5.916Z0.023
G01X7.992Y4.578Z0.024
G01X8.013Y4.557Z0.024
G01X7.992Y4.578Z0.024
G01X6.654Y4.578Z0.021
G01X6.725Y4.649Z0.021
G01X6.725Y5.845Z0.020
G01X6.704Y5.866Z0.020
G01X6.725Y5.845Z0.020
G01X7.921Y5.845Z0.023
G01X7.942Y5.866Z0.023
G01X7.921Y5.845Z0.023
G01X7.921Y4.649Z0.024
G01X7.942Y4.628Z0.024
G01X7.921Y4.649Z0.024
G01X6.725Y4.649Z0.021
G01X6.796Y4.720Z0.021
G01X6.796Y5.774Z0.020
G01X6.775Y5.794Z0.020
G01X6.796Y5.774Z0.020
G01X7.850Y5.774Z0.023
G01X7.870Y5.794Z0.023
G01X7.850Y5.774Z0.023
G01X7.850Y4.720Z0.023
G01X7.870Y4.699Z0.023
G01X7.850Y4.720Z0.023
G01X6.796Y4.720Z0.021
G01X6.867Y4.791Z0.021
G01X6.867Y5.703Z0.020
G01X6.847Y5.723Z0.020
G01X6.867Y5.703Z0.020
G01X7.779Y5.703Z0.023
G01X7.799Y5.723Z0.023
G01X7.779Y5.703Z0.023
G01X7.779Y4.791Z0.023
G01X7.799Y4.771Z0.023
G01X7.779Y4.791Z0.023
G01X6.867Y4.791Z0.021
G01X6.939Y4.863Z0.021
G01X6.939Y5.631Z0.021
G01X6.918Y5.652Z0.021
G01X6.939Y5.631Z0.021
G01X7.707Y5.631Z0.022
G01X7.728Y5.652Z0.022
G01X7.707Y5.631Z0.022
G01X7.707Y4.863Z0.023
G01X7.728Y4.842Z0.023
G01X7.707Y4.863Z0.023
G01X6.939Y4.863Z0.021
G01X7.010Y4.934Z0.021
G01X7.010Y5.560Z0.021
G01X6.989Y5.581Z0.021
G01X7.010Y5.560Z0.021
G01X7.636Y5.560Z0.022
G01X7.657Y5.581Z0.022
G01X7.636Y5.560Z0.022
G01X7.636Y4.934Z0.023
G01X7.657Y4.913Z0.023
G01X7.636Y4.934Z0.023
G01X7.010Y4.934Z0.021
G01X7.081Y5.005Z0.021
G01X7.081Y5.489Z0.021
G01X7.060Y5.510Z0.021
G01X7.081Y5.489Z0.021
G01X7.565Y5.489Z0.022
G01X7.586Y5.510Z0.022
G01X7.565Y5.489Z0.022
G01X7.565Y5.005Z0.022
G01X7.586Y4.984Z0.023
G01X7.565Y5.005Z0.022
G01X7.081Y5.005Z0.021
G01X7.152Y5.076Z0.022
G01X7.152Y5.418Z0.021
G01X7.131Y5.439Z0.021
G01X7.152Y5.418Z0.021
G01X7.494Y5.418Z0.022
G01X7.515Y5.439Z0.022
G01X7.494Y5.418Z0.022
G01X7.494Y5.076Z0.022
G01X7.515Y5.055Z0.022
G01X7.494Y5.076Z0.022
G01X7.152Y5.076Z0.022
G01X7.223Y5.147Z0.022
G01X7.223Y5.347Z0.022
G01X7.202Y5.368Z0.021
G01X7.223Y5.347Z0.022
G01X7.423Y5.347Z0.022
G01X7.444Y5.368Z0.022
G01X7.423Y5.347Z0.022
G01X7.423Y5.147Z0.022
G01X7.444Y5.126Z0.022
G01X7.423Y5.147Z0.022
G01X7.223Y5.147Z0.022
G01X7.294Y5.218Z0.022
G01X7.294Y5.276Z0.022
G01X7.273Y5.297Z0.022
G01X7.294Y5.276Z0.022
G01X7.352Y5.276Z0.022
G01X7.373Y5.297Z0.022
G01X7.352Y5.276Z0.022
G01X7.352Y5.218Z0.022
G01X7.373Y5.197Z0.022
G01X7.352Y5.218Z0.022
G01X7.294Y5.218Z0.022
G04 P0 ( dwell for no time -- G64 should not smooth over this point )
G00X7.294Y5.218Z5.027
G00X6.760Y6.876Z5.025
X6.571Y7.463Z5.024
G01F40.00000X6.571Y7.463Z5.024
( Mill infeed pass 1/1 )
G01X6.571Y7.463Z0.019
G04 P0 ( dwell for no time -- G64 should not smooth over this point )
G01F100.00000X6.571Y7.463Z0.019
G01X6.571Y7.463Z0.019
G01X6.571Y8.143Z0.018
G01X6.570Y8.143Z0.018
G01X6.571Y8.143Z0.018
G01X6.573Y8.162Z0.018
G01X6.576Y8.171Z0.018
G01X6.580Y8.179Z0.019
G01X6.586Y8.186Z0.019
G01X6.580Y8.192Z0.019
G01X6.586Y8.186Z0.019
G01X6.593Y8.192Z0.019
G01X6.601Y8.196Z0.019
G01X6.610Y8.199Z0.019
G01X6.629Y8.201Z0.019
G01X6.629Y8.202Z0.019
G01X6.629Y8.201Z0.019
G01X7.509Y8.201Z0.021
G01X7.509Y8.202Z0.021
G01X7.509Y8.201Z0.021
G01X7.528Y8.199Z0.021
G01X7.537Y8.196Z0.021
G01X7.545Y8.192Z0.021
G01X7.552Y8.186Z0.021
G01X7.558Y8.192Z0.021
G01X7.552Y8.186Z0.021
G01X7.558Y8.179Z0.021
G01X7.562Y8.171Z0.021
G01X7.565Y8.162Z0.021
G01X7.567Y8.143Z0.021
G01X7.568Y8.143Z0.021
G01X7.567Y8.143Z0.021
G01X7.567Y7.463Z0.022
G01X7.568Y7.463Z0.022
G01X7.567Y7.463Z0.022
G01X7.565Y7.444Z0.022
G01X7.562Y7.435Z0.022
G01X7.558Y7.427Z0.022
G01X7.552Y7.420Z0.022
G01X7.558Y7.414Z0.022
G01X7.552Y7.420Z0.022
G01X7.545Y7.414Z0.022
G01X7.537Y7.410Z0.022
G01X7.528Y7.407Z0.021
G01X7.509Y7.405Z0.021
G01X7.509Y7.404Z0.021
G01X7.509Y7.405Z0.021
G01X6.629Y7.405Z0.019
G01X6.629Y7.404Z0.019
G01X6.629Y7.405Z0.019
G01X6.610Y7.407Z0.019
G01X6.601Y7.410Z0.019
G01X6.593Y7.414Z0.019
G01X6.586Y7.420Z0.019
G01X6.580Y7.414Z0.019
G01X6.586Y7.420Z0.019
G01X6.580Y7.427Z0.019
G01X6.576Y7.435Z0.019
G01X6.573Y7.444Z0.019
G01X6.571Y7.463Z0.019
G01X6.570Y7.463Z0.019
G01X6.500Y7.459Z0.019
G01X6.429Y7.456Z0.018
G01X6.429Y8.150Z0.018
G01X6.432Y8.180Z0.018
G01X6.433Y8.190Z0.018
G01X6.444Y8.226Z0.018
G01X6.461Y8.258Z0.018
G01X6.485Y8.287Z0.018
G01X6.514Y8.311Z0.018
G01X6.546Y8.328Z0.018
G01X6.582Y8.339Z0.018
G01X6.622Y8.343Z0.019
G01X7.516Y8.343Z0.021
G01X7.556Y8.339Z0.021
G01X7.592Y8.328Z0.021
G01X7.624Y8.311Z0.021
G01X7.653Y8.287Z0.021
G01X7.677Y8.258Z0.021
G01X7.694Y8.226Z0.022
G01X7.705Y8.190Z0.022
G01X7.709Y8.150Z0.022
G01X7.709Y7.456Z0.022
G01X7.705Y7.416Z0.022
G01X7.694Y7.380Z0.022
G01X7.677Y7.348Z0.022
G01X7.670Y7.340Z0.022
G01X7.653Y7.319Z0.022
G01X7.624Y7.295Z0.022
G01X7.592Y7.278Z0.022
G01X7.556Y7.267Z0.022
G01X7.516Y7.263Z0.022
G01X6.622Y7.263Z0.019
G01X6.582Y7.267Z0.019
G01X6.546Y7.278Z0.019
G01X6.514Y7.295Z0.019
G01X6.485Y7.319Z0.019
G01X6.461Y7.348Z0.018
G01X6.444Y7.380Z0.018
G01X6.433Y7.416Z0.018
G01X6.429Y7.456Z0.018
G01X6.500Y7.459Z0.019
G01X6.500Y8.147Z0.018
G01X6.499Y8.147Z0.018
G01X6.500Y8.147Z0.018
G01X6.503Y8.176Z0.018
G01X6.510Y8.198Z0.018
G01X6.521Y8.219Z0.018
G01X6.535Y8.237Z0.018
G01X6.531Y8.241Z0.018
G01X6.535Y8.237Z0.018
G01X6.553Y8.251Z0.018
G01X6.574Y8.262Z0.018
G01X6.596Y8.269Z0.019
G01X6.625Y8.272Z0.019
G01X6.625Y8.273Z0.019
G01X6.625Y8.272Z0.019
G01X7.513Y8.272Z0.021
G01X7.513Y8.273Z0.021
G01X7.513Y8.272Z0.021
G01X7.542Y8.269Z0.021
G01X7.564Y8.262Z0.021
G01X7.585Y8.251Z0.021
G01X7.603Y8.237Z0.021
G01X7.607Y8.241Z0.021
G01X7.603Y8.237Z0.021
G01X7.617Y8.219Z0.021
G01X7.628Y8.198Z0.021
G01X7.635Y8.176Z0.021
G01X7.638Y8.147Z0.021
G01X7.639Y8.147Z0.021
G01X7.638Y8.147Z0.021
G01X7.638Y7.459Z0.022
G01X7.639Y7.459Z0.022
G01X7.638Y7.459Z0.022
G01X7.635Y7.430Z0.022
G01X7.628Y7.408Z0.022
G01X7.617Y7.387Z0.022
G01X7.603Y7.369Z0.022
G01X7.607Y7.365Z0.022
G01X7.603Y7.369Z0.022
G01X7.585Y7.355Z0.022
G01X7.564Y7.344Z0.022
G01X7.542Y7.337Z0.022
G01X7.513Y7.334Z0.021
G01X7.513Y7.333Z0.021
G01X7.513Y7.334Z0.021
G01X6.625Y7.334Z0.019
G01X6.625Y7.333Z0.019
G01X6.625Y7.334Z0.019
G01X6.596Y7.337Z0.019
G01X6.574Y7.344Z0.019
G01X6.553Y7.355Z0.019
G01X6.551Y7.351Z0.019
G01X6.553Y7.355Z0.019
G01X6.535Y7.369Z0.019
G01X6.521Y7.387Z0.019
G01X6.510Y7.408Z0.019
G01X6.503Y7.430Z0.019
G01X6.500Y7.429Z0.019
G01X6.503Y7.430Z0.019
G01X6.500Y7.459Z0.019
G01X6.570Y7.463Z0.019
G01X6.621Y7.455Z0.019
G01X6.642Y7.476Z0.019
G01X6.642Y8.130Z0.019
G01X6.621Y8.150Z0.019
G01X6.642Y8.130Z0.019
G01X7.496Y8.130Z0.021
G01X7.516Y8.150Z0.021
G01X7.496Y8.130Z0.021
G01X7.496Y7.476Z0.021
G01X7.516Y7.455Z0.021
G01X7.496Y7.476Z0.021
G01X6.642Y7.476Z0.019
G01X6.713Y7.547Z0.019
G01X6.713Y8.059Z0.019
G01X6.693Y8.079Z0.019
G01X6.713Y8.059Z0.019
G01X7.425Y8.059Z0.021
G01X7.445Y8.079Z0.021
G01X7.425Y8.059Z0.021
G01X7.425Y7.547Z0.021
G01X7.445Y7.527Z0.021
G01X7.425Y7.547Z0.021
G01X6.713Y7.547Z0.019
G01X6.785Y7.619Z0.019
G01X6.785Y7.987Z0.019
G01X6.764Y8.008Z0.019
G01X6.785Y7.987Z0.019
G01X7.353Y7.987Z0.021
G01X7.374Y8.008Z0.021
G01X7.353Y7.987Z0.021
G01X7.353Y7.619Z0.021
G01X7.374Y7.598Z0.021
G01X7.353Y7.619Z0.021
G01X6.785Y7.619Z0.019
G01X6.856Y7.690Z0.019
G01X6.856Y7.916Z0.019
G01X6.835Y7.937Z0.019
G01X6.856Y7.916Z0.019
G01X7.282Y7.916Z0.021
G01X7.303Y7.937Z0.021
G01X7.282Y7.916Z0.021
G01X7.282Y7.690Z0.021
G01X7.303Y7.669Z0.021
G01X7.282Y7.690Z0.021
G01X6.856Y7.690Z0.019
G01X6.927Y7.761Z0.020
G01X7.211Y7.761Z0.020
G01X7.232Y7.740Z0.021
G01X7.211Y7.761Z0.020
G01X7.211Y7.845Z0.020
G01X7.232Y7.866Z0.020
G01X7.211Y7.845Z0.020
G01X6.927Y7.845Z0.020
G01X6.906Y7.866Z0.020
G01X6.927Y7.845Z0.020
G01X6.927Y7.761Z0.020
G04 P0 ( dwell for no time -- G64 should not smooth over this point )
G00X6.927Y7.761Z5.025
G00X6.580Y9.419Z5.023
X6.571Y9.463Z5.023
G01F40.00000X6.571Y9.463Z5.023
( Mill infeed pass 1/1 )
G01X6.571Y9.463Z0.018
G04 P0 ( dwell for no time -- G64 should not smooth over this point )
G01F100.00000X6.571Y9.463Z0.018
G01X6.571Y9.463Z0.018
G01X6.571Y10.143Z0.018
G01X6.570Y10.143Z0.018
G01X6.571Y10.143Z0.018
G01X6.573Y10.162Z0.018
G01X6.576Y10.171Z0.018
G01X6.580Y10.179Z0.018
G01X6.586Y10.186Z0.018
G01X6.580Y10.192Z0.018
G01X6.586Y10.186Z0.018
G01X6.593Y10.192Z0.018
G01X6.601Y10.196Z0.018
G01X6.610Y10.199Z0.018
G01X6.629Y10.201Z0.018
G01X6.629Y10.202Z0.018
G01X6.629Y10.201Z0.018
G01X7.509Y10.201Z0.020
G01X7.509Y10.202Z0.020
G01X7.509Y10.201Z0.020
G01X7.528Y10.199Z0.020
G01X7.537Y10.196Z0.020
G01X7.545Y10.192Z0.020
G01X7.552Y10.186Z0.020
G01X7.558Y10.192Z0.020
G01X7.552Y10.186Z0.020
G01X7.558Y10.179Z0.020
G01X7.562Y10.171Z0.020
G01X7.565Y10.162Z0.020
G01X7.567Y10.143Z0.020
G01X7.568Y10.143Z0.020
G01X7.567Y10.143Z0.020
G01X7.567Y9.463Z0.020
G01X7.568Y9.463Z0.020
G01X7.567Y9.463Z0.020
G01X7.565Y9.444Z0.020
G01X7.562Y9.435Z0.020
G01X7.558Y9.427Z0.020
G01X7.552Y9.420Z0.020
G01X7.558Y9.414Z0.020
G01X7.552Y9.420Z0.020
G01X7.545Y9.414Z0.020
G01X7.537Y9.410Z0.020
G01X7.528Y9.407Z0.020
G01X7.509Y9.405Z0.020
G01X7.509Y9.404Z0.020
G01X7.509Y9.405Z0.020
G01X6.629Y9.405Z0.018
G01X6.629Y9.404Z0.018
G01X6.629Y9.405Z0.018
G01X6.610Y9.407Z0.018
G01X6.601Y9.410Z0.018
G01X6.593Y9.414Z0.018
G01X6.586Y9.420Z0.018
G01X6.580Y9.414Z0.018
G01X6.586Y9.420Z0.018
G01X6.580Y9.427Z0.018
G01X6.576Y9.435Z0.018
G01X6.573Y9.444Z0.018
G01X6.571Y9.463Z0.018
G01X6.570Y9.463Z0.018
G01X6.500Y9.459Z0.018
G01X6.429Y9.456Z0.018
G01X6.429Y10.150Z0.018
G01X6.432Y10.177Z0.018
G01X6.433Y10.190Z0.018
G01X6.444Y10.226Z0.018
G01X6.461Y10.258Z0.018
G01X6.485Y10.287Z0.018
G01X6.514Y10.311Z0.018
G01X6.546Y10.328Z0.018
G01X6.582Y10.339Z0.018
G01X6.622Y10.343Z0.018
G01X7.516Y10.343Z0.020
G01X7.556Y10.339Z0.020
G01X7.592Y10.328Z0.020
G01X7.624Y10.311Z0.020
G01X7.653Y10.287Z0.020
G01X7.677Y10.258Z0.020
G01X7.694Y10.226Z0.020
G01X7.705Y10.190Z0.020
G01X7.709Y10.150Z0.020
G01X7.709Y9.456Z0.021
G01X7.705Y9.416Z0.021
G01X7.694Y9.380Z0.021
G01X7.677Y9.348Z0.021
G01X7.653Y9.319Z0.021
G01X7.624Y9.295Z0.021
G01X7.592Y9.278Z0.021
G01X7.556Y9.267Z0.021
G01X7.516Y9.263Z0.020
G01X6.622Y9.263Z0.018
G01X6.582Y9.267Z0.018
G01X6.546Y9.278Z0.018
G01X6.514Y9.295Z0.018
G01X6.485Y9.319Z0.018
G01X6.461Y9.348Z0.018
G01X6.444Y9.380Z0.018
G01X6.433Y9.416Z0.018
G01X6.429Y9.456Z0.018
G01X6.500Y9.459Z0.018
G01X6.500Y10.147Z0.018
G01X6.499Y10.147Z0.018
G01X6.500Y10.147Z0.018
G01X6.503Y10.176Z0.018
G01X6.510Y10.198Z0.018
G01X6.521Y10.219Z0.018
G01X6.535Y10.237Z0.018
G01X6.531Y10.241Z0.018
G01X6.535Y10.237Z0.018
G01X6.553Y10.251Z0.018
G01X6.574Y10.262Z0.018
G01X6.596Y10.269Z0.018
G01X6.625Y10.272Z0.018
G01X6.625Y10.273Z0.018
G01X6.625Y10.272Z0.018
G01X7.513Y10.272Z0.020
G01X7.513Y10.273Z0.020
G01X7.513Y10.272Z0.020
G01X7.542Y10.269Z0.020
G01X7.564Y10.262Z0.020
G01X7.585Y10.251Z0.020
G01X7.603Y10.237Z0.020
G01X7.607Y10.241Z0.020
G01X7.603Y10.237Z0.020
G01X7.617Y10.219Z0.020
G01X7.628Y10.198Z0.020
G01X7.635Y10.176Z0.020
G01X7.638Y10.147Z0.020
G01X7.639Y10.147Z0.020
G01X7.638Y10.147Z0.020
G01X7.638Y9.459Z0.021
G01X7.639Y9.459Z0.021
G01X7.638Y9.459Z0.021
G01X7.635Y9.430Z0.021
G01X7.628Y9.408Z0.021
G01X7.617Y9.387Z0.021
G01X7.603Y9.369Z0.021
G01X7.607Y9.365Z0.021
G01X7.603Y9.369Z0.021
G01X7.585Y9.355Z0.021
G01X7.564Y9.344Z0.021
G01X7.542Y9.337Z0.021
G01X7.513Y9.334Z0.020
G01X7.513Y9.333Z0.020
G01X7.513Y9.334Z0.020
G01X6.625Y9.334Z0.018
G01X6.625Y9.333Z0.018
G01X6.625Y9.334Z0.018
G01X6.596Y9.337Z0.018
G01X6.574Y9.344Z0.018
G01X6.553Y9.355Z0.018
G01X6.551Y9.351Z0.018
G01X6.553Y9.355Z0.018
G01X6.535Y9.369Z0.018
G01X6.521Y9.387Z0.018
G01X6.510Y9.408Z0.018
G01X6.503Y9.430Z0.018
G01X6.500Y9.429Z0.018
G01X6.503Y9.430Z0.018
G01X6.500Y9.459Z0.018
G01X6.570Y9.463Z0.018
G01X6.621Y9.455Z0.018
G01X6.642Y9.476Z0.019
G01X6.642Y10.130Z0.018
G01X6.621Y10.150Z0.018
G01X6.642Y10.130Z0.018
G01X7.496Y10.130Z0.020
G01X7.516Y10.150Z0.020
G01X7.496Y10.130Z0.020
G01X7.496Y9.476Z0.020
G01X7.516Y9.455Z0.020
G01X7.496Y9.476Z0.020
G01X6.642Y9.476Z0.019
G01X6.713Y9.547Z0.019
G01X6.713Y10.059Z0.019
G01X6.693Y10.079Z0.019
G01X6.713Y10.059Z0.019
G01X7.425Y10.059Z0.020
G01X7.445Y10.079Z0.020
G01X7.425Y10.059Z0.020
G01X7.425Y9.547Z0.020
G01X7.445Y9.527Z0.020
G01X7.425Y9.547Z0.020
G01X6.713Y9.547Z0.019
G01X6.785Y9.619Z0.019
G01X6.785Y9.987Z0.019
G01X6.764Y10.008Z0.019
G01X6.785Y9.987Z0.019
G01X7.353Y9.987Z0.020
G01X7.374Y10.008Z0.020
G01X7.353Y9.987Z0.020
G01X7.353Y9.619Z0.020
G01X7.374Y9.598Z0.020
G01X7.353Y9.619Z0.020
G01X6.785Y9.619Z0.019
G01X6.856Y9.690Z0.019
G01X6.856Y9.916Z0.019
G01X6.835Y9.937Z0.019
G01X6.856Y9.916Z0.019
G01X7.282Y9.916Z0.020
G01X7.303Y9.937Z0.020
G01X7.282Y9.916Z0.020
G01X7.282Y9.690Z0.020
G01X7.303Y9.669Z0.020
G01X7.282Y9.690Z0.020
G01X6.856Y9.690Z0.019
G01X6.927Y9.761Z0.019
G01X7.211Y9.761Z0.020
G01X7.232Y9.740Z0.020
G01X7.211Y9.761Z0.020
G01X7.211Y9.845Z0.020
G01X7.232Y9.866Z0.020
G01X7.211Y9.845Z0.020
G01X6.927Y9.845Z0.019
G01X6.906Y9.866Z0.019
G01X6.927Y9.845Z0.019
G01X6.927Y9.761Z0.019
G04 P0 ( dwell for no time -- G64 should not smooth over this point )
G00X6.927Y9.761Z5.024
G00X6.569Y11.419Z5.023
X6.546Y11.523Z5.023
G01F40.00000X6.546Y11.523Z5.023
( Mill infeed pass 1/1 )
G01X6.546Y11.523Z0.018
G04 P0 ( dwell for no time -- G64 should not smooth over this point )
G01F100.00000X6.546Y11.523Z0.018
G01X6.546Y11.523Z0.018
G01X6.546Y12.179Z0.018
G01X6.545Y12.179Z0.018
G01X6.546Y12.179Z0.018
G01X6.548Y12.198Z0.018
G01X6.551Y12.206Z0.018
G01X6.555Y12.214Z0.018
G01X6.561Y12.222Z0.018
G01X6.555Y12.227Z0.018
G01X6.561Y12.222Z0.018
G01X6.568Y12.227Z0.018
G01X6.576Y12.232Z0.018
G01X6.585Y12.234Z0.018
G01X6.604Y12.236Z0.018
G01X6.604Y12.237Z0.018
G01X6.604Y12.236Z0.018
G01X7.534Y12.236Z0.019
G01X7.553Y12.234Z0.019
G01X7.562Y12.232Z0.019
G01X7.570Y12.227Z0.019
G01X7.577Y12.239Z0.019
G01X7.570Y12.227Z0.019
G01X7.577Y12.222Z0.019
G01X7.583Y12.214Z0.019
G01X7.587Y12.206Z0.019
G01X7.590Y12.198Z0.019
G01X7.592Y12.179Z0.019
G01X7.593Y12.179Z0.019
G01X7.592Y12.179Z0.019
G01X7.592Y11.523Z0.019
G01X7.590Y11.504Z0.019
G01X7.587Y11.496Z0.019
G01X7.583Y11.487Z0.019
G01X7.594Y11.480Z0.019
G01X7.583Y11.487Z0.019
G01X7.577Y11.480Z0.019
G01X7.570Y11.475Z0.019
G01X7.562Y11.470Z0.019
G01X7.553Y11.468Z0.019
G01X7.534Y11.466Z0.019
G01X7.534Y11.464Z0.019
G01X7.534Y11.466Z0.019
G01X6.604Y11.466Z0.018
G01X6.585Y11.468Z0.018
G01X6.576Y11.470Z0.018
G01X6.568Y11.475Z0.018
G01X6.561Y11.463Z0.018
G01X6.568Y11.475Z0.018
G01X6.561Y11.480Z0.018
G01X6.555Y11.487Z0.018
G01X6.551Y11.496Z0.018
G01X6.548Y11.504Z0.018
G01X6.546Y11.523Z0.018
G01X6.545Y11.523Z0.018
G01X6.404Y11.516Z0.018
G01X6.404Y12.186Z0.018
G01X6.408Y12.225Z0.018
G01X6.419Y12.261Z0.018
G01X6.436Y12.294Z0.018
G01X6.460Y12.323Z0.018
G01X6.489Y12.346Z0.018
G01X6.521Y12.364Z0.018
G01X6.557Y12.375Z0.018
G01X6.597Y12.378Z0.018
G01X7.541Y12.378Z0.019
G01X7.581Y12.375Z0.019
G01X7.617Y12.364Z0.019
G01X7.649Y12.346Z0.019
G01X7.678Y12.323Z0.019
G01X7.702Y12.294Z0.019
G01X7.719Y12.261Z0.019
G01X7.730Y12.225Z0.019
G01X7.734Y12.186Z0.019
G01X7.734Y11.516Z0.020
G01X7.730Y11.476Z0.020
G01X7.719Y11.441Z0.020
G01X7.702Y11.408Z0.020
G01X7.678Y11.379Z0.020
G01X7.649Y11.356Z0.020
G01X7.617Y11.338Z0.020
G01X7.581Y11.327Z0.020
G01X7.541Y11.323Z0.019
G01X6.597Y11.323Z0.018
G01X6.557Y11.327Z0.018
G01X6.521Y11.338Z0.018
G01X6.489Y11.356Z0.018
G01X6.460Y11.379Z0.018
G01X6.436Y11.408Z0.018
G01X6.419Y11.441Z0.018
G01X6.408Y11.476Z0.018
G01X6.404Y11.516Z0.018
G01X6.474Y11.520Z0.018
G01X6.475Y11.520Z0.018
G01X6.478Y11.490Z0.018
G01X6.485Y11.468Z0.018
G01X6.496Y11.448Z0.018
G01X6.510Y11.430Z0.018
G01X6.506Y11.425Z0.018
G01X6.510Y11.430Z0.018
G01X6.528Y11.415Z0.018
G01X6.549Y11.404Z0.018
G01X6.571Y11.397Z0.018
G01X6.600Y11.395Z0.018
G01X6.600Y11.393Z0.018
G01X6.600Y11.395Z0.018
G01X7.538Y11.395Z0.019
G01X7.538Y11.393Z0.019
G01X7.538Y11.395Z0.019
G01X7.567Y11.397Z0.019
G01X7.589Y11.404Z0.019
G01X7.610Y11.415Z0.019
G01X7.628Y11.430Z0.020
G01X7.632Y11.425Z0.020
G01X7.628Y11.430Z0.020
G01X7.642Y11.448Z0.020
G01X7.653Y11.468Z0.020
G01X7.660Y11.490Z0.020
G01X7.663Y11.520Z0.020
G01X7.664Y11.520Z0.020
G01X7.663Y11.520Z0.020
G01X7.663Y12.182Z0.019
G01X7.664Y12.182Z0.019
G01X7.663Y12.182Z0.019
G01X7.660Y12.212Z0.019
G01X7.653Y12.234Z0.019
G01X7.642Y12.254Z0.019
G01X7.628Y12.272Z0.019
G01X7.632Y12.277Z0.019
G01X7.628Y12.272Z0.019
G01X7.610Y12.287Z0.019
G01X7.589Y12.298Z0.019
G01X7.567Y12.304Z0.019
G01X7.538Y12.307Z0.019
G01X7.538Y12.309Z0.019
G01X7.538Y12.307Z0.019
G01X6.600Y12.307Z0.018
G01X6.600Y12.308Z0.018
G01X6.600Y12.307Z0.018
G01X6.571Y12.304Z0.018
G01X6.549Y12.298Z0.018
G01X6.528Y12.287Z0.018
G01X6.526Y12.291Z0.018
G01X6.528Y12.287Z0.018
G01X6.510Y12.272Z0.018
G01X6.496Y12.254Z0.018
G01X6.485Y12.234Z0.018
G01X6.478Y12.212Z0.018
G01X6.475Y12.212Z0.018
G01X6.478Y12.212Z0.018
G01X6.475Y12.182Z0.018
G01X6.475Y11.520Z0.018
G01X6.474Y11.520Z0.018
G01X6.545Y11.523Z0.018
G01X6.596Y11.516Z0.018
G01X6.617Y11.537Z0.018
G01X6.617Y12.165Z0.018
G01X6.596Y12.186Z0.018
G01X6.617Y12.165Z0.018
G01X7.521Y12.165Z0.019
G01X7.541Y12.186Z0.019
G01X7.521Y12.165Z0.019
G01X7.521Y11.537Z0.019
G01X7.541Y11.516Z0.019
G01X7.521Y11.537Z0.019
G01X6.617Y11.537Z0.018
G01X6.688Y11.608Z0.018
G01X6.688Y12.094Z0.018
G01X6.668Y12.115Z0.018
G01X6.688Y12.094Z0.018
G01X7.450Y12.094Z0.019
G01X7.470Y12.115Z0.019
G01X7.450Y12.094Z0.019
G01X7.450Y11.608Z0.019
G01X7.470Y11.587Z0.019
G01X7.450Y11.608Z0.019
G01X6.688Y11.608Z0.018
G01X6.760Y11.679Z0.018
G01X6.760Y12.023Z0.018
G01X6.739Y12.044Z0.018
G01X6.760Y12.023Z0.018
G01X7.378Y12.023Z0.019
G01X7.399Y12.044Z0.019
G01X7.378Y12.023Z0.019
G01X7.378Y11.679Z0.019
G01X7.399Y11.658Z0.019
G01X7.378Y11.679Z0.019
G01X6.760Y11.679Z0.018
G01X6.831Y11.750Z0.018
G01X6.831Y11.952Z0.018
G01X6.810Y11.973Z0.018
G01X6.831Y11.952Z0.018
G01X7.307Y11.952Z0.019
G01X7.328Y11.973Z0.019
G01X7.307Y11.952Z0.019
G01X7.307Y11.750Z0.019
G01X7.328Y11.729Z0.019
G01X7.307Y11.750Z0.019
G01X6.831Y11.750Z0.018
G01X6.902Y11.821Z0.018
G01X6.902Y11.881Z0.018
G01X6.881Y11.902Z0.018
G01X6.902Y11.881Z0.018
G01X7.236Y11.881Z0.019
G01X7.257Y11.902Z0.019
G01X7.236Y11.881Z0.019
G01X7.236Y11.821Z0.019
G01X7.257Y11.800Z0.019
G01X7.236Y11.821Z0.019
G01X6.902Y11.821Z0.018
G04 P0 ( dwell for no time -- G64 should not smooth over this point )
G00X6.902Y11.821Z5.023
G00X6.570Y13.479Z5.022
X6.546Y13.598Z5.022
G01F40.00000X6.546Y13.598Z5.022
( Mill infeed pass 1/1 )
G01X6.546Y13.598Z0.017
G04 P0 ( dwell for no time -- G64 should not smooth over this point )
G01F100.00000X6.546Y13.598Z0.017
G01X6.546Y13.598Z0.017
G01X6.546Y14.254Z0.017
G01X6.545Y14.254Z0.017
G01X6.546Y14.254Z0.017
G01X6.548Y14.273Z0.017
G01X6.551Y14.281Z0.017
G01X6.555Y14.289Z0.017
G01X6.561Y14.297Z0.017
G01X6.555Y14.302Z0.017
G01X6.561Y14.297Z0.017
G01X6.568Y14.302Z0.017
G01X6.576Y14.307Z0.017
G01X6.585Y14.309Z0.017
G01X6.604Y14.311Z0.017
G01X6.604Y14.312Z0.017
G01X6.604Y14.311Z0.017
G01X7.534Y14.311Z0.018
G01X7.553Y14.309Z0.018
G01X7.562Y14.307Z0.018
G01X7.570Y14.302Z0.018
G01X7.577Y14.314Z0.018
G01X7.570Y14.302Z0.018
G01X7.577Y14.297Z0.018
G01X7.583Y14.289Z0.018
G01X7.587Y14.281Z0.018
G01X7.590Y14.273Z0.018
G01X7.592Y14.254Z0.018
G01X7.593Y14.254Z0.018
G01X7.592Y14.254Z0.018
G01X7.592Y13.598Z0.019
G01X7.590Y13.579Z0.019
G01X7.587Y13.571Z0.019
G01X7.583Y13.562Z0.019
G01X7.594Y13.555Z0.019
G01X7.583Y13.562Z0.019
G01X7.577Y13.555Z0.019
G01X7.570Y13.550Z0.019
G01X7.562Y13.545Z0.019
G01X7.553Y13.543Z0.018
G01X7.534Y13.541Z0.018
G01X7.534Y13.539Z0.018
G01X7.534Y13.541Z0.018
G01X6.604Y13.541Z0.017
G01X6.585Y13.543Z0.017
G01X6.576Y13.545Z0.017
G01X6.568Y13.550Z0.017
G01X6.561Y13.538Z0.017
G01X6.568Y13.550Z0.017
G01X6.561Y13.555Z0.017
G01X6.555Y13.562Z0.017
G01X6.551Y13.571Z0.017
G01X6.548Y13.579Z0.017
G01X6.546Y13.598Z0.017
G01X6.545Y13.598Z0.017
G01X6.404Y13.591Z0.017
G01X6.404Y14.261Z0.017
G01X6.408Y14.301Z0.017
G01X6.419Y14.336Z0.017
G01X6.436Y14.369Z0.017
G01X6.460Y14.398Z0.017
G01X6.489Y14.421Z0.017
G01X6.521Y14.439Z0.017
G01X6.557Y14.450Z0.017
G01X6.597Y14.453Z0.017
G01X7.541Y14.453Z0.018
G01X7.581Y14.450Z0.018
G01X7.617Y14.439Z0.018
G01X7.649Y14.421Z0.018
G01X7.678Y14.398Z0.018
G01X7.702Y14.369Z0.018
G01X7.719Y14.336Z0.018
G01X7.730Y14.301Z0.018
G01X7.734Y14.261Z0.018
G01X7.734Y13.591Z0.019
G01X7.730Y13.551Z0.019
G01X7.719Y13.516Z0.019
G01X7.702Y13.483Z0.019
G01X7.678Y13.454Z0.019
G01X7.649Y13.431Z0.019
G01X7.617Y13.413Z0.019
G01X7.581Y13.402Z0.019
G01X7.541Y13.398Z0.019
G01X6.597Y13.398Z0.017
G01X6.557Y13.402Z0.017
G01X6.521Y13.413Z0.017
G01X6.489Y13.431Z0.017
G01X6.460Y13.454Z0.017
G01X6.436Y13.483Z0.017
G01X6.419Y13.516Z0.017
G01X6.408Y13.551Z0.017
G01X6.404Y13.591Z0.017
G01X6.474Y13.595Z0.017
G01X6.475Y13.595Z0.017
G01X6.478Y13.565Z0.017
G01X6.485Y13.543Z0.017
G01X6.496Y13.523Z0.017
G01X6.510Y13.505Z0.017
G01X6.506Y13.500Z0.017
G01X6.510Y13.505Z0.017
G01X6.528Y13.490Z0.017
G01X6.549Y13.479Z0.017
G01X6.571Y13.472Z0.017
G01X6.600Y13.470Z0.017
G01X6.600Y13.468Z0.017
G01X6.600Y13.470Z0.017
G01X7.538Y13.470Z0.019
G01X7.538Y13.468Z0.019
G01X7.538Y13.470Z0.019
G01X7.567Y13.472Z0.019
G01X7.589Y13.479Z0.019
G01X7.610Y13.490Z0.019
G01X7.628Y13.505Z0.019
G01X7.632Y13.500Z0.019
G01X7.628Y13.505Z0.019
G01X7.642Y13.523Z0.019
G01X7.653Y13.543Z0.019
G01X7.660Y13.565Z0.019
G01X7.663Y13.595Z0.019
G01X7.664Y13.595Z0.019
G01X7.663Y13.595Z0.019
G01X7.663Y14.257Z0.018
G01X7.664Y14.257Z0.018
G01X7.663Y14.257Z0.018
G01X7.660Y14.287Z0.018
G01X7.653Y14.309Z0.018
G01X7.642Y14.329Z0.018
G01X7.628Y14.347Z0.018
G01X7.632Y14.352Z0.018
G01X7.628Y14.347Z0.018
G01X7.610Y14.362Z0.018
G01X7.589Y14.373Z0.018
G01X7.567Y14.379Z0.018
G01X7.538Y14.382Z0.018
G01X7.538Y14.384Z0.018
G01X7.538Y14.382Z0.018
G01X6.600Y14.382Z0.017
G01X6.600Y14.383Z0.017
G01X6.600Y14.382Z0.017
G01X6.571Y14.379Z0.017
G01X6.549Y14.373Z0.017
G01X6.528Y14.362Z0.017
G01X6.526Y14.366Z0.017
G01X6.528Y14.362Z0.017
G01X6.510Y14.347Z0.017
G01X6.496Y14.329Z0.017
G01X6.485Y14.309Z0.017
G01X6.478Y14.287Z0.017
G01X6.475Y14.288Z0.017
G01X6.478Y14.287Z0.017
G01X6.475Y14.257Z0.017
G01X6.475Y13.595Z0.017
G01X6.474Y13.595Z0.017
G01X6.545Y13.598Z0.017
G01X6.596Y13.591Z0.017
G01X6.617Y13.612Z0.017
G01X6.617Y14.240Z0.017
G01X6.596Y14.261Z0.017
G01X6.617Y14.240Z0.017
G01X7.521Y14.240Z0.018
G01X7.541Y14.261Z0.018
G01X7.521Y14.240Z0.018
G01X7.521Y13.612Z0.018
G01X7.541Y13.591Z0.018
G01X7.521Y13.612Z0.018
G01X6.617Y13.612Z0.017
G01X6.688Y13.683Z0.017
G01X6.688Y14.169Z0.017
G01X6.668Y14.190Z0.017
G01X6.688Y14.169Z0.017
G01X7.450Y14.169Z0.018
G01X7.470Y14.190Z0.018
G01X7.450Y14.169Z0.018
G01X7.450Y13.683Z0.018
G01X7.470Y13.662Z0.018
G01X7.450Y13.683Z0.018
G01X6.688Y13.683Z0.017
G01X6.760Y13.754Z0.017
G01X6.760Y14.098Z0.017
G01X6.739Y14.119Z0.017
G01X6.760Y14.098Z0.017
G01X7.378Y14.098Z0.018
G01X7.399Y14.119Z0.018
G01X7.378Y14.098Z0.018
G01X7.378Y13.754Z0.018
G01X7.399Y13.733Z0.018
G01X7.378Y13.754Z0.018
G01X6.760Y13.754Z0.017
G01X6.831Y13.825Z0.018
G01X6.831Y14.027Z0.017
G01X6.810Y14.048Z0.017
G01X6.831Y14.027Z0.017
G01X7.307Y14.027Z0.018
G01X7.328Y14.048Z0.018
G01X7.307Y14.027Z0.018
G01X7.307Y13.825Z0.018
G01X7.328Y13.804Z0.018
G01X7.307Y13.825Z0.018
G01X6.831Y13.825Z0.018
G01X6.902Y13.896Z0.018
G01X6.902Y13.956Z0.018
G01X6.881Y13.977Z0.018
G01X6.902Y13.956Z0.018
G01X7.236Y13.956Z0.018
G01X7.257Y13.977Z0.018
G01X7.236Y13.956Z0.018
G01X7.236Y13.896Z0.018
G01X7.257Y13.875Z0.018
G01X7.236Y13.896Z0.018
G01X6.902Y13.896Z0.018
G04 P0 ( dwell for no time -- G64 should not smooth over this point )
G00X6.902Y13.896Z5.023
G00X8.953Y13.572Z5.025
X9.238Y13.527Z5.026
G01F40.00000X9.238Y13.527Z5.026
( Mill infeed pass 1/1 )
G01X9.238Y13.527Z0.021
G04 P0 ( dwell for no time -- G64 should not smooth over this point )
G01F100.00000X9.238Y13.527Z0.021
G01X9.238Y13.527Z0.021
G01X9.238Y14.207Z0.020
G01X9.237Y14.207Z0.020
G01X9.238Y14.207Z0.020
G01X9.240Y14.226Z0.020
G01X9.243Y14.235Z0.020
G01X9.247Y14.243Z0.020
G01X9.253Y14.250Z0.020
G01X9.260Y14.256Z0.020
G01X9.253Y14.267Z0.020
G01X9.260Y14.256Z0.020
G01X9.268Y14.260Z0.020
G01X9.277Y14.263Z0.020
G01X9.296Y14.265Z0.020
G01X10.176Y14.265Z0.022
G01X10.176Y14.266Z0.022
G01X10.176Y14.265Z0.022
G01X10.195Y14.263Z0.022
G01X10.204Y14.260Z0.022
G01X10.212Y14.256Z0.022
G01X10.219Y14.250Z0.022
G01X10.225Y14.243Z0.022
G01X10.236Y14.250Z0.022
G01X10.225Y14.243Z0.022
G01X10.229Y14.235Z0.022
G01X10.232Y14.226Z0.022
G01X10.234Y14.207Z0.022
G01X10.234Y13.527Z0.022
G01X10.235Y13.527Z0.022
G01X10.234Y13.527Z0.022
G01X10.232Y13.508Z0.022
G01X10.229Y13.499Z0.022
G01X10.225Y13.491Z0.022
G01X10.219Y13.484Z0.022
G01X10.212Y13.478Z0.022
G01X10.219Y13.467Z0.022
G01X10.212Y13.478Z0.022
G01X10.204Y13.474Z0.022
G01X10.195Y13.471Z0.022
G01X10.176Y13.469Z0.022
G01X9.296Y13.469Z0.021
G01X9.296Y13.468Z0.021
G01X9.296Y13.469Z0.021
G01X9.277Y13.471Z0.021
G01X9.268Y13.474Z0.021
G01X9.260Y13.478Z0.021
G01X9.253Y13.484Z0.021
G01X9.247Y13.478Z0.021
G01X9.253Y13.484Z0.021
G01X9.247Y13.491Z0.021
G01X9.243Y13.499Z0.021
G01X9.240Y13.508Z0.021
G01X9.238Y13.527Z0.021
G01X9.237Y13.527Z0.021
G01X9.167Y13.523Z0.021
G01X9.096Y13.520Z0.020
G01X9.096Y14.214Z0.020
G01X9.100Y14.254Z0.020
G01X9.111Y14.290Z0.020
G01X9.128Y14.322Z0.020
G01X9.152Y14.351Z0.020
G01X9.181Y14.375Z0.020
G01X9.213Y14.392Z0.020
G01X9.249Y14.403Z0.020
G01X9.289Y14.407Z0.020
G01X10.183Y14.407Z0.022
G01X10.223Y14.403Z0.022
G01X10.259Y14.392Z0.022
G01X10.291Y14.375Z0.022
G01X10.320Y14.351Z0.022
G01X10.344Y14.322Z0.022
G01X10.361Y14.290Z0.022
G01X10.372Y14.254Z0.022
G01X10.376Y14.214Z0.022
G01X10.376Y13.520Z0.023
G01X10.372Y13.480Z0.023
G01X10.361Y13.444Z0.023
G01X10.344Y13.412Z0.023
G01X10.320Y13.383Z0.023
G01X10.291Y13.359Z0.023
G01X10.259Y13.342Z0.023
G01X10.223Y13.331Z0.022
G01X10.183Y13.327Z0.022
G01X9.289Y13.327Z0.021
G01X9.249Y13.331Z0.021
G01X9.213Y13.342Z0.021
G01X9.181Y13.359Z0.021
G01X9.152Y13.383Z0.021
G01X9.128Y13.412Z0.021
G01X9.111Y13.444Z0.020
G01X9.100Y13.480Z0.020
G01X9.096Y13.520Z0.020
G01X9.166Y13.523Z0.021
G01X9.167Y13.523Z0.021
G01X9.170Y13.494Z0.021
G01X9.177Y13.472Z0.021
G01X9.188Y13.451Z0.021
G01X9.202Y13.433Z0.021
G01X9.198Y13.429Z0.021
G01X9.202Y13.433Z0.021
G01X9.220Y13.419Z0.021
G01X9.241Y13.408Z0.021
G01X9.263Y13.401Z0.021
G01X9.292Y13.398Z0.021
G01X9.292Y13.397Z0.021
G01X9.292Y13.398Z0.021
G01X10.180Y13.398Z0.022
G01X10.180Y13.397Z0.022
G01X10.180Y13.398Z0.022
G01X10.209Y13.401Z0.022
G01X10.231Y13.408Z0.022
G01X10.252Y13.419Z0.022
G01X10.254Y13.416Z0.022
G01X10.252Y13.419Z0.022
G01X10.270Y13.433Z0.023
G01X10.284Y13.451Z0.023
G01X10.295Y13.472Z0.023
G01X10.297Y13.471Z0.023
G01X10.295Y13.472Z0.023
G01X10.302Y13.494Z0.023
G01X10.305Y13.523Z0.023
G01X10.305Y13.523Z0.023
G01X10.305Y13.523Z0.023
G01X10.305Y14.211Z0.022
G01X10.306Y14.211Z0.022
G01X10.305Y14.211Z0.022
G01X10.302Y14.240Z0.022
G01X10.295Y14.262Z0.022
G01X10.284Y14.283Z0.022
G01X10.287Y14.285Z0.022
G01X10.284Y14.283Z0.022
G01X10.270Y14.301Z0.022
G01X10.252Y14.315Z0.022
G01X10.231Y14.326Z0.022
G01X10.232Y14.328Z0.022
G01X10.231Y14.326Z0.022
G01X10.209Y14.333Z0.022
G01X10.180Y14.336Z0.022
G01X10.180Y14.336Z0.022
G01X10.180Y14.336Z0.022
G01X9.292Y14.336Z0.020
G01X9.292Y14.337Z0.020
G01X9.292Y14.336Z0.020
G01X9.263Y14.333Z0.020
G01X9.241Y14.326Z0.020
G01X9.220Y14.315Z0.020
G01X9.218Y14.318Z0.020
G01X9.220Y14.315Z0.020
G01X9.202Y14.301Z0.020
G01X9.188Y14.283Z0.020
G01X9.177Y14.262Z0.020
G01X9.175Y14.263Z0.020
G01X9.177Y14.262Z0.020
G01X9.170Y14.240Z0.020
G01X9.167Y14.211Z0.020
G01X9.167Y14.211Z0.020
G01X9.167Y14.211Z0.020
G01X9.167Y13.523Z0.021
G01X9.166Y13.523Z0.021
G01X9.237Y13.527Z0.021
G01X9.288Y13.519Z0.021
G01X9.309Y13.540Z0.021
G01X9.309Y14.194Z0.020
G01X9.288Y14.214Z0.020
G01X9.309Y14.194Z0.020
G01X10.163Y14.194Z0.022
G01X10.183Y14.214Z0.022
G01X10.163Y14.194Z0.022
G01X10.163Y13.540Z0.022
G01X10.183Y13.519Z0.022
G01X10.163Y13.540Z0.022
G01X9.309Y13.540Z0.021
G01X9.380Y13.611Z0.021
G01X9.380Y14.123Z0.021
G01X9.360Y14.143Z0.021
G01X9.380Y14.123Z0.021
G01X10.092Y14.123Z0.022
G01X10.112Y14.143Z0.022
G01X10.092Y14.123Z0.022
G01X10.092Y13.611Z0.022
G01X10.112Y13.591Z0.022
G01X10.092Y13.611Z0.022
G01X9.380Y13.611Z0.021
G01X9.452Y13.683Z0.021
G01X9.452Y14.051Z0.021
G01X9.431Y14.072Z0.021
G01X9.452Y14.051Z0.021
G01X10.020Y14.051Z0.022
G01X10.041Y14.072Z0.022
G01X10.020Y14.051Z0.022
G01X10.020Y13.683Z0.022
G01X10.041Y13.662Z0.022
G01X10.020Y13.683Z0.022
G01X9.452Y13.683Z0.021
G01X9.523Y13.754Z0.021
G01X9.523Y13.980Z0.021
G01X9.502Y14.001Z0.021
G01X9.523Y13.980Z0.021
G01X9.949Y13.980Z0.022
G01X9.970Y14.001Z0.022
G01X9.949Y13.980Z0.022
G01X9.949Y13.754Z0.022
G01X9.970Y13.733Z0.022
G01X9.949Y13.754Z0.022
G01X9.523Y13.754Z0.021
G01X9.594Y13.825Z0.021
G01X9.594Y13.909Z0.021
G01X9.573Y13.930Z0.021
G01X9.594Y13.909Z0.021
G01X9.878Y13.909Z0.022
G01X9.899Y13.930Z0.022
G01X9.878Y13.909Z0.022
G01X9.878Y13.825Z0.022
G01X9.899Y13.804Z0.022
G01X9.878Y13.825Z0.022
G01X9.594Y13.825Z0.021
G04 P0 ( dwell for no time -- G64 should not smooth over this point )
G00X9.594Y13.825Z5.026
G00X9.594Y12.167Z5.027
X9.594Y11.825Z5.027
G01F40.00000X9.594Y11.825Z5.027
( Mill infeed pass 1/1 )
G01X9.594Y11.825Z0.022
G04 P0 ( dwell for no time -- G64 should not smooth over this point )
G01F100.00000X9.594Y11.825Z0.022
G01X9.594Y11.825Z0.022
G01X9.594Y11.909Z0.022
G01X9.573Y11.930Z0.022
G01X9.594Y11.909Z0.022
G01X9.878Y11.909Z0.023
G01X9.899Y11.930Z0.023
G01X9.878Y11.909Z0.023
G01X9.878Y11.825Z0.023
G01X9.899Y11.804Z0.023
G01X9.878Y11.825Z0.023
G01X9.594Y11.825Z0.022
G01X9.523Y11.754Z0.022
G01X9.949Y11.754Z0.023
G01X9.970Y11.733Z0.023
G01X9.949Y11.754Z0.023
G01X9.949Y11.980Z0.023
G01X9.970Y12.001Z0.023
G01X9.949Y11.980Z0.023
G01X9.523Y11.980Z0.022
G01X9.502Y12.001Z0.022
G01X9.523Y11.980Z0.022
G01X9.523Y11.754Z0.022
G01X9.452Y11.683Z0.022
G01X10.020Y11.683Z0.023
G01X10.041Y11.662Z0.023
G01X10.020Y11.683Z0.023
G01X10.020Y12.051Z0.023
G01X10.041Y12.072Z0.023
G01X10.020Y12.051Z0.023
G01X9.452Y12.051Z0.022
G01X9.431Y12.072Z0.022
G01X9.452Y12.051Z0.022
G01X9.452Y11.683Z0.022
G01X9.380Y11.611Z0.022
G01X10.092Y11.611Z0.024
G01X10.112Y11.591Z0.024
G01X10.092Y11.611Z0.024
G01X10.092Y12.123Z0.023
G01X10.112Y12.143Z0.023
G01X10.092Y12.123Z0.023
G01X9.380Y12.123Z0.022
G01X9.360Y12.143Z0.022
G01X9.380Y12.123Z0.022
G01X9.380Y11.611Z0.022
G01X9.309Y11.540Z0.022
G01X10.163Y11.540Z0.024
G01X10.183Y11.519Z0.024
G01X10.163Y11.540Z0.024
G01X10.163Y12.194Z0.023
G01X10.183Y12.214Z0.023
G01X10.163Y12.194Z0.023
G01X9.309Y12.194Z0.021
G01X9.288Y12.214Z0.021
G01X9.309Y12.194Z0.021
G01X9.309Y11.540Z0.022
G01X9.288Y11.519Z0.022
G01X9.237Y11.527Z0.022
G01X9.166Y11.523Z0.022
G01X9.167Y11.523Z0.022
G01X9.167Y12.211Z0.021
G01X9.167Y12.211Z0.021
G01X9.167Y12.211Z0.021
G01X9.170Y12.240Z0.021
G01X9.177Y12.262Z0.021
G01X9.175Y12.263Z0.021
G01X9.177Y12.262Z0.021
G01X9.188Y12.283Z0.021
G01X9.202Y12.301Z0.021
G01X9.220Y12.315Z0.021
G01X9.218Y12.318Z0.021
G01X9.220Y12.315Z0.021
G01X9.241Y12.326Z0.021
G01X9.263Y12.333Z0.021
G01X9.292Y12.336Z0.021
G01X9.292Y12.337Z0.021
G01X9.292Y12.336Z0.021
G01X10.180Y12.336Z0.023
G01X10.180Y12.336Z0.023
G01X10.180Y12.336Z0.023
G01X10.209Y12.333Z0.023
G01X10.231Y12.326Z0.023
G01X10.232Y12.328Z0.023
G01X10.231Y12.326Z0.023
G01X10.252Y12.315Z0.023
G01X10.270Y12.301Z0.023
G01X10.284Y12.283Z0.023
G01X10.287Y12.285Z0.023
G01X10.284Y12.283Z0.023
G01X10.295Y12.262Z0.023
G01X10.302Y12.240Z0.023
G01X10.305Y12.211Z0.024
G01X10.306Y12.211Z0.024
G01X10.305Y12.211Z0.024
G01X10.305Y11.523Z0.024
G01X10.305Y11.523Z0.024
G01X10.305Y11.523Z0.024
G01X10.302Y11.494Z0.024
G01X10.295Y11.472Z0.024
G01X10.297Y11.471Z0.024
G01X10.295Y11.472Z0.024
G01X10.284Y11.451Z0.024
G01X10.270Y11.433Z0.024
G01X10.252Y11.419Z0.024
G01X10.254Y11.416Z0.024
G01X10.252Y11.419Z0.024
G01X10.231Y11.408Z0.024
G01X10.209Y11.401Z0.024
G01X10.180Y11.398Z0.024
G01X10.180Y11.397Z0.024
G01X10.180Y11.398Z0.024
G01X9.292Y11.398Z0.022
G01X9.292Y11.397Z0.022
G01X9.292Y11.398Z0.022
G01X9.263Y11.401Z0.022
G01X9.241Y11.408Z0.022
G01X9.220Y11.419Z0.022
G01X9.202Y11.433Z0.022
G01X9.198Y11.429Z0.022
G01X9.202Y11.433Z0.022
G01X9.188Y11.451Z0.022
G01X9.177Y11.472Z0.022
G01X9.170Y11.494Z0.022
G01X9.167Y11.523Z0.022
G01X9.166Y11.523Z0.022
G01X9.096Y11.520Z0.021
G01X9.100Y11.480Z0.022
G01X9.111Y11.444Z0.022
G01X9.128Y11.412Z0.022
G01X9.152Y11.383Z0.022
G01X9.181Y11.359Z0.022
G01X9.213Y11.342Z0.022
G01X9.249Y11.331Z0.022
G01X9.289Y11.327Z0.022
G01X10.183Y11.327Z0.024
G01X10.223Y11.331Z0.024
G01X10.259Y11.342Z0.024
G01X10.291Y11.359Z0.024
G01X10.320Y11.383Z0.024
G01X10.344Y11.412Z0.024
G01X10.361Y11.444Z0.024
G01X10.372Y11.480Z0.024
G01X10.376Y11.520Z0.024
G01X10.376Y12.214Z0.024
G01X10.372Y12.254Z0.024
G01X10.361Y12.290Z0.024
G01X10.344Y12.322Z0.024
G01X10.320Y12.351Z0.023
G01X10.291Y12.375Z0.023
G01X10.259Y12.392Z0.023
G01X10.223Y12.403Z0.023
G01X10.183Y12.407Z0.023
G01X9.289Y12.407Z0.021
G01X9.249Y12.403Z0.021
G01X9.213Y12.392Z0.021
G01X9.181Y12.375Z0.021
G01X9.152Y12.351Z0.021
G01X9.128Y12.322Z0.021
G01X9.111Y12.290Z0.021
G01X9.100Y12.254Z0.021
G01X9.096Y12.214Z0.021
G01X9.096Y11.520Z0.021
G01X9.167Y11.523Z0.022
G01X9.237Y11.527Z0.022
G01X9.238Y11.527Z0.022
G01X9.240Y11.508Z0.022
G01X9.243Y11.499Z0.022
G01X9.247Y11.491Z0.022
G01X9.253Y11.484Z0.022
G01X9.247Y11.478Z0.022
G01X9.253Y11.484Z0.022
G01X9.260Y11.478Z0.022
G01X9.268Y11.474Z0.022
G01X9.277Y11.471Z0.022
G01X9.296Y11.469Z0.022
G01X9.296Y11.468Z0.022
G01X9.296Y11.469Z0.022
G01X10.176Y11.469Z0.024
G01X10.195Y11.471Z0.024
G01X10.204Y11.474Z0.024
G01X10.212Y11.478Z0.024
G01X10.219Y11.467Z0.024
G01X10.212Y11.478Z0.024
G01X10.219Y11.484Z0.024
G01X10.225Y11.491Z0.024
G01X10.229Y11.499Z0.024
G01X10.232Y11.508Z0.024
G01X10.234Y11.527Z0.024
G01X10.235Y11.527Z0.024
G01X10.234Y11.527Z0.024
G01X10.234Y12.207Z0.023
G01X10.232Y12.226Z0.023
G01X10.229Y12.235Z0.023
G01X10.225Y12.243Z0.023
G01X10.236Y12.250Z0.023
G01X10.225Y12.243Z0.023
G01X10.219Y12.250Z0.023
G01X10.212Y12.256Z0.023
G01X10.204Y12.260Z0.023
G01X10.195Y12.263Z0.023
G01X10.176Y12.265Z0.023
G01X10.176Y12.266Z0.023
G01X10.176Y12.265Z0.023
G01X9.296Y12.265Z0.021
G01X9.277Y12.263Z0.021
G01X9.268Y12.260Z0.021
G01X9.260Y12.256Z0.021
G01X9.253Y12.267Z0.021
G01X9.260Y12.256Z0.021
G01X9.253Y12.250Z0.021
G01X9.247Y12.243Z0.021
G01X9.243Y12.235Z0.021
G01X9.240Y12.226Z0.021
G01X9.238Y12.207Z0.021
G01X9.237Y12.207Z0.021
G01X9.238Y12.207Z0.021
G01X9.238Y11.527Z0.022
G04 P0 ( dwell for no time -- G64 should not smooth over this point )
G00X9.238Y11.527Z5.027
G00X9.453Y9.869Z5.029
X9.467Y9.761Z5.029
G01F40.00000X9.467Y9.761Z5.029
( Mill infeed pass 1/1 )
G01X9.467Y9.761Z0.024
G04 P0 ( dwell for no time -- G64 should not smooth over this point )
G01F100.00000X9.467Y9.761Z0.024
G01X9.467Y9.761Z0.024
G01X9.467Y9.845Z0.024
G01X9.446Y9.866Z0.024
G01X9.467Y9.845Z0.024
G01X9.751Y9.845Z0.025
G01X9.772Y9.866Z0.025
G01X9.751Y9.845Z0.025
G01X9.751Y9.761Z0.025
G01X9.772Y9.740Z0.025
G01X9.751Y9.761Z0.025
G01X9.467Y9.761Z0.024
G01X9.396Y9.690Z0.024
G01X9.822Y9.690Z0.025
G01X9.843Y9.669Z0.025
G01X9.822Y9.690Z0.025
G01X9.822Y9.916Z0.025
G01X9.843Y9.937Z0.025
G01X9.822Y9.916Z0.025
G01X9.396Y9.916Z0.024
G01X9.375Y9.937Z0.024
G01X9.396Y9.916Z0.024
G01X9.396Y9.690Z0.024
G01X9.325Y9.619Z0.024
G01X9.893Y9.619Z0.025
G01X9.914Y9.598Z0.026
G01X9.893Y9.619Z0.025
G01X9.893Y9.987Z0.025
G01X9.914Y10.008Z0.025
G01X9.893Y9.987Z0.025
G01X9.325Y9.987Z0.024
G01X9.304Y10.008Z0.024
G01X9.325Y9.987Z0.024
G01X9.325Y9.619Z0.024
G01X9.253Y9.547Z0.024
G01X9.965Y9.547Z0.026
G01X9.985Y9.527Z0.026
G01X9.965Y9.547Z0.026
G01X9.965Y10.059Z0.025
G01X9.985Y10.079Z0.025
G01X9.965Y10.059Z0.025
G01X9.253Y10.059Z0.023
G01X9.233Y10.079Z0.023
G01X9.253Y10.059Z0.023
G01X9.253Y9.547Z0.024
G01X9.182Y9.476Z0.024
G01X10.036Y9.476Z0.026
G01X10.056Y9.455Z0.026
G01X10.036Y9.476Z0.026
G01X10.036Y10.130Z0.025
G01X10.056Y10.150Z0.025
G01X10.036Y10.130Z0.025
G01X9.182Y10.130Z0.023
G01X9.161Y10.150Z0.023
G01X9.182Y10.130Z0.023
G01X9.182Y9.476Z0.024
G01X9.161Y9.455Z0.024
G01X9.110Y9.463Z0.024
G01X9.039Y9.459Z0.024
G01X9.040Y9.459Z0.024
G01X9.040Y10.147Z0.023
G01X9.040Y10.147Z0.023
G01X9.040Y10.147Z0.023
G01X9.043Y10.176Z0.023
G01X9.050Y10.198Z0.023
G01X9.048Y10.199Z0.023
G01X9.050Y10.198Z0.023
G01X9.061Y10.219Z0.023
G01X9.075Y10.237Z0.023
G01X9.093Y10.251Z0.023
G01X9.091Y10.254Z0.023
G01X9.093Y10.251Z0.023
G01X9.114Y10.262Z0.023
G01X9.136Y10.269Z0.023
G01X9.165Y10.272Z0.023
G01X9.165Y10.273Z0.023
G01X9.165Y10.272Z0.023
G01X10.053Y10.272Z0.025
G01X10.053Y10.272Z0.025
G01X10.053Y10.272Z0.025
G01X10.082Y10.269Z0.025
G01X10.104Y10.262Z0.025
G01X10.105Y10.264Z0.025
G01X10.104Y10.262Z0.025
G01X10.125Y10.251Z0.025
G01X10.143Y10.237Z0.025
G01X10.157Y10.219Z0.025
G01X10.160Y10.221Z0.025
G01X10.157Y10.219Z0.025
G01X10.168Y10.198Z0.025
G01X10.175Y10.176Z0.025
G01X10.178Y10.147Z0.025
G01X10.179Y10.147Z0.025
G01X10.178Y10.147Z0.025
G01X10.178Y9.459Z0.026
G01X10.178Y9.459Z0.026
G01X10.178Y9.459Z0.026
G01X10.175Y9.430Z0.026
G01X10.168Y9.408Z0.026
G01X10.170Y9.407Z0.026
G01X10.168Y9.408Z0.026
G01X10.157Y9.387Z0.026
G01X10.143Y9.369Z0.026
G01X10.125Y9.355Z0.026
G01X10.127Y9.352Z0.026
G01X10.125Y9.355Z0.026
G01X10.104Y9.344Z0.026
G01X10.082Y9.337Z0.026
G01X10.053Y9.334Z0.026
G01X10.053Y9.333Z0.026
G01X10.053Y9.334Z0.026
G01X9.165Y9.334Z0.024
G01X9.165Y9.333Z0.024
G01X9.165Y9.334Z0.024
G01X9.136Y9.337Z0.024
G01X9.114Y9.344Z0.024
G01X9.093Y9.355Z0.024
G01X9.075Y9.369Z0.024
G01X9.071Y9.365Z0.024
G01X9.075Y9.369Z0.024
G01X9.061Y9.387Z0.024
G01X9.050Y9.408Z0.024
G01X9.043Y9.430Z0.024
G01X9.040Y9.459Z0.024
G01X9.039Y9.459Z0.024
G01X8.969Y9.456Z0.023
G01X8.973Y9.416Z0.024
G01X8.984Y9.380Z0.024
G01X9.001Y9.348Z0.024
G01X9.025Y9.319Z0.024
G01X9.054Y9.295Z0.024
G01X9.086Y9.278Z0.024
G01X9.122Y9.267Z0.024
G01X9.162Y9.263Z0.024
G01X10.056Y9.263Z0.026
G01X10.096Y9.267Z0.026
G01X10.132Y9.278Z0.027
G01X10.164Y9.295Z0.027
G01X10.193Y9.319Z0.027
G01X10.217Y9.348Z0.027
G01X10.234Y9.380Z0.027
G01X10.245Y9.416Z0.027
G01X10.249Y9.456Z0.027
G01X10.249Y10.150Z0.026
G01X10.245Y10.190Z0.026
G01X10.234Y10.226Z0.025
G01X10.217Y10.258Z0.025
G01X10.193Y10.287Z0.025
G01X10.164Y10.311Z0.025
G01X10.132Y10.328Z0.025
G01X10.096Y10.339Z0.025
G01X10.056Y10.343Z0.025
G01X9.162Y10.343Z0.023
G01X9.122Y10.339Z0.023
G01X9.086Y10.328Z0.023
G01X9.054Y10.311Z0.023
G01X9.025Y10.287Z0.023
G01X9.001Y10.258Z0.023
G01X8.984Y10.226Z0.023
G01X8.973Y10.190Z0.023
G01X8.969Y10.150Z0.023
G01X8.969Y9.456Z0.023
G01X9.040Y9.459Z0.024
G01X9.110Y9.463Z0.024
G01X9.111Y9.463Z0.024
G01X9.113Y9.444Z0.024
G01X9.116Y9.435Z0.024
G01X9.120Y9.427Z0.024
G01X9.126Y9.420Z0.024
G01X9.120Y9.414Z0.024
G01X9.126Y9.420Z0.024
G01X9.133Y9.414Z0.024
G01X9.141Y9.410Z0.024
G01X9.150Y9.407Z0.024
G01X9.169Y9.405Z0.024
G01X9.169Y9.404Z0.024
G01X9.169Y9.405Z0.024
G01X10.049Y9.405Z0.026
G01X10.068Y9.407Z0.026
G01X10.077Y9.410Z0.026
G01X10.085Y9.414Z0.026
G01X10.092Y9.403Z0.026
G01X10.085Y9.414Z0.026
G01X10.092Y9.420Z0.026
G01X10.098Y9.427Z0.026
G01X10.102Y9.435Z0.026
G01X10.105Y9.444Z0.026
G01X10.107Y9.463Z0.026
G01X10.108Y9.463Z0.026
G01X10.107Y9.463Z0.026
G01X10.107Y10.143Z0.025
G01X10.105Y10.162Z0.025
G01X10.102Y10.171Z0.025
G01X10.098Y10.179Z0.025
G01X10.109Y10.186Z0.025
G01X10.098Y10.179Z0.025
G01X10.092Y10.186Z0.025
G01X10.085Y10.192Z0.025
G01X10.077Y10.196Z0.025
G01X10.068Y10.199Z0.025
G01X10.049Y10.201Z0.025
G01X10.049Y10.202Z0.025
G01X10.049Y10.201Z0.025
G01X9.169Y10.201Z0.023
G01X9.150Y10.199Z0.023
G01X9.141Y10.196Z0.023
G01X9.133Y10.192Z0.023
G01X9.126Y10.203Z0.023
G01X9.133Y10.192Z0.023
G01X9.126Y10.186Z0.023
G01X9.120Y10.179Z0.023
G01X9.116Y10.171Z0.023
G01X9.113Y10.162Z0.023
G01X9.111Y10.143Z0.023
G01X9.110Y10.143Z0.023
G01X9.111Y10.143Z0.023
G01X9.111Y9.463Z0.024
G04 P0 ( dwell for no time -- G64 should not smooth over this point )
G00X9.111Y9.463Z5.029
G00X9.458Y7.805Z5.031
X9.467Y7.761Z5.032
G01F40.00000X9.467Y7.761Z5.032
( Mill infeed pass 1/1 )
G01X9.467Y7.761Z0.027
G04 P0 ( dwell for no time -- G64 should not smooth over this point )
G01F100.00000X9.467Y7.761Z0.027
G01X9.467Y7.761Z0.027
G01X9.751Y7.761Z0.027
G01X9.772Y7.740Z0.027
G01X9.751Y7.761Z0.027
G01X9.751Y7.845Z0.027
G01X9.772Y7.866Z0.027
G01X9.751Y7.845Z0.027
G01X9.467Y7.845Z0.026
G01X9.446Y7.866Z0.026
G01X9.467Y7.845Z0.026
G01X9.467Y7.761Z0.027
G01X9.396Y7.690Z0.026
G01X9.822Y7.690Z0.027
G01X9.843Y7.669Z0.028
G01X9.822Y7.690Z0.027
G01X9.822Y7.916Z0.027
G01X9.843Y7.937Z0.027
G01X9.822Y7.916Z0.027
G01X9.396Y7.916Z0.026
G01X9.375Y7.937Z0.026
G01X9.396Y7.916Z0.026
G01X9.396Y7.690Z0.026
G01X9.325Y7.619Z0.026
G01X9.893Y7.619Z0.028
G01X9.914Y7.598Z0.028
G01X9.893Y7.619Z0.028
G01X9.893Y7.987Z0.027
G01X9.914Y8.008Z0.027
G01X9.893Y7.987Z0.027
G01X9.325Y7.987Z0.026
G01X9.304Y8.008Z0.026
G01X9.325Y7.987Z0.026
G01X9.325Y7.619Z0.026
G01X9.253Y7.547Z0.026
G01X9.965Y7.547Z0.028
G01X9.985Y7.527Z0.028
G01X9.965Y7.547Z0.028
G01X9.965Y8.059Z0.028
G01X9.985Y8.079Z0.028
G01X9.965Y8.059Z0.028
G01X9.253Y8.059Z0.026
G01X9.233Y8.079Z0.026
G01X9.253Y8.059Z0.026
G01X9.253Y7.547Z0.026
G01X9.182Y7.476Z0.026
G01X10.036Y7.476Z0.028
G01X10.056Y7.455Z0.028
G01X10.036Y7.476Z0.028
G01X10.036Y8.130Z0.028
G01X10.056Y8.150Z0.028
G01X10.036Y8.130Z0.028
G01X9.182Y8.130Z0.025
G01X9.161Y8.150Z0.025
G01X9.182Y8.130Z0.025
G01X9.182Y7.476Z0.026
G01X9.161Y7.455Z0.026
G01X9.110Y7.463Z0.026
G01X9.039Y7.459Z0.026
G01X9.040Y7.459Z0.026
G01X9.040Y8.147Z0.025
G01X9.040Y8.147Z0.025
G01X9.040Y8.147Z0.025
G01X9.043Y8.176Z0.025
G01X9.050Y8.198Z0.025
G01X9.048Y8.199Z0.025
G01X9.050Y8.198Z0.025
G01X9.061Y8.219Z0.025
G01X9.075Y8.237Z0.025
G01X9.093Y8.251Z0.025
G01X9.091Y8.254Z0.025
G01X9.093Y8.251Z0.025
G01X9.114Y8.262Z0.025
G01X9.136Y8.269Z0.025
G01X9.165Y8.272Z0.025
G01X9.165Y8.273Z0.025
G01X9.165Y8.272Z0.025
G01X10.053Y8.272Z0.028
G01X10.053Y8.272Z0.028
G01X10.053Y8.272Z0.028
G01X10.082Y8.269Z0.028
G01X10.104Y8.262Z0.028
G01X10.105Y8.264Z0.028
G01X10.104Y8.262Z0.028
G01X10.125Y8.251Z0.028
G01X10.143Y8.237Z0.028
G01X10.157Y8.219Z0.028
G01X10.160Y8.221Z0.028
G01X10.157Y8.219Z0.028
G01X10.168Y8.198Z0.028
G01X10.175Y8.176Z0.028
G01X10.178Y8.147Z0.028
G01X10.179Y8.147Z0.028
G01X10.178Y8.147Z0.028
G01X10.178Y7.459Z0.029
G01X10.178Y7.459Z0.029
G01X10.178Y7.459Z0.029
G01X10.175Y7.430Z0.029
G01X10.168Y7.408Z0.029
G01X10.170Y7.407Z0.029
G01X10.168Y7.408Z0.029
G01X10.157Y7.387Z0.029
G01X10.143Y7.369Z0.029
G01X10.125Y7.355Z0.028
G01X10.127Y7.352Z0.028
G01X10.125Y7.355Z0.028
G01X10.104Y7.344Z0.028
G01X10.082Y7.337Z0.028
G01X10.053Y7.334Z0.028
G01X10.053Y7.333Z0.028
G01X10.053Y7.334Z0.028
G01X9.165Y7.334Z0.026
G01X9.165Y7.333Z0.026
G01X9.165Y7.334Z0.026
G01X9.136Y7.337Z0.026
G01X9.114Y7.344Z0.026
G01X9.093Y7.355Z0.026
G01X9.075Y7.369Z0.026
G01X9.071Y7.365Z0.026
G01X9.075Y7.369Z0.026
G01X9.061Y7.387Z0.026
G01X9.050Y7.408Z0.026
G01X9.043Y7.430Z0.026
G01X9.040Y7.459Z0.026
G01X9.039Y7.459Z0.026
G01X8.969Y7.456Z0.025
G01X8.973Y7.416Z0.025
G01X8.984Y7.380Z0.025
G01X9.001Y7.348Z0.026
G01X9.025Y7.319Z0.026
G01X9.054Y7.295Z0.026
G01X9.086Y7.278Z0.026
G01X9.122Y7.267Z0.026
G01X9.162Y7.263Z0.026
G01X10.056Y7.263Z0.028
G01X10.096Y7.267Z0.028
G01X10.132Y7.278Z0.029
G01X10.164Y7.295Z0.029
G01X10.193Y7.319Z0.029
G01X10.217Y7.348Z0.029
G01X10.234Y7.380Z0.029
G01X10.245Y7.416Z0.029
G01X10.249Y7.456Z0.029
G01X10.249Y8.150Z0.028
G01X10.245Y8.190Z0.028
G01X10.234Y8.226Z0.028
G01X10.217Y8.258Z0.028
G01X10.193Y8.287Z0.028
G01X10.164Y8.311Z0.028
G01X10.132Y8.328Z0.028
G01X10.096Y8.339Z0.028
G01X10.056Y8.343Z0.028
G01X9.162Y8.343Z0.025
G01X9.122Y8.339Z0.025
G01X9.086Y8.328Z0.025
G01X9.054Y8.311Z0.025
G01X9.025Y8.287Z0.025
G01X9.001Y8.258Z0.025
G01X8.984Y8.226Z0.025
G01X8.973Y8.190Z0.025
G01X8.972Y8.177Z0.025
G01X8.969Y8.150Z0.025
G01X8.969Y7.456Z0.025
G01X9.040Y7.459Z0.026
G01X9.110Y7.463Z0.026
G01X9.111Y7.463Z0.026
G01X9.113Y7.444Z0.026
G01X9.116Y7.435Z0.026
G01X9.120Y7.427Z0.026
G01X9.126Y7.420Z0.026
G01X9.120Y7.414Z0.026
G01X9.126Y7.420Z0.026
G01X9.133Y7.414Z0.026
G01X9.141Y7.410Z0.026
G01X9.150Y7.407Z0.026
G01X9.169Y7.405Z0.026
G01X9.169Y7.404Z0.026
G01X9.169Y7.405Z0.026
G01X10.049Y7.405Z0.028
G01X10.068Y7.407Z0.028
G01X10.077Y7.410Z0.028
G01X10.085Y7.414Z0.028
G01X10.092Y7.403Z0.028
G01X10.085Y7.414Z0.028
G01X10.092Y7.420Z0.028
G01X10.098Y7.427Z0.028
G01X10.102Y7.435Z0.028
G01X10.105Y7.444Z0.028
G01X10.107Y7.463Z0.028
G01X10.108Y7.463Z0.028
G01X10.107Y7.463Z0.028
G01X10.107Y8.143Z0.028
G01X10.105Y8.162Z0.028
G01X10.102Y8.171Z0.028
G01X10.098Y8.179Z0.028
G01X10.109Y8.186Z0.028
G01X10.098Y8.179Z0.028
G01X10.092Y8.186Z0.028
G01X10.085Y8.192Z0.028
G01X10.077Y8.196Z0.028
G01X10.068Y8.199Z0.028
G01X10.049Y8.201Z0.028
G01X10.049Y8.202Z0.028
G01X10.049Y8.201Z0.028
G01X9.169Y8.201Z0.025
G01X9.150Y8.199Z0.025
G01X9.141Y8.196Z0.025
G01X9.133Y8.192Z0.025
G01X9.126Y8.203Z0.025
G01X9.133Y8.192Z0.025
G01X9.126Y8.186Z0.025
G01X9.120Y8.179Z0.025
G01X9.116Y8.171Z0.025
G01X9.113Y8.162Z0.025
G01X9.111Y8.143Z0.025
G01X9.110Y8.143Z0.025
G01X9.111Y8.143Z0.025
G01X9.111Y7.463Z0.026
G04 P0 ( dwell for no time -- G64 should not smooth over this point )
G00X9.111Y7.463Z5.031
G00X8.716Y5.805Z5.030
X8.583Y5.247Z5.030
G01F40.00000X8.583Y5.247Z5.030
( Mill infeed pass 1/1 )
G01X8.583Y5.247Z0.025
G04 P0 ( dwell for no time -- G64 should not smooth over this point )
G01F100.00000X8.583Y5.247Z0.025
G01X8.583Y5.247Z0.025
G01X8.599Y5.093Z0.025
G01X8.647Y4.946Z0.025
G01X8.725Y4.812Z0.025
G01X8.828Y4.697Z0.025
G01X8.953Y4.606Z0.026
G01X9.094Y4.544Z0.026
G01X9.246Y4.511Z0.027
G01X9.400Y4.511Z0.027
G01X9.552Y4.544Z0.027
G01X9.693Y4.606Z0.028
G01X9.818Y4.697Z0.028
G01X9.921Y4.812Z0.028
G01X9.999Y4.946Z0.028
G01X10.046Y5.093Z0.029
G01X10.063Y5.247Z0.029
G01X10.046Y5.401Z0.028
G01X9.999Y5.548Z0.028
G01X9.921Y5.682Z0.028
G01X9.818Y5.797Z0.028
G01X9.693Y5.888Z0.027
G01X9.552Y5.950Z0.027
G01X9.400Y5.983Z0.027
G01X9.246Y5.983Z0.026
G01X9.094Y5.950Z0.026
G01X8.953Y5.888Z0.025
G01X8.828Y5.797Z0.025
G01X8.725Y5.682Z0.025
G01X8.647Y5.548Z0.025
G01X8.599Y5.401Z0.025
G01X8.583Y5.247Z0.025
G01X8.655Y5.247Z0.025
G01X8.669Y5.108Z0.025
G01X8.669Y5.108Z0.025
G01X8.669Y5.108Z0.025
G01X8.713Y4.975Z0.025
G01X8.712Y4.975Z0.025
G01X8.713Y4.975Z0.025
G01X8.782Y4.854Z0.025
G01X8.782Y4.854Z0.025
G01X8.782Y4.854Z0.025
G01X8.876Y4.750Z0.026
G01X8.876Y4.750Z0.026
G01X8.876Y4.750Z0.026
G01X8.989Y4.668Z0.026
G01X8.989Y4.668Z0.026
G01X8.989Y4.668Z0.026
G01X9.117Y4.612Z0.026
G01X9.116Y4.611Z0.026
G01X9.117Y4.612Z0.026
G01X9.253Y4.582Z0.027
G01X9.253Y4.582Z0.027
G01X9.253Y4.582Z0.027
G01X9.393Y4.582Z0.027
G01X9.393Y4.582Z0.027
G01X9.393Y4.582Z0.027
G01X9.529Y4.612Z0.027
G01X9.530Y4.611Z0.027
G01X9.529Y4.612Z0.027
G01X9.657Y4.668Z0.028
G01X9.657Y4.668Z0.028
G01X9.657Y4.668Z0.028
G01X9.770Y4.750Z0.028
G01X9.770Y4.750Z0.028
G01X9.770Y4.750Z0.028
G01X9.864Y4.854Z0.028
G01X9.864Y4.854Z0.028
G01X9.864Y4.854Z0.028
G01X9.933Y4.975Z0.028
G01X9.934Y4.975Z0.028
G01X9.933Y4.975Z0.028
G01X9.977Y5.108Z0.028
G01X9.977Y5.108Z0.028
G01X9.977Y5.108Z0.028
G01X9.991Y5.247Z0.028
G01X9.992Y5.247Z0.028
G01X9.991Y5.247Z0.028
G01X9.977Y5.386Z0.028
G01X9.977Y5.386Z0.028
G01X9.977Y5.386Z0.028
G01X9.933Y5.519Z0.028
G01X9.934Y5.519Z0.028
G01X9.933Y5.519Z0.028
G01X9.864Y5.640Z0.028
G01X9.864Y5.640Z0.028
G01X9.864Y5.640Z0.028
G01X9.770Y5.744Z0.028
G01X9.770Y5.744Z0.028
G01X9.770Y5.744Z0.028
G01X9.657Y5.826Z0.027
G01X9.657Y5.826Z0.027
G01X9.657Y5.826Z0.027
G01X9.529Y5.882Z0.027
G01X9.530Y5.883Z0.027
G01X9.529Y5.882Z0.027
G01X9.393Y5.911Z0.027
G01X9.393Y5.912Z0.027
G01X9.393Y5.911Z0.027
G01X9.253Y5.911Z0.026
G01X9.253Y5.912Z0.026
G01X9.253Y5.911Z0.026
G01X9.117Y5.882Z0.026
G01X9.116Y5.883Z0.026
G01X9.117Y5.882Z0.026
G01X8.989Y5.826Z0.025
G01X8.989Y5.826Z0.025
G01X8.989Y5.826Z0.025
G01X8.876Y5.744Z0.025
G01X8.876Y5.744Z0.025
G01X8.876Y5.744Z0.025
G01X8.782Y5.640Z0.025
G01X8.782Y5.640Z0.025
G01X8.782Y5.640Z0.025
G01X8.713Y5.519Z0.025
G01X8.712Y5.519Z0.025
G01X8.713Y5.519Z0.025
G01X8.669Y5.386Z0.025
G01X8.669Y5.386Z0.025
G01X8.669Y5.386Z0.025
G01X8.655Y5.247Z0.025
G01X8.726Y5.247Z0.025
G01X8.739Y5.123Z0.025
G01X8.739Y5.123Z0.025
G01X8.739Y5.123Z0.025
G01X8.778Y5.004Z0.025
G01X8.778Y5.004Z0.025
G01X8.778Y5.004Z0.025
G01X8.840Y4.896Z0.025
G01X8.840Y4.896Z0.025
G01X8.840Y4.896Z0.025
G01X8.924Y4.804Z0.026
G01X8.923Y4.803Z0.026
G01X8.924Y4.804Z0.026
G01X9.025Y4.730Z0.026
G01X9.024Y4.730Z0.026
G01X9.025Y4.730Z0.026
G01X9.139Y4.680Z0.026
G01X9.138Y4.679Z0.026
G01X9.139Y4.680Z0.026
G01X9.261Y4.654Z0.027
G01X9.261Y4.653Z0.027
G01X9.261Y4.654Z0.027
G01X9.385Y4.654Z0.027
G01X9.385Y4.653Z0.027
G01X9.385Y4.654Z0.027
G01X9.507Y4.680Z0.027
G01X9.507Y4.679Z0.027
G01X9.507Y4.680Z0.027
G01X9.621Y4.730Z0.027
G01X9.622Y4.730Z0.027
G01X9.621Y4.730Z0.027
G01X9.722Y4.804Z0.028
G01X9.722Y4.803Z0.028
G01X9.722Y4.804Z0.028
G01X9.806Y4.896Z0.028
G01X9.806Y4.896Z0.028
G01X9.806Y4.896Z0.028
G01X9.868Y5.004Z0.028
G01X9.868Y5.004Z0.028
G01X9.868Y5.004Z0.028
G01X9.907Y5.123Z0.028
G01X9.907Y5.123Z0.028
G01X9.907Y5.123Z0.028
G01X9.920Y5.247Z0.028
G01X9.920Y5.247Z0.028
G01X9.920Y5.247Z0.028
G01X9.907Y5.371Z0.028
G01X9.907Y5.371Z0.028
G01X9.907Y5.371Z0.028
G01X9.868Y5.490Z0.028
G01X9.868Y5.490Z0.028
G01X9.868Y5.490Z0.028
G01X9.806Y5.598Z0.028
G01X9.806Y5.598Z0.028
G01X9.806Y5.598Z0.028
G01X9.722Y5.690Z0.027
G01X9.722Y5.691Z0.027
G01X9.722Y5.690Z0.027
G01X9.621Y5.764Z0.027
G01X9.622Y5.764Z0.027
G01X9.621Y5.764Z0.027
G01X9.507Y5.814Z0.027
G01X9.507Y5.815Z0.027
G01X9.507Y5.814Z0.027
G01X9.385Y5.840Z0.026
G01X9.385Y5.841Z0.026
G01X9.385Y5.840Z0.026
G01X9.261Y5.840Z0.026
G01X9.261Y5.841Z0.026
G01X9.261Y5.840Z0.026
G01X9.139Y5.814Z0.026
G01X9.138Y5.815Z0.026
G01X9.139Y5.814Z0.026
G01X9.025Y5.764Z0.026
G01X9.024Y5.764Z0.026
G01X9.025Y5.764Z0.026
G01X8.924Y5.690Z0.025
G01X8.923Y5.691Z0.025
G01X8.924Y5.690Z0.025
G01X8.840Y5.598Z0.025
G01X8.840Y5.598Z0.025
G01X8.840Y5.598Z0.025
G01X8.778Y5.490Z0.025
G01X8.778Y5.490Z0.025
G01X8.778Y5.490Z0.025
G01X8.739Y5.371Z0.025
G01X8.739Y5.371Z0.025
G01X8.739Y5.371Z0.025
G01X8.726Y5.247Z0.025
G01X8.798Y5.247Z0.025
G01X8.809Y5.138Z0.025
G01X8.809Y5.138Z0.025
G01X8.809Y5.138Z0.025
G01X8.843Y5.033Z0.025
G01X8.843Y5.033Z0.025
G01X8.843Y5.033Z0.025
G01X8.898Y4.938Z0.025
G01X8.898Y4.938Z0.025
G01X8.898Y4.938Z0.025
G01X8.972Y4.857Z0.026
G01X8.971Y4.856Z0.026
G01X8.972Y4.857Z0.026
G01X9.060Y4.792Z0.026
G01X9.060Y4.792Z0.026
G01X9.060Y4.792Z0.026
G01X9.161Y4.748Z0.026
G01X9.161Y4.747Z0.026
G01X9.161Y4.748Z0.026
G01X9.268Y4.725Z0.027
G01X9.268Y4.724Z0.027
G01X9.268Y4.725Z0.027
G01X9.378Y4.725Z0.027
G01X9.378Y4.724Z0.027
G01X9.378Y4.725Z0.027
G01X9.485Y4.748Z0.027
G01X9.485Y4.747Z0.027
G01X9.485Y4.748Z0.027
G01X9.586Y4.792Z0.027
G01X9.586Y4.792Z0.027
G01X9.586Y4.792Z0.027
G01X9.674Y4.857Z0.028
G01X9.675Y4.856Z0.028
G01X9.674Y4.857Z0.028
G01X9.748Y4.938Z0.028
G01X9.748Y4.938Z0.028
G01X9.748Y4.938Z0.028
G01X9.803Y5.033Z0.028
G01X9.803Y5.033Z0.028
G01X9.803Y5.033Z0.028
G01X9.837Y5.138Z0.028
G01X9.837Y5.138Z0.028
G01X9.837Y5.138Z0.028
G01X9.848Y5.247Z0.028
G01X9.849Y5.247Z0.028
G01X9.848Y5.247Z0.028
G01X9.837Y5.356Z0.028
G01X9.837Y5.356Z0.028
G01X9.837Y5.356Z0.028
G01X9.803Y5.461Z0.028
G01X9.803Y5.461Z0.028
G01X9.803Y5.461Z0.028
G01X9.748Y5.556Z0.028
G01X9.748Y5.556Z0.028
G01X9.748Y5.556Z0.028
G01X9.674Y5.637Z0.027
G01X9.675Y5.638Z0.027
G01X9.674Y5.637Z0.027
G01X9.586Y5.702Z0.027
G01X9.586Y5.702Z0.027
G01X9.586Y5.702Z0.027
G01X9.485Y5.746Z0.027
G01X9.485Y5.747Z0.027
G01X9.485Y5.746Z0.027
G01X9.378Y5.769Z0.026
G01X9.378Y5.770Z0.026
G01X9.378Y5.769Z0.026
G01X9.268Y5.769Z0.026
G01X9.268Y5.770Z0.026
G01X9.268Y5.769Z0.026
G01X9.161Y5.746Z0.026
G01X9.161Y5.747Z0.026
G01X9.161Y5.746Z0.026
G01X9.060Y5.702Z0.026
G01X9.060Y5.702Z0.026
G01X9.060Y5.702Z0.026
G01X8.972Y5.637Z0.025
G01X8.971Y5.638Z0.025
G01X8.972Y5.637Z0.025
G01X8.898Y5.556Z0.025
G01X8.898Y5.556Z0.025
G01X8.898Y5.556Z0.025
G01X8.843Y5.461Z0.025
G01X8.843Y5.461Z0.025
G01X8.843Y5.461Z0.025
G01X8.809Y5.356Z0.025
G01X8.809Y5.356Z0.025
G01X8.809Y5.356Z0.025
G01X8.798Y5.247Z0.025
G01X8.869Y5.247Z0.025
G01X8.879Y5.153Z0.025
G01X8.909Y5.062Z0.025
G01X8.908Y5.062Z0.025
G01X8.909Y5.062Z0.025
G01X8.956Y4.980Z0.026
G01X8.955Y4.980Z0.026
G01X8.956Y4.980Z0.026
G01X9.019Y4.910Z0.026
G01X9.096Y4.854Z0.026
G01X9.095Y4.853Z0.026
G01X9.096Y4.854Z0.026
G01X9.183Y4.816Z0.026
G01X9.276Y4.796Z0.026
G01X9.275Y4.794Z0.026
G01X9.276Y4.796Z0.026
G01X9.370Y4.796Z0.027
G01X9.463Y4.816Z0.027
G01X9.464Y4.814Z0.027
G01X9.463Y4.816Z0.027
G01X9.550Y4.854Z0.027
G01X9.627Y4.910Z0.027
G01X9.628Y4.909Z0.027
G01X9.627Y4.910Z0.027
G01X9.690Y4.980Z0.028
G01X9.737Y5.062Z0.028
G01X9.739Y5.062Z0.028
G01X9.737Y5.062Z0.028
G01X9.767Y5.153Z0.028
G01X9.777Y5.247Z0.028
G01X9.778Y5.247Z0.028
G01X9.777Y5.247Z0.028
G01X9.767Y5.341Z0.028
G01X9.737Y5.432Z0.027
G01X9.738Y5.432Z0.027
G01X9.737Y5.432Z0.027
G01X9.690Y5.514Z0.027
G01X9.691Y5.514Z0.027
G01X9.690Y5.514Z0.027
G01X9.627Y5.584Z0.027
G01X9.550Y5.640Z0.027
G01X9.551Y5.641Z0.027
G01X9.550Y5.640Z0.027
G01X9.463Y5.678Z0.027
G01X9.370Y5.698Z0.026
G01X9.371Y5.700Z0.026
G01X9.370Y5.698Z0.026
G01X9.276Y5.698Z0.026
G01X9.183Y5.678Z0.026
G01X9.182Y5.680Z0.026
G01X9.183Y5.678Z0.026
G01X9.096Y5.640Z0.026
G01X9.019Y5.584Z0.026
G01X9.018Y5.585Z0.026
G01X9.019Y5.584Z0.026
G01X8.956Y5.514Z0.025
G01X8.909Y5.432Z0.025
G01X8.907Y5.432Z0.025
G01X8.909Y5.432Z0.025
G01X8.879Y5.341Z0.025
G01X8.869Y5.247Z0.025
G01X8.941Y5.247Z0.025
G01X8.949Y5.168Z0.025
G01X8.974Y5.092Z0.026
G01X8.972Y5.091Z0.026
G01X8.974Y5.092Z0.026
G01X9.014Y5.022Z0.026
G01X9.067Y4.963Z0.026
G01X9.066Y4.962Z0.026
G01X9.067Y4.963Z0.026
G01X9.132Y4.916Z0.026
G01X9.205Y4.884Z0.026
G01X9.204Y4.882Z0.026
G01X9.205Y4.884Z0.026
G01X9.283Y4.867Z0.026
G01X9.363Y4.867Z0.027
G01X9.363Y4.865Z0.027
G01X9.363Y4.867Z0.027
G01X9.441Y4.884Z0.027
G01X9.514Y4.916Z0.027
G01X9.515Y4.915Z0.027
G01X9.514Y4.916Z0.027
G01X9.579Y4.963Z0.027
G01X9.632Y5.022Z0.027
G01X9.633Y5.022Z0.027
G01X9.632Y5.022Z0.027
G01X9.672Y5.092Z0.027
G01X9.673Y5.091Z0.027
G01X9.672Y5.092Z0.027
G01X9.697Y5.168Z0.027
G01X9.705Y5.247Z0.027
G01X9.707Y5.247Z0.027
G01X9.705Y5.247Z0.027
G01X9.697Y5.326Z0.027
G01X9.672Y5.402Z0.027
G01X9.674Y5.403Z0.027
G01X9.672Y5.402Z0.027
G01X9.632Y5.472Z0.027
G01X9.579Y5.531Z0.027
G01X9.580Y5.532Z0.027
G01X9.579Y5.531Z0.027
G01X9.514Y5.578Z0.027
G01X9.441Y5.610Z0.027
G01X9.442Y5.612Z0.027
G01X9.441Y5.610Z0.027
G01X9.363Y5.627Z0.026
G01X9.283Y5.627Z0.026
G01X9.283Y5.629Z0.026
G01X9.283Y5.627Z0.026
G01X9.205Y5.610Z0.026
G01X9.132Y5.578Z0.026
G01X9.131Y5.579Z0.026
G01X9.132Y5.578Z0.026
G01X9.067Y5.531Z0.026
G01X9.014Y5.472Z0.026
G01X9.013Y5.472Z0.026
G01X9.014Y5.472Z0.026
G01X8.974Y5.402Z0.025
G01X8.973Y5.403Z0.025
G01X8.974Y5.402Z0.025
G01X8.949Y5.326Z0.025
G01X8.941Y5.247Z0.025
G01X9.012Y5.247Z0.026
G01X9.019Y5.182Z0.026
G01X9.018Y5.182Z0.026
G01X9.019Y5.182Z0.026
G01X9.039Y5.121Z0.026
G01X9.072Y5.064Z0.026
G01X9.070Y5.063Z0.026
G01X9.072Y5.064Z0.026
G01X9.115Y5.016Z0.026
G01X9.168Y4.978Z0.026
G01X9.167Y4.977Z0.026
G01X9.168Y4.978Z0.026
G01X9.227Y4.952Z0.026
G01X9.291Y4.938Z0.026
G01X9.290Y4.936Z0.026
G01X9.291Y4.938Z0.026
G01X9.355Y4.938Z0.027
G01X9.419Y4.952Z0.027
G01X9.419Y4.950Z0.027
G01X9.419Y4.952Z0.027
G01X9.478Y4.978Z0.027
G01X9.531Y5.016Z0.027
G01X9.531Y5.015Z0.027
G01X9.531Y5.016Z0.027
G01X9.574Y5.064Z0.027
G01X9.575Y5.064Z0.027
G01X9.574Y5.064Z0.027
G01X9.607Y5.121Z0.027
G01X9.627Y5.182Z0.027
G01X9.628Y5.182Z0.027
G01X9.627Y5.182Z0.027
G01X9.634Y5.247Z0.027
G01X9.627Y5.312Z0.027
G01X9.628Y5.312Z0.027
G01X9.627Y5.312Z0.027
G01X9.607Y5.373Z0.027
G01X9.574Y5.430Z0.027
G01X9.576Y5.431Z0.027
G01X9.574Y5.430Z0.027
G01X9.531Y5.478Z0.027
G01X9.478Y5.516Z0.027
G01X9.479Y5.517Z0.027
G01X9.478Y5.516Z0.027
G01X9.419Y5.542Z0.027
G01X9.355Y5.556Z0.026
G01X9.356Y5.558Z0.026
G01X9.355Y5.556Z0.026
G01X9.291Y5.556Z0.026
G01X9.227Y5.542Z0.026
G01X9.226Y5.544Z0.026
G01X9.227Y5.542Z0.026
G01X9.168Y5.516Z0.026
G01X9.115Y5.478Z0.026
G01X9.115Y5.479Z0.026
G01X9.115Y5.478Z0.026
G01X9.072Y5.430Z0.026
G01X9.071Y5.430Z0.026
G01X9.072Y5.430Z0.026
G01X9.039Y5.373Z0.026
G01X9.019Y5.312Z0.026
G01X9.018Y5.312Z0.026
G01X9.019Y5.312Z0.026
G01X9.012Y5.247Z0.026
G01X9.084Y5.247Z0.026
G01X9.089Y5.197Z0.026
G01X9.087Y5.197Z0.026
G01X9.089Y5.197Z0.026
G01X9.104Y5.150Z0.026
G01X9.129Y5.106Z0.026
G01X9.128Y5.105Z0.026
G01X9.129Y5.106Z0.026
G01X9.163Y5.069Z0.026
G01X9.203Y5.040Z0.026
G01X9.203Y5.039Z0.026
G01X9.203Y5.040Z0.026
G01X9.249Y5.020Z0.026
G01X9.249Y5.019Z0.026
G01X9.249Y5.020Z0.026
G01X9.298Y5.009Z0.026
G01X9.348Y5.009Z0.027
G01X9.348Y5.008Z0.027
G01X9.348Y5.009Z0.027
G01X9.397Y5.020Z0.027
G01X9.443Y5.040Z0.027
G01X9.443Y5.038Z0.027
G01X9.443Y5.040Z0.027
G01X9.483Y5.069Z0.027
G01X9.516Y5.106Z0.027
G01X9.518Y5.105Z0.027
G01X9.516Y5.106Z0.027
G01X9.541Y5.150Z0.027
G01X9.557Y5.197Z0.027
G01X9.558Y5.197Z0.027
G01X9.557Y5.197Z0.027
G01X9.562Y5.247Z0.027
G01X9.563Y5.247Z0.027
G01X9.562Y5.247Z0.027
G01X9.557Y5.297Z0.027
G01X9.541Y5.344Z0.027
G01X9.543Y5.345Z0.027
G01X9.541Y5.344Z0.027
G01X9.516Y5.388Z0.027
G01X9.483Y5.425Z0.027
G01X9.484Y5.426Z0.027
G01X9.483Y5.425Z0.027
G01X9.443Y5.454Z0.027
G01X9.397Y5.474Z0.027
G01X9.397Y5.476Z0.027
G01X9.397Y5.474Z0.027
G01X9.348Y5.485Z0.026
G01X9.298Y5.485Z0.026
G01X9.298Y5.486Z0.026
G01X9.298Y5.485Z0.026
G01X9.249Y5.474Z0.026
G01X9.203Y5.454Z0.026
G01X9.203Y5.455Z0.026
G01X9.203Y5.454Z0.026
G01X9.163Y5.425Z0.026
G01X9.129Y5.388Z0.026
G01X9.128Y5.388Z0.026
G01X9.129Y5.388Z0.026
G01X9.104Y5.344Z0.026
G01X9.089Y5.297Z0.026
G01X9.087Y5.297Z0.026
G01X9.089Y5.297Z0.026
G01X9.084Y5.247Z0.026
G01X9.155Y5.247Z0.026
G01X9.159Y5.212Z0.026
G01X9.170Y5.179Z0.026
G01X9.168Y5.178Z0.026
G01X9.170Y5.179Z0.026
G01X9.187Y5.148Z0.026
G01X9.211Y5.122Z0.026
G01X9.210Y5.121Z0.026
G01X9.211Y5.122Z0.026
G01X9.239Y5.102Z0.026
G01X9.271Y5.088Z0.026
G01X9.271Y5.086Z0.026
G01X9.271Y5.088Z0.026
G01X9.305Y5.080Z0.026
G01X9.341Y5.080Z0.026
G01X9.341Y5.079Z0.026
G01X9.341Y5.080Z0.026
G01X9.375Y5.088Z0.027
G01X9.407Y5.102Z0.027
G01X9.408Y5.100Z0.027
G01X9.407Y5.102Z0.027
G01X9.435Y5.122Z0.027
G01X9.459Y5.148Z0.027
G01X9.461Y5.147Z0.027
G01X9.459Y5.148Z0.027
G01X9.476Y5.179Z0.027
G01X9.487Y5.212Z0.027
G01X9.491Y5.247Z0.027
G01X9.493Y5.247Z0.027
G01X9.491Y5.247Z0.027
G01X9.487Y5.282Z0.027
G01X9.476Y5.315Z0.027
G01X9.478Y5.316Z0.027
G01X9.476Y5.315Z0.027
G01X9.459Y5.346Z0.027
G01X9.435Y5.372Z0.027
G01X9.436Y5.373Z0.027
G01X9.435Y5.372Z0.027
G01X9.407Y5.392Z0.027
G01X9.375Y5.406Z0.026
G01X9.375Y5.408Z0.026
G01X9.375Y5.406Z0.026
G01X9.341Y5.414Z0.026
G01X9.305Y5.414Z0.026
G01X9.305Y5.416Z0.026
G01X9.305Y5.414Z0.026
G01X9.271Y5.406Z0.026
G01X9.239Y5.392Z0.026
G01X9.211Y5.372Z0.026
G01X9.209Y5.374Z0.026
G01X9.211Y5.372Z0.026
G01X9.187Y5.346Z0.026
G01X9.170Y5.315Z0.026
G01X9.168Y5.316Z0.026
G01X9.170Y5.315Z0.026
G01X9.159Y5.282Z0.026
G01X9.155Y5.247Z0.026
G01X9.227Y5.247Z0.026
G01X9.229Y5.227Z0.026
G01X9.224Y5.226Z0.026
G01X9.229Y5.227Z0.026
G01X9.235Y5.208Z0.026
G01X9.245Y5.190Z0.026
G01X9.259Y5.176Z0.026
G01X9.275Y5.164Z0.026
G01X9.272Y5.158Z0.026
G01X9.275Y5.164Z0.026
G01X9.293Y5.156Z0.026
G01X9.313Y5.151Z0.026
G01X9.333Y5.151Z0.026
G01X9.353Y5.156Z0.026
G01X9.355Y5.149Z0.026
G01X9.353Y5.156Z0.026
G01X9.371Y5.164Z0.027
G01X9.387Y5.176Z0.027
G01X9.401Y5.190Z0.027
G01X9.411Y5.208Z0.027
G01X9.415Y5.206Z0.027
G01X9.411Y5.208Z0.027
G01X9.417Y5.227Z0.027
G01X9.419Y5.247Z0.027
G01X9.417Y5.267Z0.027
G01X9.422Y5.268Z0.027
G01X9.417Y5.267Z0.027
G01X9.411Y5.286Z0.027
G01X9.401Y5.304Z0.027
G01X9.387Y5.318Z0.027
G01X9.371Y5.330Z0.026
G01X9.374Y5.336Z0.026
G01X9.371Y5.330Z0.026
G01X9.353Y5.338Z0.026
G01X9.333Y5.343Z0.026
G01X9.313Y5.343Z0.026
G01X9.293Y5.338Z0.026
G01X9.291Y5.345Z0.026
G01X9.293Y5.338Z0.026
G01X9.275Y5.330Z0.026
G01X9.259Y5.318Z0.026
G01X9.245Y5.304Z0.026
G01X9.235Y5.286Z0.026
G01X9.231Y5.288Z0.026
G01X9.235Y5.286Z0.026
G01X9.229Y5.267Z0.026
G01X9.227Y5.247Z0.026
G01X9.270Y5.237Z0.026
G01X9.299Y5.242Z0.026
G01X9.300Y5.237Z0.026
G01X9.303Y5.233Z0.026
G01X9.307Y5.229Z0.026
G01X9.311Y5.226Z0.026
G01X9.315Y5.224Z0.026
G01X9.320Y5.222Z0.026
G01X9.326Y5.222Z0.026
G01X9.330Y5.193Z0.026
G01X9.326Y5.222Z0.026
G01X9.331Y5.224Z0.026
G01X9.335Y5.226Z0.026
G01X9.339Y5.229Z0.026
G01X9.343Y5.233Z0.026
G01X9.346Y5.237Z0.026
G01X9.347Y5.242Z0.026
G01X9.348Y5.247Z0.026
G01X9.347Y5.252Z0.026
G01X9.376Y5.257Z0.027
G01X9.347Y5.252Z0.026
G01X9.346Y5.257Z0.026
G01X9.343Y5.261Z0.026
G01X9.339Y5.265Z0.026
G01X9.335Y5.268Z0.026
G01X9.331Y5.270Z0.026
G01X9.326Y5.272Z0.026
G01X9.320Y5.272Z0.026
G01X9.316Y5.301Z0.026
G01X9.320Y5.272Z0.026
G01X9.315Y5.270Z0.026
G01X9.311Y5.268Z0.026
G01X9.307Y5.265Z0.026
G01X9.303Y5.261Z0.026
G01X9.300Y5.257Z0.026
G01X9.299Y5.252Z0.026
G01X9.298Y5.247Z0.026
G01X9.299Y5.242Z0.026
G04 P0 ( dwell for no time -- G64 should not smooth over this point )
G00X9.299Y5.242Z5.031
G00X11.351Y4.492Z5.038
X11.878Y4.299Z5.040
G01F40.00000X11.878Y4.299Z5.040
( Mill infeed pass 1/1 )
G01X11.878Y4.299Z0.035
G04 P0 ( dwell for no time -- G64 should not smooth over this point )
G01F100.00000X11.878Y4.299Z0.035
G01X11.878Y4.299Z0.035
G01X11.878Y5.179Z0.034
G01X11.877Y5.179Z0.034
G01X11.878Y5.179Z0.034
G01X11.880Y5.198Z0.034
G01X11.883Y5.207Z0.034
G01X11.887Y5.215Z0.034
G01X11.893Y5.222Z0.034
G01X11.887Y5.228Z0.034
G01X11.893Y5.222Z0.034
G01X11.900Y5.228Z0.034
G01X11.908Y5.232Z0.034
G01X11.917Y5.235Z0.034
G01X11.936Y5.237Z0.035
G01X11.936Y5.238Z0.035
G01X11.936Y5.237Z0.035
G01X12.616Y5.237Z0.036
G01X12.616Y5.238Z0.036
G01X12.616Y5.237Z0.036
G01X12.635Y5.235Z0.036
G01X12.644Y5.232Z0.037
G01X12.652Y5.228Z0.037
G01X12.659Y5.222Z0.037
G01X12.665Y5.228Z0.037
G01X12.659Y5.222Z0.037
G01X12.665Y5.215Z0.037
G01X12.669Y5.207Z0.037
G01X12.672Y5.198Z0.037
G01X12.674Y5.179Z0.037
G01X12.675Y5.179Z0.037
G01X12.674Y5.179Z0.037
G01X12.674Y4.299Z0.037
G01X12.675Y4.299Z0.037
G01X12.674Y4.299Z0.037
G01X12.672Y4.280Z0.037
G01X12.669Y4.271Z0.037
G01X12.665Y4.263Z0.037
G01X12.659Y4.256Z0.037
G01X12.665Y4.250Z0.037
G01X12.659Y4.256Z0.037
G01X12.652Y4.250Z0.037
G01X12.644Y4.246Z0.037
G01X12.635Y4.243Z0.037
G01X12.616Y4.241Z0.037
G01X12.616Y4.240Z0.037
G01X12.616Y4.241Z0.037
G01X11.936Y4.241Z0.035
G01X11.936Y4.240Z0.035
G01X11.936Y4.241Z0.035
G01X11.917Y4.243Z0.035
G01X11.908Y4.246Z0.035
G01X11.900Y4.250Z0.035
G01X11.893Y4.256Z0.035
G01X11.887Y4.250Z0.035
G01X11.893Y4.256Z0.035
G01X11.887Y4.263Z0.035
G01X11.883Y4.271Z0.035
G01X11.880Y4.280Z0.035
G01X11.878Y4.299Z0.035
G01X11.877Y4.299Z0.035
G01X11.807Y4.295Z0.035
G01X11.736Y4.292Z0.035
G01X11.736Y5.186Z0.034
G01X11.740Y5.226Z0.034
G01X11.751Y5.262Z0.034
G01X11.768Y5.294Z0.034
G01X11.792Y5.323Z0.034
G01X11.821Y5.347Z0.034
G01X11.853Y5.364Z0.034
G01X11.889Y5.375Z0.034
G01X11.929Y5.379Z0.034
G01X12.623Y5.379Z0.036
G01X12.663Y5.375Z0.036
G01X12.699Y5.364Z0.037
G01X12.731Y5.347Z0.037
G01X12.760Y5.323Z0.037
G01X12.784Y5.294Z0.037
G01X12.801Y5.262Z0.037
G01X12.812Y5.226Z0.037
G01X12.816Y5.186Z0.037
G01X12.816Y4.292Z0.038
G01X12.812Y4.252Z0.038
G01X12.801Y4.216Z0.038
G01X12.784Y4.184Z0.038
G01X12.760Y4.155Z0.038
G01X12.731Y4.131Z0.037
G01X12.699Y4.114Z0.037
G01X12.663Y4.103Z0.037
G01X12.623Y4.099Z0.037
G01X11.929Y4.099Z0.035
G01X11.889Y4.103Z0.035
G01X11.853Y4.114Z0.035
G01X11.821Y4.131Z0.035
G01X11.792Y4.155Z0.035
G01X11.768Y4.184Z0.035
G01X11.751Y4.216Z0.035
G01X11.740Y4.252Z0.035
G01X11.736Y4.292Z0.035
G01X11.806Y4.295Z0.035
G01X11.807Y4.295Z0.035
G01X11.810Y4.266Z0.035
G01X11.817Y4.244Z0.035
G01X11.828Y4.223Z0.035
G01X11.842Y4.205Z0.035
G01X11.838Y4.201Z0.035
G01X11.842Y4.205Z0.035
G01X11.860Y4.191Z0.035
G01X11.881Y4.180Z0.035
G01X11.903Y4.173Z0.035
G01X11.932Y4.170Z0.035
G01X11.932Y4.169Z0.035
G01X11.932Y4.170Z0.035
G01X12.620Y4.170Z0.037
G01X12.620Y4.169Z0.037
G01X12.620Y4.170Z0.037
G01X12.649Y4.173Z0.037
G01X12.671Y4.180Z0.037
G01X12.692Y4.191Z0.037
G01X12.710Y4.205Z0.037
G01X12.714Y4.201Z0.037
G01X12.710Y4.205Z0.037
G01X12.724Y4.223Z0.037
G01X12.735Y4.244Z0.037
G01X12.742Y4.266Z0.037
G01X12.745Y4.295Z0.037
G01X12.746Y4.295Z0.037
G01X12.745Y4.295Z0.037
G01X12.745Y5.183Z0.037
G01X12.746Y5.183Z0.037
G01X12.745Y5.183Z0.037
G01X12.742Y5.212Z0.037
G01X12.735Y5.234Z0.037
G01X12.724Y5.255Z0.037
G01X12.710Y5.273Z0.037
G01X12.714Y5.277Z0.037
G01X12.710Y5.273Z0.037
G01X12.692Y5.287Z0.037
G01X12.671Y5.298Z0.037
G01X12.649Y5.305Z0.036
G01X12.620Y5.308Z0.036
G01X12.620Y5.309Z0.036
G01X12.620Y5.308Z0.036
G01X11.932Y5.308Z0.034
G01X11.903Y5.305Z0.034
G01X11.902Y5.308Z0.034
G01X11.903Y5.305Z0.034
G01X11.881Y5.298Z0.034
G01X11.860Y5.287Z0.034
G01X11.842Y5.273Z0.034
G01X11.828Y5.255Z0.034
G01X11.824Y5.257Z0.034
G01X11.828Y5.255Z0.034
G01X11.817Y5.234Z0.034
G01X11.810Y5.212Z0.034
G01X11.807Y5.183Z0.034
G01X11.806Y5.183Z0.034
G01X11.807Y5.183Z0.034
G01X11.807Y4.295Z0.035
G01X11.806Y4.295Z0.035
G01X11.877Y4.299Z0.035
G01X11.928Y4.291Z0.035
G01X11.949Y4.312Z0.035
G01X11.949Y5.166Z0.035
G01X11.928Y5.186Z0.035
G01X11.949Y5.166Z0.035
G01X12.603Y5.166Z0.036
G01X12.623Y5.186Z0.036
G01X12.603Y5.166Z0.036
G01X12.603Y4.312Z0.037
G01X12.623Y4.291Z0.037
G01X12.603Y4.312Z0.037
G01X11.949Y4.312Z0.035
G01X12.020Y4.383Z0.035
G01X12.020Y5.095Z0.035
G01X12.000Y5.115Z0.035
G01X12.020Y5.095Z0.035
G01X12.532Y5.095Z0.036
G01X12.552Y5.115Z0.036
G01X12.532Y5.095Z0.036
G01X12.532Y4.383Z0.037
G01X12.552Y4.363Z0.037
G01X12.532Y4.383Z0.037
G01X12.020Y4.383Z0.035
G01X12.092Y4.455Z0.036
G01X12.092Y5.023Z0.035
G01X12.071Y5.044Z0.035
G01X12.092Y5.023Z0.035
G01X12.460Y5.023Z0.036
G01X12.481Y5.044Z0.036
G01X12.460Y5.023Z0.036
G01X12.460Y4.455Z0.037
G01X12.481Y4.434Z0.037
G01X12.460Y4.455Z0.037
G01X12.092Y4.455Z0.036
G01X12.163Y4.526Z0.036
G01X12.163Y4.952Z0.035
G01X12.142Y4.973Z0.035
G01X12.163Y4.952Z0.035
G01X12.389Y4.952Z0.036
G01X12.410Y4.973Z0.036
G01X12.389Y4.952Z0.036
G01X12.389Y4.526Z0.036
G01X12.410Y4.505Z0.036
G01X12.389Y4.526Z0.036
G01X12.163Y4.526Z0.036
G01X12.234Y4.597Z0.036
G01X12.234Y4.881Z0.036
G01X12.213Y4.902Z0.036
G01X12.234Y4.881Z0.036
G01X12.318Y4.881Z0.036
G01X12.339Y4.902Z0.036
G01X12.318Y4.881Z0.036
G01X12.318Y4.597Z0.036
G01X12.339Y4.576Z0.036
G01X12.318Y4.597Z0.036
G01X12.234Y4.597Z0.036
G04 P0 ( dwell for no time -- G64 should not smooth over this point )
G00X12.234Y4.597Z5.041
G00X13.878Y4.299Z5.045
G01F40.00000X13.878Y4.299Z5.045
( Mill infeed pass 1/1 )
G01X13.878Y4.299Z0.040
G04 P0 ( dwell for no time -- G64 should not smooth over this point )
G01F100.00000X13.878Y4.299Z0.040
G01X13.878Y4.299Z0.040
G01X13.878Y5.179Z0.039
G01X13.877Y5.179Z0.039
G01X13.878Y5.179Z0.039
G01X13.880Y5.198Z0.039
G01X13.883Y5.207Z0.039
G01X13.887Y5.215Z0.039
G01X13.893Y5.222Z0.039
G01X13.887Y5.228Z0.039
G01X13.893Y5.222Z0.039
G01X13.900Y5.228Z0.039
G01X13.908Y5.232Z0.039
G01X13.917Y5.235Z0.039
G01X13.936Y5.237Z0.039
G01X13.936Y5.238Z0.039
G01X13.936Y5.237Z0.039
G01X14.616Y5.237Z0.040
G01X14.616Y5.238Z0.040
G01X14.616Y5.237Z0.040
G01X14.635Y5.235Z0.040
G01X14.644Y5.232Z0.040
G01X14.652Y5.228Z0.040
G01X14.659Y5.222Z0.040
G01X14.665Y5.228Z0.040
G01X14.659Y5.222Z0.040
G01X14.665Y5.215Z0.040
G01X14.669Y5.207Z0.040
G01X14.672Y5.198Z0.040
G01X14.674Y5.179Z0.040
G01X14.675Y5.179Z0.040
G01X14.674Y5.179Z0.040
G01X14.674Y4.299Z0.040
G01X14.675Y4.299Z0.040
G01X14.674Y4.299Z0.040
G01X14.672Y4.280Z0.040
G01X14.669Y4.271Z0.040
G01X14.665Y4.263Z0.040
G01X14.659Y4.256Z0.040
G01X14.665Y4.250Z0.040
G01X14.659Y4.256Z0.040
G01X14.652Y4.250Z0.040
G01X14.644Y4.246Z0.040
G01X14.635Y4.243Z0.040
G01X14.616Y4.241Z0.040
G01X14.616Y4.240Z0.040
G01X14.616Y4.241Z0.040
G01X13.936Y4.241Z0.040
G01X13.936Y4.240Z0.040
G01X13.936Y4.241Z0.040
G01X13.917Y4.243Z0.040
G01X13.908Y4.246Z0.040
G01X13.900Y4.250Z0.040
G01X13.893Y4.256Z0.040
G01X13.887Y4.250Z0.040
G01X13.893Y4.256Z0.040
G01X13.887Y4.263Z0.040
G01X13.883Y4.271Z0.040
G01X13.880Y4.280Z0.040
G01X13.878Y4.299Z0.040
G01X13.877Y4.299Z0.040
G01X13.807Y4.295Z0.039
G01X13.736Y4.292Z0.039
G01X13.736Y5.186Z0.039
G01X13.740Y5.226Z0.039
G01X13.751Y5.262Z0.039
G01X13.768Y5.294Z0.039
G01X13.792Y5.323Z0.039
G01X13.821Y5.347Z0.039
G01X13.853Y5.364Z0.039
G01X13.889Y5.375Z0.039
G01X13.929Y5.379Z0.039
G01X14.623Y5.379Z0.040
G01X14.663Y5.375Z0.040
G01X14.699Y5.364Z0.040
G01X14.731Y5.347Z0.040
G01X14.760Y5.323Z0.040
G01X14.784Y5.294Z0.040
G01X14.801Y5.262Z0.040
G01X14.812Y5.226Z0.040
G01X14.816Y5.186Z0.040
G01X14.816Y4.292Z0.040
G01X14.812Y4.252Z0.040
G01X14.801Y4.216Z0.040
G01X14.784Y4.184Z0.040
G01X14.760Y4.155Z0.040
G01X14.731Y4.131Z0.040
G01X14.699Y4.114Z0.040
G01X14.663Y4.103Z0.040
G01X14.623Y4.099Z0.040
G01X13.929Y4.099Z0.040
G01X13.889Y4.103Z0.040
G01X13.853Y4.114Z0.040
G01X13.821Y4.131Z0.039
G01X13.792Y4.155Z0.039
G01X13.768Y4.184Z0.039
G01X13.751Y4.216Z0.039
G01X13.740Y4.252Z0.039
G01X13.736Y4.292Z0.039
G01X13.806Y4.295Z0.039
G01X13.807Y4.295Z0.039
G01X13.810Y4.266Z0.039
G01X13.817Y4.244Z0.039
G01X13.828Y4.223Z0.039
G01X13.842Y4.205Z0.039
G01X13.838Y4.201Z0.039
G01X13.842Y4.205Z0.039
G01X13.860Y4.191Z0.040
G01X13.881Y4.180Z0.040
G01X13.903Y4.173Z0.040
G01X13.932Y4.170Z0.040
G01X13.932Y4.169Z0.040
G01X13.932Y4.170Z0.040
G01X14.620Y4.170Z0.040
G01X14.620Y4.169Z0.040
G01X14.620Y4.170Z0.040
G01X14.649Y4.173Z0.040
G01X14.671Y4.180Z0.040
G01X14.692Y4.191Z0.040
G01X14.710Y4.205Z0.040
G01X14.714Y4.201Z0.040
G01X14.710Y4.205Z0.040
G01X14.724Y4.223Z0.040
G01X14.735Y4.244Z0.040
G01X14.742Y4.266Z0.040
G01X14.745Y4.295Z0.040
G01X14.746Y4.295Z0.040
G01X14.745Y4.295Z0.040
G01X14.745Y5.183Z0.040
G01X14.746Y5.183Z0.040
G01X14.745Y5.183Z0.040
G01X14.742Y5.212Z0.040
G01X14.735Y5.234Z0.040
G01X14.724Y5.255Z0.040
G01X14.710Y5.273Z0.040
G01X14.714Y5.277Z0.040
G01X14.710Y5.273Z0.040
G01X14.692Y5.287Z0.040
G01X14.671Y5.298Z0.040
G01X14.649Y5.305Z0.040
G01X14.620Y5.308Z0.040
G01X14.620Y5.309Z0.040
G01X14.620Y5.308Z0.040
G01X13.932Y5.308Z0.039
G01X13.903Y5.305Z0.039
G01X13.902Y5.308Z0.039
G01X13.903Y5.305Z0.039
G01X13.881Y5.298Z0.039
G01X13.860Y5.287Z0.039
G01X13.842Y5.273Z0.039
G01X13.828Y5.255Z0.039
G01X13.824Y5.257Z0.039
G01X13.828Y5.255Z0.039
G01X13.817Y5.234Z0.039
G01X13.810Y5.212Z0.039
G01X13.807Y5.183Z0.039
G01X13.806Y5.183Z0.039
G01X13.807Y5.183Z0.039
G01X13.807Y4.295Z0.039
G01X13.806Y4.295Z0.039
G01X13.877Y4.299Z0.040
G01X13.928Y4.291Z0.040
G01X13.949Y4.312Z0.040
G01X13.949Y5.166Z0.039
G01X13.928Y5.186Z0.039
G01X13.949Y5.166Z0.039
G01X14.603Y5.166Z0.040
G01X14.623Y5.186Z0.040
G01X14.603Y5.166Z0.040
G01X14.603Y4.312Z0.040
G01X14.623Y4.291Z0.040
G01X14.603Y4.312Z0.040
G01X13.949Y4.312Z0.040
G01X14.020Y4.383Z0.040
G01X14.020Y5.095Z0.039
G01X14.000Y5.115Z0.039
G01X14.020Y5.095Z0.039
G01X14.532Y5.095Z0.040
G01X14.552Y5.115Z0.040
G01X14.532Y5.095Z0.040
G01X14.532Y4.383Z0.040
G01X14.552Y4.363Z0.040
G01X14.532Y4.383Z0.040
G01X14.020Y4.383Z0.040
G01X14.092Y4.455Z0.040
G01X14.092Y5.023Z0.039
G01X14.071Y5.044Z0.039
G01X14.092Y5.023Z0.039
G01X14.460Y5.023Z0.040
G01X14.481Y5.044Z0.040
G01X14.460Y5.023Z0.040
G01X14.460Y4.455Z0.040
G01X14.481Y4.434Z0.040
G01X14.460Y4.455Z0.040
G01X14.092Y4.455Z0.040
G01X14.163Y4.526Z0.040
G01X14.163Y4.952Z0.039
G01X14.142Y4.973Z0.039
G01X14.163Y4.952Z0.039
G01X14.389Y4.952Z0.040
G01X14.410Y4.973Z0.040
G01X14.389Y4.952Z0.040
G01X14.389Y4.526Z0.040
G01X14.410Y4.505Z0.040
G01X14.389Y4.526Z0.040
G01X14.163Y4.526Z0.040
G01X14.234Y4.597Z0.040
G01X14.234Y4.881Z0.040
G01X14.213Y4.902Z0.040
G01X14.234Y4.881Z0.040
G01X14.318Y4.881Z0.040
G01X14.339Y4.902Z0.040
G01X14.318Y4.881Z0.040
G01X14.318Y4.597Z0.040
G01X14.339Y4.576Z0.040
G01X14.318Y4.597Z0.040
G01X14.234Y4.597Z0.040
G04 P0 ( dwell for no time -- G64 should not smooth over this point )
G00X14.234Y4.597Z5.045
G00X12.239Y6.255Z5.040
X11.727Y6.680Z5.038
G01F40.00000X11.727Y6.680Z5.038
( Mill infeed pass 1/1 )
G01X11.727Y6.680Z0.033
G04 P0 ( dwell for no time -- G64 should not smooth over this point )
G01F100.00000X11.727Y6.680Z0.033
G01X11.727Y6.680Z0.033
G01X11.727Y7.624Z0.032
G01X11.731Y7.664Z0.032
G01X11.742Y7.700Z0.032
G01X11.759Y7.732Z0.032
G01X11.783Y7.761Z0.032
G01X11.812Y7.785Z0.032
G01X11.844Y7.802Z0.032
G01X11.880Y7.813Z0.033
G01X11.920Y7.817Z0.033
G01X12.589Y7.817Z0.034
G01X12.629Y7.813Z0.034
G01X12.665Y7.802Z0.034
G01X12.697Y7.785Z0.034
G01X12.726Y7.761Z0.034
G01X12.750Y7.732Z0.035
G01X12.767Y7.700Z0.035
G01X12.778Y7.664Z0.035
G01X12.782Y7.624Z0.035
G01X12.782Y6.680Z0.036
G01X12.778Y6.640Z0.036
G01X12.767Y6.604Z0.036
G01X12.750Y6.572Z0.036
G01X12.726Y6.543Z0.036
G01X12.697Y6.519Z0.036
G01X12.665Y6.502Z0.036
G01X12.629Y6.491Z0.035
G01X12.589Y6.487Z0.035
G01X11.920Y6.487Z0.034
G01X11.880Y6.491Z0.034
G01X11.844Y6.502Z0.033
G01X11.812Y6.519Z0.033
G01X11.783Y6.543Z0.033
G01X11.759Y6.572Z0.033
G01X11.742Y6.604Z0.033
G01X11.731Y6.640Z0.033
G01X11.727Y6.680Z0.033
G01X11.797Y6.683Z0.033
G01X11.798Y6.683Z0.033
G01X11.801Y6.654Z0.033
G01X11.808Y6.632Z0.033
G01X11.819Y6.611Z0.033
G01X11.816Y6.609Z0.033
G01X11.819Y6.611Z0.033
G01X11.833Y6.593Z0.033
G01X11.851Y6.579Z0.033
G01X11.872Y6.568Z0.034
G01X11.871Y6.566Z0.034
G01X11.872Y6.568Z0.034
G01X11.894Y6.561Z0.034
G01X11.923Y6.558Z0.034
G01X11.923Y6.558Z0.034
G01X11.923Y6.558Z0.034
G01X12.586Y6.558Z0.035
G01X12.586Y6.557Z0.035
G01X12.586Y6.558Z0.035
G01X12.615Y6.561Z0.035
G01X12.637Y6.568Z0.035
G01X12.658Y6.579Z0.035
G01X12.660Y6.576Z0.035
G01X12.658Y6.579Z0.035
G01X12.676Y6.593Z0.035
G01X12.690Y6.611Z0.035
G01X12.701Y6.632Z0.036
G01X12.703Y6.631Z0.036
G01X12.701Y6.632Z0.036
G01X12.708Y6.654Z0.035
G01X12.711Y6.683Z0.035
G01X12.711Y6.683Z0.035
G01X12.711Y6.683Z0.035
G01X12.711Y7.621Z0.035
G01X12.712Y7.621Z0.035
G01X12.711Y7.621Z0.035
G01X12.708Y7.650Z0.035
G01X12.701Y7.672Z0.035
G01X12.690Y7.693Z0.034
G01X12.693Y7.695Z0.034
G01X12.690Y7.693Z0.034
G01X12.676Y7.711Z0.034
G01X12.658Y7.725Z0.034
G01X12.637Y7.736Z0.034
G01X12.638Y7.738Z0.034
G01X12.637Y7.736Z0.034
G01X12.615Y7.743Z0.034
G01X12.586Y7.746Z0.034
G01X12.586Y7.746Z0.034
G01X12.586Y7.746Z0.034
G01X11.923Y7.746Z0.033
G01X11.923Y7.747Z0.033
G01X11.923Y7.746Z0.033
G01X11.894Y7.743Z0.033
G01X11.872Y7.736Z0.033
G01X11.851Y7.725Z0.033
G01X11.833Y7.711Z0.033
G01X11.829Y7.715Z0.033
G01X11.833Y7.711Z0.033
G01X11.819Y7.693Z0.033
G01X11.808Y7.672Z0.033
G01X11.801Y7.650Z0.033
G01X11.798Y7.621Z0.033
G01X11.797Y7.621Z0.033
G01X11.798Y7.621Z0.033
G01X11.798Y6.683Z0.033
G01X11.797Y6.683Z0.033
G01X11.869Y6.687Z0.033
G01X11.869Y7.617Z0.033
G01X11.868Y7.617Z0.033
G01X11.869Y7.617Z0.033
G01X11.871Y7.636Z0.033
G01X11.874Y7.645Z0.033
G01X11.878Y7.653Z0.033
G01X11.884Y7.660Z0.033
G01X11.878Y7.666Z0.033
G01X11.884Y7.660Z0.033
G01X11.891Y7.666Z0.033
G01X11.899Y7.670Z0.033
G01X11.908Y7.673Z0.033
G01X11.927Y7.675Z0.033
G01X11.927Y7.676Z0.033
G01X11.927Y7.675Z0.033
G01X12.582Y7.675Z0.034
G01X12.582Y7.676Z0.034
G01X12.582Y7.675Z0.034
G01X12.601Y7.673Z0.034
G01X12.610Y7.670Z0.034
G01X12.618Y7.666Z0.034
G01X12.625Y7.660Z0.034
G01X12.631Y7.653Z0.034
G01X12.642Y7.660Z0.034
G01X12.631Y7.653Z0.034
G01X12.635Y7.645Z0.034
G01X12.638Y7.636Z0.034
G01X12.640Y7.617Z0.034
G01X12.640Y6.687Z0.035
G01X12.641Y6.687Z0.035
G01X12.640Y6.687Z0.035
G01X12.638Y6.668Z0.035
G01X12.635Y6.659Z0.035
G01X12.631Y6.651Z0.035
G01X12.625Y6.644Z0.035
G01X12.618Y6.638Z0.035
G01X12.625Y6.627Z0.035
G01X12.618Y6.638Z0.035
G01X12.610Y6.634Z0.035
G01X12.601Y6.631Z0.035
G01X12.582Y6.629Z0.035
G01X11.927Y6.629Z0.034
G01X11.927Y6.628Z0.034
G01X11.927Y6.629Z0.034
G01X11.908Y6.631Z0.034
G01X11.899Y6.634Z0.034
G01X11.891Y6.638Z0.034
G01X11.884Y6.644Z0.033
G01X11.878Y6.651Z0.033
G01X11.867Y6.644Z0.033
G01X11.878Y6.651Z0.033
G01X11.874Y6.659Z0.033
G01X11.871Y6.668Z0.033
G01X11.869Y6.687Z0.033
G01X11.920Y6.680Z0.034
G01X11.940Y6.700Z0.034
G01X11.940Y7.604Z0.033
G01X11.920Y7.624Z0.033
G01X11.940Y7.604Z0.033
G01X12.569Y7.604Z0.034
G01X12.589Y7.624Z0.034
G01X12.569Y7.604Z0.034
G01X12.569Y6.700Z0.035
G01X12.589Y6.680Z0.035
G01X12.569Y6.700Z0.035
G01X11.940Y6.700Z0.034
G01X12.011Y6.771Z0.034
G01X12.011Y7.533Z0.033
G01X11.991Y7.553Z0.033
G01X12.011Y7.533Z0.033
G01X12.498Y7.533Z0.034
G01X12.518Y7.553Z0.034
G01X12.498Y7.533Z0.034
G01X12.498Y6.771Z0.035
G01X12.518Y6.751Z0.035
G01X12.498Y6.771Z0.035
G01X12.011Y6.771Z0.034
G01X12.083Y6.843Z0.034
G01X12.083Y7.461Z0.033
G01X12.062Y7.482Z0.033
G01X12.083Y7.461Z0.033
G01X12.426Y7.461Z0.034
G01X12.447Y7.482Z0.034
G01X12.426Y7.461Z0.034
G01X12.426Y6.843Z0.035
G01X12.447Y6.822Z0.035
G01X12.426Y6.843Z0.035
G01X12.083Y6.843Z0.034
G01X12.154Y6.914Z0.034
G01X12.154Y7.390Z0.034
G01X12.133Y7.411Z0.034
G01X12.154Y7.390Z0.034
G01X12.355Y7.390Z0.034
G01X12.376Y7.411Z0.034
G01X12.355Y7.390Z0.034
G01X12.355Y6.914Z0.034
G01X12.376Y6.893Z0.035
G01X12.355Y6.914Z0.034
G01X12.154Y6.914Z0.034
G01X12.225Y6.985Z0.034
G01X12.225Y7.319Z0.034
G01X12.204Y7.340Z0.034
G01X12.225Y7.319Z0.034
G01X12.284Y7.319Z0.034
G01X12.305Y7.340Z0.034
G01X12.284Y7.319Z0.034
G01X12.284Y6.985Z0.034
G01X12.305Y6.964Z0.034
G01X12.284Y6.985Z0.034
G01X12.225Y6.985Z0.034
G04 P0 ( dwell for no time -- G64 should not smooth over this point )
G00X12.225Y6.985Z5.039
G00X13.944Y6.687Z5.043
G01F40.00000X13.944Y6.687Z5.043
( Mill infeed pass 1/1 )
G01X13.944Y6.687Z0.038
G04 P0 ( dwell for no time -- G64 should not smooth over this point )
G01F100.00000X13.944Y6.687Z0.038
G01X13.944Y6.687Z0.038
G01X13.944Y7.617Z0.037
G01X13.946Y7.636Z0.037
G01X13.949Y7.645Z0.037
G01X13.953Y7.653Z0.037
G01X13.942Y7.660Z0.037
G01X13.953Y7.653Z0.037
G01X13.959Y7.660Z0.037
G01X13.966Y7.666Z0.037
G01X13.974Y7.670Z0.037
G01X13.983Y7.673Z0.037
G01X14.002Y7.675Z0.037
G01X14.002Y7.676Z0.037
G01X14.002Y7.675Z0.037
G01X14.657Y7.675Z0.038
G01X14.676Y7.673Z0.038
G01X14.685Y7.670Z0.038
G01X14.693Y7.666Z0.038
G01X14.700Y7.677Z0.038
G01X14.693Y7.666Z0.038
G01X14.700Y7.660Z0.038
G01X14.706Y7.653Z0.038
G01X14.710Y7.645Z0.038
G01X14.713Y7.636Z0.038
G01X14.715Y7.617Z0.038
G01X14.716Y7.617Z0.038
G01X14.715Y7.617Z0.038
G01X14.715Y6.687Z0.039
G01X14.713Y6.668Z0.039
G01X14.710Y6.659Z0.039
G01X14.706Y6.651Z0.039
G01X14.717Y6.644Z0.039
G01X14.706Y6.651Z0.039
G01X14.700Y6.644Z0.039
G01X14.693Y6.638Z0.039
G01X14.685Y6.634Z0.039
G01X14.676Y6.631Z0.039
G01X14.657Y6.629Z0.039
G01X14.657Y6.628Z0.039
G01X14.657Y6.629Z0.039
G01X14.002Y6.629Z0.038
G01X14.002Y6.628Z0.038
G01X14.002Y6.629Z0.038
G01X13.983Y6.631Z0.038
G01X13.974Y6.634Z0.038
G01X13.966Y6.638Z0.038
G01X13.959Y6.644Z0.038
G01X13.953Y6.638Z0.038
G01X13.959Y6.644Z0.038
G01X13.953Y6.651Z0.038
G01X13.949Y6.659Z0.038
G01X13.946Y6.668Z0.038
G01X13.944Y6.687Z0.038
G01X13.943Y6.687Z0.038
G01X13.802Y6.680Z0.038
G01X13.802Y7.624Z0.037
G01X13.806Y7.664Z0.037
G01X13.817Y7.700Z0.037
G01X13.834Y7.732Z0.037
G01X13.858Y7.761Z0.037
G01X13.887Y7.785Z0.037
G01X13.919Y7.802Z0.037
G01X13.955Y7.813Z0.037
G01X13.995Y7.817Z0.037
G01X14.664Y7.817Z0.038
G01X14.704Y7.813Z0.038
G01X14.740Y7.802Z0.038
G01X14.772Y7.785Z0.038
G01X14.801Y7.761Z0.038
G01X14.825Y7.732Z0.038
G01X14.842Y7.700Z0.038
G01X14.853Y7.664Z0.038
G01X14.857Y7.624Z0.038
G01X14.857Y6.680Z0.039
G01X14.853Y6.640Z0.039
G01X14.842Y6.604Z0.039
G01X14.825Y6.572Z0.039
G01X14.801Y6.543Z0.039
G01X14.772Y6.519Z0.039
G01X14.740Y6.502Z0.039
G01X14.704Y6.491Z0.039
G01X14.664Y6.487Z0.039
G01X13.995Y6.487Z0.038
G01X13.955Y6.491Z0.038
G01X13.919Y6.502Z0.038
G01X13.887Y6.519Z0.038
G01X13.858Y6.543Z0.038
G01X13.834Y6.572Z0.038
G01X13.817Y6.604Z0.038
G01X13.806Y6.640Z0.038
G01X13.802Y6.680Z0.038
G01X13.872Y6.683Z0.038
G01X13.873Y6.683Z0.038
G01X13.876Y6.654Z0.038
G01X13.883Y6.632Z0.038
G01X13.894Y6.611Z0.038
G01X13.890Y6.609Z0.038
G01X13.894Y6.611Z0.038
G01X13.908Y6.593Z0.038
G01X13.926Y6.579Z0.038
G01X13.947Y6.568Z0.038
G01X13.969Y6.561Z0.038
G01X13.968Y6.558Z0.038
G01X13.969Y6.561Z0.038
G01X13.998Y6.558Z0.038
G01X14.661Y6.558Z0.039
G01X14.661Y6.557Z0.039
G01X14.661Y6.558Z0.039
G01X14.690Y6.561Z0.039
G01X14.712Y6.568Z0.039
G01X14.733Y6.579Z0.039
G01X14.751Y6.593Z0.039
G01X14.755Y6.589Z0.039
G01X14.751Y6.593Z0.039
G01X14.765Y6.611Z0.039
G01X14.776Y6.632Z0.039
G01X14.783Y6.654Z0.039
G01X14.786Y6.683Z0.039
G01X14.787Y6.683Z0.039
G01X14.786Y6.683Z0.039
G01X14.786Y7.621Z0.038
G01X14.787Y7.621Z0.038
G01X14.786Y7.621Z0.038
G01X14.783Y7.650Z0.038
G01X14.776Y7.672Z0.038
G01X14.765Y7.693Z0.038
G01X14.751Y7.711Z0.038
G01X14.755Y7.715Z0.038
G01X14.751Y7.711Z0.038
G01X14.733Y7.725Z0.038
G01X14.712Y7.736Z0.038
G01X14.690Y7.743Z0.038
G01X14.661Y7.746Z0.038
G01X14.661Y7.747Z0.038
G01X14.661Y7.746Z0.038
G01X13.998Y7.746Z0.037
G01X13.998Y7.747Z0.037
G01X13.998Y7.746Z0.037
G01X13.969Y7.743Z0.037
G01X13.947Y7.736Z0.037
G01X13.926Y7.725Z0.037
G01X13.908Y7.711Z0.037
G01X13.904Y7.715Z0.037
G01X13.908Y7.711Z0.037
G01X13.894Y7.693Z0.037
G01X13.883Y7.672Z0.037
G01X13.876Y7.650Z0.037
G01X13.873Y7.621Z0.037
G01X13.872Y7.621Z0.037
G01X13.873Y7.621Z0.037
G01X13.873Y6.683Z0.038
G01X13.872Y6.683Z0.038
G01X13.943Y6.687Z0.038
G01X13.994Y6.680Z0.038
G01X14.015Y6.700Z0.038
G01X14.015Y7.604Z0.037
G01X13.994Y7.624Z0.037
G01X14.015Y7.604Z0.037
G01X14.644Y7.604Z0.038
G01X14.664Y7.624Z0.038
G01X14.644Y7.604Z0.038
G01X14.644Y6.700Z0.039
G01X14.664Y6.680Z0.039
G01X14.644Y6.700Z0.039
G01X14.015Y6.700Z0.038
G01X14.086Y6.771Z0.038
G01X14.086Y7.533Z0.037
G01X14.066Y7.553Z0.037
G01X14.086Y7.533Z0.037
G01X14.573Y7.533Z0.038
G01X14.593Y7.553Z0.038
G01X14.573Y7.533Z0.038
G01X14.573Y6.771Z0.039
G01X14.593Y6.751Z0.039
G01X14.573Y6.771Z0.039
G01X14.086Y6.771Z0.038
G01X14.158Y6.843Z0.038
G01X14.158Y7.461Z0.037
G01X14.137Y7.482Z0.037
G01X14.158Y7.461Z0.037
G01X14.501Y7.461Z0.038
G01X14.522Y7.482Z0.038
G01X14.501Y7.461Z0.038
G01X14.501Y6.843Z0.038
G01X14.522Y6.822Z0.038
G01X14.501Y6.843Z0.038
G01X14.158Y6.843Z0.038
G01X14.229Y6.914Z0.038
G01X14.229Y7.390Z0.038
G01X14.208Y7.411Z0.037
G01X14.229Y7.390Z0.038
G01X14.430Y7.390Z0.038
G01X14.451Y7.411Z0.038
G01X14.430Y7.390Z0.038
G01X14.430Y6.914Z0.038
G01X14.451Y6.893Z0.038
G01X14.430Y6.914Z0.038
G01X14.229Y6.914Z0.038
G01X14.300Y6.985Z0.038
G01X14.300Y7.319Z0.038
G01X14.279Y7.340Z0.038
G01X14.300Y7.319Z0.038
G01X14.359Y7.319Z0.038
G01X14.380Y7.340Z0.038
G01X14.359Y7.319Z0.038
G01X14.359Y6.985Z0.038
G01X14.380Y6.964Z0.038
G01X14.359Y6.985Z0.038
G01X14.300Y6.985Z0.038
G04 P0 ( dwell for no time -- G64 should not smooth over this point )
G00X14.300Y6.985Z5.043
G00X13.336Y8.643Z5.040
X12.685Y9.763Z5.037
G01F40.00000X12.685Y9.763Z5.037
( Mill infeed pass 1/1 )
G01X12.685Y9.763Z0.032
G04 P0 ( dwell for no time -- G64 should not smooth over this point )
G01F100.00000X12.685Y9.763Z0.032
G01X12.685Y9.763Z0.032
G01X12.685Y10.051Z0.032
G01X12.680Y10.053Z0.032
G01X12.685Y10.051Z0.032
G01X12.686Y10.061Z0.032
G01X12.687Y10.064Z0.032
G01X12.689Y10.067Z0.032
G01X12.691Y10.070Z0.032
G01X12.694Y10.072Z0.032
G01X12.697Y10.074Z0.032
G01X12.700Y10.075Z0.032
G01X12.710Y10.076Z0.032
G01X12.708Y10.081Z0.032
G01X12.710Y10.076Z0.032
G01X14.348Y10.076Z0.035
G01X14.358Y10.075Z0.035
G01X14.362Y10.084Z0.035
G01X14.358Y10.075Z0.035
G01X14.361Y10.074Z0.035
G01X14.364Y10.072Z0.035
G01X14.367Y10.070Z0.035
G01X14.369Y10.067Z0.035
G01X14.371Y10.064Z0.035
G01X14.372Y10.061Z0.035
G01X14.373Y10.051Z0.035
G01X14.376Y10.051Z0.035
G01X14.373Y10.051Z0.035
G01X14.373Y9.763Z0.035
G01X14.372Y9.753Z0.035
G01X14.381Y9.749Z0.035
G01X14.372Y9.753Z0.035
G01X14.371Y9.750Z0.035
G01X14.369Y9.747Z0.035
G01X14.367Y9.744Z0.035
G01X14.364Y9.742Z0.035
G01X14.361Y9.740Z0.035
G01X14.358Y9.739Z0.035
G01X14.348Y9.738Z0.035
G01X14.348Y9.735Z0.035
G01X14.348Y9.738Z0.035
G01X12.710Y9.738Z0.032
G01X12.700Y9.739Z0.032
G01X12.696Y9.730Z0.032
G01X12.700Y9.739Z0.032
G01X12.697Y9.740Z0.032
G01X12.694Y9.742Z0.032
G01X12.691Y9.744Z0.032
G01X12.689Y9.747Z0.032
G01X12.687Y9.750Z0.032
G01X12.686Y9.753Z0.032
G01X12.685Y9.763Z0.032
G01X12.682Y9.763Z0.032
G01X12.614Y9.760Z0.032
G01X12.614Y10.054Z0.032
G01X12.616Y10.074Z0.032
G01X12.621Y10.091Z0.032
G01X12.629Y10.107Z0.032
G01X12.641Y10.120Z0.032
G01X12.654Y10.132Z0.032
G01X12.661Y10.135Z0.032
G01X12.670Y10.140Z0.032
G01X12.686Y10.145Z0.032
G01X12.707Y10.147Z0.032
G01X14.351Y10.147Z0.035
G01X14.371Y10.145Z0.035
G01X14.388Y10.140Z0.035
G01X14.404Y10.132Z0.035
G01X14.417Y10.120Z0.035
G01X14.429Y10.107Z0.035
G01X14.437Y10.091Z0.035
G01X14.442Y10.074Z0.035
G01X14.444Y10.054Z0.035
G01X14.444Y9.760Z0.035
G01X14.442Y9.740Z0.035
G01X14.437Y9.723Z0.035
G01X14.429Y9.707Z0.035
G01X14.417Y9.694Z0.035
G01X14.404Y9.682Z0.035
G01X14.388Y9.674Z0.035
G01X14.371Y9.669Z0.035
G01X14.351Y9.667Z0.035
G01X12.707Y9.667Z0.032
G01X12.686Y9.669Z0.032
G01X12.670Y9.674Z0.032
G01X12.654Y9.682Z0.032
G01X12.641Y9.694Z0.032
G01X12.629Y9.707Z0.032
G01X12.621Y9.723Z0.032
G01X12.616Y9.739Z0.032
G01X12.614Y9.760Z0.032
G01X12.682Y9.763Z0.032
G01X12.735Y9.788Z0.032
G01X12.756Y9.809Z0.032
G01X12.756Y10.005Z0.032
G01X12.735Y10.026Z0.032
G01X12.756Y10.005Z0.032
G01X14.302Y10.005Z0.035
G01X14.323Y10.026Z0.035
G01X14.302Y10.005Z0.035
G01X14.302Y9.809Z0.035
G01X14.323Y9.788Z0.035
G01X14.302Y9.809Z0.035
G01X12.756Y9.809Z0.032
G01X12.827Y9.880Z0.032
G01X14.231Y9.880Z0.035
G01X14.251Y9.859Z0.035
G01X14.231Y9.880Z0.035
G01X14.231Y9.934Z0.035
G01X14.251Y9.954Z0.035
G01X14.231Y9.934Z0.035
G01X12.827Y9.934Z0.032
G01X12.807Y9.954Z0.032
G01X12.827Y9.934Z0.032
G01X12.827Y9.880Z0.032
G04 P0 ( dwell for no time -- G64 should not smooth over this point )
G00X12.827Y9.880Z5.037
G00X12.685Y11.033Z5.036
G01F40.00000X12.685Y11.033Z5.036
( Mill infeed pass 1/1 )
G01X12.685Y11.033Z0.031
G04 P0 ( dwell for no time -- G64 should not smooth over this point )
G01F100.00000X12.685Y11.033Z0.031
G01X12.685Y11.033Z0.031
G01X12.685Y11.321Z0.030
G01X12.680Y11.323Z0.030
G01X12.685Y11.321Z0.030
G01X12.686Y11.331Z0.030
G01X12.687Y11.334Z0.030
G01X12.689Y11.337Z0.030
G01X12.691Y11.340Z0.030
G01X12.694Y11.342Z0.030
G01X12.697Y11.344Z0.030
G01X12.700Y11.345Z0.030
G01X12.710Y11.346Z0.030
G01X12.708Y11.351Z0.030
G01X12.710Y11.346Z0.030
G01X14.348Y11.346Z0.033
G01X14.358Y11.345Z0.033
G01X14.362Y11.354Z0.033
G01X14.358Y11.345Z0.033
G01X14.361Y11.344Z0.033
G01X14.364Y11.342Z0.033
G01X14.367Y11.340Z0.033
G01X14.369Y11.337Z0.033
G01X14.371Y11.334Z0.033
G01X14.372Y11.331Z0.033
G01X14.373Y11.321Z0.033
G01X14.376Y11.321Z0.033
G01X14.373Y11.321Z0.033
G01X14.373Y11.033Z0.034
G01X14.372Y11.023Z0.034
G01X14.381Y11.019Z0.034
G01X14.372Y11.023Z0.034
G01X14.371Y11.020Z0.034
G01X14.369Y11.017Z0.034
G01X14.367Y11.014Z0.034
G01X14.364Y11.012Z0.034
G01X14.361Y11.010Z0.034
G01X14.358Y11.009Z0.034
G01X14.348Y11.008Z0.034
G01X14.348Y11.005Z0.034
G01X14.348Y11.008Z0.034
G01X12.710Y11.008Z0.031
G01X12.700Y11.009Z0.031
G01X12.696Y11.000Z0.031
G01X12.700Y11.009Z0.031
G01X12.697Y11.010Z0.031
G01X12.694Y11.012Z0.031
G01X12.691Y11.014Z0.031
G01X12.689Y11.017Z0.031
G01X12.687Y11.020Z0.031
G01X12.686Y11.023Z0.031
G01X12.685Y11.033Z0.031
G01X12.682Y11.033Z0.031
G01X12.614Y11.030Z0.031
G01X12.614Y11.324Z0.030
G01X12.616Y11.344Z0.030
G01X12.621Y11.361Z0.030
G01X12.629Y11.377Z0.030
G01X12.641Y11.390Z0.030
G01X12.654Y11.402Z0.030
G01X12.670Y11.410Z0.030
G01X12.686Y11.415Z0.030
G01X12.707Y11.417Z0.030
G01X14.351Y11.417Z0.033
G01X14.371Y11.415Z0.033
G01X14.388Y11.410Z0.033
G01X14.404Y11.402Z0.033
G01X14.417Y11.390Z0.033
G01X14.429Y11.377Z0.033
G01X14.437Y11.361Z0.033
G01X14.442Y11.344Z0.033
G01X14.444Y11.324Z0.033
G01X14.444Y11.030Z0.034
G01X14.442Y11.010Z0.034
G01X14.437Y10.993Z0.034
G01X14.429Y10.977Z0.034
G01X14.417Y10.964Z0.034
G01X14.404Y10.952Z0.034
G01X14.388Y10.944Z0.034
G01X14.371Y10.939Z0.034
G01X14.351Y10.937Z0.034
G01X12.707Y10.937Z0.031
G01X12.686Y10.939Z0.031
G01X12.670Y10.944Z0.031
G01X12.654Y10.952Z0.031
G01X12.641Y10.964Z0.031
G01X12.629Y10.977Z0.031
G01X12.621Y10.993Z0.031
G01X12.616Y11.009Z0.031
G01X12.614Y11.030Z0.031
G01X12.682Y11.033Z0.031
G01X12.735Y11.058Z0.031
G01X12.756Y11.079Z0.031
G01X12.756Y11.275Z0.031
G01X12.735Y11.296Z0.030
G01X12.756Y11.275Z0.031
G01X14.302Y11.275Z0.033
G01X14.323Y11.296Z0.033
G01X14.302Y11.275Z0.033
G01X14.302Y11.079Z0.033
G01X14.323Y11.058Z0.033
G01X14.302Y11.079Z0.033
G01X12.756Y11.079Z0.031
G01X12.827Y11.150Z0.031
G01X14.231Y11.150Z0.033
G01X14.251Y11.130Z0.033
G01X14.231Y11.150Z0.033
G01X14.231Y11.204Z0.033
G01X14.251Y11.224Z0.033
G01X14.231Y11.204Z0.033
G01X12.827Y11.204Z0.031
G01X12.807Y11.224Z0.031
G01X12.827Y11.204Z0.031
G01X12.827Y11.150Z0.031
G04 P0 ( dwell for no time -- G64 should not smooth over this point )
G00X12.827Y11.150Z5.036
G00X12.685Y12.303Z5.034
G01F40.00000X12.685Y12.303Z5.034
( Mill infeed pass 1/1 )
G01X12.685Y12.303Z0.029
G04 P0 ( dwell for no time -- G64 should not smooth over this point )
G01F100.00000X12.685Y12.303Z0.029
G01X12.685Y12.303Z0.029
G01X12.685Y12.591Z0.028
G01X12.680Y12.593Z0.028
G01X12.685Y12.591Z0.028
G01X12.686Y12.601Z0.028
G01X12.687Y12.604Z0.028
G01X12.689Y12.607Z0.028
G01X12.691Y12.610Z0.028
G01X12.694Y12.612Z0.028
G01X12.697Y12.614Z0.028
G01X12.700Y12.615Z0.028
G01X12.710Y12.616Z0.028
G01X12.708Y12.621Z0.028
G01X12.710Y12.616Z0.028
G01X14.348Y12.616Z0.031
G01X14.358Y12.615Z0.031
G01X14.362Y12.624Z0.031
G01X14.358Y12.615Z0.031
G01X14.361Y12.614Z0.031
G01X14.364Y12.612Z0.031
G01X14.367Y12.610Z0.031
G01X14.369Y12.607Z0.031
G01X14.371Y12.604Z0.031
G01X14.372Y12.601Z0.031
G01X14.373Y12.591Z0.031
G01X14.376Y12.591Z0.031
G01X14.373Y12.591Z0.031
G01X14.373Y12.303Z0.032
G01X14.372Y12.293Z0.032
G01X14.381Y12.289Z0.032
G01X14.372Y12.293Z0.032
G01X14.371Y12.290Z0.032
G01X14.369Y12.287Z0.032
G01X14.367Y12.284Z0.032
G01X14.364Y12.282Z0.032
G01X14.361Y12.280Z0.032
G01X14.358Y12.279Z0.032
G01X14.348Y12.278Z0.032
G01X14.348Y12.275Z0.032
G01X14.348Y12.278Z0.032
G01X12.710Y12.278Z0.029
G01X12.700Y12.279Z0.029
G01X12.696Y12.270Z0.029
G01X12.700Y12.279Z0.029
G01X12.697Y12.280Z0.029
G01X12.694Y12.282Z0.029
G01X12.691Y12.284Z0.029
G01X12.689Y12.287Z0.029
G01X12.687Y12.290Z0.029
G01X12.686Y12.293Z0.029
G01X12.685Y12.303Z0.029
G01X12.682Y12.303Z0.029
G01X12.614Y12.300Z0.029
G01X12.614Y12.594Z0.028
G01X12.616Y12.614Z0.028
G01X12.621Y12.631Z0.028
G01X12.629Y12.647Z0.028
G01X12.641Y12.660Z0.028
G01X12.654Y12.672Z0.028
G01X12.670Y12.680Z0.028
G01X12.686Y12.685Z0.028
G01X12.707Y12.687Z0.028
G01X14.351Y12.687Z0.031
G01X14.371Y12.685Z0.031
G01X14.388Y12.680Z0.031
G01X14.404Y12.672Z0.031
G01X14.417Y12.660Z0.031
G01X14.429Y12.647Z0.031
G01X14.437Y12.631Z0.031
G01X14.442Y12.614Z0.031
G01X14.444Y12.594Z0.031
G01X14.444Y12.300Z0.032
G01X14.442Y12.280Z0.032
G01X14.437Y12.263Z0.032
G01X14.429Y12.247Z0.032
G01X14.417Y12.234Z0.032
G01X14.404Y12.222Z0.032
G01X14.388Y12.214Z0.032
G01X14.371Y12.209Z0.032
G01X14.351Y12.207Z0.032
G01X12.707Y12.207Z0.029
G01X12.686Y12.209Z0.029
G01X12.670Y12.214Z0.029
G01X12.654Y12.222Z0.029
G01X12.641Y12.234Z0.029
G01X12.629Y12.247Z0.029
G01X12.621Y12.263Z0.029
G01X12.616Y12.279Z0.029
G01X12.614Y12.300Z0.029
G01X12.682Y12.303Z0.029
G01X12.735Y12.328Z0.029
G01X12.756Y12.349Z0.029
G01X12.756Y12.545Z0.029
G01X12.735Y12.566Z0.029
G01X12.756Y12.545Z0.029
G01X14.302Y12.545Z0.031
G01X14.323Y12.566Z0.031
G01X14.302Y12.545Z0.031
G01X14.302Y12.349Z0.031
G01X14.323Y12.328Z0.031
G01X14.302Y12.349Z0.031
G01X12.756Y12.349Z0.029
G01X12.827Y12.420Z0.029
G01X12.827Y12.474Z0.029
G01X12.807Y12.494Z0.029
G01X12.827Y12.474Z0.029
G01X14.231Y12.474Z0.031
G01X14.251Y12.494Z0.031
G01X14.231Y12.474Z0.031
G01X14.231Y12.420Z0.031
G01X14.251Y12.399Z0.031
G01X14.231Y12.420Z0.031
G01X12.827Y12.420Z0.029
G04 P0 ( dwell for no time -- G64 should not smooth over this point )
G00X12.827Y12.420Z5.034
G00X12.685Y13.573Z5.032
G01F40.00000X12.685Y13.573Z5.032
( Mill infeed pass 1/1 )
G01X12.685Y13.573Z0.027
G04 P0 ( dwell for no time -- G64 should not smooth over this point )
G01F100.00000X12.685Y13.573Z0.027
G01X12.685Y13.573Z0.027
G01X12.685Y13.861Z0.026
G01X12.680Y13.863Z0.026
G01X12.685Y13.861Z0.026
G01X12.686Y13.871Z0.026
G01X12.687Y13.874Z0.026
G01X12.689Y13.877Z0.026
G01X12.691Y13.880Z0.026
G01X12.694Y13.882Z0.026
G01X12.697Y13.884Z0.026
G01X12.700Y13.885Z0.026
G01X12.710Y13.886Z0.026
G01X12.708Y13.891Z0.026
G01X12.710Y13.886Z0.026
G01X14.348Y13.886Z0.029
G01X14.358Y13.885Z0.029
G01X14.362Y13.894Z0.029
G01X14.358Y13.885Z0.029
G01X14.361Y13.884Z0.029
G01X14.364Y13.882Z0.029
G01X14.367Y13.880Z0.029
G01X14.369Y13.877Z0.029
G01X14.371Y13.874Z0.029
G01X14.372Y13.871Z0.029
G01X14.373Y13.861Z0.029
G01X14.376Y13.861Z0.029
G01X14.373Y13.861Z0.029
G01X14.373Y13.573Z0.029
G01X14.372Y13.563Z0.029
G01X14.381Y13.559Z0.029
G01X14.372Y13.563Z0.029
G01X14.371Y13.560Z0.029
G01X14.369Y13.557Z0.029
G01X14.367Y13.554Z0.029
G01X14.364Y13.552Z0.029
G01X14.361Y13.550Z0.029
G01X14.358Y13.549Z0.029
G01X14.348Y13.548Z0.029
G01X14.348Y13.545Z0.029
G01X14.348Y13.548Z0.029
G01X12.710Y13.548Z0.027
G01X12.700Y13.549Z0.027
G01X12.696Y13.540Z0.027
G01X12.700Y13.549Z0.027
G01X12.697Y13.550Z0.027
G01X12.694Y13.552Z0.027
G01X12.691Y13.554Z0.027
G01X12.689Y13.557Z0.027
G01X12.687Y13.560Z0.027
G01X12.686Y13.563Z0.027
G01X12.685Y13.573Z0.027
G01X12.682Y13.573Z0.027
G01X12.614Y13.570Z0.027
G01X12.614Y13.864Z0.026
G01X12.616Y13.884Z0.026
G01X12.621Y13.901Z0.026
G01X12.629Y13.917Z0.026
G01X12.641Y13.930Z0.026
G01X12.654Y13.942Z0.026
G01X12.670Y13.950Z0.026
G01X12.686Y13.955Z0.026
G01X12.707Y13.957Z0.026
G01X14.351Y13.957Z0.029
G01X14.371Y13.955Z0.029
G01X14.388Y13.950Z0.029
G01X14.404Y13.942Z0.029
G01X14.417Y13.930Z0.029
G01X14.429Y13.917Z0.029
G01X14.437Y13.901Z0.029
G01X14.442Y13.884Z0.029
G01X14.444Y13.864Z0.029
G01X14.444Y13.570Z0.029
G01X14.442Y13.550Z0.030
G01X14.437Y13.533Z0.030
G01X14.429Y13.517Z0.030
G01X14.417Y13.504Z0.030
G01X14.404Y13.492Z0.030
G01X14.388Y13.484Z0.030
G01X14.371Y13.479Z0.030
G01X14.351Y13.477Z0.030
G01X12.707Y13.477Z0.027
G01X12.686Y13.479Z0.027
G01X12.670Y13.484Z0.027
G01X12.654Y13.492Z0.027
G01X12.641Y13.504Z0.027
G01X12.629Y13.517Z0.027
G01X12.621Y13.533Z0.027
G01X12.616Y13.549Z0.027
G01X12.614Y13.570Z0.027
G01X12.682Y13.573Z0.027
G01X12.735Y13.598Z0.027
G01X12.756Y13.619Z0.027
G01X12.756Y13.815Z0.027
G01X12.735Y13.836Z0.026
G01X12.756Y13.815Z0.027
G01X14.302Y13.815Z0.029
G01X14.323Y13.836Z0.029
G01X14.302Y13.815Z0.029
G01X14.302Y13.619Z0.029
G01X14.323Y13.598Z0.029
G01X14.302Y13.619Z0.029
G01X12.756Y13.619Z0.027
G01X12.827Y13.690Z0.027
G01X14.231Y13.690Z0.029
G01X14.251Y13.670Z0.029
G01X14.231Y13.690Z0.029
G01X14.231Y13.744Z0.029
G01X14.251Y13.764Z0.029
G01X14.231Y13.744Z0.029
G01X12.827Y13.744Z0.027
G01X12.807Y13.764Z0.027
G01X12.827Y13.744Z0.027
G01X12.827Y13.690Z0.027
G04 P0 ( dwell for no time -- G64 should not smooth over this point )
G00X12.827Y13.690Z5.032
G00X14.879Y13.640Z5.035
X16.931Y13.591Z5.038
X17.635Y13.573Z5.038
G01F40.00000X17.635Y13.573Z5.038
( Mill infeed pass 1/1 )
G01X17.635Y13.573Z0.033
G04 P0 ( dwell for no time -- G64 should not smooth over this point )
G01F100.00000X17.635Y13.573Z0.033
G01X17.635Y13.573Z0.033
G01X17.635Y13.861Z0.033
G01X17.630Y13.863Z0.033
G01X17.635Y13.861Z0.033
G01X17.636Y13.871Z0.033
G01X17.637Y13.874Z0.033
G01X17.639Y13.877Z0.033
G01X17.641Y13.880Z0.033
G01X17.644Y13.882Z0.033
G01X17.647Y13.884Z0.033
G01X17.650Y13.885Z0.033
G01X17.660Y13.886Z0.033
G01X17.658Y13.891Z0.033
G01X17.660Y13.886Z0.033
G01X19.298Y13.886Z0.035
G01X19.308Y13.885Z0.035
G01X19.312Y13.894Z0.035
G01X19.308Y13.885Z0.035
G01X19.311Y13.884Z0.035
G01X19.314Y13.882Z0.035
G01X19.317Y13.880Z0.035
G01X19.319Y13.877Z0.035
G01X19.321Y13.874Z0.035
G01X19.322Y13.871Z0.035
G01X19.323Y13.861Z0.035
G01X19.326Y13.861Z0.035
G01X19.323Y13.861Z0.035
G01X19.323Y13.573Z0.035
G01X19.322Y13.563Z0.035
G01X19.331Y13.559Z0.035
G01X19.322Y13.563Z0.035
G01X19.321Y13.560Z0.035
G01X19.319Y13.557Z0.035
G01X19.317Y13.554Z0.035
G01X19.314Y13.552Z0.035
G01X19.311Y13.550Z0.035
G01X19.308Y13.549Z0.035
G01X19.298Y13.548Z0.035
G01X19.298Y13.545Z0.035
G01X19.298Y13.548Z0.035
G01X17.660Y13.548Z0.033
G01X17.650Y13.549Z0.033
G01X17.646Y13.540Z0.033
G01X17.650Y13.549Z0.033
G01X17.647Y13.550Z0.033
G01X17.644Y13.552Z0.033
G01X17.641Y13.554Z0.033
G01X17.639Y13.557Z0.033
G01X17.637Y13.560Z0.033
G01X17.636Y13.563Z0.033
G01X17.635Y13.573Z0.033
G01X17.632Y13.573Z0.033
G01X17.564Y13.570Z0.033
G01X17.564Y13.864Z0.033
G01X17.566Y13.884Z0.033
G01X17.571Y13.901Z0.033
G01X17.579Y13.917Z0.033
G01X17.591Y13.930Z0.033
G01X17.604Y13.942Z0.033
G01X17.620Y13.950Z0.033
G01X17.636Y13.955Z0.033
G01X17.657Y13.957Z0.033
G01X19.301Y13.957Z0.035
G01X19.321Y13.955Z0.035
G01X19.338Y13.950Z0.035
G01X19.354Y13.942Z0.035
G01X19.367Y13.930Z0.035
G01X19.379Y13.917Z0.035
G01X19.387Y13.901Z0.035
G01X19.392Y13.884Z0.035
G01X19.394Y13.864Z0.035
G01X19.394Y13.570Z0.035
G01X19.392Y13.549Z0.035
G01X19.387Y13.533Z0.035
G01X19.379Y13.517Z0.035
G01X19.367Y13.504Z0.035
G01X19.354Y13.492Z0.035
G01X19.338Y13.484Z0.035
G01X19.321Y13.479Z0.035
G01X19.301Y13.477Z0.035
G01X17.657Y13.477Z0.033
G01X17.636Y13.479Z0.033
G01X17.620Y13.484Z0.033
G01X17.604Y13.492Z0.033
