( pcb2gcode 2.1.0 )
( Software-independent Gcode )

G94 ( Millimeters per minute feed rate. )
G21 ( Units == Millimeters. )

G90 ( Absolute coordinates. )
G00 S10000 ( RPM spindle speed. )
G64 P0.01016 ( set maximum deviation from commanded toolpath )
G01 F100.00000 ( Feedrate. )


G00 Z10.00000 (Retract to tool change height)
T0
M5      (Spindle stop.)
G04 P1.00000 (Wait for spindle to stop)
(MSG, Change tool bit to mill diameter 0.12000mm)
M6      (Tool change.)
M0      (Temporary machine stop.)
M3 ( Spindle on clockwise. )
G04 P1.00000 (Wait for spindle to get up to speed)
G04 P0 ( dwell for no time -- G64 should not smooth over this point )
G00 Z2.00000 ( retract )


G00 X11.40221 Y26.52391 ( rapid move to begin. )
G01 F40.00000
( Mill infeed pass 1/1 )
G01 Z-0.1280
G04 P0 ( dwell for no time -- G64 should not smooth over this point )
G01 F100.00000
G01 X11.40221 Y26.52391
G01 X11.40221 Y27.40407
G01 X11.40124 Y27.40424
G01 X11.40221 Y27.40407
G01 X11.40409 Y27.42312
G01 X11.40675 Y27.43190
G01 X11.41107 Y27.43998
G01 X11.41689 Y27.44709
G01 X11.41117 Y27.45281
G01 X11.41689 Y27.44709
G01 X11.42397 Y27.45291
G01 X11.43208 Y27.45723
G01 X11.44086 Y27.45990
G01 X11.45991 Y27.46178
G01 X11.45976 Y27.46271
G01 X11.45991 Y27.46178
G01 X12.14008 Y27.46178
G01 X12.14023 Y27.46271
G01 X12.14008 Y27.46178
G01 X12.15913 Y27.45990
G01 X12.16789 Y27.45723
G01 X12.17599 Y27.45291
G01 X12.18308 Y27.44709
G01 X12.18882 Y27.45281
G01 X12.18308 Y27.44709
G01 X12.18889 Y27.43998
G01 X12.19321 Y27.43190
G01 X12.19588 Y27.42312
G01 X12.19776 Y27.40407
G01 X12.19872 Y27.40424
G01 X12.19776 Y27.40407
G01 X12.19776 Y26.52391
G01 X12.19872 Y26.52373
G01 X12.19776 Y26.52391
G01 X12.19588 Y26.50483
G01 X12.19321 Y26.49607
G01 X12.18889 Y26.48799
G01 X12.18308 Y26.48090
G01 X12.18882 Y26.47516
G01 X12.18308 Y26.48090
G01 X12.17599 Y26.47509
G01 X12.16789 Y26.47074
G01 X12.15913 Y26.46808
G01 X12.14008 Y26.46617
G01 X12.14023 Y26.46526
G01 X12.14008 Y26.46617
G01 X11.45991 Y26.46617
G01 X11.45976 Y26.46526
G01 X11.45991 Y26.46617
G01 X11.44086 Y26.46808
G01 X11.43208 Y26.47074
G01 X11.42397 Y26.47509
G01 X11.41689 Y26.48090
G01 X11.41117 Y26.47516
G01 X11.41689 Y26.48090
G01 X11.41107 Y26.48799
G01 X11.40675 Y26.49607
G01 X11.40409 Y26.50483
G01 X11.40221 Y26.52391
G01 X11.40124 Y26.52373
G01 X11.25999 Y26.51695
G01 X11.25999 Y27.41103
G01 X11.26393 Y27.45101
G01 X11.27472 Y27.48659
G01 X11.29225 Y27.51938
G01 X11.31585 Y27.54814
G01 X11.34457 Y27.57171
G01 X11.37739 Y27.58926
G01 X11.41298 Y27.60005
G01 X11.45296 Y27.60399
G01 X12.14704 Y27.60399
G01 X12.18699 Y27.60005
G01 X12.22260 Y27.58926
G01 X12.25539 Y27.57171
G01 X12.28414 Y27.54814
G01 X12.30772 Y27.51938
G01 X12.32527 Y27.48657
G01 X12.33606 Y27.45101
G01 X12.34000 Y27.41105
G01 X12.34000 Y26.51692
G01 X12.33606 Y26.47699
G01 X12.32524 Y26.44136
G01 X12.30774 Y26.40859
G01 X12.28412 Y26.37984
G01 X12.25539 Y26.35627
G01 X12.22258 Y26.33871
G01 X12.18702 Y26.32789
G01 X12.14701 Y26.32398
G01 X11.45298 Y26.32398
G01 X11.41298 Y26.32789
G01 X11.37739 Y26.33871
G01 X11.34457 Y26.35627
G01 X11.31585 Y26.37984
G01 X11.29225 Y26.40859
G01 X11.27472 Y26.44136
G01 X11.26393 Y26.47694
G01 X11.25999 Y26.51695
G01 X11.33043 Y26.52032
G01 X11.33109 Y26.52045
G01 X11.33401 Y26.49094
G01 X11.34074 Y26.46871
G01 X11.35166 Y26.44829
G01 X11.34790 Y26.44557
G01 X11.35166 Y26.44829
G01 X11.36637 Y26.43036
G01 X11.38427 Y26.41565
G01 X11.40472 Y26.40473
G01 X11.42692 Y26.39800
G01 X11.42598 Y26.39500
G01 X11.42692 Y26.39800
G01 X11.45638 Y26.39508
G01 X12.14358 Y26.39508
G01 X12.14381 Y26.39383
G01 X12.14358 Y26.39508
G01 X12.17307 Y26.39800
G01 X12.19524 Y26.40473
G01 X12.21569 Y26.41565
G01 X12.23360 Y26.43036
G01 X12.23820 Y26.42579
G01 X12.23360 Y26.43036
G01 X12.24831 Y26.44829
G01 X12.25923 Y26.46871
G01 X12.26598 Y26.49094
G01 X12.26888 Y26.52045
G01 X12.27012 Y26.52020
G01 X12.26888 Y26.52045
G01 X12.26888 Y27.40752
G01 X12.27012 Y27.40775
G01 X12.26888 Y27.40752
G01 X12.26598 Y27.43704
G01 X12.25923 Y27.45926
G01 X12.24831 Y27.47968
G01 X12.23360 Y27.49761
G01 X12.23820 Y27.50221
G01 X12.23360 Y27.49761
G01 X12.21569 Y27.51232
G01 X12.19524 Y27.52324
G01 X12.17305 Y27.52997
G01 X12.14353 Y27.53287
G01 X12.14376 Y27.53411
G01 X12.14353 Y27.53287
G01 X11.45643 Y27.53287
G01 X11.45621 Y27.53411
G01 X11.45643 Y27.53287
G01 X11.42692 Y27.52997
G01 X11.40472 Y27.52324
G01 X11.38430 Y27.51232
G01 X11.36637 Y27.49761
G01 X11.36177 Y27.50221
G01 X11.36637 Y27.49761
G01 X11.35163 Y27.47968
G01 X11.34074 Y27.45926
G01 X11.33401 Y27.43706
G01 X11.33109 Y27.40752
G01 X11.32987 Y27.40775
G01 X11.33109 Y27.40752
G01 X11.33109 Y26.52045
G01 X11.33043 Y26.52032
G01 X11.40124 Y26.52373
G01 X11.45250 Y26.51649
G01 X11.47333 Y26.53732
G01 X11.47333 Y27.39066
G01 X11.45250 Y27.41148
G01 X11.47333 Y27.39066
G01 X12.12666 Y27.39066
G01 X12.14749 Y27.41148
G01 X12.12666 Y27.39066
G01 X12.12666 Y26.53732
G01 X12.14749 Y26.51649
G01 X12.12666 Y26.53732
G01 X11.47333 Y26.53732
G01 X11.54442 Y26.60844
G01 X11.54442 Y27.31956
G01 X11.52359 Y27.34039
G01 X11.54442 Y27.31956
G01 X12.05554 Y27.31956
G01 X12.07637 Y27.34039
G01 X12.05554 Y27.31956
G01 X12.05554 Y26.60844
G01 X12.07637 Y26.58758
G01 X12.05554 Y26.60844
G01 X11.54442 Y26.60844
G01 X11.52359 Y26.58758
G01 X11.61554 Y26.67953
G01 X11.61554 Y27.24844
G01 X11.59471 Y27.26927
G01 X11.61554 Y27.24844
G01 X11.98445 Y27.24844
G01 X12.00528 Y27.26927
G01 X11.98445 Y27.24844
G01 X11.98445 Y26.67953
G01 X12.00528 Y26.65868
G01 X11.98445 Y26.67953
G01 X11.61554 Y26.67953
G01 X11.68664 Y26.75065
G01 X11.68664 Y27.17732
G01 X11.66581 Y27.19815
G01 X11.68664 Y27.17732
G01 X11.91333 Y27.17732
G01 X11.93416 Y27.19815
G01 X11.91333 Y27.17732
G01 X11.91333 Y26.75065
G01 X11.93416 Y26.72982
G01 X11.91333 Y26.75065
G01 X11.68664 Y26.75065
G01 X11.75776 Y26.82175
G01 X11.75776 Y27.10623
G01 X11.73693 Y27.12705
G01 X11.75776 Y27.10623
G01 X11.84221 Y27.10623
G01 X11.86304 Y27.12705
G01 X11.84221 Y27.10623
G01 X11.84221 Y26.82175
G01 X11.86304 Y26.80092
G01 X11.84221 Y26.82175
G01 X11.75776 Y26.82175
G04 P0 ( dwell for no time -- G64 should not smooth over this point )
G00 Z2.00000 ( retract )

G00 X13.25999 Y26.51697 ( rapid move to begin. )
G01 F40.00000
( Mill infeed pass 1/1 )
G01 Z-0.1280
G04 P0 ( dwell for no time -- G64 should not smooth over this point )
G01 F100.00000
G01 X13.25999 Y26.51697
G01 X13.25999 Y27.41100
G01 X13.26392 Y27.45101
G01 X13.27472 Y27.48659
G01 X13.29227 Y27.51941
G01 X13.31584 Y27.54814
G01 X13.34457 Y27.57171
G01 X13.37739 Y27.58926
G01 X13.41297 Y27.60005
G01 X13.45295 Y27.60399
G01 X14.14703 Y27.60399
G01 X14.18699 Y27.60005
G01 X14.22260 Y27.58926
G01 X14.25539 Y27.57173
G01 X14.28414 Y27.54814
G01 X14.30771 Y27.51941
G01 X14.32526 Y27.48659
G01 X14.33606 Y27.45101
G01 X14.34000 Y27.41103
G01 X14.34000 Y26.51695
G01 X14.33606 Y26.47694
G01 X14.32526 Y26.44136
G01 X14.30771 Y26.40859
G01 X14.28414 Y26.37984
G01 X14.25539 Y26.35621
G01 X14.22260 Y26.33871
G01 X14.18701 Y26.32789
G01 X14.14701 Y26.32398
G01 X13.45298 Y26.32398
G01 X13.41297 Y26.32789
G01 X13.37741 Y26.33871
G01 X13.34457 Y26.35627
G01 X13.31584 Y26.37984
G01 X13.29225 Y26.40859
G01 X13.27472 Y26.44136
G01 X13.26392 Y26.47694
G01 X13.25999 Y26.51697
G01 X13.33080 Y26.52032
G01 X13.33111 Y26.52040
G01 X13.33400 Y26.49091
G01 X13.34073 Y26.46871
G01 X13.33865 Y26.46775
G01 X13.34073 Y26.46871
G01 X13.35166 Y26.44829
G01 X13.36636 Y26.43036
G01 X13.38427 Y26.41565
G01 X13.38242 Y26.41283
G01 X13.38427 Y26.41565
G01 X13.40474 Y26.40473
G01 X13.42692 Y26.39800
G01 X13.45638 Y26.39508
G01 X13.45630 Y26.39439
G01 X13.45638 Y26.39508
G01 X14.14358 Y26.39508
G01 X14.14360 Y26.39480
G01 X14.14358 Y26.39508
G01 X14.17307 Y26.39800
G01 X14.19524 Y26.40473
G01 X14.19621 Y26.40262
G01 X14.19524 Y26.40473
G01 X14.21569 Y26.41565
G01 X14.23359 Y26.43036
G01 X14.24830 Y26.44829
G01 X14.25115 Y26.44641
G01 X14.24830 Y26.44829
G01 X14.25925 Y26.46871
G01 X14.26598 Y26.49091
G01 X14.26888 Y26.52040
G01 X14.26956 Y26.52030
G01 X14.26888 Y26.52040
G01 X14.26888 Y27.40757
G01 X14.27012 Y27.40780
G01 X14.26888 Y27.40757
G01 X14.26598 Y27.43706
G01 X14.25925 Y27.45924
G01 X14.24830 Y27.47968
G01 X14.23359 Y27.49761
G01 X14.23819 Y27.50221
G01 X14.23359 Y27.49761
G01 X14.21569 Y27.51232
G01 X14.19524 Y27.52324
G01 X14.17304 Y27.52997
G01 X14.14353 Y27.53287
G01 X14.14376 Y27.53411
G01 X14.14353 Y27.53287
G01 X13.45643 Y27.53287
G01 X13.45641 Y27.53317
G01 X13.45643 Y27.53287
G01 X13.42692 Y27.52997
G01 X13.40474 Y27.52324
G01 X13.40375 Y27.52533
G01 X13.40474 Y27.52324
G01 X13.38429 Y27.51232
G01 X13.36636 Y27.49761
G01 X13.35166 Y27.47968
G01 X13.34884 Y27.48156
G01 X13.35166 Y27.47968
G01 X13.34073 Y27.45924
G01 X13.33400 Y27.43706
G01 X13.33111 Y27.40757
G01 X13.33042 Y27.40767
G01 X13.33111 Y27.40757
G01 X13.33111 Y26.52040
G01 X13.33080 Y26.52032
G01 X13.40220 Y26.52391
G01 X13.40220 Y27.40407
G01 X13.40119 Y27.40422
G01 X13.40220 Y27.40407
G01 X13.40408 Y27.42312
G01 X13.40675 Y27.43190
G01 X13.41107 Y27.43998
G01 X13.41688 Y27.44709
G01 X13.41117 Y27.45281
G01 X13.41688 Y27.44709
G01 X13.42397 Y27.45291
G01 X13.43210 Y27.45723
G01 X13.44086 Y27.45990
G01 X13.45991 Y27.46178
G01 X13.45976 Y27.46271
G01 X13.45991 Y27.46178
G01 X14.14007 Y27.46178
G01 X14.14040 Y27.46332
G01 X14.14007 Y27.46178
G01 X14.15912 Y27.45990
G01 X14.16789 Y27.45723
G01 X14.17599 Y27.45291
G01 X14.18307 Y27.44709
G01 X14.18892 Y27.43998
G01 X14.20012 Y27.44732
G01 X14.18892 Y27.43998
G01 X14.19323 Y27.43190
G01 X14.19588 Y27.42314
G01 X14.19776 Y27.40407
G01 X14.19776 Y26.52391
G01 X14.19941 Y26.52355
G01 X14.19776 Y26.52391
G01 X14.19588 Y26.50483
G01 X14.19323 Y26.49607
G01 X14.18892 Y26.48799
G01 X14.18307 Y26.48088
G01 X14.17599 Y26.47506
G01 X14.18330 Y26.46391
G01 X14.17599 Y26.47506
G01 X14.16789 Y26.47074
G01 X14.15912 Y26.46808
G01 X14.14007 Y26.46617
G01 X13.45991 Y26.46617
G01 X13.45958 Y26.46452
G01 X13.45991 Y26.46617
G01 X13.44086 Y26.46808
G01 X13.43210 Y26.47074
G01 X13.42397 Y26.47509
G01 X13.41688 Y26.48090
G01 X13.41107 Y26.48799
G01 X13.39987 Y26.48065
G01 X13.41107 Y26.48799
G01 X13.40675 Y26.49607
G01 X13.40408 Y26.50483
G01 X13.40220 Y26.52391
G01 X13.45249 Y26.51649
G01 X13.47332 Y26.53732
G01 X13.47332 Y27.39066
G01 X13.45249 Y27.41148
G01 X13.47332 Y27.39066
G01 X14.12666 Y27.39066
G01 X14.14749 Y27.41148
G01 X14.12666 Y27.39066
G01 X14.12666 Y26.53732
G01 X14.14749 Y26.51649
G01 X14.12666 Y26.53732
G01 X13.47332 Y26.53732
G01 X13.54442 Y26.60844
G01 X13.54442 Y27.31956
G01 X13.52359 Y27.34039
G01 X13.54442 Y27.31956
G01 X14.05554 Y27.31956
G01 X14.07637 Y27.34039
G01 X14.05554 Y27.31956
G01 X14.05554 Y26.60844
G01 X14.07637 Y26.58758
G01 X14.05554 Y26.60844
G01 X13.54442 Y26.60844
G01 X13.52359 Y26.58758
G01 X13.61554 Y26.67953
G01 X13.61554 Y27.24844
G01 X13.59471 Y27.26927
G01 X13.61554 Y27.24844
G01 X13.98445 Y27.24844
G01 X14.00527 Y27.26927
G01 X13.98445 Y27.24844
G01 X13.98445 Y26.67953
G01 X14.00527 Y26.65868
G01 X13.98445 Y26.67953
G01 X13.61554 Y26.67953
G01 X13.68663 Y26.75065
G01 X13.68663 Y27.17732
G01 X13.66580 Y27.19815
G01 X13.68663 Y27.17732
G01 X13.91333 Y27.17732
G01 X13.93415 Y27.19815
G01 X13.91333 Y27.17732
G01 X13.91333 Y26.75065
G01 X13.93415 Y26.72982
G01 X13.91333 Y26.75065
G01 X13.68663 Y26.75065
G01 X13.75775 Y26.82175
G01 X13.75775 Y27.10623
G01 X13.73692 Y27.12705
G01 X13.75775 Y27.10623
G01 X13.84223 Y27.10623
G01 X13.86306 Y27.12705
G01 X13.84223 Y27.10623
G01 X13.84223 Y26.82175
G01 X13.86306 Y26.80092
G01 X13.84223 Y26.82175
G01 X13.75775 Y26.82175
G04 P0 ( dwell for no time -- G64 should not smooth over this point )
G00 Z2.00000 ( retract )

G00 X15.96920 Y28.24290 ( rapid move to begin. )
G01 F40.00000
( Mill infeed pass 1/1 )
G01 Z-0.1280
G04 P0 ( dwell for no time -- G64 should not smooth over this point )
G01 F100.00000
G01 X15.96920 Y28.24290
G01 X15.96920 Y28.92309
G01 X15.97108 Y28.94211
G01 X15.97375 Y28.95090
G01 X15.97807 Y28.95900
G01 X15.96694 Y28.96632
G01 X15.97807 Y28.95900
G01 X15.98388 Y28.96606
G01 X15.99100 Y28.97191
G01 X15.99907 Y28.97622
G01 X16.00786 Y28.97889
G01 X16.02691 Y28.98077
G01 X16.02658 Y28.98240
G01 X16.02691 Y28.98077
G01 X16.90707 Y28.98077
G01 X16.92610 Y28.97889
G01 X16.93491 Y28.97622
G01 X16.94299 Y28.97191
G01 X16.95033 Y28.98311
G01 X16.94299 Y28.97191
G01 X16.95007 Y28.96606
G01 X16.95592 Y28.95898
G01 X16.96023 Y28.95090
G01 X16.96290 Y28.94211
G01 X16.96476 Y28.92309
G01 X16.96633 Y28.92342
G01 X16.96476 Y28.92309
G01 X16.96476 Y28.24290
G01 X16.96572 Y28.24275
G01 X16.96476 Y28.24290
G01 X16.96290 Y28.22385
G01 X16.96023 Y28.21506
G01 X16.95589 Y28.20699
G01 X16.95010 Y28.19990
G01 X16.95584 Y28.19418
G01 X16.95010 Y28.19990
G01 X16.94296 Y28.19406
G01 X16.93491 Y28.18974
G01 X16.92612 Y28.18707
G01 X16.90707 Y28.18522
G01 X16.90722 Y28.18418
G01 X16.90707 Y28.18522
G01 X16.02691 Y28.18522
G01 X16.00786 Y28.18707
G01 X15.99907 Y28.18974
G01 X15.99100 Y28.19406
G01 X15.98365 Y28.18286
G01 X15.99100 Y28.19406
G01 X15.98388 Y28.19990
G01 X15.97809 Y28.20699
G01 X15.97375 Y28.21509
G01 X15.97108 Y28.22385
G01 X15.96920 Y28.24290
G01 X15.96755 Y28.24255
G01 X15.82699 Y28.23594
G01 X15.82699 Y28.93002
G01 X15.83092 Y28.97000
G01 X15.84172 Y29.00559
G01 X15.85927 Y29.03840
G01 X15.88284 Y29.06713
G01 X15.91160 Y29.09073
G01 X15.94439 Y29.10825
G01 X15.97997 Y29.11905
G01 X16.01993 Y29.12299
G01 X16.91406 Y29.12299
G01 X16.95399 Y29.11905
G01 X16.98960 Y29.10825
G01 X17.02236 Y29.09073
G01 X17.05114 Y29.06713
G01 X17.07471 Y29.03840
G01 X17.09226 Y29.00559
G01 X17.10306 Y28.97000
G01 X17.10700 Y28.93000
G01 X17.10700 Y28.23597
G01 X17.10306 Y28.19596
G01 X17.09226 Y28.16040
G01 X17.07471 Y28.12759
G01 X17.05112 Y28.09883
G01 X17.02239 Y28.07524
G01 X16.98960 Y28.05771
G01 X16.95399 Y28.04691
G01 X16.91403 Y28.04298
G01 X16.01995 Y28.04298
G01 X15.97997 Y28.04691
G01 X15.94441 Y28.05771
G01 X15.91157 Y28.07526
G01 X15.88284 Y28.09883
G01 X15.85927 Y28.12759
G01 X15.84172 Y28.16038
G01 X15.83092 Y28.19596
G01 X15.82699 Y28.23594
G01 X15.89686 Y28.23922
G01 X15.89811 Y28.23945
G01 X15.90100 Y28.20991
G01 X15.90773 Y28.18773
G01 X15.91866 Y28.16729
G01 X15.93336 Y28.14938
G01 X15.92877 Y28.14478
G01 X15.93336 Y28.14938
G01 X15.95130 Y28.13467
G01 X15.97172 Y28.12372
G01 X15.99392 Y28.11699
G01 X16.02346 Y28.11410
G01 X16.02320 Y28.11285
G01 X16.02346 Y28.11410
G01 X16.91053 Y28.11410
G01 X16.91075 Y28.11285
G01 X16.91053 Y28.11410
G01 X16.94004 Y28.11699
G01 X16.96224 Y28.12372
G01 X16.98269 Y28.13467
G01 X17.00062 Y28.14938
G01 X17.00519 Y28.14478
G01 X17.00062 Y28.14938
G01 X17.01530 Y28.16729
G01 X17.02625 Y28.18773
G01 X17.03298 Y28.20991
G01 X17.03588 Y28.23945
G01 X17.03712 Y28.23922
G01 X17.03588 Y28.23945
G01 X17.03588 Y28.92652
G01 X17.03712 Y28.92677
G01 X17.03588 Y28.92652
G01 X17.03295 Y28.95608
G01 X17.02625 Y28.97823
G01 X17.01530 Y28.99868
G01 X17.00059 Y29.01661
G01 X17.00519 Y29.02121
G01 X17.00059 Y29.01661
G01 X16.98269 Y29.03132
G01 X16.96227 Y29.04224
G01 X16.94004 Y29.04897
G01 X16.91053 Y29.05187
G01 X16.91078 Y29.05319
G01 X16.91053 Y29.05187
G01 X16.02346 Y29.05187
G01 X15.99394 Y29.04897
G01 X15.97172 Y29.04224
G01 X15.97024 Y29.04625
G01 X15.97172 Y29.04224
G01 X15.95130 Y29.03132
G01 X15.93336 Y29.01661
G01 X15.91866 Y28.99868
G01 X15.91584 Y29.00056
G01 X15.91866 Y28.99868
G01 X15.90773 Y28.97823
G01 X15.90100 Y28.95608
G01 X15.89811 Y28.92652
G01 X15.89742 Y28.92662
G01 X15.89811 Y28.92652
G01 X15.89811 Y28.23945
G01 X15.89686 Y28.23922
G01 X15.96755 Y28.24255
G01 X16.01949 Y28.23548
G01 X16.04032 Y28.25631
G01 X16.04032 Y28.90965
G01 X16.01949 Y28.93048
G01 X16.04032 Y28.90965
G01 X16.89366 Y28.90965
G01 X16.91449 Y28.93048
G01 X16.89366 Y28.90965
G01 X16.89366 Y28.25631
G01 X16.91449 Y28.23548
G01 X16.89366 Y28.25631
G01 X16.04032 Y28.25631
G01 X16.11142 Y28.32743
G01 X16.11142 Y28.83856
G01 X16.09059 Y28.85938
G01 X16.11142 Y28.83856
G01 X16.82254 Y28.83856
G01 X16.84337 Y28.85938
G01 X16.82254 Y28.83856
G01 X16.82254 Y28.32743
G01 X16.84337 Y28.30660
G01 X16.82254 Y28.32743
G01 X16.11142 Y28.32743
G01 X16.18254 Y28.39853
G01 X16.18254 Y28.76744
G01 X16.16171 Y28.78826
G01 X16.18254 Y28.76744
G01 X16.75145 Y28.76744
G01 X16.77227 Y28.78826
G01 X16.75145 Y28.76744
G01 X16.75145 Y28.39853
G01 X16.77227 Y28.37770
G01 X16.75145 Y28.39853
G01 X16.18254 Y28.39853
G01 X16.25366 Y28.46965
G01 X16.25366 Y28.69632
G01 X16.23283 Y28.71714
G01 X16.25366 Y28.69632
G01 X16.68033 Y28.69632
G01 X16.70115 Y28.71714
G01 X16.68033 Y28.69632
G01 X16.68033 Y28.46965
G01 X16.70115 Y28.44882
G01 X16.68033 Y28.46965
G01 X16.25366 Y28.46965
G01 X16.32475 Y28.54077
G01 X16.32475 Y28.62522
G01 X16.30392 Y28.64605
G01 X16.32475 Y28.62522
G01 X16.60923 Y28.62522
G01 X16.63006 Y28.64605
G01 X16.60923 Y28.62522
G01 X16.60923 Y28.54077
G01 X16.63006 Y28.51994
G01 X16.60923 Y28.54077
G01 X16.32475 Y28.54077
G04 P0 ( dwell for no time -- G64 should not smooth over this point )
G00 Z2.00000 ( retract )

G00 X18.58576 Y28.60676 ( rapid move to begin. )
G01 F40.00000
( Mill infeed pass 1/1 )
G01 Z-0.1280
G04 P0 ( dwell for no time -- G64 should not smooth over this point )
G01 F100.00000
G01 X18.58576 Y28.60676
G01 X18.58576 Y28.66622
G01 X18.56493 Y28.68705
G01 X18.58576 Y28.66622
G01 X18.92022 Y28.66622
G01 X18.94105 Y28.68705
G01 X18.92022 Y28.66622
G01 X18.92022 Y28.60676
G01 X18.94105 Y28.58593
G01 X18.92022 Y28.60676
G01 X18.58576 Y28.60676
G01 X18.51464 Y28.53564
G01 X18.99132 Y28.53564
G01 X19.01215 Y28.51481
G01 X18.99132 Y28.53564
G01 X18.99132 Y28.73734
G01 X19.01215 Y28.75817
G01 X18.99132 Y28.73734
G01 X18.51464 Y28.73734
G01 X18.49381 Y28.75817
G01 X18.51464 Y28.73734
G01 X18.51464 Y28.53564
G01 X18.44354 Y28.46454
G01 X19.06244 Y28.46454
G01 X19.08327 Y28.44371
G01 X19.06244 Y28.46454
G01 X19.06244 Y28.80843
G01 X19.08327 Y28.82926
G01 X19.06244 Y28.80843
G01 X18.44354 Y28.80843
G01 X18.42272 Y28.82926
G01 X18.44354 Y28.80843
G01 X18.44354 Y28.46454
G01 X18.37242 Y28.39342
G01 X19.13356 Y28.39342
G01 X19.15439 Y28.37259
G01 X19.13356 Y28.39342
G01 X19.13356 Y28.87955
G01 X19.15439 Y28.90038
G01 X19.13356 Y28.87955
G01 X18.37242 Y28.87955
G01 X18.35160 Y28.90038
G01 X18.37242 Y28.87955
G01 X18.37242 Y28.39342
G01 X18.30130 Y28.32230
G01 X19.20465 Y28.32230
G01 X19.22548 Y28.30147
G01 X19.20465 Y28.32230
G01 X19.20465 Y28.95067
G01 X19.22548 Y28.97150
G01 X19.20465 Y28.95067
G01 X18.30130 Y28.95067
G01 X18.28050 Y28.97150
G01 X18.30130 Y28.95067
G01 X18.30130 Y28.32230
G01 X18.28050 Y28.30147
G01 X18.22856 Y28.30856
G01 X18.15878 Y28.30541
G01 X18.08799 Y28.30198
G01 X18.09193 Y28.26198
G01 X18.10273 Y28.22639
G01 X18.12025 Y28.19357
G01 X18.14385 Y28.16485
G01 X18.17260 Y28.14125
G01 X18.20539 Y28.12372
G01 X18.24098 Y28.11293
G01 X18.28098 Y28.10899
G01 X19.22500 Y28.10899
G01 X19.26500 Y28.11293
G01 X19.30059 Y28.12372
G01 X19.33338 Y28.14125
G01 X19.36213 Y28.16485
G01 X19.38573 Y28.19360
G01 X19.40326 Y28.22639
G01 X19.41405 Y28.26198
G01 X19.41799 Y28.30191
G01 X19.41799 Y28.97107
G01 X19.41405 Y29.01097
G01 X19.40326 Y29.04658
G01 X19.38573 Y29.07937
G01 X19.36213 Y29.10813
G01 X19.33341 Y29.13172
G01 X19.30056 Y29.14925
G01 X19.26500 Y29.16004
G01 X19.22502 Y29.16398
G01 X18.28096 Y29.16398
G01 X18.24100 Y29.16004
G01 X18.20539 Y29.14925
G01 X18.17258 Y29.13172
G01 X18.14385 Y29.10813
G01 X18.12025 Y29.07937
G01 X18.10273 Y29.04658
G01 X18.09193 Y29.01100
G01 X18.09165 Y29.00833
G01 X18.08799 Y28.97099
G01 X18.08799 Y28.30198
G01 X18.15909 Y28.30544
G01 X18.16201 Y28.27590
G01 X18.16874 Y28.25372
G01 X18.16663 Y28.25276
G01 X18.16874 Y28.25372
G01 X18.17966 Y28.23330
G01 X18.19437 Y28.21537
G01 X18.21230 Y28.20066
G01 X18.21045 Y28.19782
G01 X18.21230 Y28.20066
G01 X18.23272 Y28.18974
G01 X18.25492 Y28.18301
G01 X18.28444 Y28.18009
G01 X18.28436 Y28.17940
G01 X18.28444 Y28.18009
G01 X19.22152 Y28.18009
G01 X19.22175 Y28.17887
G01 X19.22152 Y28.18009
G01 X19.25106 Y28.18301
G01 X19.27326 Y28.18974
G01 X19.29368 Y28.20066
G01 X19.31159 Y28.21537
G01 X19.31619 Y28.21077
G01 X19.31159 Y28.21537
G01 X19.32632 Y28.23330
G01 X19.33724 Y28.25372
G01 X19.34397 Y28.27590
G01 X19.34687 Y28.30544
G01 X19.34811 Y28.30521
G01 X19.34687 Y28.30544
G01 X19.34687 Y28.96754
G01 X19.34717 Y28.96756
G01 X19.34687 Y28.96754
G01 X19.34397 Y28.99708
G01 X19.33724 Y29.01923
G01 X19.33935 Y29.02022
G01 X19.33724 Y29.01923
G01 X19.32632 Y29.03970
G01 X19.31159 Y29.05761
G01 X19.29368 Y29.07231
G01 X19.29556 Y29.07516
G01 X19.29368 Y29.07231
G01 X19.27323 Y29.08323
G01 X19.25106 Y29.08997
G01 X19.22152 Y29.09289
G01 X19.22162 Y29.09357
G01 X19.22152 Y29.09289
G01 X18.28444 Y29.09289
G01 X18.28441 Y29.09319
G01 X18.28444 Y29.09289
G01 X18.25492 Y29.08997
G01 X18.23272 Y29.08323
G01 X18.23176 Y29.08534
G01 X18.23272 Y29.08323
G01 X18.21228 Y29.07231
G01 X18.19437 Y29.05761
G01 X18.17966 Y29.03970
G01 X18.17682 Y29.04155
G01 X18.17966 Y29.03970
G01 X18.16874 Y29.01923
G01 X18.16201 Y28.99708
G01 X18.15909 Y28.96754
G01 X18.15840 Y28.96761
G01 X18.15909 Y28.96754
G01 X18.15909 Y28.30544
G01 X18.15878 Y28.30541
G01 X18.22856 Y28.30856
G01 X18.23021 Y28.30889
G01 X18.23209 Y28.28987
G01 X18.23476 Y28.28108
G01 X18.23907 Y28.27300
G01 X18.24489 Y28.26589
G01 X18.25198 Y28.26007
G01 X18.24464 Y28.24884
G01 X18.25198 Y28.26007
G01 X18.26005 Y28.25575
G01 X18.26887 Y28.25309
G01 X18.28797 Y28.25121
G01 X19.21801 Y28.25121
G01 X19.21817 Y28.25019
G01 X19.21801 Y28.25121
G01 X19.23712 Y28.25309
G01 X19.24590 Y28.25575
G01 X19.25398 Y28.26007
G01 X19.26109 Y28.26589
G01 X19.26683 Y28.26015
G01 X19.26109 Y28.26589
G01 X19.26691 Y28.27300
G01 X19.27123 Y28.28108
G01 X19.27389 Y28.28987
G01 X19.27577 Y28.30897
G01 X19.27674 Y28.30879
G01 X19.27577 Y28.30897
G01 X19.27577 Y28.96401
G01 X19.27732 Y28.96434
G01 X19.27577 Y28.96401
G01 X19.27389 Y28.98311
G01 X19.27123 Y28.99190
G01 X19.26691 Y29.00000
G01 X19.26109 Y29.00709
G01 X19.25398 Y29.01290
G01 X19.26135 Y29.02413
G01 X19.25398 Y29.01290
G01 X19.24590 Y29.01722
G01 X19.23712 Y29.01989
G01 X19.21807 Y29.02177
G01 X18.28792 Y29.02177
G01 X18.28756 Y29.02339
G01 X18.28792 Y29.02177
G01 X18.26887 Y29.01989
G01 X18.26005 Y29.01722
G01 X18.25198 Y29.01290
G01 X18.24489 Y29.00709
G01 X18.23907 Y29.00000
G01 X18.22795 Y29.00731
G01 X18.23907 Y29.00000
G01 X18.23473 Y28.99190
G01 X18.23209 Y28.98311
G01 X18.23021 Y28.96408
G01 X18.23021 Y28.30889
G04 P0 ( dwell for no time -- G64 should not smooth over this point )
G00 Z2.00000 ( retract )

G00 X16.32475 Y26.54075 ( rapid move to begin. )
G01 F40.00000
( Mill infeed pass 1/1 )
G01 Z-0.1280
G04 P0 ( dwell for no time -- G64 should not smooth over this point )
G01 F100.00000
G01 X16.32475 Y26.54075
G01 X16.32475 Y26.62523
G01 X16.30392 Y26.64605
G01 X16.32475 Y26.62523
G01 X16.60923 Y26.62523
G01 X16.63006 Y26.64605
G01 X16.60923 Y26.62523
G01 X16.60923 Y26.54075
G01 X16.63006 Y26.51992
G01 X16.60923 Y26.54075
G01 X16.32475 Y26.54075
G01 X16.25366 Y26.46965
G01 X16.68033 Y26.46965
G01 X16.70115 Y26.44882
G01 X16.68033 Y26.46965
G01 X16.68033 Y26.69632
G01 X16.70115 Y26.71715
G01 X16.68033 Y26.69632
G01 X16.25366 Y26.69632
G01 X16.23283 Y26.71715
G01 X16.25366 Y26.69632
G01 X16.25366 Y26.46965
G01 X16.16171 Y26.37770
G01 X16.18254 Y26.39851
G01 X16.75145 Y26.39851
G01 X16.77227 Y26.37770
G01 X16.75145 Y26.39851
G01 X16.75145 Y26.76744
G01 X16.77227 Y26.78827
G01 X16.75145 Y26.76744
G01 X16.18254 Y26.76744
G01 X16.16171 Y26.78827
G01 X16.18254 Y26.76744
G01 X16.18254 Y26.39851
G01 X16.11142 Y26.32741
G01 X16.82254 Y26.32741
G01 X16.84337 Y26.30661
G01 X16.82254 Y26.32741
G01 X16.82254 Y26.83854
G01 X16.84337 Y26.85936
G01 X16.82254 Y26.83854
G01 X16.11142 Y26.83854
G01 X16.09059 Y26.85936
G01 X16.11142 Y26.83854
G01 X16.11142 Y26.32741
G01 X16.04032 Y26.25632
G01 X16.89366 Y26.25632
G01 X16.91449 Y26.23549
G01 X16.89366 Y26.25632
G01 X16.89366 Y26.90966
G01 X16.91449 Y26.93048
G01 X16.89366 Y26.90966
G01 X16.04032 Y26.90966
G01 X16.01949 Y26.93048
G01 X16.04032 Y26.90966
G01 X16.04032 Y26.25632
G01 X16.01949 Y26.23549
G01 X15.96765 Y26.24258
G01 X15.89686 Y26.23922
G01 X15.89811 Y26.23945
G01 X15.89811 Y26.92652
G01 X15.89742 Y26.92662
G01 X15.89811 Y26.92652
G01 X15.90100 Y26.95606
G01 X15.90773 Y26.97824
G01 X15.91866 Y26.99868
G01 X15.91584 Y27.00056
G01 X15.91866 Y26.99868
G01 X15.93336 Y27.01661
G01 X15.95130 Y27.03132
G01 X15.97174 Y27.04224
G01 X15.97027 Y27.04626
G01 X15.97174 Y27.04224
G01 X15.99392 Y27.04897
G01 X16.02346 Y27.05187
G01 X16.91053 Y27.05187
G01 X16.91078 Y27.05319
G01 X16.91053 Y27.05187
G01 X16.94007 Y27.04897
G01 X16.96224 Y27.04224
G01 X16.98269 Y27.03132
G01 X17.00062 Y27.01661
G01 X17.00519 Y27.02121
G01 X17.00062 Y27.01661
G01 X17.01530 Y26.99868
G01 X17.02625 Y26.97824
G01 X17.03298 Y26.95606
G01 X17.03588 Y26.92652
G01 X17.03712 Y26.92675
G01 X17.03588 Y26.92652
G01 X17.03588 Y26.23945
G01 X17.03712 Y26.23922
G01 X17.03588 Y26.23945
G01 X17.03298 Y26.20991
G01 X17.02625 Y26.18774
G01 X17.01530 Y26.16726
G01 X17.00059 Y26.14936
G01 X17.00519 Y26.14476
G01 X17.00059 Y26.14936
G01 X16.98269 Y26.13468
G01 X16.96224 Y26.12373
G01 X16.94007 Y26.11700
G01 X16.91053 Y26.11410
G01 X16.91075 Y26.11283
G01 X16.91053 Y26.11410
G01 X16.02346 Y26.11410
G01 X16.02323 Y26.11283
G01 X16.02346 Y26.11410
G01 X15.99392 Y26.11700
G01 X15.97174 Y26.12373
G01 X15.95127 Y26.13468
G01 X15.93336 Y26.14936
G01 X15.92879 Y26.14476
G01 X15.93336 Y26.14936
G01 X15.91866 Y26.16726
G01 X15.90773 Y26.18774
G01 X15.90100 Y26.20991
G01 X15.89811 Y26.23945
G01 X15.89686 Y26.23922
G01 X15.82699 Y26.23595
G01 X15.83092 Y26.19597
G01 X15.84172 Y26.16038
G01 X15.85925 Y26.12756
G01 X15.88284 Y26.09884
G01 X15.91160 Y26.07524
G01 X15.94439 Y26.05771
G01 X15.97997 Y26.04692
G01 X16.01993 Y26.04298
G01 X16.91406 Y26.04298
G01 X16.95399 Y26.04692
G01 X16.98960 Y26.05771
G01 X17.02236 Y26.07524
G01 X17.05114 Y26.09884
G01 X17.07471 Y26.12756
G01 X17.09226 Y26.16038
G01 X17.10306 Y26.19597
G01 X17.10700 Y26.23597
G01 X17.10700 Y26.93000
G01 X17.10306 Y26.97001
G01 X17.09226 Y27.00557
G01 X17.07471 Y27.03841
G01 X17.05112 Y27.06714
G01 X17.02239 Y27.09073
G01 X16.98960 Y27.10826
G01 X16.95399 Y27.11905
G01 X16.91403 Y27.12299
G01 X16.01995 Y27.12299
G01 X15.97997 Y27.11905
G01 X15.94441 Y27.10826
G01 X15.91157 Y27.09071
G01 X15.88284 Y27.06714
G01 X15.85927 Y27.03841
G01 X15.84172 Y27.00559
G01 X15.83092 Y26.97001
G01 X15.82699 Y26.93003
G01 X15.82699 Y26.23595
G01 X15.96765 Y26.24258
G01 X15.96920 Y26.24288
G01 X15.97108 Y26.22383
G01 X15.97375 Y26.21509
G01 X15.97809 Y26.20696
G01 X15.98388 Y26.19990
G01 X15.99100 Y26.19406
G01 X15.98363 Y26.18283
G01 X15.99100 Y26.19406
G01 X15.99907 Y26.18974
G01 X16.00786 Y26.18708
G01 X16.02696 Y26.18520
G01 X16.90702 Y26.18520
G01 X16.90735 Y26.18357
G01 X16.90702 Y26.18520
G01 X16.92612 Y26.18708
G01 X16.93491 Y26.18974
G01 X16.94299 Y26.19406
G01 X16.95007 Y26.19990
G01 X16.95589 Y26.20696
G01 X16.96704 Y26.19962
G01 X16.95589 Y26.20696
G01 X16.96023 Y26.21504
G01 X16.96290 Y26.22383
G01 X16.96476 Y26.24288
G01 X16.96476 Y26.92307
G01 X16.96643 Y26.92342
G01 X16.96476 Y26.92307
G01 X16.96290 Y26.94212
G01 X16.96023 Y26.95091
G01 X16.95589 Y26.95898
G01 X16.95010 Y26.96607
G01 X16.94299 Y26.97191
G01 X16.95038 Y26.98324
G01 X16.94299 Y26.97191
G01 X16.93488 Y26.97623
G01 X16.92612 Y26.97890
G01 X16.90707 Y26.98078
G01 X16.02691 Y26.98078
G01 X16.00784 Y26.97890
G01 X15.99907 Y26.97623
G01 X15.99336 Y26.98606
G01 X15.99907 Y26.97623
G01 X15.99100 Y26.97191
G01 X15.98388 Y26.96607
G01 X15.97809 Y26.95901
G01 X15.97375 Y26.95091
G01 X15.97108 Y26.94212
G01 X15.96920 Y26.92307
G01 X15.96689 Y26.92368
G01 X15.96920 Y26.92307
G01 X15.96920 Y26.24288
G04 P0 ( dwell for no time -- G64 should not smooth over this point )
G00 Z2.00000 ( retract )

G00 X18.23021 Y26.23389 ( rapid move to begin. )
G01 F40.00000
( Mill infeed pass 1/1 )
G01 Z-0.1280
G04 P0 ( dwell for no time -- G64 should not smooth over this point )
G01 F100.00000
G01 X18.23021 Y26.23389
G01 X18.23021 Y26.88908
G01 X18.22924 Y26.88923
G01 X18.23021 Y26.88908
G01 X18.23209 Y26.90811
G01 X18.23473 Y26.91689
G01 X18.23907 Y26.92500
G01 X18.24489 Y26.93208
G01 X18.23915 Y26.93782
G01 X18.24489 Y26.93208
G01 X18.25198 Y26.93790
G01 X18.26005 Y26.94222
G01 X18.26887 Y26.94489
G01 X18.28797 Y26.94676
G01 X18.28779 Y26.94778
G01 X18.28797 Y26.94676
G01 X19.21801 Y26.94676
G01 X19.23712 Y26.94489
G01 X19.24590 Y26.94222
G01 X19.25398 Y26.93790
G01 X19.26135 Y26.94913
G01 X19.25398 Y26.93790
G01 X19.26109 Y26.93208
G01 X19.26691 Y26.92500
G01 X19.27123 Y26.91689
G01 X19.27389 Y26.90811
G01 X19.27577 Y26.88901
G01 X19.27743 Y26.88936
G01 X19.27577 Y26.88901
G01 X19.27577 Y26.23396
G01 X19.27389 Y26.21484
G01 X19.27123 Y26.20608
G01 X19.26691 Y26.19797
G01 X19.27803 Y26.19066
G01 X19.26691 Y26.19797
G01 X19.26109 Y26.19089
G01 X19.25398 Y26.18507
G01 X19.24590 Y26.18075
G01 X19.23712 Y26.17808
G01 X19.21801 Y26.17618
G01 X19.21834 Y26.17458
G01 X19.21801 Y26.17618
G01 X18.28797 Y26.17618
G01 X18.26887 Y26.17808
G01 X18.26005 Y26.18075
G01 X18.25198 Y26.18507
G01 X18.24464 Y26.17384
G01 X18.25198 Y26.18507
G01 X18.24489 Y26.19089
G01 X18.23907 Y26.19797
G01 X18.23473 Y26.20608
G01 X18.23209 Y26.21484
G01 X18.23021 Y26.23389
G01 X18.22866 Y26.23356
G01 X18.15840 Y26.23033
G01 X18.08799 Y26.22698
G01 X18.08799 Y26.89602
G01 X18.09193 Y26.93600
G01 X18.10273 Y26.97161
G01 X18.12025 Y27.00437
G01 X18.14385 Y27.03312
G01 X18.17258 Y27.05672
G01 X18.20539 Y27.07425
G01 X18.24095 Y27.08504
G01 X18.28091 Y27.08898
G01 X19.22505 Y27.08898
G01 X19.26503 Y27.08504
G01 X19.30059 Y27.07425
G01 X19.33341 Y27.05672
G01 X19.36213 Y27.03312
G01 X19.38573 Y27.00437
G01 X19.40326 Y26.97161
G01 X19.41405 Y26.93597
G01 X19.41799 Y26.89607
G01 X19.41799 Y26.22690
G01 X19.41405 Y26.18700
G01 X19.40326 Y26.15136
G01 X19.38573 Y26.11860
G01 X19.36213 Y26.08985
G01 X19.33338 Y26.06625
G01 X19.30059 Y26.04872
G01 X19.26500 Y26.03790
G01 X19.22500 Y26.03399
G01 X18.28098 Y26.03399
G01 X18.24098 Y26.03790
G01 X18.20539 Y26.04872
G01 X18.17258 Y26.06625
G01 X18.14385 Y26.08985
G01 X18.12025 Y26.11860
G01 X18.10273 Y26.15136
G01 X18.09193 Y26.18697
G01 X18.08799 Y26.22698
G01 X18.15909 Y26.23041
G01 X18.16201 Y26.20089
G01 X18.16874 Y26.17872
G01 X18.17966 Y26.15830
G01 X18.17682 Y26.15642
G01 X18.17966 Y26.15830
G01 X18.19437 Y26.14037
G01 X18.21228 Y26.12566
G01 X18.23272 Y26.11474
G01 X18.23176 Y26.11263
G01 X18.23272 Y26.11474
G01 X18.25490 Y26.10801
G01 X18.28439 Y26.10508
G01 X18.28436 Y26.10481
G01 X18.28439 Y26.10508
G01 X19.22157 Y26.10508
G01 X19.22167 Y26.10440
G01 X19.22157 Y26.10508
G01 X19.25106 Y26.10801
G01 X19.27323 Y26.11474
G01 X19.29368 Y26.12566
G01 X19.29556 Y26.12281
G01 X19.29368 Y26.12566
G01 X19.31161 Y26.14037
G01 X19.32632 Y26.15830
G01 X19.33724 Y26.17872
G01 X19.33935 Y26.17775
G01 X19.33724 Y26.17872
G01 X19.34397 Y26.20089
G01 X19.34687 Y26.23041
G01 X19.34720 Y26.23041
G01 X19.34687 Y26.23041
G01 X19.34687 Y26.89254
G01 X19.34397 Y26.92208
G01 X19.34700 Y26.92299
G01 X19.34397 Y26.92208
G01 X19.33724 Y26.94422
G01 X19.32629 Y26.96470
G01 X19.31159 Y26.98260
G01 X19.29368 Y26.99731
G01 X19.29642 Y27.00107
G01 X19.29368 Y26.99731
G01 X19.27323 Y27.00823
G01 X19.25106 Y27.01496
G01 X19.22157 Y27.01788
G01 X19.22167 Y27.01857
G01 X19.22157 Y27.01788
G01 X18.28439 Y27.01788
G01 X18.28431 Y27.01857
G01 X18.28439 Y27.01788
G01 X18.25490 Y27.01496
G01 X18.23272 Y27.00823
G01 X18.21228 Y26.99731
G01 X18.21042 Y27.00016
G01 X18.21228 Y26.99731
G01 X18.19437 Y26.98260
G01 X18.17966 Y26.96470
G01 X18.16874 Y26.94422
G01 X18.16663 Y26.94522
G01 X18.16874 Y26.94422
G01 X18.16201 Y26.92208
G01 X18.15909 Y26.89254
G01 X18.15878 Y26.89256
G01 X18.15909 Y26.89254
G01 X18.15909 Y26.23041
G01 X18.15840 Y26.23033
G01 X18.22866 Y26.23356
G01 X18.28050 Y26.22650
G01 X18.30130 Y26.24733
G01 X18.30130 Y26.87567
G01 X18.28050 Y26.89650
G01 X18.30130 Y26.87567
G01 X19.20465 Y26.87567
G01 X19.22548 Y26.89650
G01 X19.20465 Y26.87567
G01 X19.20465 Y26.24733
G01 X19.22548 Y26.22650
G01 X19.20465 Y26.24733
G01 X18.30130 Y26.24733
G01 X18.28050 Y26.22650
G01 X18.37242 Y26.31842
G01 X18.37242 Y26.80455
G01 X18.35160 Y26.82538
G01 X18.37242 Y26.80455
G01 X19.13356 Y26.80455
G01 X19.15439 Y26.82538
G01 X19.13356 Y26.80455
G01 X19.13356 Y26.31842
G01 X19.15439 Y26.29759
G01 X19.13356 Y26.31842
G01 X18.37242 Y26.31842
G01 X18.44354 Y26.38954
G01 X18.44354 Y26.73343
G01 X18.42272 Y26.75426
G01 X18.44354 Y26.73343
G01 X19.06244 Y26.73343
G01 X19.08327 Y26.75426
G01 X19.06244 Y26.73343
G01 X19.06244 Y26.38954
G01 X19.08327 Y26.36869
G01 X19.06244 Y26.38954
G01 X18.44354 Y26.38954
G01 X18.42272 Y26.36869
G01 X18.51464 Y26.46063
G01 X18.51464 Y26.66234
G01 X18.49381 Y26.68316
G01 X18.51464 Y26.66234
G01 X18.99132 Y26.66234
G01 X19.01215 Y26.68316
G01 X18.99132 Y26.66234
G01 X18.99132 Y26.46063
G01 X19.01215 Y26.43978
G01 X18.99132 Y26.46063
G01 X18.51464 Y26.46063
G01 X18.58576 Y26.53175
G01 X18.92022 Y26.53175
G01 X18.94105 Y26.51093
G01 X18.92022 Y26.53175
G01 X18.92022 Y26.59122
G01 X18.94105 Y26.61204
G01 X18.92022 Y26.59122
G01 X18.58576 Y26.59122
G01 X18.56493 Y26.61204
G01 X18.58576 Y26.59122
G01 X18.58576 Y26.53175
G04 P0 ( dwell for no time -- G64 should not smooth over this point )
G00 Z2.00000 ( retract )

G00 X21.53221 Y26.38240 ( rapid move to begin. )
G01 F40.00000
( Mill infeed pass 1/1 )
G01 Z-0.1280
G04 P0 ( dwell for no time -- G64 should not smooth over this point )
G01 F100.00000
G01 X21.53221 Y26.38240
G01 X21.53221 Y27.03757
G01 X21.53066 Y27.03790
G01 X21.53221 Y27.03757
G01 X21.53409 Y27.05662
G01 X21.53673 Y27.06538
G01 X21.54107 Y27.07349
G01 X21.54689 Y27.08060
G01 X21.55398 Y27.08641
G01 X21.54664 Y27.09762
G01 X21.55398 Y27.08641
G01 X21.56205 Y27.09073
G01 X21.57087 Y27.09340
G01 X21.58992 Y27.09528
G01 X22.52007 Y27.09528
G01 X22.52040 Y27.09690
G01 X22.52007 Y27.09528
G01 X22.53912 Y27.09340
G01 X22.54790 Y27.09073
G01 X22.55598 Y27.08641
G01 X22.56307 Y27.08057
G01 X22.56891 Y27.07349
G01 X22.58001 Y27.08083
G01 X22.56891 Y27.07349
G01 X22.57323 Y27.06538
G01 X22.57589 Y27.05662
G01 X22.57777 Y27.03757
G01 X22.57777 Y26.38240
G01 X22.57943 Y26.38205
G01 X22.57777 Y26.38240
G01 X22.57589 Y26.36335
G01 X22.57323 Y26.35456
G01 X22.56891 Y26.34649
G01 X22.56307 Y26.33940
G01 X22.55598 Y26.33356
G01 X22.56335 Y26.32236
G01 X22.55598 Y26.33356
G01 X22.54790 Y26.32927
G01 X22.53912 Y26.32657
G01 X22.52001 Y26.32467
G01 X21.58997 Y26.32467
G01 X21.58979 Y26.32368
G01 X21.58997 Y26.32467
G01 X21.57087 Y26.32657
G01 X21.56205 Y26.32924
G01 X21.55398 Y26.33356
G01 X21.54689 Y26.33940
G01 X21.54115 Y26.33366
G01 X21.54689 Y26.33940
G01 X21.54107 Y26.34649
G01 X21.53676 Y26.35456
G01 X21.53409 Y26.36335
G01 X21.53221 Y26.38240
G01 X21.53124 Y26.38225
G01 X21.46109 Y26.37874
G01 X21.38999 Y26.37547
G01 X21.38999 Y27.04450
G01 X21.39365 Y27.08184
G01 X21.39393 Y27.08448
G01 X21.40473 Y27.12009
G01 X21.42225 Y27.15289
G01 X21.44585 Y27.18164
G01 X21.47460 Y27.20524
G01 X21.50737 Y27.22276
G01 X21.54298 Y27.23356
G01 X21.58296 Y27.23749
G01 X22.52702 Y27.23749
G01 X22.56700 Y27.23356
G01 X22.60259 Y27.22276
G01 X22.63541 Y27.20521
G01 X22.64343 Y27.19863
G01 X22.66413 Y27.18164
G01 X22.68773 Y27.15289
G01 X22.70526 Y27.12009
G01 X22.71605 Y27.08451
G01 X22.71999 Y27.04455
G01 X22.71999 Y26.37542
G01 X22.71605 Y26.33544
G01 X22.70526 Y26.29985
G01 X22.68773 Y26.26709
G01 X22.66413 Y26.23833
G01 X22.63538 Y26.21471
G01 X22.60262 Y26.19724
G01 X22.56700 Y26.18639
G01 X22.52702 Y26.18248
G01 X21.58296 Y26.18248
G01 X21.54298 Y26.18639
G01 X21.50737 Y26.19721
G01 X21.47460 Y26.21471
G01 X21.44585 Y26.23833
G01 X21.42225 Y26.26709
G01 X21.40473 Y26.29990
G01 X21.39393 Y26.33549
G01 X21.38999 Y26.37547
G01 X21.45987 Y26.37869
G01 X21.46109 Y26.37895
G01 X21.46401 Y26.34941
G01 X21.47074 Y26.32721
G01 X21.48166 Y26.30679
G01 X21.49637 Y26.28888
G01 X21.49177 Y26.28428
G01 X21.49637 Y26.28888
G01 X21.51428 Y26.27415
G01 X21.53472 Y26.26323
G01 X21.55690 Y26.25652
G01 X21.58644 Y26.25357
G01 X21.58621 Y26.25235
G01 X21.58644 Y26.25357
G01 X22.52352 Y26.25357
G01 X22.52362 Y26.25289
G01 X22.52352 Y26.25357
G01 X22.55306 Y26.25652
G01 X22.57523 Y26.26323
G01 X22.59568 Y26.27415
G01 X22.59756 Y26.27133
G01 X22.59568 Y26.27415
G01 X22.61361 Y26.28888
G01 X22.62832 Y26.30679
G01 X22.63924 Y26.32721
G01 X22.64132 Y26.32624
G01 X22.63924 Y26.32721
G01 X22.64597 Y26.34941
G01 X22.64887 Y26.37895
G01 X22.64917 Y26.37890
G01 X22.64887 Y26.37895
G01 X22.64887 Y27.04102
G01 X22.64955 Y27.04113
G01 X22.64887 Y27.04102
G01 X22.64597 Y27.07056
G01 X22.63924 Y27.09274
G01 X22.62832 Y27.11319
G01 X22.63114 Y27.11504
G01 X22.62832 Y27.11319
G01 X22.61359 Y27.13112
G01 X22.59568 Y27.14580
G01 X22.57523 Y27.15675
G01 X22.57622 Y27.15883
G01 X22.57523 Y27.15675
G01 X22.55306 Y27.16348
G01 X22.52352 Y27.16637
G01 X22.52355 Y27.16668
G01 X22.52352 Y27.16637
G01 X21.58646 Y27.16637
G01 X21.58636 Y27.16706
G01 X21.58646 Y27.16637
G01 X21.55690 Y27.16348
G01 X21.53472 Y27.15675
G01 X21.51428 Y27.14580
G01 X21.51242 Y27.14864
G01 X21.51428 Y27.14580
G01 X21.49637 Y27.13112
G01 X21.48166 Y27.11319
G01 X21.47074 Y27.09274
G01 X21.46863 Y27.09370
G01 X21.47074 Y27.09274
G01 X21.46401 Y27.07056
G01 X21.46109 Y27.04102
G01 X21.46078 Y27.04105
G01 X21.46109 Y27.04102
G01 X21.46109 Y26.37895
G01 X21.45987 Y26.37869
G01 X21.53124 Y26.38225
G01 X21.58250 Y26.37499
G01 X21.60330 Y26.39581
G01 X21.60330 Y27.02416
G01 X21.58250 Y27.04499
G01 X21.60330 Y27.02416
G01 X22.50665 Y27.02416
G01 X22.52748 Y27.04499
G01 X22.50665 Y27.02416
G01 X22.50665 Y26.39581
G01 X22.52748 Y26.37499
G01 X22.50665 Y26.39581
G01 X21.60330 Y26.39581
G01 X21.58250 Y26.37499
G01 X21.67442 Y26.46693
G01 X21.67442 Y26.95304
G01 X21.65360 Y26.97387
G01 X21.67442 Y26.95304
G01 X22.43556 Y26.95304
G01 X22.45639 Y26.97387
G01 X22.43556 Y26.95304
G01 X22.43556 Y26.46693
G01 X22.45639 Y26.44608
G01 X22.43556 Y26.46693
G01 X21.67442 Y26.46693
G01 X21.65360 Y26.44608
G01 X21.74554 Y26.53803
G01 X21.74554 Y26.88194
G01 X21.72472 Y26.90277
G01 X21.74554 Y26.88194
G01 X22.36444 Y26.88194
G01 X22.38527 Y26.90277
G01 X22.36444 Y26.88194
G01 X22.36444 Y26.53803
G01 X22.38527 Y26.51717
G01 X22.36444 Y26.53803
G01 X21.74554 Y26.53803
G01 X21.81664 Y26.60915
G01 X21.81664 Y26.81082
G01 X21.79581 Y26.83165
G01 X21.81664 Y26.81082
G01 X22.29332 Y26.81082
G01 X22.31415 Y26.83165
G01 X22.29332 Y26.81082
G01 X22.29332 Y26.60915
G01 X22.31415 Y26.58832
G01 X22.29332 Y26.60915
G01 X21.81664 Y26.60915
G01 X21.88776 Y26.68024
G01 X22.22222 Y26.68024
G01 X22.24305 Y26.65941
G01 X22.22222 Y26.68024
G01 X22.22222 Y26.73973
G01 X22.24305 Y26.76056
G01 X22.22222 Y26.73973
G01 X21.88776 Y26.73973
G01 X21.86693 Y26.76056
G01 X21.88776 Y26.73973
G01 X21.88776 Y26.68024
G04 P0 ( dwell for no time -- G64 should not smooth over this point )
G00 Z2.00000 ( retract )

G00 X21.88776 Y24.60527 ( rapid move to begin. )
G01 F40.00000
( Mill infeed pass 1/1 )
G01 Z-0.1280
G04 P0 ( dwell for no time -- G64 should not smooth over this point )
G01 F100.00000
G01 X21.88776 Y24.60527
G01 X21.88776 Y24.66473
G01 X21.86693 Y24.68556
G01 X21.88776 Y24.66473
G01 X22.22222 Y24.66473
G01 X22.24305 Y24.68556
G01 X22.22222 Y24.66473
G01 X22.22222 Y24.60527
G01 X22.24305 Y24.58444
G01 X22.22222 Y24.60527
G01 X21.88776 Y24.60527
G01 X21.81664 Y24.53415
G01 X22.29332 Y24.53415
G01 X22.31415 Y24.51332
G01 X22.29332 Y24.53415
G01 X22.29332 Y24.73582
G01 X22.31415 Y24.75665
G01 X22.29332 Y24.73582
G01 X21.81664 Y24.73582
G01 X21.79581 Y24.75665
G01 X21.81664 Y24.73582
G01 X21.81664 Y24.53415
G01 X21.72472 Y24.44222
G01 X21.74554 Y24.46303
G01 X22.36444 Y24.46303
G01 X22.38527 Y24.44222
G01 X22.36444 Y24.46303
G01 X22.36444 Y24.80694
G01 X22.38527 Y24.82777
G01 X22.36444 Y24.80694
G01 X21.74554 Y24.80694
G01 X21.72472 Y24.82777
G01 X21.74554 Y24.80694
G01 X21.74554 Y24.46303
G01 X21.67442 Y24.39193
G01 X22.43556 Y24.39193
G01 X22.45639 Y24.37110
G01 X22.43556 Y24.39193
G01 X22.43556 Y24.87806
G01 X22.45639 Y24.89889
G01 X22.43556 Y24.87806
G01 X21.67442 Y24.87806
G01 X21.65360 Y24.89889
G01 X21.67442 Y24.87806
G01 X21.67442 Y24.39193
G01 X21.60330 Y24.32081
G01 X22.50665 Y24.32081
G01 X22.52748 Y24.29998
G01 X22.50665 Y24.32081
G01 X22.50665 Y24.94916
G01 X22.52748 Y24.96998
G01 X22.50665 Y24.94916
G01 X21.60330 Y24.94916
G01 X21.58250 Y24.96998
G01 X21.60330 Y24.94916
G01 X21.60330 Y24.32081
G01 X21.58250 Y24.29998
G01 X21.53124 Y24.30725
G01 X21.46078 Y24.30392
G01 X21.38999 Y24.30047
G01 X21.39393 Y24.26049
G01 X21.40470 Y24.22490
G01 X21.42225 Y24.19208
G01 X21.44585 Y24.16333
G01 X21.47460 Y24.13973
G01 X21.50737 Y24.12223
G01 X21.54298 Y24.11141
G01 X21.58296 Y24.10748
G01 X22.52702 Y24.10748
G01 X22.56700 Y24.11141
G01 X22.60262 Y24.12223
G01 X22.63538 Y24.13973
G01 X22.66413 Y24.16333
G01 X22.68773 Y24.19211
G01 X22.70526 Y24.22488
G01 X22.71605 Y24.26049
G01 X22.71999 Y24.30042
G01 X22.71999 Y24.96955
G01 X22.71605 Y25.00951
G01 X22.70526 Y25.04509
G01 X22.68773 Y25.07788
G01 X22.66413 Y25.10664
G01 X22.63538 Y25.13023
G01 X22.60262 Y25.14776
G01 X22.56703 Y25.15855
G01 X22.52702 Y25.16249
G01 X21.58296 Y25.16249
G01 X21.54295 Y25.15855
G01 X21.50737 Y25.14776
G01 X21.47460 Y25.13023
G01 X21.44585 Y25.10664
G01 X21.42225 Y25.07788
G01 X21.40473 Y25.04509
G01 X21.39393 Y25.00948
G01 X21.38999 Y24.96950
G01 X21.38999 Y24.30047
G01 X21.46109 Y24.30395
G01 X21.46401 Y24.27441
G01 X21.47074 Y24.25223
G01 X21.46863 Y24.25127
G01 X21.47074 Y24.25223
G01 X21.48166 Y24.23178
G01 X21.49637 Y24.21385
G01 X21.51428 Y24.19917
G01 X21.51242 Y24.19633
G01 X21.51428 Y24.19917
G01 X21.53472 Y24.18822
G01 X21.55690 Y24.18152
G01 X21.58646 Y24.17860
G01 X21.58636 Y24.17791
G01 X21.58646 Y24.17860
G01 X22.52352 Y24.17860
G01 X22.52355 Y24.17829
G01 X22.52352 Y24.17860
G01 X22.55306 Y24.18152
G01 X22.57523 Y24.18822
G01 X22.57622 Y24.18614
G01 X22.57523 Y24.18822
G01 X22.59568 Y24.19917
G01 X22.61359 Y24.21385
G01 X22.62832 Y24.23178
G01 X22.63114 Y24.22993
G01 X22.62832 Y24.23178
G01 X22.63924 Y24.25223
G01 X22.64597 Y24.27441
G01 X22.64887 Y24.30395
G01 X22.64955 Y24.30384
G01 X22.64887 Y24.30395
G01 X22.64887 Y24.96602
G01 X22.64917 Y24.96605
G01 X22.64887 Y24.96602
G01 X22.64597 Y24.99556
G01 X22.63924 Y25.01774
G01 X22.64132 Y25.01873
G01 X22.63924 Y25.01774
G01 X22.62832 Y25.03818
G01 X22.61361 Y25.05612
G01 X22.59568 Y25.07082
G01 X22.59756 Y25.07364
G01 X22.59568 Y25.07082
G01 X22.57523 Y25.08174
G01 X22.55306 Y25.08848
G01 X22.52357 Y25.09137
G01 X22.52367 Y25.09206
G01 X22.52357 Y25.09137
G01 X21.58639 Y25.09137
G01 X21.58636 Y25.09168
G01 X21.58639 Y25.09137
G01 X21.55690 Y25.08848
G01 X21.53472 Y25.08174
G01 X21.53376 Y25.08383
G01 X21.53472 Y25.08174
G01 X21.51428 Y25.07082
G01 X21.49637 Y25.05612
G01 X21.48166 Y25.03818
G01 X21.47882 Y25.04004
G01 X21.48166 Y25.03818
G01 X21.47074 Y25.01774
G01 X21.46401 Y24.99556
G01 X21.46109 Y24.96602
G01 X21.46040 Y24.96612
G01 X21.46109 Y24.96602
G01 X21.46109 Y24.30395
G01 X21.46078 Y24.30392
G01 X21.53124 Y24.30725
G01 X21.53221 Y24.30740
G01 X21.53409 Y24.28835
G01 X21.53676 Y24.27959
G01 X21.54107 Y24.27148
G01 X21.54689 Y24.26440
G01 X21.54115 Y24.25866
G01 X21.54689 Y24.26440
G01 X21.55398 Y24.25858
G01 X21.56205 Y24.25426
G01 X21.57087 Y24.25157
G01 X21.58997 Y24.24969
G01 X21.58979 Y24.24870
G01 X21.58997 Y24.24969
G01 X22.52001 Y24.24969
G01 X22.53912 Y24.25157
G01 X22.54790 Y24.25426
G01 X22.55598 Y24.25858
G01 X22.56335 Y24.24735
G01 X22.55598 Y24.25858
G01 X22.56307 Y24.26440
G01 X22.56891 Y24.27148
G01 X22.57323 Y24.27959
G01 X22.57589 Y24.28835
G01 X22.57777 Y24.30740
G01 X22.57943 Y24.30704
G01 X22.57777 Y24.30740
G01 X22.57777 Y24.96257
G01 X22.57589 Y24.98162
G01 X22.57323 Y24.99038
G01 X22.56891 Y24.99848
G01 X22.58003 Y25.00582
G01 X22.56891 Y24.99848
G01 X22.56307 Y25.00560
G01 X22.55598 Y25.01141
G01 X22.54790 Y25.01573
G01 X22.53912 Y25.01840
G01 X22.52001 Y25.02028
G01 X22.52034 Y25.02190
G01 X22.52001 Y25.02028
G01 X21.58997 Y25.02028
G01 X21.57087 Y25.01840
G01 X21.56205 Y25.01573
G01 X21.55398 Y25.01141
G01 X21.54664 Y25.02261
G01 X21.55398 Y25.01141
G01 X21.54689 Y25.00560
G01 X21.54107 Y24.99848
G01 X21.53676 Y24.99038
G01 X21.53409 Y24.98162
G01 X21.53221 Y24.96257
G01 X21.53066 Y24.96290
G01 X21.53221 Y24.96257
G01 X21.53221 Y24.30740
G04 P0 ( dwell for no time -- G64 should not smooth over this point )
G00 Z2.00000 ( retract )

G00 X21.55720 Y22.03590 ( rapid move to begin. )
G01 F40.00000
( Mill infeed pass 1/1 )
G01 Z-0.1280
G04 P0 ( dwell for no time -- G64 should not smooth over this point )
G01 F100.00000
G01 X21.55720 Y22.03590
G01 X21.55720 Y22.71606
G01 X21.55565 Y22.71639
G01 X21.55720 Y22.71606
G01 X21.55908 Y22.73511
G01 X21.56175 Y22.74390
G01 X21.56607 Y22.75198
G01 X21.57188 Y22.75907
G01 X21.57900 Y22.76491
G01 X21.57165 Y22.77611
G01 X21.57900 Y22.76491
G01 X21.58707 Y22.76923
G01 X21.59586 Y22.77189
G01 X21.61491 Y22.77377
G01 X22.49507 Y22.77377
G01 X22.49543 Y22.77540
G01 X22.49507 Y22.77377
G01 X22.51412 Y22.77189
G01 X22.52288 Y22.76923
G01 X22.53099 Y22.76491
G01 X22.53807 Y22.75907
G01 X22.54392 Y22.75198
G01 X22.55504 Y22.75932
G01 X22.54392 Y22.75198
G01 X22.54823 Y22.74390
G01 X22.55090 Y22.73511
G01 X22.55276 Y22.71606
G01 X22.55276 Y22.03590
G01 X22.55443 Y22.03557
G01 X22.55276 Y22.03590
G01 X22.55090 Y22.01685
G01 X22.54823 Y22.00809
G01 X22.54389 Y21.99999
G01 X22.53807 Y21.99290
G01 X22.53099 Y21.98706
G01 X22.53833 Y21.97586
G01 X22.53099 Y21.98706
G01 X22.52291 Y21.98274
G01 X22.51412 Y21.98007
G01 X22.49502 Y21.97819
G01 X21.61496 Y21.97819
G01 X21.61478 Y21.97718
G01 X21.61496 Y21.97819
G01 X21.59586 Y21.98007
G01 X21.58707 Y21.98274
G01 X21.57900 Y21.98706
G01 X21.57188 Y21.99290
G01 X21.56617 Y21.98716
G01 X21.57188 Y21.99290
G01 X21.56607 Y21.99999
G01 X21.56175 Y22.00809
G01 X21.55908 Y22.01685
G01 X21.55720 Y22.03590
G01 X21.55624 Y22.03575
G01 X21.48611 Y22.03227
G01 X21.41499 Y22.02892
G01 X21.41499 Y22.72305
G01 X21.41892 Y22.76300
G01 X21.42972 Y22.79859
G01 X21.44725 Y22.83138
G01 X21.47084 Y22.86013
G01 X21.49959 Y22.88373
G01 X21.53239 Y22.90126
G01 X21.56797 Y22.91205
G01 X21.60793 Y22.91599
G01 X22.50206 Y22.91599
G01 X22.54199 Y22.91205
G01 X22.57760 Y22.90126
G01 X22.61036 Y22.88373
G01 X22.63914 Y22.86011
G01 X22.66274 Y22.83138
G01 X22.68026 Y22.79859
G01 X22.69106 Y22.76300
G01 X22.69500 Y22.72300
G01 X22.69500 Y22.02897
G01 X22.69106 Y21.98896
G01 X22.68026 Y21.95338
G01 X22.66271 Y21.92059
G01 X22.63914 Y21.89183
G01 X22.61039 Y21.86824
G01 X22.57760 Y21.85071
G01 X22.54199 Y21.83992
G01 X22.50203 Y21.83598
G01 X21.60795 Y21.83598
G01 X21.56797 Y21.83992
G01 X21.53239 Y21.85071
G01 X21.49959 Y21.86826
G01 X21.47084 Y21.89183
G01 X21.44725 Y21.92059
G01 X21.42972 Y21.95338
G01 X21.41892 Y21.98899
G01 X21.41499 Y22.02892
G01 X21.48486 Y22.03222
G01 X21.48611 Y22.03245
G01 X21.48900 Y22.00291
G01 X21.49573 Y21.98073
G01 X21.50666 Y21.96029
G01 X21.52136 Y21.94236
G01 X21.51677 Y21.93776
G01 X21.52136 Y21.94236
G01 X21.53930 Y21.92767
G01 X21.55974 Y21.91673
G01 X21.58192 Y21.91000
G01 X21.61146 Y21.90710
G01 X21.61120 Y21.90586
G01 X21.61146 Y21.90710
G01 X22.49853 Y21.90710
G01 X22.49863 Y21.90641
G01 X22.49853 Y21.90710
G01 X22.52804 Y21.91000
G01 X22.55024 Y21.91673
G01 X22.57069 Y21.92767
G01 X22.57254 Y21.92483
G01 X22.57069 Y21.92767
G01 X22.58859 Y21.94236
G01 X22.60333 Y21.96029
G01 X22.61425 Y21.98073
G01 X22.61633 Y21.97977
G01 X22.61425 Y21.98073
G01 X22.62098 Y22.00291
G01 X22.62388 Y22.03245
G01 X22.62418 Y22.03242
G01 X22.62388 Y22.03245
G01 X22.62388 Y22.71952
G01 X22.62456 Y22.71962
G01 X22.62388 Y22.71952
G01 X22.62098 Y22.74908
G01 X22.61425 Y22.77123
G01 X22.60333 Y22.79168
G01 X22.60615 Y22.79353
G01 X22.60333 Y22.79168
G01 X22.58859 Y22.80961
G01 X22.57066 Y22.82432
G01 X22.55024 Y22.83524
G01 X22.55123 Y22.83732
G01 X22.55024 Y22.83524
G01 X22.52804 Y22.84197
G01 X22.49853 Y22.84487
G01 X22.49855 Y22.84517
G01 X22.49853 Y22.84487
G01 X21.61146 Y22.84487
G01 X21.61135 Y22.84555
G01 X21.61146 Y22.84487
G01 X21.58192 Y22.84197
G01 X21.55972 Y22.83524
G01 X21.53930 Y22.82432
G01 X21.53744 Y22.82716
G01 X21.53930 Y22.82432
G01 X21.52136 Y22.80961
G01 X21.50666 Y22.79168
G01 X21.49573 Y22.77123
G01 X21.49363 Y22.77222
G01 X21.49573 Y22.77123
G01 X21.48900 Y22.74908
G01 X21.48611 Y22.71952
G01 X21.48580 Y22.71954
G01 X21.48611 Y22.71952
G01 X21.48611 Y22.03245
G01 X21.48486 Y22.03222
G01 X21.55624 Y22.03575
G01 X21.60749 Y22.02849
G01 X21.62832 Y22.04931
G01 X21.62832 Y22.70265
G01 X21.60749 Y22.72348
G01 X21.62832 Y22.70265
G01 X22.48166 Y22.70265
G01 X22.50249 Y22.72348
G01 X22.48166 Y22.70265
G01 X22.48166 Y22.04931
G01 X22.50249 Y22.02849
G01 X22.48166 Y22.04931
G01 X21.62832 Y22.04931
G01 X21.69942 Y22.12043
G01 X21.69942 Y22.63153
G01 X21.67859 Y22.65236
G01 X21.69942 Y22.63153
G01 X22.41054 Y22.63153
G01 X22.43137 Y22.65236
G01 X22.41054 Y22.63153
G01 X22.41054 Y22.12043
G01 X22.43137 Y22.09961
G01 X22.41054 Y22.12043
G01 X21.69942 Y22.12043
G01 X21.77054 Y22.19153
G01 X21.77054 Y22.56044
G01 X21.74971 Y22.58127
G01 X21.77054 Y22.56044
G01 X22.33945 Y22.56044
G01 X22.36027 Y22.58127
G01 X22.33945 Y22.56044
G01 X22.33945 Y22.19153
G01 X22.36027 Y22.17070
G01 X22.33945 Y22.19153
G01 X21.77054 Y22.19153
G01 X21.84166 Y22.26265
G01 X21.84166 Y22.48934
G01 X21.82083 Y22.51017
G01 X21.84166 Y22.48934
G01 X22.26833 Y22.48934
G01 X22.28915 Y22.51017
G01 X22.26833 Y22.48934
G01 X22.26833 Y22.26265
G01 X22.28915 Y22.24182
G01 X22.26833 Y22.26265
G01 X21.84166 Y22.26265
G01 X21.91275 Y22.33374
G01 X21.91275 Y22.41822
G01 X21.89192 Y22.43905
G01 X21.91275 Y22.41822
G01 X22.19723 Y22.41822
G01 X22.21806 Y22.43905
G01 X22.19723 Y22.41822
G01 X22.19723 Y22.33374
G01 X22.21806 Y22.31292
G01 X22.19723 Y22.33374
G01 X21.91275 Y22.33374
G04 P0 ( dwell for no time -- G64 should not smooth over this point )
G00 Z2.00000 ( retract )

G00 X24.87099 Y21.90598 ( rapid move to begin. )
G01 F40.00000
( Mill infeed pass 1/1 )
G01 Z-0.1280
G04 P0 ( dwell for no time -- G64 should not smooth over this point )
G01 F100.00000
G01 X24.87099 Y21.90598
G01 X24.87099 Y23.38599
G01 X26.35097 Y23.38599
G01 X26.35097 Y21.90598
G01 X24.87099 Y21.90598
G01 X24.94208 Y21.97710
G01 X24.94208 Y23.31487
G01 X24.92128 Y23.33570
G01 X24.94208 Y23.31487
G01 X26.27988 Y23.31487
G01 X26.30070 Y23.33570
G01 X26.27988 Y23.31487
G01 X26.27988 Y21.97710
G01 X26.30070 Y21.95627
G01 X26.27988 Y21.97710
G01 X24.94208 Y21.97710
G01 X24.92128 Y21.95627
G01 X25.01320 Y22.04820
G01 X25.01320 Y23.24377
G01 X24.99237 Y23.26460
G01 X25.01320 Y23.24377
G01 X26.20878 Y23.24377
G01 X26.22956 Y23.26460
G01 X26.20878 Y23.24377
G01 X26.20878 Y22.04820
G01 X26.22956 Y22.02737
G01 X26.20878 Y22.04820
G01 X25.01320 Y22.04820
G01 X25.08432 Y22.11932
G01 X25.08432 Y23.17265
G01 X25.06349 Y23.19348
G01 X25.08432 Y23.17265
G01 X26.13766 Y23.17265
G01 X26.15846 Y23.19348
G01 X26.13766 Y23.17265
G01 X26.13766 Y22.11932
G01 X26.15846 Y22.09849
G01 X26.13766 Y22.11932
G01 X25.08432 Y22.11932
G01 X25.15542 Y22.19044
G01 X25.15542 Y23.10156
G01 X25.13459 Y23.12239
G01 X25.15542 Y23.10156
G01 X26.06654 Y23.10156
G01 X26.08737 Y23.12239
G01 X26.06654 Y23.10156
G01 X26.06654 Y22.19044
G01 X26.08737 Y22.16961
G01 X26.06654 Y22.19044
G01 X25.15542 Y22.19044
G01 X25.22654 Y22.26153
G01 X25.22654 Y23.03044
G01 X25.20571 Y23.05127
G01 X25.22654 Y23.03044
G01 X25.99545 Y23.03044
G01 X26.01627 Y23.05127
G01 X25.99545 Y23.03044
G01 X25.99545 Y22.26153
G01 X26.01627 Y22.24070
G01 X25.99545 Y22.26153
G01 X25.22654 Y22.26153
G01 X25.29766 Y22.33265
G01 X25.29766 Y22.95932
G01 X25.27683 Y22.98015
G01 X25.29766 Y22.95932
G01 X25.92433 Y22.95932
G01 X25.94515 Y22.98015
G01 X25.92433 Y22.95932
G01 X25.92433 Y22.33265
G01 X25.94515 Y22.31182
G01 X25.92433 Y22.33265
G01 X25.29766 Y22.33265
G01 X25.36875 Y22.40375
G01 X25.36875 Y22.88823
G01 X25.34792 Y22.90905
G01 X25.36875 Y22.88823
G01 X25.85323 Y22.88823
G01 X25.87406 Y22.90905
G01 X25.85323 Y22.88823
G01 X25.85323 Y22.40375
G01 X25.87406 Y22.38292
G01 X25.85323 Y22.40375
G01 X25.36875 Y22.40375
G01 X25.43987 Y22.47487
G01 X25.43987 Y22.81711
G01 X25.41902 Y22.83793
G01 X25.43987 Y22.81711
G01 X25.78209 Y22.81711
G01 X25.80294 Y22.83793
G01 X25.78209 Y22.81711
G01 X25.78209 Y22.47487
G01 X25.80294 Y22.45404
G01 X25.78209 Y22.47487
G01 X25.43987 Y22.47487
G01 X25.41902 Y22.45404
G01 X25.51094 Y22.54596
G01 X25.51094 Y22.74601
G01 X25.49011 Y22.76684
G01 X25.51094 Y22.74601
G01 X25.71099 Y22.74601
G01 X25.73184 Y22.76684
G01 X25.71099 Y22.74601
G01 X25.71099 Y22.54596
G01 X25.73184 Y22.52516
G01 X25.71099 Y22.54596
G01 X25.51094 Y22.54596
G01 X25.58209 Y22.61708
G01 X25.58209 Y22.67489
G01 X25.56126 Y22.69572
G01 X25.58209 Y22.67489
G01 X25.63990 Y22.67489
G01 X25.66072 Y22.69572
G01 X25.63990 Y22.67489
G01 X25.63990 Y22.61708
G01 X25.66072 Y22.59625
G01 X25.63990 Y22.61708
G01 X25.58209 Y22.61708
G04 P0 ( dwell for no time -- G64 should not smooth over this point )
G00 Z2.00000 ( retract )

G00 X24.87132 Y24.64598 ( rapid move to begin. )
G01 F40.00000
( Mill infeed pass 1/1 )
G01 Z-0.1280
G04 P0 ( dwell for no time -- G64 should not smooth over this point )
G01 F100.00000
G01 X24.87132 Y24.64598
G01 X24.88750 Y24.49218
G01 X24.93528 Y24.34514
G01 X25.01259 Y24.21121
G01 X25.11605 Y24.09630
G01 X25.24114 Y24.00542
G01 X25.38242 Y23.94253
G01 X25.53365 Y23.91037
G01 X25.68831 Y23.91037
G01 X25.83954 Y23.94253
G01 X25.98082 Y24.00542
G01 X26.10588 Y24.09630
G01 X26.20939 Y24.21124
G01 X26.28671 Y24.34512
G01 X26.33446 Y24.49221
G01 X26.35064 Y24.64598
G01 X26.33446 Y24.79975
G01 X26.28671 Y24.94684
G01 X26.20939 Y25.08075
G01 X26.10588 Y25.19566
G01 X25.98084 Y25.28654
G01 X25.83954 Y25.34946
G01 X25.68828 Y25.38162
G01 X25.53365 Y25.38159
G01 X25.38242 Y25.34946
G01 X25.24114 Y25.28654
G01 X25.11605 Y25.19566
G01 X25.01259 Y25.08075
G01 X24.95918 Y24.98827
G01 X24.93528 Y24.94684
G01 X24.88750 Y24.79978
G01 X24.87132 Y24.64598
G01 X24.94282 Y24.64598
G01 X24.95742 Y24.50707
G01 X24.95704 Y24.50699
G01 X24.95742 Y24.50707
G01 X25.00058 Y24.37420
G01 X25.00022 Y24.37405
G01 X25.00058 Y24.37420
G01 X25.07043 Y24.25325
G01 X25.07010 Y24.25302
G01 X25.07043 Y24.25325
G01 X25.16390 Y24.14944
G01 X25.16362 Y24.14916
G01 X25.16390 Y24.14944
G01 X25.27691 Y24.06734
G01 X25.27670 Y24.06699
G01 X25.27691 Y24.06734
G01 X25.40451 Y24.01052
G01 X25.40439 Y24.01014
G01 X25.40451 Y24.01052
G01 X25.54112 Y23.98147
G01 X25.54109 Y23.98109
G01 X25.54112 Y23.98147
G01 X25.68084 Y23.98149
G01 X25.68087 Y23.98109
G01 X25.68084 Y23.98149
G01 X25.81747 Y24.01052
G01 X25.81760 Y24.01014
G01 X25.81747 Y24.01052
G01 X25.94505 Y24.06734
G01 X25.94526 Y24.06699
G01 X25.94505 Y24.06734
G01 X26.05808 Y24.14944
G01 X26.05831 Y24.14916
G01 X26.05808 Y24.14944
G01 X26.15155 Y24.25325
G01 X26.15186 Y24.25302
G01 X26.15155 Y24.25325
G01 X26.22138 Y24.37420
G01 X26.22173 Y24.37405
G01 X26.22138 Y24.37420
G01 X26.26456 Y24.50707
G01 X26.26494 Y24.50699
G01 X26.26456 Y24.50707
G01 X26.27916 Y24.64598
G01 X26.27954 Y24.64598
G01 X26.27916 Y24.64598
G01 X26.26456 Y24.78492
G01 X26.26494 Y24.78500
G01 X26.26456 Y24.78492
G01 X26.22138 Y24.91776
G01 X26.22173 Y24.91791
G01 X26.22138 Y24.91776
G01 X26.15155 Y25.03872
G01 X26.15186 Y25.03895
G01 X26.15155 Y25.03872
G01 X26.05808 Y25.14253
G01 X26.05831 Y25.14283
G01 X26.05808 Y25.14253
G01 X25.94505 Y25.22464
G01 X25.94526 Y25.22498
G01 X25.94505 Y25.22464
G01 X25.81744 Y25.28146
G01 X25.81757 Y25.28185
G01 X25.81744 Y25.28146
G01 X25.68084 Y25.31050
G01 X25.68087 Y25.31088
G01 X25.68084 Y25.31050
G01 X25.54112 Y25.31050
G01 X25.54109 Y25.31088
G01 X25.54112 Y25.31050
G01 X25.40454 Y25.28146
G01 X25.40441 Y25.28185
G01 X25.40454 Y25.28146
G01 X25.27691 Y25.22464
G01 X25.27670 Y25.22498
G01 X25.27691 Y25.22464
G01 X25.16390 Y25.14253
G01 X25.16362 Y25.14283
G01 X25.16390 Y25.14253
G01 X25.07043 Y25.03872
G01 X25.07010 Y25.03895
G01 X25.07043 Y25.03872
G01 X25.00058 Y24.91776
G01 X25.00022 Y24.91791
G01 X25.00058 Y24.91776
G01 X24.95742 Y24.78489
G01 X24.95704 Y24.78500
G01 X24.95742 Y24.78489
G01 X24.94282 Y24.64598
G01 X25.01432 Y24.64598
G01 X25.02735 Y24.52193
G01 X25.02697 Y24.52185
G01 X25.02735 Y24.52193
G01 X25.06591 Y24.40329
G01 X25.06555 Y24.40313
G01 X25.06591 Y24.40329
G01 X25.12826 Y24.29528
G01 X25.12796 Y24.29506
G01 X25.12826 Y24.29528
G01 X25.21175 Y24.20257
G01 X25.21147 Y24.20227
G01 X25.21175 Y24.20257
G01 X25.31264 Y24.12927
G01 X25.31247 Y24.12891
G01 X25.31264 Y24.12927
G01 X25.42661 Y24.07852
G01 X25.42649 Y24.07816
G01 X25.42661 Y24.07852
G01 X25.54858 Y24.05259
G01 X25.54856 Y24.05221
G01 X25.54858 Y24.05259
G01 X25.67337 Y24.05259
G01 X25.67340 Y24.05221
G01 X25.67337 Y24.05259
G01 X25.79537 Y24.07852
G01 X25.79550 Y24.07814
G01 X25.79537 Y24.07852
G01 X25.90931 Y24.12924
G01 X25.90952 Y24.12891
G01 X25.90931 Y24.12924
G01 X26.01025 Y24.20257
G01 X26.01051 Y24.20229
G01 X26.01025 Y24.20257
G01 X26.09369 Y24.29526
G01 X26.09402 Y24.29503
G01 X26.09369 Y24.29526
G01 X26.15608 Y24.40331
G01 X26.15641 Y24.40313
G01 X26.15608 Y24.40331
G01 X26.19461 Y24.52193
G01 X26.19499 Y24.52185
G01 X26.19461 Y24.52193
G01 X26.20766 Y24.64598
G01 X26.20804 Y24.64598
G01 X26.20766 Y24.64598
G01 X26.19461 Y24.77004
G01 X26.19499 Y24.77014
G01 X26.19461 Y24.77004
G01 X26.15608 Y24.88868
G01 X26.15641 Y24.88883
G01 X26.15608 Y24.88868
G01 X26.09369 Y24.99671
G01 X26.09402 Y24.99693
G01 X26.09369 Y24.99671
G01 X26.01023 Y25.08939
G01 X26.01046 Y25.08969
G01 X26.01023 Y25.08939
G01 X25.90934 Y25.16272
G01 X25.90952 Y25.16305
G01 X25.90934 Y25.16272
G01 X25.79537 Y25.21344
G01 X25.79550 Y25.21382
G01 X25.79537 Y25.21344
G01 X25.67337 Y25.23938
G01 X25.67340 Y25.23978
G01 X25.67337 Y25.23938
G01 X25.54858 Y25.23938
G01 X25.54856 Y25.23978
G01 X25.54858 Y25.23938
G01 X25.42661 Y25.21344
G01 X25.42649 Y25.21382
G01 X25.42661 Y25.21344
G01 X25.31264 Y25.16269
G01 X25.31244 Y25.16305
G01 X25.31264 Y25.16269
G01 X25.21175 Y25.08942
G01 X25.21150 Y25.08969
G01 X25.21175 Y25.08942
G01 X25.12826 Y24.99668
G01 X25.12793 Y24.99691
G01 X25.12826 Y24.99668
G01 X25.06591 Y24.88868
G01 X25.06555 Y24.88883
G01 X25.06591 Y24.88868
G01 X25.02735 Y24.77004
G01 X25.02697 Y24.77014
G01 X25.02735 Y24.77004
G01 X25.01432 Y24.64598
G01 X25.08582 Y24.64598
G01 X25.09730 Y24.53679
G01 X25.09692 Y24.53671
G01 X25.09730 Y24.53679
G01 X25.13124 Y24.43237
G01 X25.13088 Y24.43222
G01 X25.13124 Y24.43237
G01 X25.18610 Y24.33732
G01 X25.18580 Y24.33709
G01 X25.18610 Y24.33732
G01 X25.25958 Y24.25571
G01 X25.25933 Y24.25543
G01 X25.25958 Y24.25571
G01 X25.34841 Y24.19117
G01 X25.34820 Y24.19084
G01 X25.34841 Y24.19117
G01 X25.44871 Y24.14652
G01 X25.44856 Y24.14616
G01 X25.44871 Y24.14652
G01 X25.55610 Y24.12371
G01 X25.55605 Y24.12330
G01 X25.55610 Y24.12371
G01 X25.66588 Y24.12371
G01 X25.66588 Y24.12330
G01 X25.66588 Y24.12371
G01 X25.77325 Y24.14652
G01 X25.77340 Y24.14616
G01 X25.77325 Y24.14652
G01 X25.87355 Y24.19117
G01 X25.87375 Y24.19084
G01 X25.87355 Y24.19117
G01 X25.96240 Y24.25571
G01 X25.96265 Y24.25543
G01 X25.96240 Y24.25571
G01 X26.03586 Y24.33732
G01 X26.03616 Y24.33709
G01 X26.03586 Y24.33732
G01 X26.09075 Y24.43237
G01 X26.09108 Y24.43222
G01 X26.09075 Y24.43237
G01 X26.12468 Y24.53681
G01 X26.12506 Y24.53671
G01 X26.12468 Y24.53681
G01 X26.13616 Y24.64598
G01 X26.13654 Y24.64598
G01 X26.13616 Y24.64598
G01 X26.12468 Y24.75518
G01 X26.12506 Y24.75525
G01 X26.12468 Y24.75518
G01 X26.09075 Y24.85960
G01 X26.09108 Y24.85975
G01 X26.09075 Y24.85960
G01 X26.03586 Y24.95467
G01 X26.03616 Y24.95490
G01 X26.03586 Y24.95467
G01 X25.96240 Y25.03625
G01 X25.96265 Y25.03656
G01 X25.96240 Y25.03625
G01 X25.87355 Y25.10079
G01 X25.87375 Y25.10112
G01 X25.87355 Y25.10079
G01 X25.77325 Y25.14545
G01 X25.77340 Y25.14583
G01 X25.77325 Y25.14545
G01 X25.66588 Y25.16828
G01 X25.66593 Y25.16866
G01 X25.66588 Y25.16828
G01 X25.55610 Y25.16828
G01 X25.55605 Y25.16866
G01 X25.55610 Y25.16828
G01 X25.44871 Y25.14545
G01 X25.44856 Y25.14583
G01 X25.44871 Y25.14545
G01 X25.34841 Y25.10079
G01 X25.34823 Y25.10112
G01 X25.34841 Y25.10079
G01 X25.25958 Y25.03625
G01 X25.25933 Y25.03656
G01 X25.25958 Y25.03625
G01 X25.18610 Y24.95467
G01 X25.18580 Y24.95490
G01 X25.18610 Y24.95467
G01 X25.13124 Y24.85960
G01 X25.13088 Y24.85975
G01 X25.13124 Y24.85960
G01 X25.09730 Y24.75520
G01 X25.09692 Y24.75528
G01 X25.09730 Y24.75520
G01 X25.08582 Y24.64598
G01 X25.15732 Y24.64598
G01 X25.16723 Y24.55167
G01 X25.19654 Y24.46148
G01 X25.19509 Y24.46084
G01 X25.19654 Y24.46148
G01 X25.24396 Y24.37933
G01 X25.30744 Y24.30885
G01 X25.30637 Y24.30765
G01 X25.30744 Y24.30885
G01 X25.38412 Y24.25312
G01 X25.47081 Y24.21451
G01 X25.47048 Y24.21370
G01 X25.47081 Y24.21451
G01 X25.56357 Y24.19480
G01 X25.56352 Y24.19391
G01 X25.56357 Y24.19480
G01 X25.65839 Y24.19480
G01 X25.75117 Y24.21451
G01 X25.75166 Y24.21301
G01 X25.75117 Y24.21451
G01 X25.83784 Y24.25312
G01 X25.91455 Y24.30885
G01 X25.91561 Y24.30765
G01 X25.91455 Y24.30885
G01 X25.97802 Y24.37933
G01 X26.02544 Y24.46148
G01 X26.02689 Y24.46084
G01 X26.02544 Y24.46148
G01 X26.05473 Y24.55167
G01 X26.06466 Y24.64598
G01 X26.06624 Y24.64598
G01 X26.06466 Y24.64598
G01 X26.05473 Y24.74032
G01 X26.02544 Y24.83049
G01 X26.02689 Y24.83115
G01 X26.02544 Y24.83049
G01 X25.97802 Y24.91263
G01 X25.91455 Y24.98312
G01 X25.91561 Y24.98431
G01 X25.91455 Y24.98312
G01 X25.83784 Y25.03887
G01 X25.75117 Y25.07745
G01 X25.75145 Y25.07829
G01 X25.75117 Y25.07745
G01 X25.65839 Y25.09716
G01 X25.65841 Y25.09805
G01 X25.65839 Y25.09716
G01 X25.56357 Y25.09716
G01 X25.47081 Y25.07745
G01 X25.47030 Y25.07895
G01 X25.47081 Y25.07745
G01 X25.38412 Y25.03887
G01 X25.30744 Y24.98312
G01 X25.30637 Y24.98431
G01 X25.30744 Y24.98312
G01 X25.24396 Y24.91263
G01 X25.19654 Y24.83049
G01 X25.19509 Y24.83115
G01 X25.19654 Y24.83049
G01 X25.16723 Y24.74032
G01 X25.15732 Y24.64598
G01 X25.22882 Y24.64598
G01 X25.23718 Y24.56651
G01 X25.23563 Y24.56618
G01 X25.23718 Y24.56651
G01 X25.26187 Y24.49056
G01 X25.30180 Y24.42137
G01 X25.30053 Y24.42043
G01 X25.30180 Y24.42137
G01 X25.35526 Y24.36198
G01 X25.41991 Y24.31502
G01 X25.41912 Y24.31365
G01 X25.41991 Y24.31502
G01 X25.49291 Y24.28253
G01 X25.57101 Y24.26592
G01 X25.57086 Y24.26435
G01 X25.57101 Y24.26592
G01 X25.65095 Y24.26592
G01 X25.72908 Y24.28253
G01 X25.72956 Y24.28101
G01 X25.72908 Y24.28253
G01 X25.80208 Y24.31502
G01 X25.86669 Y24.36198
G01 X25.86725 Y24.36130
G01 X25.86669 Y24.36198
G01 X25.92016 Y24.42137
G01 X25.92092 Y24.42089
G01 X25.92016 Y24.42137
G01 X25.96011 Y24.49053
G01 X25.98480 Y24.56653
G01 X25.98633 Y24.56620
G01 X25.98480 Y24.56653
G01 X25.99316 Y24.64598
G01 X25.98480 Y24.72546
G01 X25.98633 Y24.72579
G01 X25.98480 Y24.72546
G01 X25.96011 Y24.80143
G01 X25.92016 Y24.87062
G01 X25.92146 Y24.87156
G01 X25.92016 Y24.87062
G01 X25.86669 Y24.92998
G01 X25.80208 Y24.97694
G01 X25.80256 Y24.97768
G01 X25.80208 Y24.97694
G01 X25.72908 Y25.00946
G01 X25.72930 Y25.01029
G01 X25.72908 Y25.00946
G01 X25.65092 Y25.02607
G01 X25.57106 Y25.02607
G01 X25.57086 Y25.02764
G01 X25.57106 Y25.02607
G01 X25.49291 Y25.00946
G01 X25.41988 Y24.97694
G01 X25.41909 Y24.97832
G01 X25.41988 Y24.97694
G01 X25.35526 Y24.92998
G01 X25.30180 Y24.87062
G01 X25.30053 Y24.87153
G01 X25.30180 Y24.87062
G01 X25.26187 Y24.80143
G01 X25.23718 Y24.72546
G01 X25.23563 Y24.72579
G01 X25.23718 Y24.72546
G01 X25.22882 Y24.64598
G01 X25.30032 Y24.64598
G01 X25.30711 Y24.58139
G01 X25.32717 Y24.51962
G01 X25.32572 Y24.51898
G01 X25.32717 Y24.51962
G01 X25.35966 Y24.46338
G01 X25.40312 Y24.41512
G01 X25.40205 Y24.41393
G01 X25.40312 Y24.41512
G01 X25.45562 Y24.37695
G01 X25.51498 Y24.35053
G01 X25.51450 Y24.34901
G01 X25.51498 Y24.35053
G01 X25.57853 Y24.33702
G01 X25.64345 Y24.33702
G01 X25.64360 Y24.33544
G01 X25.64345 Y24.33702
G01 X25.70695 Y24.35053
G01 X25.76631 Y24.37695
G01 X25.76672 Y24.37616
G01 X25.76631 Y24.37695
G01 X25.81884 Y24.41512
G01 X25.81950 Y24.41451
G01 X25.81884 Y24.41512
G01 X25.86230 Y24.46338
G01 X25.89479 Y24.51964
G01 X25.89623 Y24.51898
G01 X25.89479 Y24.51964
G01 X25.91485 Y24.58139
G01 X25.92166 Y24.64598
G01 X25.92323 Y24.64598
G01 X25.92166 Y24.64598
G01 X25.91485 Y24.71057
G01 X25.89479 Y24.77232
G01 X25.89623 Y24.77298
G01 X25.89479 Y24.77232
G01 X25.86230 Y24.82858
G01 X25.81884 Y24.87687
G01 X25.81993 Y24.87804
G01 X25.81884 Y24.87687
G01 X25.76631 Y24.91502
G01 X25.70695 Y24.94143
G01 X25.70749 Y24.94296
G01 X25.70695 Y24.94143
G01 X25.64345 Y24.95495
G01 X25.57853 Y24.95495
G01 X25.57835 Y24.95652
G01 X25.57853 Y24.95495
G01 X25.51500 Y24.94143
G01 X25.45562 Y24.91502
G01 X25.45486 Y24.91639
G01 X25.45562 Y24.91502
G01 X25.40312 Y24.87687
G01 X25.35966 Y24.82861
G01 X25.35897 Y24.82914
G01 X25.35966 Y24.82861
G01 X25.32717 Y24.77235
G01 X25.32636 Y24.77265
G01 X25.32717 Y24.77235
G01 X25.30711 Y24.71057
G01 X25.30032 Y24.64598
G01 X25.37182 Y24.64598
G01 X25.37706 Y24.59627
G01 X25.37617 Y24.59612
G01 X25.37706 Y24.59627
G01 X25.39248 Y24.54870
G01 X25.39171 Y24.54829
G01 X25.39248 Y24.54870
G01 X25.41749 Y24.50542
G01 X25.45095 Y24.46826
G01 X25.44988 Y24.46709
G01 X25.45095 Y24.46826
G01 X25.49141 Y24.43887
G01 X25.53708 Y24.41855
G01 X25.53657 Y24.41703
G01 X25.53708 Y24.41855
G01 X25.58600 Y24.40814
G01 X25.63593 Y24.40814
G01 X25.63601 Y24.40725
G01 X25.63593 Y24.40814
G01 X25.68488 Y24.41852
G01 X25.68524 Y24.41771
G01 X25.68488 Y24.41852
G01 X25.73055 Y24.43887
G01 X25.77099 Y24.46826
G01 X25.77208 Y24.46706
G01 X25.77099 Y24.46826
G01 X25.80444 Y24.50542
G01 X25.82946 Y24.54870
G01 X25.83090 Y24.54806
G01 X25.82946 Y24.54870
G01 X25.84493 Y24.59627
G01 X25.85016 Y24.64598
G01 X25.85173 Y24.64598
G01 X25.85016 Y24.64598
G01 X25.84493 Y24.69572
G01 X25.82946 Y24.74326
G01 X25.83090 Y24.74392
G01 X25.82946 Y24.74326
G01 X25.80444 Y24.78657
G01 X25.77099 Y24.82373
G01 X25.77208 Y24.82490
G01 X25.77099 Y24.82373
G01 X25.73057 Y24.85309
G01 X25.68488 Y24.87344
G01 X25.68536 Y24.87496
G01 X25.68488 Y24.87344
G01 X25.63598 Y24.88383
G01 X25.58595 Y24.88383
G01 X25.58582 Y24.88543
G01 X25.58595 Y24.88383
G01 X25.53710 Y24.87344
G01 X25.49141 Y24.85312
G01 X25.49060 Y24.85449
G01 X25.49141 Y24.85312
G01 X25.45095 Y24.82371
G01 X25.41749 Y24.78657
G01 X25.41620 Y24.78749
G01 X25.41749 Y24.78657
G01 X25.39248 Y24.74326
G01 X25.37706 Y24.69572
G01 X25.37548 Y24.69605
G01 X25.37706 Y24.69572
G01 X25.37182 Y24.64598
G01 X25.44333 Y24.64598
G01 X25.44698 Y24.61113
G01 X25.44541 Y24.61080
G01 X25.44698 Y24.61113
G01 X25.45783 Y24.57778
G01 X25.47530 Y24.54746
G01 X25.47406 Y24.54652
G01 X25.47530 Y24.54746
G01 X25.49882 Y24.52137
G01 X25.52712 Y24.50080
G01 X25.52600 Y24.49856
G01 X25.52712 Y24.50080
G01 X25.55915 Y24.48655
G01 X25.59347 Y24.47926
G01 X25.62852 Y24.47926
G01 X25.62864 Y24.47674
G01 X25.62852 Y24.47926
G01 X25.66281 Y24.48655
G01 X25.69481 Y24.50080
G01 X25.69562 Y24.49942
G01 X25.69481 Y24.50080
G01 X25.72313 Y24.52139
G01 X25.74663 Y24.54743
G01 X25.74792 Y24.54652
G01 X25.74663 Y24.54743
G01 X25.76413 Y24.57778
G01 X25.77497 Y24.61113
G01 X25.77655 Y24.61080
G01 X25.77497 Y24.61113
G01 X25.77866 Y24.64598
G01 X25.77497 Y24.68086
G01 X25.77655 Y24.68119
G01 X25.77497 Y24.68086
G01 X25.76413 Y24.71418
G01 X25.74663 Y24.74453
G01 X25.74792 Y24.74547
G01 X25.74663 Y24.74453
G01 X25.72313 Y24.77059
G01 X25.69481 Y24.79119
G01 X25.69562 Y24.79257
G01 X25.69481 Y24.79119
G01 X25.66278 Y24.80544
G01 X25.62852 Y24.81273
G01 X25.62870 Y24.81431
G01 X25.62852 Y24.81273
G01 X25.59341 Y24.81273
G01 X25.55920 Y24.80544
G01 X25.55826 Y24.80778
G01 X25.55920 Y24.80544
G01 X25.52712 Y24.79117
G01 X25.49882 Y24.77059
G01 X25.47530 Y24.74453
G01 X25.47337 Y24.74611
G01 X25.47530 Y24.74453
G01 X25.45783 Y24.71418
G01 X25.44698 Y24.68086
G01 X25.44541 Y24.68119
G01 X25.44698 Y24.68086
G01 X25.44333 Y24.64598
G01 X25.51483 Y24.64598
G01 X25.51691 Y24.62599
G01 X25.51191 Y24.62520
G01 X25.51691 Y24.62599
G01 X25.52313 Y24.60687
G01 X25.53317 Y24.58947
G01 X25.54665 Y24.57453
G01 X25.54345 Y24.57059
G01 X25.54665 Y24.57453
G01 X25.56291 Y24.56272
G01 X25.58127 Y24.55454
G01 X25.60093 Y24.55035
G01 X25.62102 Y24.55035
G01 X25.62174 Y24.54367
G01 X25.62102 Y24.55035
G01 X25.64071 Y24.55454
G01 X25.65907 Y24.56272
G01 X25.67533 Y24.57453
G01 X25.68877 Y24.58947
G01 X25.69420 Y24.58550
G01 X25.68877 Y24.58947
G01 X25.69880 Y24.60687
G01 X25.70505 Y24.62599
G01 X25.70716 Y24.64598
G01 X25.70505 Y24.66597
G01 X25.71163 Y24.66739
G01 X25.70505 Y24.66597
G01 X25.69880 Y24.68510
G01 X25.68877 Y24.70252
G01 X25.67533 Y24.71743
G01 X25.65907 Y24.72927
G01 X25.66182 Y24.73351
G01 X25.65907 Y24.72927
G01 X25.64071 Y24.73745
G01 X25.62102 Y24.74161
G01 X25.60093 Y24.74161
G01 X25.60015 Y24.74662
G01 X25.60093 Y24.74161
G01 X25.58127 Y24.73745
G01 X25.56291 Y24.72927
G01 X25.54665 Y24.71746
G01 X25.53317 Y24.70250
G01 X25.52776 Y24.70646
G01 X25.53317 Y24.70250
G01 X25.52313 Y24.68510
G01 X25.51691 Y24.66597
G01 X25.51483 Y24.64598
G01 X25.56222 Y24.62259
G01 X25.58846 Y24.63595
G01 X25.58684 Y24.64085
G01 X25.58633 Y24.64598
G01 X25.58684 Y24.65111
G01 X25.58846 Y24.65601
G01 X25.59103 Y24.66046
G01 X25.59451 Y24.66432
G01 X25.59865 Y24.66734
G01 X25.58526 Y24.69358
G01 X25.59865 Y24.66734
G01 X25.60337 Y24.66943
G01 X25.60838 Y24.67052
G01 X25.61356 Y24.67052
G01 X25.61859 Y24.66943
G01 X25.62331 Y24.66734
G01 X25.62748 Y24.66432
G01 X25.63093 Y24.66049
G01 X25.63352 Y24.65601
G01 X25.65976 Y24.66938
G01 X25.63352 Y24.65601
G01 X25.63510 Y24.65111
G01 X25.63565 Y24.64598
G01 X25.63510 Y24.64085
G01 X25.63352 Y24.63597
G01 X25.63093 Y24.63150
G01 X25.62748 Y24.62767
G01 X25.62331 Y24.62465
G01 X25.63670 Y24.59841
G01 X25.62331 Y24.62465
G01 X25.61859 Y24.62254
G01 X25.61356 Y24.62147
G01 X25.60838 Y24.62147
G01 X25.60337 Y24.62254
G01 X25.59865 Y24.62465
G01 X25.59446 Y24.62767
G01 X25.59103 Y24.63150
G01 X25.58846 Y24.63595
G04 P0 ( dwell for no time -- G64 should not smooth over this point )
G00 Z2.00000 ( retract )

G00 X30.81451 Y23.24695 ( rapid move to begin. )
G01 F40.00000
( Mill infeed pass 1/1 )
G01 Z-0.1280
G04 P0 ( dwell for no time -- G64 should not smooth over this point )
G01 F100.00000
G01 X30.81451 Y23.24695
G01 X30.81451 Y24.07702
G01 X30.81220 Y24.07763
G01 X30.81451 Y24.07702
G01 X30.81639 Y24.09612
G01 X30.81906 Y24.10491
G01 X30.82338 Y24.11299
G01 X30.82919 Y24.12007
G01 X30.83628 Y24.12589
G01 X30.84438 Y24.13023
G01 X30.83864 Y24.14006
G01 X30.84438 Y24.13023
G01 X30.85315 Y24.13290
G01 X30.87227 Y24.13476
G01 X31.92731 Y24.13476
G01 X31.94641 Y24.13290
G01 X31.95520 Y24.13023
G01 X31.96330 Y24.12589
G01 X31.97069 Y24.13725
G01 X31.96330 Y24.12589
G01 X31.97039 Y24.12007
G01 X31.97621 Y24.11299
G01 X31.98052 Y24.10491
G01 X31.98319 Y24.09610
G01 X31.98507 Y24.07707
G01 X31.98670 Y24.07740
G01 X31.98507 Y24.07707
G01 X31.98507 Y23.24690
G01 X31.98319 Y23.22787
G01 X31.98052 Y23.21906
G01 X31.97621 Y23.21098
G01 X31.98738 Y23.20364
G01 X31.97621 Y23.21098
G01 X31.97039 Y23.20390
G01 X31.96330 Y23.19808
G01 X31.95517 Y23.19374
G01 X31.94641 Y23.19110
G01 X31.92739 Y23.18922
G01 X31.92772 Y23.18759
G01 X31.92739 Y23.18922
G01 X30.87220 Y23.18922
G01 X30.85315 Y23.19110
G01 X30.84438 Y23.19374
G01 X30.83628 Y23.19808
G01 X30.82891 Y23.18683
G01 X30.83628 Y23.19808
G01 X30.82919 Y23.20390
G01 X30.82338 Y23.21098
G01 X30.81906 Y23.21906
G01 X30.81639 Y23.22785
G01 X30.81451 Y23.24695
G01 X30.81294 Y23.24662
G01 X30.67230 Y23.23996
G01 X30.67230 Y24.08401
G01 X30.67623 Y24.12401
G01 X30.68703 Y24.15957
G01 X30.70455 Y24.19239
G01 X30.71893 Y24.20991
G01 X30.72815 Y24.22114
G01 X30.75690 Y24.24474
G01 X30.78967 Y24.26226
G01 X30.82528 Y24.27306
G01 X30.86524 Y24.27700
G01 X31.93432 Y24.27700
G01 X31.97430 Y24.27306
G01 X32.00989 Y24.26226
G01 X32.04270 Y24.24471
G01 X32.07143 Y24.22114
G01 X32.09503 Y24.19239
G01 X32.11255 Y24.15960
G01 X32.12335 Y24.12399
G01 X32.12729 Y24.08403
G01 X32.12729 Y23.23994
G01 X32.12335 Y23.19999
G01 X32.11255 Y23.16440
G01 X32.09503 Y23.13158
G01 X32.07143 Y23.10283
G01 X32.04270 Y23.07926
G01 X32.00989 Y23.06173
G01 X31.97430 Y23.05091
G01 X31.93432 Y23.04698
G01 X30.86524 Y23.04698
G01 X30.82528 Y23.05091
G01 X30.78967 Y23.06173
G01 X30.75688 Y23.07926
G01 X30.72815 Y23.10283
G01 X30.70455 Y23.13158
G01 X30.68700 Y23.16440
G01 X30.67623 Y23.19996
G01 X30.67230 Y23.23996
G01 X30.74271 Y23.24334
G01 X30.74339 Y23.24344
G01 X30.74631 Y23.21390
G01 X30.75302 Y23.19173
G01 X30.76397 Y23.17128
G01 X30.76112 Y23.16943
G01 X30.76397 Y23.17128
G01 X30.77867 Y23.15338
G01 X30.79658 Y23.13867
G01 X30.81703 Y23.12772
G01 X30.81606 Y23.12564
G01 X30.81703 Y23.12772
G01 X30.83920 Y23.12102
G01 X30.86869 Y23.11810
G01 X30.86866 Y23.11779
G01 X30.86869 Y23.11810
G01 X31.93089 Y23.11810
G01 X31.93097 Y23.11741
G01 X31.93089 Y23.11810
G01 X31.96036 Y23.12102
G01 X31.98253 Y23.12772
G01 X32.00300 Y23.13867
G01 X32.00486 Y23.13582
G01 X32.00300 Y23.13867
G01 X32.02091 Y23.15335
G01 X32.03562 Y23.17128
G01 X32.04654 Y23.19173
G01 X32.04865 Y23.19077
G01 X32.04654 Y23.19173
G01 X32.05327 Y23.21390
G01 X32.05617 Y23.24339
G01 X32.05647 Y23.24337
G01 X32.05617 Y23.24339
G01 X32.05617 Y24.08058
G01 X32.05741 Y24.08081
G01 X32.05617 Y24.08058
G01 X32.05327 Y24.11007
G01 X32.04654 Y24.13224
G01 X32.03562 Y24.15269
G01 X32.02091 Y24.17062
G01 X32.02548 Y24.17522
G01 X32.02091 Y24.17062
G01 X32.00298 Y24.18533
G01 X31.98253 Y24.19625
G01 X31.96036 Y24.20298
G01 X31.93084 Y24.20588
G01 X31.93107 Y24.20712
G01 X31.93084 Y24.20588
G01 X30.86874 Y24.20588
G01 X30.86864 Y24.20656
G01 X30.86874 Y24.20588
G01 X30.83923 Y24.20298
G01 X30.81703 Y24.19625
G01 X30.79660 Y24.18533
G01 X30.79475 Y24.18815
G01 X30.79660 Y24.18533
G01 X30.77867 Y24.17060
G01 X30.76397 Y24.15269
G01 X30.75304 Y24.13224
G01 X30.75094 Y24.13321
G01 X30.75304 Y24.13224
G01 X30.74631 Y24.11007
G01 X30.74339 Y24.08053
G01 X30.74309 Y24.08055
G01 X30.74339 Y24.08053
G01 X30.74339 Y23.24344
G01 X30.74271 Y23.24334
G01 X30.81294 Y23.24662
G01 X30.86478 Y23.23948
G01 X30.88561 Y23.26031
G01 X30.88561 Y24.06366
G01 X30.86478 Y24.08449
G01 X30.88561 Y24.06366
G01 X31.91395 Y24.06366
G01 X31.93478 Y24.08449
G01 X31.91395 Y24.06366
G01 X31.91395 Y23.26031
G01 X31.93478 Y23.23948
G01 X31.91395 Y23.26031
G01 X30.88561 Y23.26031
G01 X30.95673 Y23.33143
G01 X30.95673 Y23.99254
G01 X30.93590 Y24.01337
G01 X30.95673 Y23.99254
G01 X31.84286 Y23.99254
G01 X31.86368 Y24.01337
G01 X31.84286 Y23.99254
G01 X31.84286 Y23.33143
G01 X31.86368 Y23.31060
G01 X31.84286 Y23.33143
G01 X30.95673 Y23.33143
G01 X31.02785 Y23.40253
G01 X31.02785 Y23.92145
G01 X31.00702 Y23.94227
G01 X31.02785 Y23.92145
G01 X31.77174 Y23.92145
G01 X31.79256 Y23.94227
G01 X31.77174 Y23.92145
G01 X31.77174 Y23.40253
G01 X31.79256 Y23.38170
G01 X31.77174 Y23.40253
G01 X31.02785 Y23.40253
G01 X31.09894 Y23.47364
G01 X31.09894 Y23.85033
G01 X31.07811 Y23.87115
G01 X31.09894 Y23.85033
G01 X31.70064 Y23.85033
G01 X31.72147 Y23.87115
G01 X31.70064 Y23.85033
G01 X31.70064 Y23.47364
G01 X31.72147 Y23.45282
G01 X31.70064 Y23.47364
G01 X31.09894 Y23.47364
G01 X31.17006 Y23.54476
G01 X31.17006 Y23.77923
G01 X31.14923 Y23.80006
G01 X31.17006 Y23.77923
G01 X31.62952 Y23.77923
G01 X31.65035 Y23.80006
G01 X31.62952 Y23.77923
G01 X31.62952 Y23.54476
G01 X31.65035 Y23.52394
G01 X31.62952 Y23.54476
G01 X31.17006 Y23.54476
G01 X31.24116 Y23.61586
G01 X31.24116 Y23.70811
G01 X31.22033 Y23.72894
G01 X31.24116 Y23.70811
G01 X31.55840 Y23.70811
G01 X31.57923 Y23.72894
G01 X31.55840 Y23.70811
G01 X31.55840 Y23.61586
G01 X31.57923 Y23.59503
G01 X31.55840 Y23.61586
G01 X31.24116 Y23.61586
G04 P0 ( dwell for no time -- G64 should not smooth over this point )
G00 Z2.00000 ( retract )

G00 X33.68951 Y23.24690 ( rapid move to begin. )
G01 F40.00000
( Mill infeed pass 1/1 )
G01 Z-0.1280
G04 P0 ( dwell for no time -- G64 should not smooth over this point )
G01 F100.00000
G01 X33.68951 Y23.24690
G01 X33.68951 Y24.07707
G01 X33.68720 Y24.07768
G01 X33.68951 Y24.07707
G01 X33.69139 Y24.09612
G01 X33.69406 Y24.10491
G01 X33.69838 Y24.11299
G01 X33.70419 Y24.12007
G01 X33.71128 Y24.12589
G01 X33.71938 Y24.13023
G01 X33.71364 Y24.14006
G01 X33.71938 Y24.13023
G01 X33.72815 Y24.13290
G01 X33.74727 Y24.13476
G01 X34.80231 Y24.13476
G01 X34.82141 Y24.13290
G01 X34.83020 Y24.13023
G01 X34.83828 Y24.12592
G01 X34.84569 Y24.13727
G01 X34.83828 Y24.12592
G01 X34.84539 Y24.12007
G01 X34.85121 Y24.11299
G01 X34.85552 Y24.10489
G01 X34.85819 Y24.09612
G01 X34.86007 Y24.07707
G01 X34.86170 Y24.07740
G01 X34.86007 Y24.07707
G01 X34.86007 Y23.24690
G01 X34.85819 Y23.22785
G01 X34.85552 Y23.21909
G01 X34.85121 Y23.21098
G01 X34.86238 Y23.20364
G01 X34.85121 Y23.21098
G01 X34.84539 Y23.20390
G01 X34.83828 Y23.19808
G01 X34.83020 Y23.19374
G01 X34.82141 Y23.19110
G01 X34.80236 Y23.18922
G01 X34.80272 Y23.18759
G01 X34.80236 Y23.18922
G01 X33.74720 Y23.18922
G01 X33.72815 Y23.19110
G01 X33.71938 Y23.19374
G01 X33.71128 Y23.19808
G01 X33.70391 Y23.18683
G01 X33.71128 Y23.19808
G01 X33.70419 Y23.20390
G01 X33.69838 Y23.21098
G01 X33.69406 Y23.21906
G01 X33.69139 Y23.22785
G01 X33.68951 Y23.24690
G01 X33.68796 Y23.24657
G01 X33.61771 Y23.24334
G01 X33.54730 Y23.23991
G01 X33.54730 Y24.08406
G01 X33.55121 Y24.12399
G01 X33.56200 Y24.15957
G01 X33.57956 Y24.19239
G01 X33.60315 Y24.22114
G01 X33.63188 Y24.24471
G01 X33.66467 Y24.26226
G01 X33.70028 Y24.27306
G01 X33.74024 Y24.27700
G01 X34.80932 Y24.27700
G01 X34.84930 Y24.27306
G01 X34.88489 Y24.26226
G01 X34.91768 Y24.24471
G01 X34.94643 Y24.22114
G01 X34.97003 Y24.19239
G01 X34.98755 Y24.15957
G01 X34.99835 Y24.12399
G01 X35.00229 Y24.08401
G01 X35.00229 Y23.23996
G01 X34.99835 Y23.19999
G01 X34.98755 Y23.16440
G01 X34.97003 Y23.13158
G01 X34.94643 Y23.10283
G01 X34.91768 Y23.07926
G01 X34.88489 Y23.06173
G01 X34.84930 Y23.05091
G01 X34.80932 Y23.04698
G01 X33.74024 Y23.04698
G01 X33.70028 Y23.05091
G01 X33.66467 Y23.06173
G01 X33.63188 Y23.07926
G01 X33.60315 Y23.10283
G01 X33.57956 Y23.13158
G01 X33.56200 Y23.16440
G01 X33.55121 Y23.19999
G01 X33.54730 Y23.23991
G01 X33.61771 Y23.24334
G01 X33.61839 Y23.24344
G01 X33.62131 Y23.21393
G01 X33.62804 Y23.19173
G01 X33.63894 Y23.17131
G01 X33.63612 Y23.16943
G01 X33.63894 Y23.17131
G01 X33.65367 Y23.15338
G01 X33.67158 Y23.13867
G01 X33.69203 Y23.12772
G01 X33.69106 Y23.12564
G01 X33.69203 Y23.12772
G01 X33.71420 Y23.12102
G01 X33.74369 Y23.11810
G01 X33.74367 Y23.11779
G01 X33.74369 Y23.11810
G01 X34.80587 Y23.11810
G01 X34.80597 Y23.11741
G01 X34.80587 Y23.11810
G01 X34.83536 Y23.12102
G01 X34.85753 Y23.12772
G01 X34.87798 Y23.13867
G01 X34.87986 Y23.13582
G01 X34.87798 Y23.13867
G01 X34.89591 Y23.15338
G01 X34.91062 Y23.17131
G01 X34.92154 Y23.19173
G01 X34.92362 Y23.19077
G01 X34.92154 Y23.19173
G01 X34.92827 Y23.21393
G01 X34.93117 Y23.24344
G01 X34.93147 Y23.24342
G01 X34.93117 Y23.24344
G01 X34.93117 Y24.08053
G01 X34.93241 Y24.08076
G01 X34.93117 Y24.08053
G01 X34.92827 Y24.11004
G01 X34.92154 Y24.13224
G01 X34.91062 Y24.15266
G01 X34.89591 Y24.17060
G01 X34.90051 Y24.17519
G01 X34.89591 Y24.17060
G01 X34.87798 Y24.18533
G01 X34.85756 Y24.19625
G01 X34.83536 Y24.20298
G01 X34.80582 Y24.20588
G01 X34.80607 Y24.20712
G01 X34.80582 Y24.20588
G01 X33.74374 Y24.20588
G01 X33.74364 Y24.20656
G01 X33.74374 Y24.20588
G01 X33.71423 Y24.20298
G01 X33.69203 Y24.19625
G01 X33.67161 Y24.18533
G01 X33.66975 Y24.18817
G01 X33.67161 Y24.18533
G01 X33.65367 Y24.17060
G01 X33.63894 Y24.15266
G01 X33.62804 Y24.13224
G01 X33.62594 Y24.13323
G01 X33.62804 Y24.13224
G01 X33.62131 Y24.11004
G01 X33.61839 Y24.08053
G01 X33.61809 Y24.08055
G01 X33.61839 Y24.08053
G01 X33.61839 Y23.24344
G01 X33.61771 Y23.24334
G01 X33.68796 Y23.24657
G01 X33.73978 Y23.23948
G01 X33.76061 Y23.26031
G01 X33.76061 Y24.06366
G01 X33.73978 Y24.08449
G01 X33.76061 Y24.06366
G01 X34.78895 Y24.06366
G01 X34.80978 Y24.08449
G01 X34.78895 Y24.06366
G01 X34.78895 Y23.26031
G01 X34.80978 Y23.23948
G01 X34.78895 Y23.26031
G01 X33.76061 Y23.26031
G01 X33.83173 Y23.33143
G01 X33.83173 Y23.99254
G01 X33.81090 Y24.01337
G01 X33.83173 Y23.99254
G01 X34.71786 Y23.99254
G01 X34.73868 Y24.01337
G01 X34.71786 Y23.99254
G01 X34.71786 Y23.33143
G01 X34.73868 Y23.31060
G01 X34.71786 Y23.33143
G01 X33.83173 Y23.33143
G01 X33.90285 Y23.40253
G01 X33.90285 Y23.92145
G01 X33.88202 Y23.94227
G01 X33.90285 Y23.92145
G01 X34.64674 Y23.92145
G01 X34.66756 Y23.94227
G01 X34.64674 Y23.92145
G01 X34.64674 Y23.40253
G01 X34.66756 Y23.38170
G01 X34.64674 Y23.40253
G01 X33.90285 Y23.40253
G01 X33.97394 Y23.47364
G01 X33.97394 Y23.85033
G01 X33.95311 Y23.87115
G01 X33.97394 Y23.85033
G01 X34.57564 Y23.85033
G01 X34.59647 Y23.87115
G01 X34.57564 Y23.85033
G01 X34.57564 Y23.47364
G01 X34.59647 Y23.45282
G01 X34.57564 Y23.47364
G01 X33.97394 Y23.47364
G01 X34.04506 Y23.54476
G01 X34.04506 Y23.77923
G01 X34.02423 Y23.80006
G01 X34.04506 Y23.77923
G01 X34.50452 Y23.77923
G01 X34.52535 Y23.80006
G01 X34.50452 Y23.77923
G01 X34.50452 Y23.54476
G01 X34.52535 Y23.52394
G01 X34.50452 Y23.54476
G01 X34.04506 Y23.54476
G01 X34.11616 Y23.61586
G01 X34.11616 Y23.70811
G01 X34.09533 Y23.72894
G01 X34.11616 Y23.70811
G01 X34.43340 Y23.70811
G01 X34.45423 Y23.72894
G01 X34.43340 Y23.70811
G01 X34.43340 Y23.61586
G01 X34.45423 Y23.59503
G01 X34.43340 Y23.61586
G01 X34.11616 Y23.61586
G04 P0 ( dwell for no time -- G64 should not smooth over this point )
G00 Z2.00000 ( retract )

G00 X36.88440 Y20.99115 ( rapid move to begin. )
G01 F40.00000
( Mill infeed pass 1/1 )
G01 Z-0.1280
G04 P0 ( dwell for no time -- G64 should not smooth over this point )
G01 F100.00000
G01 X36.88440 Y20.99115
G01 X36.88440 Y21.27822
G01 X36.87899 Y21.28048
G01 X36.88440 Y21.27822
G01 X36.88539 Y21.28825
G01 X36.88643 Y21.29168
G01 X36.88811 Y21.29483
G01 X36.89037 Y21.29760
G01 X36.89314 Y21.29986
G01 X36.89631 Y21.30156
G01 X36.89972 Y21.30258
G01 X36.90975 Y21.30357
G01 X36.90751 Y21.30901
G01 X36.90975 Y21.30357
G01 X38.54683 Y21.30357
G01 X38.55686 Y21.30258
G01 X38.56174 Y21.31142
G01 X38.55686 Y21.30258
G01 X38.56027 Y21.30156
G01 X38.56344 Y21.29986
G01 X38.56619 Y21.29760
G01 X38.56847 Y21.29481
G01 X38.57015 Y21.29168
G01 X38.57119 Y21.28823
G01 X38.57218 Y21.27827
G01 X38.57500 Y21.27908
G01 X38.57218 Y21.27827
G01 X38.57218 Y20.99110
G01 X38.57119 Y20.98114
G01 X38.57995 Y20.97629
G01 X38.57119 Y20.98114
G01 X38.57015 Y20.97769
G01 X38.56847 Y20.97456
G01 X38.56619 Y20.97177
G01 X38.56344 Y20.96951
G01 X38.56027 Y20.96781
G01 X38.55686 Y20.96679
G01 X38.54688 Y20.96580
G01 X38.54769 Y20.96298
G01 X38.54688 Y20.96580
G01 X36.90970 Y20.96580
G01 X36.89972 Y20.96679
G01 X36.89481 Y20.95793
G01 X36.89972 Y20.96679
G01 X36.89631 Y20.96781
G01 X36.89314 Y20.96951
G01 X36.89037 Y20.97177
G01 X36.88811 Y20.97454
G01 X36.88643 Y20.97769
G01 X36.88539 Y20.98114
G01 X36.88440 Y20.99115
G01 X36.88161 Y20.99034
G01 X36.81328 Y20.98767
G01 X36.81328 Y21.28170
G01 X36.81531 Y21.30217
G01 X36.82042 Y21.31901
G01 X36.82870 Y21.33451
G01 X36.83985 Y21.34812
G01 X36.85346 Y21.35927
G01 X36.86896 Y21.36758
G01 X36.88577 Y21.37266
G01 X36.90627 Y21.37469
G01 X38.55028 Y21.37469
G01 X38.57081 Y21.37266
G01 X38.58760 Y21.36758
G01 X38.60312 Y21.35927
G01 X38.61671 Y21.34812
G01 X38.62786 Y21.33456
G01 X38.63619 Y21.31899
G01 X38.64127 Y21.30220
G01 X38.64330 Y21.28173
G01 X38.64330 Y20.98765
G01 X38.64127 Y20.96717
G01 X38.63619 Y20.95038
G01 X38.62788 Y20.93484
G01 X38.61671 Y20.92125
G01 X38.60312 Y20.91010
G01 X38.58762 Y20.90182
G01 X38.57081 Y20.89671
G01 X38.55036 Y20.89468
G01 X36.90622 Y20.89468
G01 X36.88577 Y20.89671
G01 X36.86896 Y20.90182
G01 X36.85346 Y20.91010
G01 X36.83985 Y20.92125
G01 X36.82870 Y20.93486
G01 X36.82042 Y20.95036
G01 X36.81531 Y20.96720
G01 X36.81328 Y20.98767
G01 X36.88161 Y20.99034
G01 X36.93467 Y21.01607
G01 X36.95549 Y21.03690
G01 X36.95549 Y21.23248
G01 X36.93467 Y21.25330
G01 X36.95549 Y21.23248
G01 X38.50106 Y21.23248
G01 X38.52189 Y21.25330
G01 X38.50106 Y21.23248
G01 X38.50106 Y21.03690
G01 X38.52189 Y21.01607
G01 X38.50106 Y21.03690
G01 X36.95549 Y21.03690
G01 X37.02661 Y21.10802
G01 X37.02661 Y21.16136
G01 X37.00579 Y21.18218
G01 X37.02661 Y21.16136
G01 X38.42997 Y21.16136
G01 X38.45079 Y21.18218
G01 X38.42997 Y21.16136
G01 X38.42997 Y21.10802
G01 X38.45079 Y21.08719
G01 X38.42997 Y21.10802
G01 X37.02661 Y21.10802
G04 P0 ( dwell for no time -- G64 should not smooth over this point )
G00 Z2.00000 ( retract )

G00 X36.88440 Y22.26115 ( rapid move to begin. )
G01 F40.00000
( Mill infeed pass 1/1 )
G01 Z-0.1280
G04 P0 ( dwell for no time -- G64 should not smooth over this point )
G01 F100.00000
G01 X36.88440 Y22.26115
G01 X36.88440 Y22.54822
G01 X36.87899 Y22.55048
G01 X36.88440 Y22.54822
G01 X36.88539 Y22.55825
G01 X36.88643 Y22.56168
G01 X36.88811 Y22.56483
G01 X36.89037 Y22.56760
G01 X36.89314 Y22.56986
G01 X36.89631 Y22.57156
G01 X36.89972 Y22.57258
G01 X36.90975 Y22.57357
G01 X36.90751 Y22.57901
G01 X36.90975 Y22.57357
G01 X38.54683 Y22.57357
G01 X38.55686 Y22.57258
G01 X38.56174 Y22.58142
G01 X38.55686 Y22.57258
G01 X38.56027 Y22.57156
G01 X38.56344 Y22.56986
G01 X38.56619 Y22.56760
G01 X38.56847 Y22.56481
G01 X38.57015 Y22.56168
G01 X38.57119 Y22.55823
G01 X38.57218 Y22.54827
G01 X38.57500 Y22.54908
G01 X38.57218 Y22.54827
G01 X38.57218 Y22.26110
G01 X38.57119 Y22.25114
G01 X38.57995 Y22.24629
G01 X38.57119 Y22.25114
G01 X38.57015 Y22.24769
G01 X38.56847 Y22.24456
G01 X38.56619 Y22.24177
G01 X38.56344 Y22.23951
G01 X38.56027 Y22.23781
G01 X38.55686 Y22.23679
G01 X38.54688 Y22.23580
G01 X38.54769 Y22.23298
G01 X38.54688 Y22.23580
G01 X36.90970 Y22.23580
G01 X36.89972 Y22.23679
G01 X36.89481 Y22.22793
G01 X36.89972 Y22.23679
G01 X36.89631 Y22.23781
G01 X36.89314 Y22.23951
G01 X36.89037 Y22.24177
G01 X36.88811 Y22.24454
G01 X36.88643 Y22.24769
G01 X36.88539 Y22.25114
G01 X36.88440 Y22.26115
G01 X36.88161 Y22.26034
G01 X36.81328 Y22.25767
G01 X36.81328 Y22.55170
G01 X36.81531 Y22.57217
G01 X36.82042 Y22.58901
G01 X36.82870 Y22.60451
G01 X36.83985 Y22.61812
G01 X36.85346 Y22.62927
G01 X36.86896 Y22.63755
G01 X36.88577 Y22.64268
G01 X36.90624 Y22.64469
G01 X38.55034 Y22.64469
G01 X38.57078 Y22.64268
G01 X38.58762 Y22.63758
G01 X38.60314 Y22.62927
G01 X38.61671 Y22.61812
G01 X38.62788 Y22.60453
G01 X38.63619 Y22.58901
G01 X38.64127 Y22.57220
G01 X38.64330 Y22.55173
G01 X38.64330 Y22.25765
G01 X38.64127 Y22.23720
G01 X38.63616 Y22.22036
G01 X38.62788 Y22.20484
G01 X38.61673 Y22.19125
G01 X38.60314 Y22.18010
G01 X38.58760 Y22.17179
G01 X38.57078 Y22.16669
G01 X38.55031 Y22.16468
G01 X36.90627 Y22.16468
G01 X36.88580 Y22.16669
G01 X36.86896 Y22.17182
G01 X36.85346 Y22.18010
G01 X36.83985 Y22.19125
G01 X36.82870 Y22.20486
G01 X36.82039 Y22.22036
G01 X36.81531 Y22.23720
G01 X36.81328 Y22.25767
G01 X36.88161 Y22.26034
G01 X36.93467 Y22.28607
G01 X36.95549 Y22.30690
G01 X36.95549 Y22.50248
G01 X36.93467 Y22.52330
G01 X36.95549 Y22.50248
G01 X38.50106 Y22.50248
G01 X38.52189 Y22.52330
G01 X38.50106 Y22.50248
G01 X38.50106 Y22.30690
G01 X38.52189 Y22.28607
G01 X38.50106 Y22.30690
G01 X36.95549 Y22.30690
G01 X37.02661 Y22.37802
G01 X37.02661 Y22.43136
G01 X37.00579 Y22.45218
G01 X37.02661 Y22.43136
G01 X38.42997 Y22.43136
G01 X38.45079 Y22.45218
G01 X38.42997 Y22.43136
G01 X38.42997 Y22.37802
G01 X38.45079 Y22.35719
G01 X38.42997 Y22.37802
G01 X37.02661 Y22.37802
G04 P0 ( dwell for no time -- G64 should not smooth over this point )
G00 Z2.00000 ( retract )

G00 X37.02661 Y23.64802 ( rapid move to begin. )
G01 F40.00000
( Mill infeed pass 1/1 )
G01 Z-0.1280
G04 P0 ( dwell for no time -- G64 should not smooth over this point )
G01 F100.00000
G01 X37.02661 Y23.64802
G01 X37.02661 Y23.70136
G01 X37.00579 Y23.72218
G01 X37.02661 Y23.70136
G01 X38.42997 Y23.70136
G01 X38.45079 Y23.72218
G01 X38.42997 Y23.70136
G01 X38.42997 Y23.64802
G01 X38.45079 Y23.62719
G01 X38.42997 Y23.64802
G01 X37.02661 Y23.64802
G01 X36.95549 Y23.57690
G01 X38.50106 Y23.57690
G01 X38.52189 Y23.55607
G01 X38.50106 Y23.57690
G01 X38.50106 Y23.77248
G01 X38.52189 Y23.79330
G01 X38.50106 Y23.77248
G01 X36.95549 Y23.77248
G01 X36.93467 Y23.79330
G01 X36.95549 Y23.77248
G01 X36.95549 Y23.57690
G01 X36.93467 Y23.55607
G01 X36.88161 Y23.53034
G01 X36.81328 Y23.52767
G01 X36.81531 Y23.50720
G01 X36.82039 Y23.49036
G01 X36.82870 Y23.47486
G01 X36.83985 Y23.46125
G01 X36.85346 Y23.45010
G01 X36.86893 Y23.44182
G01 X36.88580 Y23.43671
G01 X36.90624 Y23.43468
G01 X38.55034 Y23.43468
G01 X38.57078 Y23.43671
G01 X38.58762 Y23.44182
G01 X38.59329 Y23.44484
G01 X38.60312 Y23.45010
G01 X38.61673 Y23.46125
G01 X38.62786 Y23.47484
G01 X38.63619 Y23.49038
G01 X38.64127 Y23.50717
G01 X38.64330 Y23.52765
G01 X38.64330 Y23.82173
G01 X38.64127 Y23.84220
G01 X38.63619 Y23.85899
G01 X38.62786 Y23.87456
G01 X38.61673 Y23.88812
G01 X38.60312 Y23.89927
G01 X38.58762 Y23.90755
G01 X38.57078 Y23.91268
G01 X38.55034 Y23.91469
G01 X36.90624 Y23.91469
G01 X36.88577 Y23.91268
G01 X36.86893 Y23.90755
G01 X36.85346 Y23.89927
G01 X36.83985 Y23.88812
G01 X36.82870 Y23.87453
G01 X36.82042 Y23.85901
G01 X36.81531 Y23.84217
G01 X36.81328 Y23.82170
G01 X36.81328 Y23.52767
G01 X36.88161 Y23.53034
G01 X36.88440 Y23.53115
G01 X36.88539 Y23.52114
G01 X36.88643 Y23.51769
G01 X36.88811 Y23.51454
G01 X36.89037 Y23.51177
G01 X36.89314 Y23.50951
G01 X36.89631 Y23.50781
G01 X36.89972 Y23.50679
G01 X36.89481 Y23.49793
G01 X36.89972 Y23.50679
G01 X36.90970 Y23.50580
G01 X38.54688 Y23.50580
G01 X38.54769 Y23.50298
G01 X38.54688 Y23.50580
G01 X38.55686 Y23.50679
G01 X38.56027 Y23.50781
G01 X38.56344 Y23.50951
G01 X38.56619 Y23.51177
G01 X38.56847 Y23.51456
G01 X38.57015 Y23.51769
G01 X38.57119 Y23.52114
G01 X38.57995 Y23.51629
G01 X38.57119 Y23.52114
G01 X38.57218 Y23.53110
G01 X38.57218 Y23.81827
G01 X38.57500 Y23.81908
G01 X38.57218 Y23.81827
G01 X38.57119 Y23.82823
G01 X38.57015 Y23.83168
G01 X38.56847 Y23.83481
G01 X38.56619 Y23.83760
G01 X38.56344 Y23.83986
G01 X38.56027 Y23.84156
G01 X38.55686 Y23.84258
G01 X38.56174 Y23.85142
G01 X38.55686 Y23.84258
G01 X38.54683 Y23.84357
G01 X36.90975 Y23.84357
G01 X36.90751 Y23.84901
G01 X36.90975 Y23.84357
G01 X36.89972 Y23.84258
G01 X36.89631 Y23.84156
G01 X36.89314 Y23.83986
G01 X36.89037 Y23.83760
G01 X36.88811 Y23.83483
G01 X36.88643 Y23.83168
G01 X36.88539 Y23.82825
G01 X36.88440 Y23.81822
G01 X36.87899 Y23.82048
G01 X36.88440 Y23.81822
G01 X36.88440 Y23.53115
G04 P0 ( dwell for no time -- G64 should not smooth over this point )
G00 Z2.00000 ( retract )

G00 X31.67710 Y18.43108 ( rapid move to begin. )
G01 F40.00000
( Mill infeed pass 1/1 )
G01 Z-0.1280
G04 P0 ( dwell for no time -- G64 should not smooth over this point )
G01 F100.00000
G01 X31.67710 Y18.43108
G01 X31.67710 Y18.56888
G01 X31.65627 Y18.58971
G01 X31.67710 Y18.56888
G01 X32.88987 Y18.56888
G01 X32.91070 Y18.58971
G01 X32.88987 Y18.56888
G01 X32.88987 Y18.43108
G01 X32.91070 Y18.41026
G01 X32.88987 Y18.43108
G01 X31.67710 Y18.43108
G01 X31.65627 Y18.41026
G01 X31.60598 Y18.40294
G01 X31.60598 Y18.59702
G01 X31.60704 Y18.60774
G01 X31.60930 Y18.61518
G01 X31.61296 Y18.62204
G01 X31.61791 Y18.62806
G01 X31.62393 Y18.63301
G01 X31.62464 Y18.63340
G01 X31.63079 Y18.63667
G01 X31.63823 Y18.63893
G01 X31.64895 Y18.64000
G01 X32.91804 Y18.64000
G01 X32.92873 Y18.63893
G01 X32.93617 Y18.63667
G01 X32.94306 Y18.63299
G01 X32.94908 Y18.62806
G01 X32.95398 Y18.62207
G01 X32.95769 Y18.61518
G01 X32.95992 Y18.60774
G01 X32.96099 Y18.59702
G01 X32.96099 Y18.40294
G01 X32.95992 Y18.39225
G01 X32.95766 Y18.38478
G01 X32.95695 Y18.38341
G01 X32.95398 Y18.37790
G01 X32.94905 Y18.37190
G01 X32.94306 Y18.36698
G01 X32.93617 Y18.36329
G01 X32.92873 Y18.36103
G01 X32.91804 Y18.35999
G01 X31.64895 Y18.35999
G01 X31.63823 Y18.36103
G01 X31.63079 Y18.36329
G01 X31.62391 Y18.36698
G01 X31.61791 Y18.37190
G01 X31.61296 Y18.37792
G01 X31.60930 Y18.38478
G01 X31.60704 Y18.39225
G01 X31.60598 Y18.40294
G04 P0 ( dwell for no time -- G64 should not smooth over this point )
G00 Z2.00000 ( retract )

G00 X31.67710 Y17.78110 ( rapid move to begin. )
G01 F40.00000
( Mill infeed pass 1/1 )
G01 Z-0.1280
G04 P0 ( dwell for no time -- G64 should not smooth over this point )
G01 F100.00000
G01 X31.67710 Y17.78110
G01 X32.88987 Y17.78110
G01 X32.91070 Y17.76027
G01 X32.88987 Y17.78110
G01 X32.88987 Y17.91887
G01 X32.91070 Y17.93970
G01 X32.88987 Y17.91887
G01 X31.67710 Y17.91887
G01 X31.65627 Y17.93970
G01 X31.67710 Y17.91887
G01 X31.67710 Y17.78110
G01 X31.65627 Y17.76027
G01 X31.60598 Y17.75296
G01 X31.60598 Y17.94704
G01 X31.60704 Y17.95773
G01 X31.60930 Y17.96520
G01 X31.61113 Y17.96863
G01 X31.61296 Y17.97203
G01 X31.61791 Y17.97808
G01 X31.62393 Y17.98300
G01 X31.63079 Y17.98669
G01 X31.63823 Y17.98892
G01 X31.64898 Y17.98999
G01 X32.91801 Y17.98999
G01 X32.92873 Y17.98892
G01 X32.93620 Y17.98666
G01 X32.94306 Y17.98300
G01 X32.94905 Y17.97808
G01 X32.95400 Y17.97206
G01 X32.95769 Y17.96517
G01 X32.95992 Y17.95773
G01 X32.96099 Y17.94704
G01 X32.96099 Y17.75296
G01 X32.95992 Y17.74224
G01 X32.95766 Y17.73479
G01 X32.95400 Y17.72791
G01 X32.94905 Y17.72189
G01 X32.94306 Y17.71696
G01 X32.93617 Y17.71331
G01 X32.92873 Y17.71105
G01 X32.91801 Y17.70998
G01 X31.64898 Y17.70998
G01 X31.63823 Y17.71105
G01 X31.63079 Y17.71331
G01 X31.62393 Y17.71696
G01 X31.61791 Y17.72189
G01 X31.61296 Y17.72794
G01 X31.60930 Y17.73477
G01 X31.60704 Y17.74224
G01 X31.60598 Y17.75296
G04 P0 ( dwell for no time -- G64 should not smooth over this point )
G00 Z2.00000 ( retract )

G00 X31.67710 Y17.13109 ( rapid move to begin. )
G01 F40.00000
( Mill infeed pass 1/1 )
G01 Z-0.1280
G04 P0 ( dwell for no time -- G64 should not smooth over this point )
G01 F100.00000
G01 X31.67710 Y17.13109
G01 X32.88987 Y17.13109
G01 X32.91070 Y17.11026
G01 X32.88987 Y17.13109
G01 X32.88987 Y17.26888
G01 X32.91070 Y17.28971
G01 X32.88987 Y17.26888
G01 X31.67710 Y17.26888
G01 X31.65627 Y17.28971
G01 X31.67710 Y17.26888
G01 X31.67710 Y17.13109
G01 X31.65627 Y17.11026
G01 X31.60598 Y17.10294
G01 X31.60598 Y17.29703
G01 X31.60704 Y17.30774
G01 X31.60930 Y17.31521
G01 X31.61296 Y17.32204
G01 X31.61791 Y17.32806
G01 X31.62391 Y17.33299
G01 X31.63079 Y17.33667
G01 X31.63823 Y17.33894
G01 X31.64893 Y17.33998
G01 X32.91806 Y17.33998
G01 X32.92873 Y17.33894
G01 X32.93617 Y17.33667
G01 X32.94306 Y17.33299
G01 X32.94905 Y17.32809
G01 X32.95400 Y17.32207
G01 X32.95769 Y17.31519
G01 X32.95992 Y17.30774
G01 X32.96099 Y17.29703
G01 X32.96099 Y17.10294
G01 X32.95992 Y17.09225
G01 X32.95766 Y17.08478
G01 X32.95398 Y17.07790
G01 X32.94905 Y17.07191
G01 X32.94306 Y17.06698
G01 X32.93617 Y17.06329
G01 X32.92873 Y17.06103
G01 X32.91804 Y17.05999
G01 X31.64895 Y17.05999
G01 X31.63823 Y17.06103
G01 X31.63079 Y17.06329
G01 X31.62393 Y17.06698
G01 X31.61791 Y17.07191
G01 X31.61296 Y17.07793
G01 X31.60930 Y17.08476
G01 X31.60704 Y17.09225
G01 X31.60598 Y17.10294
G04 P0 ( dwell for no time -- G64 should not smooth over this point )
G00 Z2.00000 ( retract )

G00 X31.67710 Y16.48110 ( rapid move to begin. )
G01 F40.00000
( Mill infeed pass 1/1 )
G01 Z-0.1280
G04 P0 ( dwell for no time -- G64 should not smooth over this point )
G01 F100.00000
G01 X31.67710 Y16.48110
G01 X32.88987 Y16.48110
G01 X32.91070 Y16.46027
G01 X32.88987 Y16.48110
G01 X32.88987 Y16.61887
G01 X32.91070 Y16.63970
G01 X32.88987 Y16.61887
G01 X31.67710 Y16.61887
G01 X31.65627 Y16.63970
G01 X31.67710 Y16.61887
G01 X31.67710 Y16.48110
G01 X31.65627 Y16.46027
G01 X31.60598 Y16.45296
G01 X31.60598 Y16.64701
G01 X31.60704 Y16.65773
G01 X31.60930 Y16.66520
G01 X31.61296 Y16.67203
G01 X31.61791 Y16.67808
G01 X31.62391 Y16.68301
G01 X31.63079 Y16.68666
G01 X31.63823 Y16.68892
G01 X31.64895 Y16.68999
G01 X32.91804 Y16.68999
G01 X32.92873 Y16.68892
G01 X32.93620 Y16.68666
G01 X32.94306 Y16.68301
G01 X32.94908 Y16.67808
G01 X32.95400 Y16.67206
G01 X32.95766 Y16.66517
G01 X32.95992 Y16.65773
G01 X32.96099 Y16.64701
G01 X32.96099 Y16.45296
G01 X32.95992 Y16.44224
G01 X32.95769 Y16.43480
G01 X32.95400 Y16.42791
G01 X32.94908 Y16.42192
G01 X32.94303 Y16.41697
G01 X32.93617 Y16.41331
G01 X32.92876 Y16.41105
G01 X32.91801 Y16.40998
G01 X31.64898 Y16.40998
G01 X31.63823 Y16.41105
G01 X31.63079 Y16.41331
G01 X31.62393 Y16.41697
G01 X31.61791 Y16.42192
G01 X31.61296 Y16.42794
G01 X31.60930 Y16.43477
G01 X31.60704 Y16.44224
G01 X31.60598 Y16.45296
G04 P0 ( dwell for no time -- G64 should not smooth over this point )
G00 Z2.00000 ( retract )

G00 X31.67710 Y15.83109 ( rapid move to begin. )
G01 F40.00000
( Mill infeed pass 1/1 )
G01 Z-0.1280
G04 P0 ( dwell for no time -- G64 should not smooth over this point )
G01 F100.00000
G01 X31.67710 Y15.83109
G01 X31.67710 Y15.96888
G01 X31.65627 Y15.98971
G01 X31.67710 Y15.96888
G01 X32.88987 Y15.96888
G01 X32.91070 Y15.98971
G01 X32.88987 Y15.96888
G01 X32.88987 Y15.83109
G01 X32.91070 Y15.81026
G01 X32.88987 Y15.83109
G01 X31.67710 Y15.83109
G01 X31.65627 Y15.81026
G01 X31.60598 Y15.80295
G01 X31.60598 Y15.99703
G01 X31.60704 Y16.00775
G01 X31.60930 Y16.01519
G01 X31.61296 Y16.02205
G01 X31.61791 Y16.02807
G01 X31.62393 Y16.03302
G01 X31.63079 Y16.03668
G01 X31.63823 Y16.03894
G01 X31.64895 Y16.03998
G01 X32.91804 Y16.03998
G01 X32.92873 Y16.03894
G01 X32.93617 Y16.03668
G01 X32.94306 Y16.03299
G01 X32.94908 Y16.02807
G01 X32.95400 Y16.02207
G01 X32.95769 Y16.01516
G01 X32.95992 Y16.00775
G01 X32.96099 Y15.99703
G01 X32.96099 Y15.80295
G01 X32.95992 Y15.79225
G01 X32.95766 Y15.78479
G01 X32.95400 Y15.77793
G01 X32.94908 Y15.77191
G01 X32.94303 Y15.76695
G01 X32.93620 Y15.76330
G01 X32.92873 Y15.76104
G01 X32.91804 Y15.76000
G01 X31.64895 Y15.76000
G01 X31.63823 Y15.76104
G01 X31.63079 Y15.76330
G01 X31.62393 Y15.76695
G01 X31.61791 Y15.77191
G01 X31.61296 Y15.77793
G01 X31.60930 Y15.78479
G01 X31.60704 Y15.79223
G01 X31.60598 Y15.80295
G04 P0 ( dwell for no time -- G64 should not smooth over this point )
G00 Z2.00000 ( retract )

G00 X31.67710 Y15.18110 ( rapid move to begin. )
G01 F40.00000
( Mill infeed pass 1/1 )
G01 Z-0.1280
G04 P0 ( dwell for no time -- G64 should not smooth over this point )
G01 F100.00000
G01 X31.67710 Y15.18110
G01 X31.67710 Y15.31887
G01 X31.65627 Y15.33970
G01 X31.67710 Y15.31887
G01 X32.88987 Y15.31887
G01 X32.91070 Y15.33970
G01 X32.88987 Y15.31887
G01 X32.88987 Y15.18110
G01 X32.91070 Y15.16028
G01 X32.88987 Y15.18110
G01 X31.67710 Y15.18110
G01 X31.65627 Y15.16028
G01 X31.60598 Y15.15296
G01 X31.60598 Y15.34702
G01 X31.60704 Y15.35774
G01 X31.60930 Y15.36520
G01 X31.61296 Y15.37204
G01 X31.61791 Y15.37806
G01 X31.62393 Y15.38301
G01 X31.63077 Y15.38667
G01 X31.63823 Y15.38893
G01 X31.64895 Y15.38999
G01 X32.91804 Y15.38999
G01 X32.92873 Y15.38893
G01 X32.93620 Y15.38667
G01 X32.94303 Y15.38301
G01 X32.94905 Y15.37808
G01 X32.95400 Y15.37206
G01 X32.95769 Y15.36518
G01 X32.95992 Y15.35774
G01 X32.96099 Y15.34702
G01 X32.96099 Y15.15296
G01 X32.95992 Y15.14224
G01 X32.95769 Y15.13480
G01 X32.95400 Y15.12792
G01 X32.94905 Y15.12190
G01 X32.94306 Y15.11697
G01 X32.93617 Y15.11329
G01 X32.92873 Y15.11105
G01 X32.91806 Y15.10998
G01 X31.64893 Y15.10998
G01 X31.63823 Y15.11105
G01 X31.63079 Y15.11329
G01 X31.62393 Y15.11697
G01 X31.61791 Y15.12190
G01 X31.61296 Y15.12794
G01 X31.60930 Y15.13477
G01 X31.60704 Y15.14224
G01 X31.60598 Y15.15296
G04 P0 ( dwell for no time -- G64 should not smooth over this point )
G00 Z2.00000 ( retract )

G00 X31.67710 Y14.53109 ( rapid move to begin. )
G01 F40.00000
( Mill infeed pass 1/1 )
G01 Z-0.1280
G04 P0 ( dwell for no time -- G64 should not smooth over this point )
G01 F100.00000
G01 X31.67710 Y14.53109
G01 X31.67710 Y14.66889
G01 X31.65627 Y14.68972
G01 X31.67710 Y14.66889
G01 X32.88987 Y14.66889
G01 X32.91070 Y14.68972
G01 X32.88987 Y14.66889
G01 X32.88987 Y14.53109
G01 X32.91070 Y14.51026
G01 X32.88987 Y14.53109
G01 X31.67710 Y14.53109
G01 X31.65627 Y14.51026
G01 X31.60598 Y14.50295
G01 X31.60598 Y14.69703
G01 X31.60704 Y14.70772
G01 X31.60930 Y14.71519
G01 X31.61296 Y14.72205
G01 X31.61791 Y14.72807
G01 X31.62393 Y14.73300
G01 X31.63079 Y14.73668
G01 X31.63823 Y14.73894
G01 X31.64898 Y14.73998
G01 X32.91801 Y14.73998
G01 X32.92876 Y14.73894
G01 X32.93617 Y14.73668
G01 X32.94306 Y14.73300
G01 X32.94905 Y14.72807
G01 X32.95400 Y14.72205
G01 X32.95769 Y14.71517
G01 X32.95992 Y14.70772
G01 X32.96099 Y14.69703
G01 X32.96099 Y14.50295
G01 X32.95992 Y14.49223
G01 X32.95769 Y14.48479
G01 X32.95400 Y14.47790
G01 X32.94905 Y14.47191
G01 X32.94306 Y14.46696
G01 X32.93620 Y14.46330
G01 X32.92873 Y14.46104
G01 X32.91804 Y14.46000
G01 X31.64895 Y14.46000
