( pcb2gcode 2.1.0 )
( Software-independent Gcode )

G94 ( Millimeters per minute feed rate. )
G21 ( Units == Millimeters. )

G90 ( Absolute coordinates. )
G00 S10000 ( RPM spindle speed. )
G64 P0.01016 ( set maximum deviation from commanded toolpath )
G01 F100.00000 ( Feedrate. )


G00 Z10.00000 (Retract to tool change height)
T0
M5      (Spindle stop.)
G04 P1.00000 (Wait for spindle to stop)
(MSG, Change tool bit to mill diameter 0.12000mm)
M6      (Tool change.)
M0      (Temporary machine stop.)
M3 ( Spindle on clockwise. )
G04 P1.00000 (Wait for spindle to get up to speed)
G04 P0 ( dwell for no time -- G64 should not smooth over this point )
G00 Z2.00000 ( retract )

G00 X6.58299 Y4.50698 ( rapid move to begin. )
G01 F40.00000
( Mill infeed pass 1/1 )
G01 Z-0.1310
G04 P0 ( dwell for no time -- G64 should not smooth over this point )
G01 F100.00000
G01 X6.58299 Y4.50698
G01 X6.58299 Y5.98699
G01 X8.06300 Y5.98699
G01 X8.06300 Y4.50698
G01 X6.58299 Y4.50698
G01 X6.65411 Y4.57810
G01 X6.65411 Y5.91587
G01 X6.63328 Y5.93670
G01 X6.65411 Y5.91587
G01 X7.99187 Y5.91587
G01 X8.01270 Y5.93670
G01 X7.99187 Y5.91587
G01 X7.99187 Y4.57810
G01 X8.01270 Y4.55727
G01 X7.99187 Y4.57810
G01 X6.65411 Y4.57810
G01 X6.72520 Y4.64920
G01 X6.72520 Y5.84477
G01 X6.70437 Y5.86560
G01 X6.72520 Y5.84477
G01 X7.92078 Y5.84477
G01 X7.94161 Y5.86560
G01 X7.92078 Y5.84477
G01 X7.92078 Y4.64920
G01 X7.94161 Y4.62837
G01 X7.92078 Y4.64920
G01 X6.72520 Y4.64920
G01 X6.79632 Y4.72032
G01 X6.79632 Y5.77365
G01 X6.77549 Y5.79448
G01 X6.79632 Y5.77365
G01 X7.84966 Y5.77365
G01 X7.87049 Y5.79448
G01 X7.84966 Y5.77365
G01 X7.84966 Y4.72032
G01 X7.87049 Y4.69949
G01 X7.84966 Y4.72032
G01 X6.79632 Y4.72032
G01 X6.86742 Y4.79144
G01 X6.86742 Y5.70256
G01 X6.84659 Y5.72336
G01 X6.86742 Y5.70256
G01 X7.77854 Y5.70256
G01 X7.79937 Y5.72336
G01 X7.77854 Y5.70256
G01 X7.77854 Y4.79144
G01 X7.79937 Y4.77061
G01 X7.77854 Y4.79144
G01 X6.86742 Y4.79144
G01 X6.93854 Y4.86253
G01 X6.93854 Y5.63144
G01 X6.91771 Y5.65227
G01 X6.93854 Y5.63144
G01 X7.70745 Y5.63144
G01 X7.72827 Y5.65227
G01 X7.70745 Y5.63144
G01 X7.70745 Y4.86253
G01 X7.72827 Y4.84170
G01 X7.70745 Y4.86253
G01 X6.93854 Y4.86253
G01 X7.00966 Y4.93365
G01 X7.00966 Y5.56035
G01 X6.98883 Y5.58115
G01 X7.00966 Y5.56035
G01 X7.63633 Y5.56035
G01 X7.65715 Y5.58115
G01 X7.63633 Y5.56035
G01 X7.63633 Y4.93365
G01 X7.65715 Y4.91282
G01 X7.63633 Y4.93365
G01 X7.00966 Y4.93365
G01 X7.08075 Y5.00475
G01 X7.08075 Y5.48923
G01 X7.05992 Y5.51005
G01 X7.08075 Y5.48923
G01 X7.56523 Y5.48923
G01 X7.58606 Y5.51005
G01 X7.56523 Y5.48923
G01 X7.56523 Y5.00475
G01 X7.58606 Y4.98392
G01 X7.56523 Y5.00475
G01 X7.08075 Y5.00475
G01 X7.15187 Y5.07587
G01 X7.15187 Y5.41811
G01 X7.13104 Y5.43893
G01 X7.15187 Y5.41811
G01 X7.49411 Y5.41811
G01 X7.51494 Y5.43893
G01 X7.49411 Y5.41811
G01 X7.49411 Y5.07587
G01 X7.51494 Y5.05504
G01 X7.49411 Y5.07587
G01 X7.15187 Y5.07587
G01 X7.22297 Y5.14696
G01 X7.22297 Y5.34701
G01 X7.20214 Y5.36784
G01 X7.22297 Y5.34701
G01 X7.42299 Y5.34701
G01 X7.44382 Y5.36784
G01 X7.42299 Y5.34701
G01 X7.42299 Y5.14696
G01 X7.44382 Y5.12613
G01 X7.42299 Y5.14696
G01 X7.22297 Y5.14696
G01 X7.29409 Y5.21808
G01 X7.29409 Y5.27589
G01 X7.27326 Y5.29672
G01 X7.29409 Y5.27589
G01 X7.35190 Y5.27589
G01 X7.37272 Y5.29672
G01 X7.35190 Y5.27589
G01 X7.35190 Y5.21808
G01 X7.37272 Y5.19725
G01 X7.35190 Y5.21808
G01 X7.29409 Y5.21808
G04 P0 ( dwell for no time -- G64 should not smooth over this point )
G00 Z2.00000 ( retract )

G00 X6.57120 Y7.46296 ( rapid move to begin. )
G01 F40.00000
( Mill infeed pass 1/1 )
G01 Z-0.1290
G04 P0 ( dwell for no time -- G64 should not smooth over this point )
G01 F100.00000
G01 X6.57120 Y7.46296
G01 X6.57120 Y8.14302
G01 X6.57024 Y8.14317
G01 X6.57120 Y8.14302
G01 X6.57308 Y8.16212
G01 X6.57575 Y8.17091
G01 X6.58007 Y8.17898
G01 X6.58586 Y8.18607
G01 X6.58014 Y8.19181
G01 X6.58586 Y8.18607
G01 X6.59297 Y8.19189
G01 X6.60107 Y8.19623
G01 X6.60984 Y8.19890
G01 X6.62896 Y8.20078
G01 X6.62881 Y8.20174
G01 X6.62896 Y8.20078
G01 X7.50902 Y8.20078
G01 X7.50917 Y8.20174
G01 X7.50902 Y8.20078
G01 X7.52812 Y8.19890
G01 X7.53691 Y8.19623
G01 X7.54499 Y8.19191
G01 X7.55207 Y8.18610
G01 X7.55781 Y8.19181
G01 X7.55207 Y8.18610
G01 X7.55789 Y8.17898
G01 X7.56223 Y8.17088
G01 X7.56490 Y8.16212
G01 X7.56676 Y8.14307
G01 X7.56772 Y8.14325
G01 X7.56676 Y8.14307
G01 X7.56676 Y7.46291
G01 X7.56772 Y7.46273
G01 X7.56676 Y7.46291
G01 X7.56490 Y7.44386
G01 X7.56223 Y7.43507
G01 X7.55792 Y7.42699
G01 X7.55207 Y7.41991
G01 X7.55781 Y7.41416
G01 X7.55207 Y7.41991
G01 X7.54499 Y7.41406
G01 X7.53688 Y7.40975
G01 X7.52812 Y7.40708
G01 X7.50907 Y7.40520
G01 X7.50922 Y7.40426
G01 X7.50907 Y7.40520
G01 X6.62891 Y7.40520
G01 X6.62873 Y7.40426
G01 X6.62891 Y7.40520
G01 X6.60984 Y7.40708
G01 X6.60110 Y7.40975
G01 X6.59297 Y7.41406
G01 X6.58586 Y7.41991
G01 X6.58014 Y7.41416
G01 X6.58586 Y7.41991
G01 X6.58007 Y7.42699
G01 X6.57575 Y7.43507
G01 X6.57308 Y7.44386
G01 X6.57120 Y7.46296
G01 X6.57024 Y7.46281
G01 X6.50011 Y7.45945
G01 X6.42899 Y7.45595
G01 X6.42899 Y8.15003
G01 X6.43193 Y8.18000
G01 X6.43292 Y8.18998
G01 X6.44372 Y8.22559
G01 X6.46127 Y8.25838
G01 X6.48484 Y8.28714
G01 X6.51360 Y8.31073
G01 X6.54639 Y8.32826
G01 X6.58197 Y8.33905
G01 X6.62195 Y8.34299
G01 X7.51603 Y8.34299
G01 X7.55601 Y8.33905
G01 X7.59160 Y8.32826
G01 X7.62439 Y8.31073
G01 X7.65314 Y8.28714
G01 X7.67671 Y8.25841
G01 X7.69426 Y8.22559
G01 X7.70506 Y8.19001
G01 X7.70900 Y8.15000
G01 X7.70900 Y7.45597
G01 X7.70506 Y7.41597
G01 X7.69426 Y7.38038
G01 X7.67671 Y7.34757
G01 X7.67013 Y7.33954
G01 X7.65314 Y7.31884
G01 X7.62439 Y7.29524
G01 X7.59157 Y7.27772
G01 X7.55599 Y7.26692
G01 X7.51603 Y7.26298
G01 X6.62195 Y7.26298
G01 X6.58200 Y7.26692
G01 X6.54639 Y7.27772
G01 X6.51360 Y7.29524
G01 X6.48484 Y7.31884
G01 X6.46122 Y7.34759
G01 X6.44372 Y7.38038
G01 X6.43292 Y7.41599
G01 X6.42899 Y7.45595
G01 X6.50011 Y7.45945
G01 X6.50011 Y8.14652
G01 X6.49884 Y8.14678
G01 X6.50011 Y8.14652
G01 X6.50300 Y8.17606
G01 X6.50971 Y8.19824
G01 X6.52066 Y8.21868
G01 X6.53536 Y8.23662
G01 X6.53077 Y8.24119
G01 X6.53536 Y8.23662
G01 X6.55330 Y8.25132
G01 X6.57374 Y8.26225
G01 X6.59592 Y8.26898
G01 X6.62538 Y8.27187
G01 X6.62515 Y8.27312
G01 X6.62538 Y8.27187
G01 X7.51258 Y8.27187
G01 X7.51281 Y8.27312
G01 X7.51258 Y8.27187
G01 X7.54207 Y8.26898
G01 X7.56424 Y8.26225
G01 X7.58469 Y8.25132
G01 X7.60259 Y8.23662
G01 X7.60719 Y8.24119
G01 X7.60259 Y8.23662
G01 X7.61730 Y8.21868
G01 X7.62825 Y8.19824
G01 X7.63498 Y8.17606
G01 X7.63788 Y8.14652
G01 X7.63912 Y8.14678
G01 X7.63788 Y8.14652
G01 X7.63788 Y7.45945
G01 X7.63912 Y7.45920
G01 X7.63788 Y7.45945
G01 X7.63498 Y7.42991
G01 X7.62825 Y7.40774
G01 X7.61730 Y7.38729
G01 X7.60259 Y7.36936
G01 X7.60719 Y7.36476
G01 X7.60259 Y7.36936
G01 X7.58469 Y7.35468
G01 X7.56424 Y7.34373
G01 X7.54207 Y7.33700
G01 X7.51258 Y7.33410
G01 X7.51281 Y7.33286
G01 X7.51258 Y7.33410
G01 X6.62538 Y7.33410
G01 X6.62528 Y7.33342
G01 X6.62538 Y7.33410
G01 X6.59592 Y7.33700
G01 X6.57374 Y7.34373
G01 X6.55327 Y7.35468
G01 X6.55055 Y7.35092
G01 X6.55327 Y7.35468
G01 X6.53536 Y7.36936
G01 X6.52066 Y7.38729
G01 X6.50971 Y7.40774
G01 X6.50300 Y7.42991
G01 X6.49996 Y7.42897
G01 X6.50300 Y7.42991
G01 X6.50011 Y7.45945
G01 X6.57024 Y7.46281
G01 X6.62149 Y7.45549
G01 X6.64232 Y7.47632
G01 X6.64232 Y8.12966
G01 X6.62149 Y8.15049
G01 X6.64232 Y8.12966
G01 X7.49566 Y8.12966
G01 X7.51649 Y8.15049
G01 X7.49566 Y8.12966
G01 X7.49566 Y7.47632
G01 X7.51649 Y7.45549
G01 X7.49566 Y7.47632
G01 X6.64232 Y7.47632
G01 X6.71342 Y7.54744
G01 X6.71342 Y8.05856
G01 X6.69259 Y8.07939
G01 X6.71342 Y8.05856
G01 X7.42454 Y8.05856
G01 X7.44537 Y8.07939
G01 X7.42454 Y8.05856
G01 X7.42454 Y7.54744
G01 X7.44537 Y7.52661
G01 X7.42454 Y7.54744
G01 X6.71342 Y7.54744
G01 X6.78454 Y7.61853
G01 X6.78454 Y7.98744
G01 X6.76371 Y8.00827
G01 X6.78454 Y7.98744
G01 X7.35345 Y7.98744
G01 X7.37427 Y8.00827
G01 X7.35345 Y7.98744
G01 X7.35345 Y7.61853
G01 X7.37427 Y7.59771
G01 X7.35345 Y7.61853
G01 X6.78454 Y7.61853
G01 X6.85566 Y7.68965
G01 X6.85566 Y7.91632
G01 X6.83483 Y7.93715
G01 X6.85566 Y7.91632
G01 X7.28233 Y7.91632
G01 X7.30315 Y7.93715
G01 X7.28233 Y7.91632
G01 X7.28233 Y7.68965
G01 X7.30315 Y7.66883
G01 X7.28233 Y7.68965
G01 X6.85566 Y7.68965
G01 X6.92675 Y7.76075
G01 X7.21123 Y7.76075
G01 X7.23206 Y7.73992
G01 X7.21123 Y7.76075
G01 X7.21123 Y7.84523
G01 X7.23206 Y7.86606
G01 X7.21123 Y7.84523
G01 X6.92675 Y7.84523
G01 X6.90592 Y7.86606
G01 X6.92675 Y7.84523
G01 X6.92675 Y7.76075
G04 P0 ( dwell for no time -- G64 should not smooth over this point )
G00 Z2.00000 ( retract )

G00 X6.54621 Y11.52340 ( rapid move to begin. )
G01 F40.00000
( Mill infeed pass 1/1 )
G01 Z-0.1300
G04 P0 ( dwell for no time -- G64 should not smooth over this point )
G01 F100.00000
G01 X6.54621 Y11.52340
G01 X6.54621 Y12.17857
G01 X6.54522 Y12.17872
G01 X6.54621 Y12.17857
G01 X6.54806 Y12.19762
G01 X6.55076 Y12.20638
G01 X6.55507 Y12.21449
G01 X6.56089 Y12.22157
G01 X6.55515 Y12.22731
G01 X6.56089 Y12.22157
G01 X6.56800 Y12.22741
G01 X6.57605 Y12.23173
G01 X6.58487 Y12.23440
G01 X6.60389 Y12.23628
G01 X6.60371 Y12.23729
G01 X6.60389 Y12.23628
G01 X7.53407 Y12.23628
G01 X7.55312 Y12.23440
G01 X7.56188 Y12.23173
G01 X7.57001 Y12.22739
G01 X7.57735 Y12.23862
G01 X7.57001 Y12.22739
G01 X7.57709 Y12.22157
G01 X7.58291 Y12.21449
G01 X7.58723 Y12.20641
G01 X7.58989 Y12.19759
G01 X7.59177 Y12.17857
G01 X7.59343 Y12.17890
G01 X7.59177 Y12.17857
G01 X7.59177 Y11.52340
G01 X7.58989 Y11.50438
G01 X7.58723 Y11.49556
G01 X7.58291 Y11.48749
G01 X7.59403 Y11.48017
G01 X7.58291 Y11.48749
G01 X7.57709 Y11.48040
G01 X7.57001 Y11.47458
G01 X7.56188 Y11.47024
G01 X7.55314 Y11.46760
G01 X7.53407 Y11.46572
G01 X7.53440 Y11.46407
G01 X7.53407 Y11.46572
G01 X6.60392 Y11.46572
G01 X6.58484 Y11.46760
G01 X6.57605 Y11.47024
G01 X6.56798 Y11.47456
G01 X6.56061 Y11.46336
G01 X6.56798 Y11.47456
G01 X6.56089 Y11.48040
G01 X6.55507 Y11.48749
G01 X6.55076 Y11.49559
G01 X6.54806 Y11.50435
G01 X6.54621 Y11.52340
G01 X6.54466 Y11.52307
G01 X6.40399 Y11.51644
G01 X6.40399 Y12.18553
G01 X6.40793 Y12.22548
G01 X6.41873 Y12.26109
G01 X6.43625 Y12.29389
G01 X6.45985 Y12.32264
G01 X6.48858 Y12.34624
G01 X6.52139 Y12.36376
G01 X6.55698 Y12.37456
G01 X6.59693 Y12.37849
G01 X7.54105 Y12.37849
G01 X7.58100 Y12.37456
G01 X7.61659 Y12.36376
G01 X7.64938 Y12.34624
G01 X7.67813 Y12.32264
G01 X7.70171 Y12.29389
G01 X7.71926 Y12.26109
G01 X7.73005 Y12.22548
G01 X7.73399 Y12.18553
G01 X7.73399 Y11.51644
G01 X7.73005 Y11.47649
G01 X7.71926 Y11.44088
G01 X7.70173 Y11.40811
G01 X7.67813 Y11.37933
G01 X7.64938 Y11.35576
G01 X7.61659 Y11.33821
G01 X7.58100 Y11.32742
G01 X7.54100 Y11.32348
G01 X6.59698 Y11.32348
G01 X6.55698 Y11.32742
G01 X6.52139 Y11.33821
G01 X6.48858 Y11.35576
G01 X6.45985 Y11.37933
G01 X6.43625 Y11.40809
G01 X6.41873 Y11.44088
G01 X6.40793 Y11.47649
G01 X6.40399 Y11.51644
G01 X6.47382 Y11.51972
G01 X6.47509 Y11.51995
G01 X6.47798 Y11.49041
G01 X6.48474 Y11.46823
G01 X6.49564 Y11.44779
G01 X6.51037 Y11.42988
G01 X6.50575 Y11.42528
G01 X6.51037 Y11.42988
G01 X6.52825 Y11.41517
G01 X6.54870 Y11.40423
G01 X6.57090 Y11.39749
G01 X6.60044 Y11.39460
G01 X6.60018 Y11.39335
G01 X6.60044 Y11.39460
G01 X7.53752 Y11.39460
G01 X7.53775 Y11.39335
G01 X7.53752 Y11.39460
G01 X7.56709 Y11.39749
G01 X7.58923 Y11.40423
G01 X7.60968 Y11.41517
G01 X7.62761 Y11.42988
G01 X7.63221 Y11.42528
G01 X7.62761 Y11.42988
G01 X7.64232 Y11.44779
G01 X7.65324 Y11.46823
G01 X7.65997 Y11.49041
G01 X7.66287 Y11.51995
G01 X7.66411 Y11.51972
G01 X7.66287 Y11.51995
G01 X7.66287 Y12.18202
G01 X7.66411 Y12.18228
G01 X7.66287 Y12.18202
G01 X7.65997 Y12.21156
G01 X7.65324 Y12.23374
G01 X7.64232 Y12.25419
G01 X7.62759 Y12.27212
G01 X7.63219 Y12.27672
G01 X7.62759 Y12.27212
G01 X7.60968 Y12.28680
G01 X7.58923 Y12.29775
G01 X7.56706 Y12.30448
G01 X7.53752 Y12.30737
G01 X7.53775 Y12.30862
G01 X7.53752 Y12.30737
G01 X6.60046 Y12.30737
G01 X6.60036 Y12.30806
G01 X6.60046 Y12.30737
G01 X6.57090 Y12.30448
G01 X6.54870 Y12.29775
G01 X6.52825 Y12.28680
G01 X6.52551 Y12.29056
G01 X6.52825 Y12.28680
G01 X6.51037 Y12.27212
G01 X6.49564 Y12.25419
G01 X6.48474 Y12.23374
G01 X6.47798 Y12.21156
G01 X6.47499 Y12.21248
G01 X6.47798 Y12.21156
G01 X6.47509 Y12.18202
G01 X6.47509 Y11.51995
G01 X6.47382 Y11.51972
G01 X6.54466 Y11.52307
G01 X6.59650 Y11.51599
G01 X6.61730 Y11.53681
G01 X6.61730 Y12.16516
G01 X6.59650 Y12.18599
G01 X6.61730 Y12.16516
G01 X7.52065 Y12.16516
G01 X7.54148 Y12.18599
G01 X7.52065 Y12.16516
G01 X7.52065 Y11.53681
G01 X7.54148 Y11.51599
G01 X7.52065 Y11.53681
G01 X6.61730 Y11.53681
G01 X6.68842 Y11.60793
G01 X6.68842 Y12.09404
G01 X6.66760 Y12.11487
G01 X6.68842 Y12.09404
G01 X7.44956 Y12.09404
G01 X7.47039 Y12.11487
G01 X7.44956 Y12.09404
G01 X7.44956 Y11.60793
G01 X7.47039 Y11.58711
G01 X7.44956 Y11.60793
G01 X6.68842 Y11.60793
G01 X6.75954 Y11.67903
G01 X6.75954 Y12.02294
G01 X6.73872 Y12.04377
G01 X6.75954 Y12.02294
G01 X7.37844 Y12.02294
G01 X7.39927 Y12.04377
G01 X7.37844 Y12.02294
G01 X7.37844 Y11.67903
G01 X7.39927 Y11.65820
G01 X7.37844 Y11.67903
G01 X6.75954 Y11.67903
G01 X6.83064 Y11.75015
G01 X6.83064 Y11.95182
G01 X6.80981 Y11.97265
G01 X6.83064 Y11.95182
G01 X7.30732 Y11.95182
G01 X7.32815 Y11.97265
G01 X7.30732 Y11.95182
G01 X7.30732 Y11.75015
G01 X7.32815 Y11.72932
G01 X7.30732 Y11.75015
G01 X6.83064 Y11.75015
G01 X6.90176 Y11.82124
G01 X6.90176 Y11.88073
G01 X6.88093 Y11.90156
G01 X6.90176 Y11.88073
G01 X7.23622 Y11.88073
G01 X7.25705 Y11.90156
G01 X7.23622 Y11.88073
G01 X7.23622 Y11.82124
G01 X7.25705 Y11.80041
G01 X7.23622 Y11.82124
G01 X6.90176 Y11.82124
G04 P0 ( dwell for no time -- G64 should not smooth over this point )
G00 Z2.00000 ( retract )


G00 X9.23820 Y13.52690 ( rapid move to begin. )
G01 F40.00000
( Mill infeed pass 1/1 )
G01 Z-0.1290
G04 P0 ( dwell for no time -- G64 should not smooth over this point )
G01 F100.00000
G01 X9.23820 Y13.52690
G01 X9.23820 Y14.20706
G01 X9.23665 Y14.20739
G01 X9.23820 Y14.20706
G01 X9.24008 Y14.22614
G01 X9.24275 Y14.23488
G01 X9.24707 Y14.24301
G01 X9.25288 Y14.25009
G01 X9.26000 Y14.25591
G01 X9.25263 Y14.26711
G01 X9.26000 Y14.25591
G01 X9.26807 Y14.26023
G01 X9.27686 Y14.26289
G01 X9.29596 Y14.26477
G01 X10.17602 Y14.26477
G01 X10.17635 Y14.26640
G01 X10.17602 Y14.26477
G01 X10.19512 Y14.26289
G01 X10.20391 Y14.26023
G01 X10.21199 Y14.25591
G01 X10.21907 Y14.25009
G01 X10.22489 Y14.24301
G01 X10.23604 Y14.25032
G01 X10.22489 Y14.24301
G01 X10.22923 Y14.23490
G01 X10.23190 Y14.22611
G01 X10.23378 Y14.20701
G01 X10.23378 Y13.52695
G01 X10.23543 Y13.52662
G01 X10.23378 Y13.52695
G01 X10.23190 Y13.50785
G01 X10.22923 Y13.49906
G01 X10.22489 Y13.49099
G01 X10.21907 Y13.48390
G01 X10.21199 Y13.47808
G01 X10.21935 Y13.46686
G01 X10.21199 Y13.47808
G01 X10.20388 Y13.47374
G01 X10.19512 Y13.47107
G01 X10.17607 Y13.46922
G01 X9.29591 Y13.46922
G01 X9.29573 Y13.46818
G01 X9.29591 Y13.46922
G01 X9.27686 Y13.47107
G01 X9.26807 Y13.47374
G01 X9.26000 Y13.47808
G01 X9.25288 Y13.48390
G01 X9.24717 Y13.47816
G01 X9.25288 Y13.48390
G01 X9.24707 Y13.49099
G01 X9.24275 Y13.49909
G01 X9.24008 Y13.50785
G01 X9.23820 Y13.52690
G01 X9.23724 Y13.52675
G01 X9.16711 Y13.52327
G01 X9.09599 Y13.51994
G01 X9.09599 Y14.21402
G01 X9.09992 Y14.25400
G01 X9.11072 Y14.28959
G01 X9.12827 Y14.32241
G01 X9.15184 Y14.35113
G01 X9.18057 Y14.37470
G01 X9.21341 Y14.39226
G01 X9.24897 Y14.40305
G01 X9.28898 Y14.40699
G01 X10.18301 Y14.40699
G01 X10.22299 Y14.40305
G01 X10.25857 Y14.39226
G01 X10.29139 Y14.37473
G01 X10.32014 Y14.35113
G01 X10.34374 Y14.32238
G01 X10.36126 Y14.28959
G01 X10.37206 Y14.25400
G01 X10.37600 Y14.21400
G01 X10.37600 Y13.51997
G01 X10.37206 Y13.47996
G01 X10.36126 Y13.44438
G01 X10.34374 Y13.41161
G01 X10.32014 Y13.38283
G01 X10.29136 Y13.35924
G01 X10.25860 Y13.34169
G01 X10.22299 Y13.33089
G01 X10.18303 Y13.32698
G01 X9.28895 Y13.32698
G01 X9.24897 Y13.33089
G01 X9.21339 Y13.34169
G01 X9.18057 Y13.35926
G01 X9.15184 Y13.38283
G01 X9.12825 Y13.41161
G01 X9.11072 Y13.44438
G01 X9.09992 Y13.47996
G01 X9.09599 Y13.51994
G01 X9.16586 Y13.52322
G01 X9.16711 Y13.52345
G01 X9.17000 Y13.49391
G01 X9.17673 Y13.47173
G01 X9.18766 Y13.45129
G01 X9.20236 Y13.43336
G01 X9.19779 Y13.42876
G01 X9.20236 Y13.43336
G01 X9.22030 Y13.41867
G01 X9.24074 Y13.40773
G01 X9.26292 Y13.40100
G01 X9.29246 Y13.39810
G01 X9.29220 Y13.39686
G01 X9.29246 Y13.39810
G01 X10.17953 Y13.39810
G01 X10.17963 Y13.39741
G01 X10.17953 Y13.39810
G01 X10.20904 Y13.40100
G01 X10.23124 Y13.40773
G01 X10.25169 Y13.41867
G01 X10.25354 Y13.41583
G01 X10.25169 Y13.41867
G01 X10.26959 Y13.43336
G01 X10.28433 Y13.45129
G01 X10.29525 Y13.47173
G01 X10.29733 Y13.47077
G01 X10.29525 Y13.47173
G01 X10.30198 Y13.49391
G01 X10.30488 Y13.52345
G01 X10.30518 Y13.52342
G01 X10.30488 Y13.52345
G01 X10.30488 Y14.21052
G01 X10.30556 Y14.21062
G01 X10.30488 Y14.21052
G01 X10.30198 Y14.24008
G01 X10.29525 Y14.26223
G01 X10.28433 Y14.28268
G01 X10.28715 Y14.28453
G01 X10.28433 Y14.28268
G01 X10.26959 Y14.30061
G01 X10.25166 Y14.31532
G01 X10.23124 Y14.32624
G01 X10.23223 Y14.32832
G01 X10.23124 Y14.32624
G01 X10.20904 Y14.33297
G01 X10.17953 Y14.33587
G01 X10.17955 Y14.33617
G01 X10.17953 Y14.33587
G01 X9.29246 Y14.33587
G01 X9.29236 Y14.33655
G01 X9.29246 Y14.33587
G01 X9.26292 Y14.33297
G01 X9.24072 Y14.32624
G01 X9.22030 Y14.31532
G01 X9.21844 Y14.31816
G01 X9.22030 Y14.31532
G01 X9.20236 Y14.30061
G01 X9.18766 Y14.28268
G01 X9.17673 Y14.26223
G01 X9.17463 Y14.26322
G01 X9.17673 Y14.26223
G01 X9.17000 Y14.24008
G01 X9.16711 Y14.21052
G01 X9.16680 Y14.21054
G01 X9.16711 Y14.21052
G01 X9.16711 Y13.52345
G01 X9.16586 Y13.52322
G01 X9.23724 Y13.52675
G01 X9.28849 Y13.51949
G01 X9.30932 Y13.54031
G01 X9.30932 Y14.19365
G01 X9.28849 Y14.21448
G01 X9.30932 Y14.19365
G01 X10.16266 Y14.19365
G01 X10.18349 Y14.21448
G01 X10.16266 Y14.19365
G01 X10.16266 Y13.54031
G01 X10.18349 Y13.51949
G01 X10.16266 Y13.54031
G01 X9.30932 Y13.54031
G01 X9.38042 Y13.61143
G01 X9.38042 Y14.12256
G01 X9.35959 Y14.14339
G01 X9.38042 Y14.12256
G01 X10.09154 Y14.12256
G01 X10.11237 Y14.14339
G01 X10.09154 Y14.12256
G01 X10.09154 Y13.61143
G01 X10.11237 Y13.59061
G01 X10.09154 Y13.61143
G01 X9.38042 Y13.61143
G01 X9.45154 Y13.68253
G01 X9.45154 Y14.05144
G01 X9.43071 Y14.07227
G01 X9.45154 Y14.05144
G01 X10.02045 Y14.05144
G01 X10.04127 Y14.07227
G01 X10.02045 Y14.05144
G01 X10.02045 Y13.68253
G01 X10.04127 Y13.66170
G01 X10.02045 Y13.68253
G01 X9.45154 Y13.68253
G01 X9.52266 Y13.75365
G01 X9.52266 Y13.98032
G01 X9.50183 Y14.00115
G01 X9.52266 Y13.98032
G01 X9.94933 Y13.98032
G01 X9.97015 Y14.00115
G01 X9.94933 Y13.98032
G01 X9.94933 Y13.75365
G01 X9.97015 Y13.73282
G01 X9.94933 Y13.75365
G01 X9.52266 Y13.75365
G01 X9.59375 Y13.82474
G01 X9.59375 Y13.90922
G01 X9.57292 Y13.93005
G01 X9.59375 Y13.90922
G01 X9.87823 Y13.90922
G01 X9.89906 Y13.93005
G01 X9.87823 Y13.90922
G01 X9.87823 Y13.82474
G01 X9.89906 Y13.80392
G01 X9.87823 Y13.82474
G01 X9.59375 Y13.82474
G04 P0 ( dwell for no time -- G64 should not smooth over this point )
G00 Z2.00000 ( retract )

G00 X9.59375 Y11.82475 ( rapid move to begin. )
G01 F40.00000
( Mill infeed pass 1/1 )
G01 Z-0.1290
G04 P0 ( dwell for no time -- G64 should not smooth over this point )
G01 F100.00000
G01 X9.59375 Y11.82475
G01 X9.59375 Y11.90923
G01 X9.57292 Y11.93006
G01 X9.59375 Y11.90923
G01 X9.87823 Y11.90923
G01 X9.89906 Y11.93006
G01 X9.87823 Y11.90923
G01 X9.87823 Y11.82475
G01 X9.89906 Y11.80392
G01 X9.87823 Y11.82475
G01 X9.59375 Y11.82475
G01 X9.52266 Y11.75365
G01 X9.94933 Y11.75365
G01 X9.97015 Y11.73283
G01 X9.94933 Y11.75365
G01 X9.94933 Y11.98032
G01 X9.97015 Y12.00115
G01 X9.94933 Y11.98032
G01 X9.52266 Y11.98032
G01 X9.50183 Y12.00115
G01 X9.52266 Y11.98032
G01 X9.52266 Y11.75365
G01 X9.45154 Y11.68253
G01 X10.02045 Y11.68253
G01 X10.04127 Y11.66171
G01 X10.02045 Y11.68253
G01 X10.02045 Y12.05144
G01 X10.04127 Y12.07227
G01 X10.02045 Y12.05144
G01 X9.45154 Y12.05144
G01 X9.43071 Y12.07227
G01 X9.45154 Y12.05144
G01 X9.45154 Y11.68253
G01 X9.38042 Y11.61144
G01 X10.09154 Y11.61144
G01 X10.11237 Y11.59061
G01 X10.09154 Y11.61144
G01 X10.09154 Y12.12256
G01 X10.11237 Y12.14339
G01 X10.09154 Y12.12256
G01 X9.38042 Y12.12256
G01 X9.35959 Y12.14339
G01 X9.38042 Y12.12256
G01 X9.38042 Y11.61144
G01 X9.30932 Y11.54032
G01 X10.16266 Y11.54032
G01 X10.18349 Y11.51949
G01 X10.16266 Y11.54032
G01 X10.16266 Y12.19366
G01 X10.18349 Y12.21449
G01 X10.16266 Y12.19366
G01 X9.30932 Y12.19366
G01 X9.28849 Y12.21449
G01 X9.30932 Y12.19366
G01 X9.30932 Y11.54032
G01 X9.28849 Y11.51949
G01 X9.23724 Y11.52675
G01 X9.16586 Y11.52320
G01 X9.16711 Y11.52345
G01 X9.16711 Y12.21052
G01 X9.16680 Y12.21057
G01 X9.16711 Y12.21052
G01 X9.17000 Y12.24006
G01 X9.17673 Y12.26224
G01 X9.17463 Y12.26320
G01 X9.17673 Y12.26224
G01 X9.18766 Y12.28268
G01 X9.20236 Y12.30062
G01 X9.22030 Y12.31532
G01 X9.21842 Y12.31814
G01 X9.22030 Y12.31532
G01 X9.24074 Y12.32625
G01 X9.26292 Y12.33298
G01 X9.29241 Y12.33587
G01 X9.29230 Y12.33656
G01 X9.29241 Y12.33587
G01 X10.17958 Y12.33587
G01 X10.17960 Y12.33618
G01 X10.17958 Y12.33587
G01 X10.20907 Y12.33298
G01 X10.23124 Y12.32625
G01 X10.23221 Y12.32833
G01 X10.23124 Y12.32625
G01 X10.25169 Y12.31532
G01 X10.26962 Y12.30062
G01 X10.28430 Y12.28268
G01 X10.28715 Y12.28454
G01 X10.28430 Y12.28268
G01 X10.29525 Y12.26224
G01 X10.30198 Y12.24006
G01 X10.30488 Y12.21052
G01 X10.30556 Y12.21062
G01 X10.30488 Y12.21052
G01 X10.30488 Y11.52345
G01 X10.30518 Y11.52340
G01 X10.30488 Y11.52345
G01 X10.30198 Y11.49391
G01 X10.29525 Y11.47174
G01 X10.29733 Y11.47077
G01 X10.29525 Y11.47174
G01 X10.28430 Y11.45129
G01 X10.26959 Y11.43336
G01 X10.25169 Y11.41865
G01 X10.25357 Y11.41583
G01 X10.25169 Y11.41865
G01 X10.23124 Y11.40773
G01 X10.20907 Y11.40100
G01 X10.17958 Y11.39810
G01 X10.17968 Y11.39742
G01 X10.17958 Y11.39810
G01 X9.29241 Y11.39810
G01 X9.29215 Y11.39686
G01 X9.29241 Y11.39810
G01 X9.26292 Y11.40100
G01 X9.24074 Y11.40773
G01 X9.22027 Y11.41865
G01 X9.20236 Y11.43336
G01 X9.19779 Y11.42876
G01 X9.20236 Y11.43336
G01 X9.18766 Y11.45129
G01 X9.17673 Y11.47174
G01 X9.17000 Y11.49391
G01 X9.16711 Y11.52345
G01 X9.16586 Y11.52320
G01 X9.09599 Y11.51995
G01 X9.09992 Y11.47997
G01 X9.11072 Y11.44438
G01 X9.12825 Y11.41159
G01 X9.15184 Y11.38284
G01 X9.18060 Y11.35924
G01 X9.21341 Y11.34172
G01 X9.24897 Y11.33092
G01 X9.28898 Y11.32698
G01 X10.18301 Y11.32698
G01 X10.22299 Y11.33092
G01 X10.25857 Y11.34172
G01 X10.29139 Y11.35924
G01 X10.32012 Y11.38284
G01 X10.34374 Y11.41159
G01 X10.36126 Y11.44441
G01 X10.37206 Y11.47997
G01 X10.37600 Y11.51997
G01 X10.37600 Y12.21400
G01 X10.37206 Y12.25401
G01 X10.36126 Y12.28959
G01 X10.34374 Y12.32238
G01 X10.32014 Y12.35114
G01 X10.29136 Y12.37473
G01 X10.25860 Y12.39226
G01 X10.22299 Y12.40306
G01 X10.18306 Y12.40699
G01 X9.28893 Y12.40699
G01 X9.24897 Y12.40306
G01 X9.21339 Y12.39226
G01 X9.18060 Y12.37473
G01 X9.15184 Y12.35114
G01 X9.12825 Y12.32238
G01 X9.11072 Y12.28959
G01 X9.09992 Y12.25401
G01 X9.09599 Y12.21403
G01 X9.09599 Y11.51995
G01 X9.16711 Y11.52325
G01 X9.23724 Y11.52675
G01 X9.23820 Y11.52691
G01 X9.24008 Y11.50783
G01 X9.24275 Y11.49909
G01 X9.24707 Y11.49099
G01 X9.25288 Y11.48388
G01 X9.24717 Y11.47816
G01 X9.25288 Y11.48388
G01 X9.26000 Y11.47806
G01 X9.26807 Y11.47375
G01 X9.27686 Y11.47108
G01 X9.29591 Y11.46920
G01 X9.29576 Y11.46818
G01 X9.29591 Y11.46920
G01 X10.17607 Y11.46920
G01 X10.19512 Y11.47108
G01 X10.20388 Y11.47375
G01 X10.21199 Y11.47806
G01 X10.21935 Y11.46686
G01 X10.21199 Y11.47806
G01 X10.21907 Y11.48391
G01 X10.22492 Y11.49099
G01 X10.22923 Y11.49907
G01 X10.23190 Y11.50786
G01 X10.23378 Y11.52696
G01 X10.23543 Y11.52663
G01 X10.23378 Y11.52696
G01 X10.23378 Y12.20702
G01 X10.23190 Y12.22612
G01 X10.22923 Y12.23491
G01 X10.22489 Y12.24298
G01 X10.23604 Y12.25032
G01 X10.22489 Y12.24298
G01 X10.21910 Y12.25007
G01 X10.21199 Y12.25589
G01 X10.20388 Y12.26023
G01 X10.19512 Y12.26290
G01 X10.17607 Y12.26478
G01 X10.17640 Y12.26640
G01 X10.17607 Y12.26478
G01 X9.29591 Y12.26478
G01 X9.27686 Y12.26290
G01 X9.26807 Y12.26023
G01 X9.26000 Y12.25591
G01 X9.25263 Y12.26711
G01 X9.26000 Y12.25591
G01 X9.25288 Y12.25007
G01 X9.24707 Y12.24298
G01 X9.24275 Y12.23488
G01 X9.24008 Y12.22614
G01 X9.23820 Y12.20707
G01 X9.23665 Y12.20740
G01 X9.23820 Y12.20707
G01 X9.23820 Y11.52691
G04 P0 ( dwell for no time -- G64 should not smooth over this point )
G00 Z2.00000 ( retract )


G00 X9.46675 Y7.76075 ( rapid move to begin. )
G01 F40.00000
( Mill infeed pass 1/1 )
G01 Z-0.1300
G04 P0 ( dwell for no time -- G64 should not smooth over this point )
G01 F100.00000
G01 X9.46675 Y7.76075
G01 X9.75123 Y7.76075
G01 X9.77206 Y7.73992
G01 X9.75123 Y7.76075
G01 X9.75123 Y7.84523
G01 X9.77206 Y7.86606
G01 X9.75123 Y7.84523
G01 X9.46675 Y7.84523
G01 X9.44592 Y7.86606
G01 X9.46675 Y7.84523
G01 X9.46675 Y7.76075
G01 X9.39566 Y7.68965
G01 X9.82233 Y7.68965
G01 X9.84315 Y7.66883
G01 X9.82233 Y7.68965
G01 X9.82233 Y7.91632
G01 X9.84315 Y7.93715
G01 X9.82233 Y7.91632
G01 X9.39566 Y7.91632
G01 X9.37483 Y7.93715
G01 X9.39566 Y7.91632
G01 X9.39566 Y7.68965
G01 X9.32454 Y7.61853
G01 X9.89345 Y7.61853
G01 X9.91427 Y7.59771
G01 X9.89345 Y7.61853
G01 X9.89345 Y7.98744
G01 X9.91427 Y8.00827
G01 X9.89345 Y7.98744
G01 X9.32454 Y7.98744
G01 X9.30371 Y8.00827
G01 X9.32454 Y7.98744
G01 X9.32454 Y7.61853
G01 X9.25342 Y7.54744
G01 X9.96454 Y7.54744
G01 X9.98537 Y7.52661
G01 X9.96454 Y7.54744
G01 X9.96454 Y8.05856
G01 X9.98537 Y8.07939
G01 X9.96454 Y8.05856
G01 X9.25342 Y8.05856
G01 X9.23259 Y8.07939
G01 X9.25342 Y8.05856
G01 X9.25342 Y7.54744
G01 X9.18232 Y7.47632
G01 X10.03566 Y7.47632
G01 X10.05649 Y7.45549
G01 X10.03566 Y7.47632
G01 X10.03566 Y8.12966
G01 X10.05649 Y8.15049
G01 X10.03566 Y8.12966
G01 X9.18232 Y8.12966
G01 X9.16149 Y8.15049
G01 X9.18232 Y8.12966
G01 X9.18232 Y7.47632
G01 X9.16149 Y7.45549
G01 X9.11024 Y7.46275
G01 X9.03886 Y7.45920
G01 X9.04011 Y7.45945
G01 X9.04011 Y8.14652
G01 X9.03980 Y8.14657
G01 X9.04011 Y8.14652
G01 X9.04300 Y8.17606
G01 X9.04973 Y8.19824
G01 X9.04763 Y8.19920
G01 X9.04973 Y8.19824
G01 X9.06066 Y8.21868
G01 X9.07536 Y8.23662
G01 X9.09330 Y8.25132
G01 X9.09142 Y8.25414
G01 X9.09330 Y8.25132
G01 X9.11374 Y8.26225
G01 X9.13592 Y8.26898
G01 X9.16541 Y8.27187
G01 X9.16530 Y8.27256
G01 X9.16541 Y8.27187
G01 X10.05258 Y8.27187
G01 X10.05260 Y8.27218
G01 X10.05258 Y8.27187
G01 X10.08207 Y8.26898
G01 X10.10424 Y8.26225
G01 X10.10521 Y8.26433
G01 X10.10424 Y8.26225
G01 X10.12469 Y8.25132
G01 X10.14259 Y8.23662
G01 X10.15730 Y8.21868
G01 X10.16015 Y8.22054
G01 X10.15730 Y8.21868
G01 X10.16825 Y8.19824
G01 X10.17498 Y8.17606
G01 X10.17788 Y8.14652
G01 X10.17856 Y8.14662
G01 X10.17788 Y8.14652
G01 X10.17788 Y7.45945
G01 X10.17818 Y7.45940
G01 X10.17788 Y7.45945
G01 X10.17498 Y7.42991
G01 X10.16825 Y7.40774
G01 X10.17033 Y7.40677
G01 X10.16825 Y7.40774
G01 X10.15730 Y7.38729
G01 X10.14259 Y7.36936
G01 X10.12469 Y7.35468
G01 X10.12654 Y7.35183
G01 X10.12469 Y7.35468
G01 X10.10424 Y7.34373
G01 X10.08207 Y7.33700
G01 X10.05258 Y7.33410
G01 X10.05268 Y7.33342
G01 X10.05258 Y7.33410
G01 X9.16541 Y7.33410
G01 X9.16515 Y7.33286
G01 X9.16541 Y7.33410
G01 X9.13592 Y7.33700
G01 X9.11374 Y7.34373
G01 X9.09327 Y7.35468
G01 X9.07536 Y7.36936
G01 X9.07079 Y7.36476
G01 X9.07536 Y7.36936
G01 X9.06066 Y7.38729
G01 X9.04973 Y7.40774
G01 X9.04300 Y7.42991
G01 X9.04011 Y7.45945
G01 X9.03886 Y7.45920
G01 X8.96899 Y7.45597
G01 X8.97292 Y7.41597
G01 X8.98372 Y7.38041
G01 X9.00125 Y7.34759
G01 X9.02484 Y7.31884
G01 X9.05359 Y7.29524
G01 X9.08641 Y7.27772
G01 X9.12197 Y7.26692
G01 X9.16195 Y7.26298
G01 X10.05603 Y7.26298
G01 X10.09599 Y7.26692
G01 X10.13157 Y7.27772
G01 X10.16439 Y7.29524
G01 X10.19312 Y7.31884
G01 X10.21674 Y7.34759
G01 X10.23426 Y7.38038
G01 X10.24506 Y7.41599
G01 X10.24900 Y7.45595
G01 X10.24900 Y8.15003
G01 X10.24506 Y8.18998
G01 X10.23426 Y8.22559
G01 X10.21674 Y8.25838
G01 X10.19314 Y8.28714
G01 X10.16439 Y8.31073
G01 X10.13160 Y8.32826
G01 X10.09601 Y8.33905
G01 X10.05603 Y8.34299
G01 X9.16195 Y8.34299
G01 X9.12197 Y8.33905
G01 X9.08639 Y8.32826
G01 X9.05359 Y8.31073
G01 X9.02484 Y8.28714
G01 X9.00127 Y8.25841
G01 X8.98372 Y8.22559
G01 X8.97292 Y8.18998
G01 X8.97160 Y8.17667
G01 X8.96899 Y8.15000
G01 X8.96899 Y7.45597
G01 X9.04011 Y7.45925
G01 X9.11024 Y7.46275
G01 X9.11120 Y7.46291
G01 X9.11308 Y7.44383
G01 X9.11575 Y7.43507
G01 X9.12007 Y7.42699
G01 X9.12588 Y7.41991
G01 X9.12017 Y7.41416
G01 X9.12588 Y7.41991
G01 X9.13300 Y7.41406
G01 X9.14107 Y7.40975
G01 X9.14986 Y7.40708
G01 X9.16891 Y7.40520
G01 X9.16873 Y7.40418
G01 X9.16891 Y7.40520
G01 X10.04907 Y7.40520
G01 X10.06812 Y7.40708
G01 X10.07688 Y7.40975
G01 X10.08499 Y7.41406
G01 X10.09235 Y7.40286
G01 X10.08499 Y7.41406
G01 X10.09207 Y7.41991
G01 X10.09792 Y7.42699
G01 X10.10223 Y7.43507
G01 X10.10490 Y7.44388
G01 X10.10676 Y7.46291
G01 X10.10843 Y7.46258
G01 X10.10676 Y7.46291
G01 X10.10676 Y8.14307
G01 X10.10490 Y8.16212
G01 X10.10223 Y8.17091
G01 X10.09789 Y8.17898
G01 X10.10904 Y8.18632
G01 X10.09789 Y8.17898
G01 X10.09207 Y8.18607
G01 X10.08499 Y8.19189
G01 X10.07691 Y8.19623
G01 X10.06812 Y8.19890
G01 X10.04902 Y8.20078
G01 X10.04935 Y8.20240
G01 X10.04902 Y8.20078
G01 X9.16896 Y8.20078
G01 X9.14986 Y8.19890
G01 X9.14107 Y8.19623
G01 X9.13300 Y8.19191
G01 X9.12563 Y8.20311
G01 X9.13300 Y8.19191
G01 X9.12588 Y8.18610
G01 X9.12007 Y8.17898
G01 X9.11575 Y8.17088
G01 X9.11308 Y8.16214
G01 X9.11120 Y8.14307
G01 X9.10965 Y8.14340
G01 X9.11120 Y8.14307
G01 X9.11120 Y7.46291
G04 P0 ( dwell for no time -- G64 should not smooth over this point )
G00 Z2.00000 ( retract )

G00 X8.58331 Y5.24699 ( rapid move to begin. )
G01 F40.00000
( Mill infeed pass 1/1 )
G01 Z-0.1290
G04 P0 ( dwell for no time -- G64 should not smooth over this point )
G01 F100.00000
G01 X8.58331 Y5.24699
G01 X8.59947 Y5.09321
G01 X8.64727 Y4.94615
G01 X8.72459 Y4.81221
G01 X8.82804 Y4.69730
G01 X8.95316 Y4.60642
G01 X9.09444 Y4.54351
G01 X9.24570 Y4.51138
G01 X9.40028 Y4.51138
G01 X9.55154 Y4.54351
G01 X9.69281 Y4.60642
G01 X9.81791 Y4.69730
G01 X9.92139 Y4.81221
G01 X9.99870 Y4.94615
G01 X10.04648 Y5.09319
G01 X10.06266 Y5.24699
G01 X10.04648 Y5.40078
G01 X9.99870 Y5.54785
G01 X9.92139 Y5.68176
G01 X9.81793 Y5.79667
G01 X9.69281 Y5.88755
G01 X9.55154 Y5.95046
G01 X9.40030 Y5.98260
G01 X9.24567 Y5.98260
G01 X9.09444 Y5.95046
G01 X8.95316 Y5.88755
G01 X8.82804 Y5.79667
G01 X8.72459 Y5.68176
G01 X8.64727 Y5.54785
G01 X8.59949 Y5.40078
G01 X8.58331 Y5.24699
G01 X8.65481 Y5.24699
G01 X8.66942 Y5.10807
G01 X8.66904 Y5.10797
G01 X8.66942 Y5.10807
G01 X8.71257 Y4.97523
G01 X8.71222 Y4.97505
G01 X8.71257 Y4.97523
G01 X8.78242 Y4.85425
G01 X8.78212 Y4.85402
G01 X8.78242 Y4.85425
G01 X8.87590 Y4.75044
G01 X8.87564 Y4.75016
G01 X8.87590 Y4.75044
G01 X8.98893 Y4.66832
G01 X8.98872 Y4.66799
G01 X8.98893 Y4.66832
G01 X9.11651 Y4.61153
G01 X9.11638 Y4.61115
G01 X9.11651 Y4.61153
G01 X9.25314 Y4.58247
G01 X9.25309 Y4.58209
G01 X9.25314 Y4.58247
G01 X9.39284 Y4.58247
G01 X9.39289 Y4.58209
G01 X9.39284 Y4.58247
G01 X9.52946 Y4.61153
G01 X9.52959 Y4.61115
G01 X9.52946 Y4.61153
G01 X9.65707 Y4.66832
G01 X9.65728 Y4.66799
G01 X9.65707 Y4.66832
G01 X9.77008 Y4.75044
G01 X9.77033 Y4.75016
G01 X9.77008 Y4.75044
G01 X9.86352 Y4.85423
G01 X9.86385 Y4.85400
G01 X9.86352 Y4.85423
G01 X9.93340 Y4.97523
G01 X9.93376 Y4.97505
G01 X9.93340 Y4.97523
G01 X9.97655 Y5.10807
G01 X9.97694 Y5.10800
G01 X9.97655 Y5.10807
G01 X9.99116 Y5.24699
G01 X9.99154 Y5.24699
G01 X9.99116 Y5.24699
G01 X9.97655 Y5.38590
G01 X9.97694 Y5.38597
G01 X9.97655 Y5.38590
G01 X9.93340 Y5.51874
G01 X9.93376 Y5.51889
G01 X9.93340 Y5.51874
G01 X9.86355 Y5.63975
G01 X9.86385 Y5.63997
G01 X9.86355 Y5.63975
G01 X9.77008 Y5.74356
G01 X9.77033 Y5.74384
G01 X9.77008 Y5.74356
G01 X9.65707 Y5.82565
G01 X9.65728 Y5.82598
G01 X9.65707 Y5.82565
G01 X9.52946 Y5.88244
G01 X9.52959 Y5.88282
G01 X9.52946 Y5.88244
G01 X9.39284 Y5.91150
G01 X9.39289 Y5.91188
G01 X9.39284 Y5.91150
G01 X9.25314 Y5.91150
G01 X9.25309 Y5.91188
G01 X9.25314 Y5.91150
G01 X9.11651 Y5.88244
G01 X9.11638 Y5.88282
G01 X9.11651 Y5.88244
G01 X8.98893 Y5.82565
G01 X8.98872 Y5.82598
G01 X8.98893 Y5.82565
G01 X8.87590 Y5.74353
G01 X8.87564 Y5.74384
G01 X8.87590 Y5.74353
G01 X8.78242 Y5.63972
G01 X8.78212 Y5.63995
G01 X8.78242 Y5.63972
G01 X8.71257 Y5.51874
G01 X8.71222 Y5.51889
G01 X8.71257 Y5.51874
G01 X8.66942 Y5.38590
G01 X8.66904 Y5.38597
G01 X8.66942 Y5.38590
G01 X8.65481 Y5.24699
G01 X8.72632 Y5.24699
G01 X8.73935 Y5.12293
G01 X8.73897 Y5.12286
G01 X8.73935 Y5.12293
G01 X8.77790 Y5.00429
G01 X8.77755 Y5.00414
G01 X8.77790 Y5.00429
G01 X8.84026 Y4.89629
G01 X8.83996 Y4.89606
G01 X8.84026 Y4.89629
G01 X8.92375 Y4.80358
G01 X8.92347 Y4.80327
G01 X8.92375 Y4.80358
G01 X9.02464 Y4.73027
G01 X9.02444 Y4.72992
G01 X9.02464 Y4.73027
G01 X9.13861 Y4.67952
G01 X9.13848 Y4.67914
G01 X9.13861 Y4.67952
G01 X9.26060 Y4.65359
G01 X9.26058 Y4.65321
G01 X9.26060 Y4.65359
G01 X9.38537 Y4.65359
G01 X9.38540 Y4.65321
G01 X9.38537 Y4.65359
G01 X9.50737 Y4.67952
G01 X9.50749 Y4.67914
G01 X9.50737 Y4.67952
G01 X9.62134 Y4.73027
G01 X9.62154 Y4.72992
G01 X9.62134 Y4.73027
G01 X9.72222 Y4.80358
G01 X9.72250 Y4.80327
G01 X9.72222 Y4.80358
G01 X9.80571 Y4.89629
G01 X9.80602 Y4.89606
G01 X9.80571 Y4.89629
G01 X9.86807 Y5.00431
G01 X9.86843 Y5.00414
G01 X9.86807 Y5.00431
G01 X9.90663 Y5.12293
G01 X9.90701 Y5.12286
G01 X9.90663 Y5.12293
G01 X9.91966 Y5.24699
G01 X9.92004 Y5.24699
G01 X9.91966 Y5.24699
G01 X9.90663 Y5.37104
G01 X9.90701 Y5.37112
G01 X9.90663 Y5.37104
G01 X9.86807 Y5.48968
G01 X9.86843 Y5.48984
G01 X9.86807 Y5.48968
G01 X9.80571 Y5.59768
G01 X9.80602 Y5.59791
G01 X9.80571 Y5.59768
G01 X9.72225 Y5.69039
G01 X9.72250 Y5.69067
G01 X9.72225 Y5.69039
G01 X9.62131 Y5.76372
G01 X9.62151 Y5.76405
G01 X9.62131 Y5.76372
G01 X9.50737 Y5.81445
G01 X9.50749 Y5.81483
G01 X9.50737 Y5.81445
G01 X9.38537 Y5.84038
G01 X9.38540 Y5.84076
G01 X9.38537 Y5.84038
G01 X9.26060 Y5.84038
G01 X9.26058 Y5.84076
G01 X9.26060 Y5.84038
G01 X9.13861 Y5.81445
G01 X9.13848 Y5.81483
G01 X9.13861 Y5.81445
G01 X9.02466 Y5.76372
G01 X9.02446 Y5.76405
G01 X9.02466 Y5.76372
G01 X8.92372 Y5.69039
G01 X8.92347 Y5.69067
G01 X8.92372 Y5.69039
G01 X8.84026 Y5.59768
G01 X8.83996 Y5.59791
G01 X8.84026 Y5.59768
G01 X8.77790 Y5.48971
G01 X8.77755 Y5.48986
G01 X8.77790 Y5.48971
G01 X8.73935 Y5.37104
G01 X8.73897 Y5.37112
G01 X8.73935 Y5.37104
G01 X8.72632 Y5.24699
G01 X8.79782 Y5.24699
G01 X8.80930 Y5.13782
G01 X8.80892 Y5.13772
G01 X8.80930 Y5.13782
G01 X8.84323 Y5.03337
G01 X8.84288 Y5.03322
G01 X8.84323 Y5.03337
G01 X8.89812 Y4.93833
G01 X8.89779 Y4.93810
G01 X8.89812 Y4.93833
G01 X8.97158 Y4.85671
G01 X8.97132 Y4.85644
G01 X8.97158 Y4.85671
G01 X9.06040 Y4.79217
G01 X9.06022 Y4.79184
G01 X9.06040 Y4.79217
G01 X9.16071 Y4.74752
G01 X9.16058 Y4.74716
G01 X9.16071 Y4.74752
G01 X9.26810 Y4.72469
G01 X9.26805 Y4.72430
G01 X9.26810 Y4.72469
G01 X9.37788 Y4.72469
G01 X9.37793 Y4.72430
G01 X9.37788 Y4.72469
G01 X9.48527 Y4.74752
G01 X9.48540 Y4.74714
G01 X9.48527 Y4.74752
G01 X9.58557 Y4.79217
G01 X9.58578 Y4.79184
G01 X9.58557 Y4.79217
G01 X9.67440 Y4.85671
G01 X9.67465 Y4.85644
G01 X9.67440 Y4.85671
G01 X9.74785 Y4.93830
G01 X9.74816 Y4.93807
G01 X9.74785 Y4.93830
G01 X9.80274 Y5.03337
G01 X9.80310 Y5.03322
G01 X9.80274 Y5.03337
G01 X9.83668 Y5.13779
G01 X9.83706 Y5.13769
G01 X9.83668 Y5.13779
G01 X9.84816 Y5.24699
G01 X9.84854 Y5.24699
G01 X9.84816 Y5.24699
G01 X9.83668 Y5.35618
G01 X9.83706 Y5.35628
G01 X9.83668 Y5.35618
G01 X9.80274 Y5.46060
G01 X9.80310 Y5.46075
G01 X9.80274 Y5.46060
G01 X9.74785 Y5.55567
G01 X9.74816 Y5.55590
G01 X9.74785 Y5.55567
G01 X9.67440 Y5.63726
G01 X9.67465 Y5.63754
G01 X9.67440 Y5.63726
G01 X9.58557 Y5.70180
G01 X9.58578 Y5.70213
G01 X9.58557 Y5.70180
G01 X9.48527 Y5.74645
G01 X9.48540 Y5.74683
G01 X9.48527 Y5.74645
G01 X9.37788 Y5.76929
G01 X9.37793 Y5.76967
G01 X9.37788 Y5.76929
G01 X9.26810 Y5.76929
G01 X9.26805 Y5.76967
G01 X9.26810 Y5.76929
G01 X9.16071 Y5.74645
G01 X9.16058 Y5.74683
G01 X9.16071 Y5.74645
G01 X9.06040 Y5.70180
G01 X9.06022 Y5.70213
G01 X9.06040 Y5.70180
G01 X8.97158 Y5.63726
G01 X8.97132 Y5.63756
G01 X8.97158 Y5.63726
G01 X8.89810 Y5.55567
G01 X8.89779 Y5.55590
G01 X8.89810 Y5.55567
G01 X8.84323 Y5.46060
G01 X8.84288 Y5.46075
G01 X8.84323 Y5.46060
G01 X8.80930 Y5.35618
G01 X8.80892 Y5.35626
G01 X8.80930 Y5.35618
G01 X8.79782 Y5.24699
G01 X8.86932 Y5.24699
G01 X8.87922 Y5.15265
G01 X8.90854 Y5.06245
G01 X8.90772 Y5.06215
G01 X8.90854 Y5.06245
G01 X8.95596 Y4.98031
G01 X8.95527 Y4.97975
G01 X8.95596 Y4.98031
G01 X9.01941 Y4.90985
G01 X9.09614 Y4.85410
G01 X9.09535 Y4.85273
G01 X9.09614 Y4.85410
G01 X9.18278 Y4.81552
G01 X9.27559 Y4.79581
G01 X9.27541 Y4.79423
G01 X9.27559 Y4.79581
G01 X9.37038 Y4.79581
G01 X9.46320 Y4.81554
G01 X9.46368 Y4.81402
G01 X9.46320 Y4.81554
G01 X9.54981 Y4.85410
G01 X9.62654 Y4.90985
G01 X9.62761 Y4.90866
G01 X9.62654 Y4.90985
G01 X9.69002 Y4.98034
G01 X9.73744 Y5.06248
G01 X9.73889 Y5.06182
G01 X9.73744 Y5.06248
G01 X9.76673 Y5.15265
G01 X9.77666 Y5.24699
G01 X9.77823 Y5.24699
G01 X9.77666 Y5.24699
G01 X9.76673 Y5.34132
G01 X9.73744 Y5.43152
G01 X9.73825 Y5.43182
G01 X9.73744 Y5.43152
G01 X9.69002 Y5.51366
G01 X9.69070 Y5.51419
G01 X9.69002 Y5.51366
G01 X9.62654 Y5.58412
G01 X9.54981 Y5.63987
G01 X9.55060 Y5.64124
G01 X9.54981 Y5.63987
G01 X9.46317 Y5.67846
G01 X9.37041 Y5.69817
G01 X9.37059 Y5.69974
G01 X9.37041 Y5.69817
G01 X9.27557 Y5.69817
G01 X9.18280 Y5.67846
G01 X9.18232 Y5.67995
G01 X9.18280 Y5.67846
G01 X9.09617 Y5.63987
G01 X9.01941 Y5.58412
G01 X9.01834 Y5.58529
G01 X9.01941 Y5.58412
G01 X8.95598 Y5.51366
G01 X8.90854 Y5.43152
G01 X8.90709 Y5.43215
G01 X8.90854 Y5.43152
G01 X8.87925 Y5.34132
G01 X8.86932 Y5.24699
G01 X8.94082 Y5.24699
G01 X8.94918 Y5.16753
G01 X8.97386 Y5.09156
G01 X8.97242 Y5.09090
G01 X8.97386 Y5.09156
G01 X9.01382 Y5.02235
G01 X9.06726 Y4.96299
G01 X9.06622 Y4.96179
G01 X9.06726 Y4.96299
G01 X9.13190 Y4.91602
G01 X9.20490 Y4.88354
G01 X9.20439 Y4.88201
G01 X9.20490 Y4.88354
G01 X9.28306 Y4.86693
G01 X9.36292 Y4.86693
G01 X9.36309 Y4.86533
G01 X9.36292 Y4.86693
G01 X9.44107 Y4.88354
G01 X9.51407 Y4.91602
G01 X9.51486 Y4.91465
G01 X9.51407 Y4.91602
G01 X9.57871 Y4.96299
G01 X9.63216 Y5.02235
G01 X9.63284 Y5.02179
G01 X9.63216 Y5.02235
G01 X9.67211 Y5.09156
G01 X9.67295 Y5.09123
G01 X9.67211 Y5.09156
G01 X9.69680 Y5.16753
G01 X9.70516 Y5.24699
G01 X9.70673 Y5.24699
G01 X9.70516 Y5.24699
G01 X9.69680 Y5.32644
G01 X9.67211 Y5.40243
G01 X9.67356 Y5.40307
G01 X9.67211 Y5.40243
G01 X9.63216 Y5.47162
G01 X9.57869 Y5.53098
G01 X9.57976 Y5.53218
G01 X9.57869 Y5.53098
G01 X9.51407 Y5.57795
G01 X9.44107 Y5.61043
G01 X9.44158 Y5.61196
G01 X9.44107 Y5.61043
G01 X9.36292 Y5.62707
G01 X9.28306 Y5.62707
G01 X9.28288 Y5.62865
G01 X9.28306 Y5.62707
G01 X9.20490 Y5.61043
G01 X9.13190 Y5.57795
G01 X9.13112 Y5.57932
G01 X9.13190 Y5.57795
G01 X9.06726 Y5.53098
G01 X9.01382 Y5.47162
G01 X9.01313 Y5.47218
G01 X9.01382 Y5.47162
G01 X8.97386 Y5.40243
G01 X8.97303 Y5.40274
G01 X8.97386 Y5.40243
G01 X8.94918 Y5.32644
G01 X8.94082 Y5.24699
G01 X9.01232 Y5.24699
G01 X9.01910 Y5.18242
G01 X9.01755 Y5.18209
G01 X9.01910 Y5.18242
G01 X9.03919 Y5.12062
G01 X9.07165 Y5.06439
G01 X9.07036 Y5.06347
G01 X9.07165 Y5.06439
G01 X9.11511 Y5.01610
G01 X9.16767 Y4.97795
G01 X9.16685 Y4.97658
G01 X9.16767 Y4.97795
G01 X9.22698 Y4.95153
G01 X9.29053 Y4.93802
G01 X9.29035 Y4.93645
G01 X9.29053 Y4.93802
G01 X9.35545 Y4.93802
G01 X9.41900 Y4.95153
G01 X9.41948 Y4.95001
G01 X9.41900 Y4.95153
G01 X9.47831 Y4.97795
G01 X9.53084 Y5.01610
G01 X9.53139 Y5.01541
G01 X9.53084 Y5.01610
G01 X9.57432 Y5.06439
G01 X9.57506 Y5.06390
G01 X9.57432 Y5.06439
G01 X9.60678 Y5.12062
G01 X9.62687 Y5.18242
G01 X9.62842 Y5.18209
G01 X9.62687 Y5.18242
G01 X9.63365 Y5.24699
G01 X9.62687 Y5.31155
G01 X9.62842 Y5.31188
G01 X9.62687 Y5.31155
G01 X9.60678 Y5.37335
G01 X9.57432 Y5.42959
G01 X9.57562 Y5.43053
G01 X9.57432 Y5.42959
G01 X9.53086 Y5.47787
G01 X9.47831 Y5.51602
G01 X9.47912 Y5.51739
G01 X9.47831 Y5.51602
G01 X9.41900 Y5.54244
G01 X9.35545 Y5.55595
G01 X9.35563 Y5.55753
G01 X9.35545 Y5.55595
G01 X9.29053 Y5.55595
G01 X9.22698 Y5.54244
G01 X9.22649 Y5.54396
G01 X9.22698 Y5.54244
G01 X9.16767 Y5.51602
G01 X9.11514 Y5.47787
G01 X9.11458 Y5.47856
G01 X9.11514 Y5.47787
G01 X9.07165 Y5.42959
G01 X9.07092 Y5.43007
G01 X9.07165 Y5.42959
G01 X9.03919 Y5.37335
G01 X9.01910 Y5.31155
G01 X9.01755 Y5.31188
G01 X9.01910 Y5.31155
G01 X9.01232 Y5.24699
G01 X9.08382 Y5.24699
G01 X9.08905 Y5.19728
G01 X9.08750 Y5.19695
G01 X9.08905 Y5.19728
G01 X9.10450 Y5.14973
G01 X9.12949 Y5.10642
G01 X9.12822 Y5.10548
G01 X9.12949 Y5.10642
G01 X9.16294 Y5.06926
G01 X9.20343 Y5.03985
G01 X9.20295 Y5.03911
G01 X9.20343 Y5.03985
G01 X9.24910 Y5.01953
G01 X9.24887 Y5.01867
G01 X9.24910 Y5.01953
G01 X9.29799 Y5.00914
G01 X9.34798 Y5.00914
G01 X9.34816 Y5.00757
G01 X9.34798 Y5.00914
G01 X9.39688 Y5.01953
G01 X9.44257 Y5.03987
G01 X9.44336 Y5.03848
G01 X9.44257 Y5.03987
G01 X9.48301 Y5.06926
G01 X9.51648 Y5.10642
G01 X9.51775 Y5.10548
G01 X9.51648 Y5.10642
G01 X9.54148 Y5.14973
G01 X9.55692 Y5.19725
G01 X9.55779 Y5.19702
G01 X9.55692 Y5.19725
G01 X9.56215 Y5.24699
G01 X9.56304 Y5.24704
G01 X9.56215 Y5.24699
G01 X9.55692 Y5.29672
G01 X9.54148 Y5.34427
G01 X9.54293 Y5.34490
G01 X9.54148 Y5.34427
G01 X9.51648 Y5.38758
G01 X9.48301 Y5.42471
G01 X9.48407 Y5.42590
G01 X9.48301 Y5.42471
G01 X9.44257 Y5.45410
G01 X9.39690 Y5.47444
G01 X9.39738 Y5.47594
G01 X9.39690 Y5.47444
G01 X9.34798 Y5.48483
G01 X9.29799 Y5.48483
G01 X9.29782 Y5.48641
G01 X9.29799 Y5.48483
G01 X9.24907 Y5.47444
G01 X9.20343 Y5.45412
G01 X9.20262 Y5.45549
G01 X9.20343 Y5.45412
G01 X9.16294 Y5.42471
G01 X9.12949 Y5.38758
G01 X9.12822 Y5.38849
G01 X9.12949 Y5.38758
G01 X9.10450 Y5.34427
G01 X9.08905 Y5.29672
G01 X9.08750 Y5.29705
G01 X9.08905 Y5.29672
G01 X9.08382 Y5.24699
G01 X9.15532 Y5.24699
G01 X9.15898 Y5.21211
G01 X9.16983 Y5.17879
G01 X9.16838 Y5.17815
G01 X9.16983 Y5.17879
G01 X9.18735 Y5.14843
G01 X9.21080 Y5.12240
G01 X9.20973 Y5.12121
G01 X9.21080 Y5.12240
G01 X9.23914 Y5.10180
G01 X9.27117 Y5.08752
G01 X9.27069 Y5.08603
G01 X9.27117 Y5.08752
G01 X9.30546 Y5.08024
G01 X9.34051 Y5.08024
G01 X9.34067 Y5.07866
G01 X9.34051 Y5.08024
G01 X9.37480 Y5.08752
G01 X9.40683 Y5.10180
G01 X9.40762 Y5.10043
G01 X9.40683 Y5.10180
G01 X9.43518 Y5.12240
G01 X9.45862 Y5.14843
G01 X9.46073 Y5.14706
G01 X9.45862 Y5.14843
G01 X9.47615 Y5.17879
G01 X9.48697 Y5.21214
G01 X9.49065 Y5.24699
G01 X9.49314 Y5.24686
G01 X9.49065 Y5.24699
G01 X9.48697 Y5.28186
G01 X9.47615 Y5.31516
G01 X9.47760 Y5.31582
G01 X9.47615 Y5.31516
G01 X9.45862 Y5.34554
G01 X9.43518 Y5.37157
G01 X9.43625 Y5.37277
G01 X9.43518 Y5.37157
G01 X9.40683 Y5.39217
G01 X9.37480 Y5.40645
G01 X9.37529 Y5.40795
G01 X9.37480 Y5.40645
G01 X9.34051 Y5.41374
G01 X9.30546 Y5.41374
G01 X9.30508 Y5.41620
G01 X9.30546 Y5.41374
G01 X9.27117 Y5.40645
G01 X9.23917 Y5.39220
G01 X9.21080 Y5.37157
G01 X9.20922 Y5.37353
G01 X9.21080 Y5.37157
G01 X9.18735 Y5.34554
G01 X9.16983 Y5.31518
G01 X9.16838 Y5.31582
G01 X9.16983 Y5.31518
G01 X9.15900 Y5.28186
G01 X9.15532 Y5.24699
G01 X9.22682 Y5.24699
G01 X9.22893 Y5.22700
G01 X9.22405 Y5.22568
G01 X9.22893 Y5.22700
G01 X9.23515 Y5.20787
G01 X9.24519 Y5.19047
G01 X9.25865 Y5.17554
G01 X9.27491 Y5.16370
G01 X9.27155 Y5.15788
G01 X9.27491 Y5.16370
G01 X9.29327 Y5.15555
G01 X9.31293 Y5.15135
G01 X9.33305 Y5.15135
G01 X9.35271 Y5.15555
G01 X9.35479 Y5.14915
G01 X9.35271 Y5.15555
G01 X9.37107 Y5.16370
G01 X9.38733 Y5.17554
G01 X9.40079 Y5.19047
G01 X9.41085 Y5.20790
G01 X9.41534 Y5.20558
G01 X9.41085 Y5.20790
G01 X9.41704 Y5.22700
G01 X9.41915 Y5.24699
G01 X9.41704 Y5.26700
G01 X9.42192 Y5.26830
G01 X9.41704 Y5.26700
G01 X9.41085 Y5.28608
G01 X9.40076 Y5.30353
G01 X9.38733 Y5.31844
G01 X9.37107 Y5.33027
G01 X9.37442 Y5.33609
G01 X9.37107 Y5.33027
G01 X9.35271 Y5.33845
G01 X9.33307 Y5.34262
G01 X9.31290 Y5.34262
G01 X9.29327 Y5.33843
G01 X9.29119 Y5.34483
G01 X9.29327 Y5.33843
G01 X9.27491 Y5.33027
G01 X9.25865 Y5.31844
G01 X9.24521 Y5.30353
G01 X9.23513 Y5.28610
G01 X9.23063 Y5.28839
G01 X9.23513 Y5.28610
G01 X9.22893 Y5.26698
G01 X9.22682 Y5.24699
G01 X9.26977 Y5.23726
G01 X9.29886 Y5.24186
G01 X9.30046 Y5.23695
G01 X9.30302 Y5.23251
G01 X9.30650 Y5.22865
G01 X9.31064 Y5.22565
G01 X9.31537 Y5.22354
G01 X9.32042 Y5.22247
G01 X9.32555 Y5.22247
G01 X9.33018 Y5.19337
G01 X9.32555 Y5.22247
G01 X9.33061 Y5.22354
G01 X9.33533 Y5.22565
G01 X9.33947 Y5.22865
G01 X9.34295 Y5.23251
G01 X9.34552 Y5.23695
G01 X9.34712 Y5.24186
G01 X9.34765 Y5.24699
G01 X9.34712 Y5.25212
G01 X9.37620 Y5.25671
G01 X9.34712 Y5.25212
G01 X9.34552 Y5.25702
G01 X9.34295 Y5.26146
G01 X9.33947 Y5.26532
G01 X9.33533 Y5.26835
G01 X9.33058 Y5.27043
G01 X9.32555 Y5.27150
G01 X9.32042 Y5.27150
G01 X9.31580 Y5.30061
G01 X9.32042 Y5.27150
G01 X9.31539 Y5.27043
G01 X9.31064 Y5.26835
G01 X9.30650 Y5.26532
G01 X9.30302 Y5.26146
G01 X9.30046 Y5.25702
G01 X9.29886 Y5.25212
G01 X9.29832 Y5.24699
G01 X9.29886 Y5.24186
G04 P0 ( dwell for no time -- G64 should not smooth over this point )
G00 Z2.00000 ( retract )
