( pcb2gcode 2.1.0 )
( Software-independent Gcode )
( This file uses a mill head of 0.80000mm to drill the 2 hole sizes. )
( Hole sizes: [0.8mm] [1mm] )

G94       (Millimeters per minute feed rate.)
G21       (Units == Millimeters.)
G91.1     (Incremental arc distance mode.)
G90       (Absolute coordinates.)
S10000    (RPM spindle speed.)

G01 F25.00000 (Feedrate)
G00 Z10.00000 (Retract)
T1
M5        (Spindle stop.)
G04 P1.00000
(MSG, Change tool bit to drill size 0.80000mm)
M6        (Tool change.)
M0        (Temporary machine stop.)
M3        (Spindle on clockwise.)
G04 P1.00000
G00 Z5.00000

G0 X7.32300 Y5.24700
G1 Z-1.50500 F40.00000
G1 Z5.00000 F40.00000

G0 X9.32300 Y5.24700
G1 Z-1.50500 F40.00000
G1 Z5.00000 F40.00000

G0 X17.66100 Y5.95800
G1 Z-1.50500 F40.00000
G1 Z5.00000 F40.00000

G0 X22.06800 Y8.80300
G1 Z-1.50500 F40.00000
G1 Z5.00000 F40.00000

G0 X24.06800 Y8.80300
G1 Z-1.50500 F40.00000
G1 Z5.00000 F40.00000

G0 X28.17600 Y8.93000
G1 Z-1.50500 F40.00000
G1 Z5.00000 F40.00000

G0 X32.43100 Y7.02500
G1 Z-1.50500 F40.00000
G1 Z5.00000 F40.00000

G0 X34.43100 Y7.02500
G1 Z-1.50500 F40.00000
G1 Z5.00000 F40.00000

G0 X36.43100 Y7.02500
G1 Z-1.50500 F40.00000
G1 Z5.00000 F40.00000

G0 X49.47400 Y9.80600
G1 Z-1.50500 F40.00000
G1 Z5.00000 F40.00000

G0 X42.24800 Y9.94600
G1 Z-1.50500 F40.00000
G1 Z5.00000 F40.00000

G0 X37.29500 Y11.18500
G1 Z-1.50500 F40.00000
G1 Z5.00000 F40.00000

G0 X37.29500 Y13.18500
G1 Z-1.50500 F40.00000
G1 Z5.00000 F40.00000

G0 X37.29500 Y15.18500
G1 Z-1.50500 F40.00000
G1 Z5.00000 F40.00000

G0 X37.29500 Y17.18500
G1 Z-1.50500 F40.00000
G1 Z5.00000 F40.00000

G0 X27.17300 Y27.67500
G1 Z-1.50500 F40.00000
G1 Z5.00000 F40.00000

G0 X25.61100 Y24.64600
G1 Z-1.50500 F40.00000
G1 Z5.00000 F40.00000

G0 X25.61100 Y22.64600
G1 Z-1.50500 F40.00000
G1 Z5.00000 F40.00000

G0 X10.02500 Y17.69300
G1 Z-1.50500 F40.00000
G1 Z5.00000 F40.00000

G0 X8.84700 Y25.47200
G1 Z-1.50500 F40.00000
G1 Z5.00000 F40.00000

G0 X8.84700 Y27.47200
G1 Z-1.50500 F40.00000
G1 Z5.00000 F40.00000

G0 X52.47000 Y23.75100
G1 Z0.18812 F40.00000
G1 F25.00000
G2 X52.47000 Y23.75100 Z-0.00000 I-0.10000 J0.00000
G2 X52.47000 Y23.75100 Z-0.18812 I-0.10000 J0.00000
G2 X52.47000 Y23.75100 Z-0.37625 I-0.10000 J0.00000
G2 X52.47000 Y23.75100 Z-0.56437 I-0.10000 J0.00000
G2 X52.47000 Y23.75100 Z-0.75250 I-0.10000 J0.00000
G2 X52.47000 Y23.75100 Z-0.94062 I-0.10000 J0.00000
G2 X52.47000 Y23.75100 Z-1.12875 I-0.10000 J0.00000
G2 X52.47000 Y23.75100 Z-1.31688 I-0.10000 J0.00000
G2 X52.47000 Y23.75100 Z-1.50500 I-0.10000 J0.00000
G2 X52.47000 Y23.75100 I-0.10000 J0.00000
G1 Z5.00000 F40.00000

G0 X55.01000 Y23.75100
G1 Z0.18812 F40.00000
G1 F25.00000
G2 X55.01000 Y23.75100 Z-0.00000 I-0.10000 J0.00000
G2 X55.01000 Y23.75100 Z-0.18812 I-0.10000 J0.00000
G2 X55.01000 Y23.75100 Z-0.37625 I-0.10000 J0.00000
G2 X55.01000 Y23.75100 Z-0.56437 I-0.10000 J0.00000
G2 X55.01000 Y23.75100 Z-0.75250 I-0.10000 J0.00000
G2 X55.01000 Y23.75100 Z-0.94062 I-0.10000 J0.00000
G2 X55.01000 Y23.75100 Z-1.12875 I-0.10000 J0.00000
G2 X55.01000 Y23.75100 Z-1.31688 I-0.10000 J0.00000
G2 X55.01000 Y23.75100 Z-1.50500 I-0.10000 J0.00000
G2 X55.01000 Y23.75100 I-0.10000 J0.00000
G1 Z5.00000 F40.00000

G00 Z10.000000 ( All done -- retract )

M5      (Spindle off.)
G04 P1.000000
M9      (Coolant off.)
M2      (Program end.)

