( pcb2gcode 2.1.0 )
( Software-independent Gcode )

G94 ( Millimeters per minute feed rate. )
G21 ( Units == Millimeters. )

G90 ( Absolute coordinates. )
G00 S10000 ( RPM spindle speed. )
G64 P0.01016 ( set maximum deviation from commanded toolpath )
G01 F25.00000 ( Feedrate. )


G00 Z10.00000 (Retract to tool change height)
T0
M5      (Spindle stop.)
G04 P1.00000 (Wait for spindle to stop)
(MSG, Change tool bit to cutter diameter 1.50000mm)
M6      (Tool change.)
M0      (Temporary machine stop.)
M3 ( Spindle on clockwise. )
G04 P1.00000 (Wait for spindle to get up to speed)
G04 P0 ( dwell for no time -- G64 should not smooth over this point )
G00 Z5.00000 ( retract )

G00 X2.27497 Y2.27498 ( rapid move to begin. )
G01 Z-0.18750 F40.00000 ( plunge. )
G04 P0 ( dwell for no time -- G64 should not smooth over this point )
G01 F25.00000
G01 X2.27497 Y15.52498
G01 X2.27497 Y17.52498
G01 X2.27497 Y30.77498
G01 X58.77498 Y30.77498
G01 X58.77498 Y17.52498
G01 X58.77498 Y15.52498
G01 X58.77498 Y2.27498
G01 X2.27497 Y2.27498
G01 Z-0.37500 F40.00000 ( plunge. )
G04 P0 ( dwell for no time -- G64 should not smooth over this point )
G01 F25.00000
G01 X2.27497 Y15.52498
G01 X2.27497 Y17.52498
G01 X2.27497 Y30.77498
G01 X58.77498 Y30.77498
G01 X58.77498 Y17.52498
G01 X58.77498 Y15.52498
G01 X58.77498 Y2.27498
G01 X2.27497 Y2.27498
G01 Z-0.56250 F40.00000 ( plunge. )
G04 P0 ( dwell for no time -- G64 should not smooth over this point )
G01 F25.00000
G01 X2.27497 Y15.52498
G01 X2.27497 Y17.52498
G01 X2.27497 Y30.77498
G01 X58.77498 Y30.77498
G01 X58.77498 Y17.52498
G01 X58.77498 Y15.52498
G01 X58.77498 Y2.27498
G01 X2.27497 Y2.27498
G01 Z-0.75000 F40.00000 ( plunge. )
G04 P0 ( dwell for no time -- G64 should not smooth over this point )
G01 F25.00000
G01 X2.27497 Y15.52498
G00 Z-0.60000
G01 X2.27497 Y17.52498
G01 Z-0.75000 F40.00000
G01 F25.00000
G01 X2.27497 Y30.77498
G01 X58.77498 Y30.77498
G01 X58.77498 Y17.52498
G00 Z-0.60000
G01 X58.77498 Y15.52498
G01 Z-0.75000 F40.00000
G01 F25.00000
G01 X58.77498 Y2.27498
G01 X2.27497 Y2.27498
G01 Z-0.93750 F40.00000 ( plunge. )
G04 P0 ( dwell for no time -- G64 should not smooth over this point )
G01 F25.00000
G01 X2.27497 Y15.52498
G00 Z-0.60000
G01 X2.27497 Y17.52498
G01 Z-0.93750 F40.00000
G01 F25.00000
G01 X2.27497 Y30.77498
G01 X58.77498 Y30.77498
G01 X58.77498 Y17.52498
G00 Z-0.60000
G01 X58.77498 Y15.52498
G01 Z-0.93750 F40.00000
G01 F25.00000
G01 X58.77498 Y2.27498
G01 X2.27497 Y2.27498
G01 Z-1.12500 F40.00000 ( plunge. )
G04 P0 ( dwell for no time -- G64 should not smooth over this point )
G01 F25.00000
G01 X2.27497 Y15.52498
G00 Z-0.60000
G01 X2.27497 Y17.52498
G01 Z-1.12500 F40.00000
G01 F25.00000
G01 X2.27497 Y30.77498
G01 X58.77498 Y30.77498
G01 X58.77498 Y17.52498
G00 Z-0.60000
G01 X58.77498 Y15.52498
G01 Z-1.12500 F40.00000
G01 F25.00000
G01 X58.77498 Y2.27498
G01 X2.27497 Y2.27498
G01 Z-1.31250 F40.00000 ( plunge. )
G04 P0 ( dwell for no time -- G64 should not smooth over this point )
G01 F25.00000
G01 X2.27497 Y15.52498
G00 Z-0.60000
G01 X2.27497 Y17.52498
G01 Z-1.31250 F40.00000
G01 F25.00000
G01 X2.27497 Y30.77498
G01 X58.77498 Y30.77498
G01 X58.77498 Y17.52498
G00 Z-0.60000
G01 X58.77498 Y15.52498
G01 Z-1.31250 F40.00000
G01 F25.00000
G01 X58.77498 Y2.27498
G01 X2.27497 Y2.27498
G01 Z-1.50000 F40.00000 ( plunge. )
G04 P0 ( dwell for no time -- G64 should not smooth over this point )
G01 F25.00000
G01 X2.27497 Y15.52498
G00 Z-0.60000
G01 X2.27497 Y17.52498
G01 Z-1.50000 F40.00000
G01 F25.00000
G01 X2.27497 Y30.77498
G01 X58.77498 Y30.77498
G01 X58.77498 Y17.52498
G00 Z-0.60000
G01 X58.77498 Y15.52498
G01 Z-1.50000 F40.00000
G01 F25.00000
G01 X58.77498 Y2.27498
G01 X2.27497 Y2.27498
G04 P0 ( dwell for no time -- G64 should not smooth over this point )
G00 Z5.00000 ( retract )

G00 X-0.00001 Y0.00001 ( rapid move to begin. )
G01 Z-0.18750 F40.00000 ( plunge. )
G04 P0 ( dwell for no time -- G64 should not smooth over this point )
G01 F25.00000
G01 X-0.00001 Y15.52499
G01 X-0.00001 Y17.52499
G01 X-0.00001 Y33.04998
G01 X61.04999 Y33.04998
G01 X61.04999 Y17.52499
G01 X61.04999 Y15.52499
G01 X61.04999 Y0.00001
G01 X-0.00001 Y0.00001
G01 Z-0.37500 F40.00000 ( plunge. )
G04 P0 ( dwell for no time -- G64 should not smooth over this point )
G01 F25.00000
G01 X-0.00001 Y15.52499
G01 X-0.00001 Y17.52499
G01 X-0.00001 Y33.04998
G01 X61.04999 Y33.04998
G01 X61.04999 Y17.52499
G01 X61.04999 Y15.52499
G01 X61.04999 Y0.00001
G01 X-0.00001 Y0.00001
G01 Z-0.56250 F40.00000 ( plunge. )
G04 P0 ( dwell for no time -- G64 should not smooth over this point )
G01 F25.00000
G01 X-0.00001 Y15.52499
G01 X-0.00001 Y17.52499
G01 X-0.00001 Y33.04998
G01 X61.04999 Y33.04998
G01 X61.04999 Y17.52499
G01 X61.04999 Y15.52499
G01 X61.04999 Y0.00001
G01 X-0.00001 Y0.00001
G01 Z-0.75000 F40.00000 ( plunge. )
G04 P0 ( dwell for no time -- G64 should not smooth over this point )
G01 F25.00000
G01 X-0.00001 Y15.52499
G00 Z-0.60000
G01 X-0.00001 Y17.52499
G01 Z-0.75000 F40.00000
G01 F25.00000
G01 X-0.00001 Y33.04998
G01 X61.04999 Y33.04998
G01 X61.04999 Y17.52499
G00 Z-0.60000
G01 X61.04999 Y15.52499
G01 Z-0.75000 F40.00000
G01 F25.00000
G01 X61.04999 Y0.00001
G01 X-0.00001 Y0.00001
G01 Z-0.93750 F40.00000 ( plunge. )
G04 P0 ( dwell for no time -- G64 should not smooth over this point )
G01 F25.00000
G01 X-0.00001 Y15.52499
G00 Z-0.60000
G01 X-0.00001 Y17.52499
G01 Z-0.93750 F40.00000
G01 F25.00000
G01 X-0.00001 Y33.04998
G01 X61.04999 Y33.04998
G01 X61.04999 Y17.52499
G00 Z-0.60000
G01 X61.04999 Y15.52499
G01 Z-0.93750 F40.00000
G01 F25.00000
G01 X61.04999 Y0.00001
G01 X-0.00001 Y0.00001
G01 Z-1.12500 F40.00000 ( plunge. )
G04 P0 ( dwell for no time -- G64 should not smooth over this point )
G01 F25.00000
G01 X-0.00001 Y15.52499
G00 Z-0.60000
G01 X-0.00001 Y17.52499
G01 Z-1.12500 F40.00000
G01 F25.00000
G01 X-0.00001 Y33.04998
G01 X61.04999 Y33.04998
G01 X61.04999 Y17.52499
G00 Z-0.60000
G01 X61.04999 Y15.52499
G01 Z-1.12500 F40.00000
G01 F25.00000
G01 X61.04999 Y0.00001
G01 X-0.00001 Y0.00001
G01 Z-1.31250 F40.00000 ( plunge. )
G04 P0 ( dwell for no time -- G64 should not smooth over this point )
G01 F25.00000
G01 X-0.00001 Y15.52499
G00 Z-0.60000
G01 X-0.00001 Y17.52499
G01 Z-1.31250 F40.00000
G01 F25.00000
G01 X-0.00001 Y33.04998
G01 X61.04999 Y33.04998
G01 X61.04999 Y17.52499
G00 Z-0.60000
G01 X61.04999 Y15.52499
G01 Z-1.31250 F40.00000
G01 F25.00000
G01 X61.04999 Y0.00001
G01 X-0.00001 Y0.00001
G01 Z-1.50000 F40.00000 ( plunge. )
G04 P0 ( dwell for no time -- G64 should not smooth over this point )
G01 F25.00000
G01 X-0.00001 Y15.52499
G00 Z-0.60000
G01 X-0.00001 Y17.52499
G01 Z-1.50000 F40.00000
G01 F25.00000
G01 X-0.00001 Y33.04998
G01 X61.04999 Y33.04998
G01 X61.04999 Y17.52499
G00 Z-0.60000
G01 X61.04999 Y15.52499
G01 Z-1.50000 F40.00000
G01 F25.00000
G01 X61.04999 Y0.00001
G01 X-0.00001 Y0.00001

G04 P0 ( dwell for no time -- G64 should not smooth over this point )
G00 Z10.000000 ( retract )

M5 ( Spindle off. )
G04 P1.000000
M9 ( Coolant off. )
M2 ( Program end. )

