(G-CODE GENERATED BY FLATCAM v8.994 - www.flatcam.org - Version Date: 2020/11/7)

(Name: Controller-PTH.drl_cnc)
(Type: G-code from Geometry)
(Units: MM)

(Created on Аўторак, 01 снежня 2020 at 20:27)

(This preprocessor is the default preprocessor used by FlatCAM.)
(It is made to work with MACH3 compatible motion controllers.)


(TOOLS DIAMETER: )
(Tool: 1 -> Dia: 0.8)
(Tool: 2 -> Dia: 1.0)

(FEEDRATE Z: )
(Tool: 1 -> Feedrate: 35.0)
(Tool: 2 -> Feedrate: 35.0)

(FEEDRATE RAPIDS: )
(Tool: 1 -> Feedrate Rapids: 1500)
(Tool: 2 -> Feedrate Rapids: 1500)

(Z_CUT: )
(Tool: 1 -> Z_Cut: -1.4999999999999998)
(Tool: 2 -> Z_Cut: -1.4999999999999998)

(Tools Offset: )
(Tool: 1 -> Offset Z: 0.0)
(Tool: 2 -> Offset Z: 0.0)

(Z_MOVE: )
(Tool: 1 -> Z_Move: 2)
(Tool: 2 -> Z_Move: 2)

(Z Toolchange: 15 mm)
(X,Y Toolchange: 0.0000, 0.0000 mm)
(Z Start: None mm)
(Z End: 0.5 mm)
(X,Y End: None mm)
(Steps per circle: 64)
(Preprocessor Excellon: default)

(X range:    5.0370 ...   43.3120  mm)
(Y range:    2.7130 ...   37.8000  mm)

(Spindle Speed: 10000 RPM)
G21
G90
G94

G01 F35.00

M5
G00 Z15.0000
T1
G00 X0.0000 Y0.0000                
M6
(MSG, Change to Tool Dia = 0.8000 ||| Total drills for tool T1 = 35)
M0
G00 Z15.0000

G01 F35.00
M03 S10000
G00 X7.0230 Y24.4600
G01 Z-1.5000
G01 Z0
G00 Z2.0000
G00 X11.9230 Y24.4600
G01 Z-1.5000
G01 Z0
G00 Z2.0000
G00 X6.1590 Y13.2080
G01 Z-1.5000
G01 Z0
G00 Z2.0000
G00 X6.1590 Y10.6680
G01 Z-1.5000
G01 Z0
G00 Z2.0000
G00 X6.1590 Y8.1280
G01 Z-1.5000
G01 Z0
G00 Z2.0000
G00 X6.1590 Y5.5880
G01 Z-1.5000
G01 Z0
G00 Z2.0000
G00 X13.6400 Y5.5830
G01 Z-1.5000
G01 Z0
G00 Z2.0000
G00 X13.6400 Y8.1230
G01 Z-1.5000
G01 Z0
G00 Z2.0000
G00 X13.6400 Y10.6630
G01 Z-1.5000
G01 Z0
G00 Z2.0000
G00 X13.6400 Y13.2030
G01 Z-1.5000
G01 Z0
G00 Z2.0000
G00 X27.0130 Y15.3160
G01 Z-1.5000
G01 Z0
G00 Z2.0000
G00 X29.5530 Y15.3160
G01 Z-1.5000
G01 Z0
G00 Z2.0000
G00 X29.3240 Y10.4140
G01 Z-1.5000
G01 Z0
G00 Z2.0000
G00 X29.3240 Y7.8740
G01 Z-1.5000
G01 Z0
G00 Z2.0000
G00 X36.5380 Y3.2130
G01 Z-1.5000
G01 Z0
G00 Z2.0000
G00 X39.0780 Y3.2130
G01 Z-1.5000
G01 Z0
G00 Z2.0000
G00 X41.6180 Y3.2130
G01 Z-1.5000
G01 Z0
G00 Z2.0000
G00 X35.1920 Y19.3170
G01 Z-1.5000
G01 Z0
G00 Z2.0000
G00 X37.7320 Y19.3170
G01 Z-1.5000
G01 Z0
G00 Z2.0000
G00 X40.2720 Y19.3170
G01 Z-1.5000
G01 Z0
G00 Z2.0000
G00 X42.8120 Y19.3170
G01 Z-1.5000
G01 Z0
G00 Z2.0000
G00 X42.4940 Y24.2140
G01 Z-1.5000
G01 Z0
G00 Z2.0000
G00 X42.4940 Y26.7540
G01 Z-1.5000
G01 Z0
G00 Z2.0000
G00 X42.4940 Y29.2940
G01 Z-1.5000
G01 Z0
G00 Z2.0000
G00 X42.4940 Y31.8340
G01 Z-1.5000
G01 Z0
G00 Z2.0000
G00 X37.6170 Y35.8650
G01 Z-1.5000
G01 Z0
G00 Z2.0000
G00 X35.0770 Y35.8650
G01 Z-1.5000
G01 Z0
G00 Z2.0000
G00 X32.5370 Y35.8650
G01 Z-1.5000
G01 Z0
G00 Z2.0000
G00 X24.4980 Y37.2690
G01 Z-1.5000
G01 Z0
G00 Z2.0000
G00 X21.9580 Y37.2690
G01 Z-1.5000
G01 Z0
G00 Z2.0000
G00 X19.4180 Y37.2690
G01 Z-1.5000
G01 Z0
G00 Z2.0000
G00 X16.8780 Y37.2690
G01 Z-1.5000
G01 Z0
G00 Z2.0000
G00 X10.6170 Y37.3000
G01 Z-1.5000
G01 Z0
G00 Z2.0000
G00 X8.0770 Y37.3000
G01 Z-1.5000
G01 Z0
G00 Z2.0000
G00 X5.5370 Y37.3000
G01 Z-1.5000
G01 Z0
G00 Z2.0000
M05
G00 Z0.50


